P3
156 240
255
255
255
255
255
255
255
255
255
255
255
255
255
255
255
255
255
255
255
255
255
255
255
255
255
255
255
255
255
255
255
255
255
255
255
255
255
255
255
255
255
255
255
255
255
255
255
255
255
255
255
255
255
255
255
255
255
255
255
255
255
255
255
255
255
255
255
255
255
255
255
255
255
255
255
255
255
255
255
255
255
255
255
255
255
255
255
255
255
255
255
255
255
255
255
255
255
255
255
255
255
255
255
255
255
255
255
255
255
255
255
255
255
255
255
255
255
255
255
255
255
255
255
255
255
255
255
255
255
255
255
255
255
255
255
255
255
255
255
255
255
255
255
255
255
255
255
255
255
255
255
255
255
255
255
255
255
255
255
255
255
255
255
255
255
255
255
255
255
255
255
255
255
255
255
255
255
255
255
255
255
255
255
255
255
255
255
255
255
255
255
255
255
255
255
255
255
255
255
255
255
255
255
255
255
255
255
255
255
255
255
255
255
255
255
255
255
255
255
255
255
255
255
255
255
255
255
255
255
255
255
255
255
255
255
255
255
255
255
255
255
255
255
255
255
255
255
255
255
255
255
255
255
255
255
255
255
255
255
255
255
255
254
254
254
254
254
254
254
254
254
254
254
254
254
254
254
255
255
255
255
255
255
255
255
255
255
255
255
255
255
255
255
255
255
255
255
255
255
255
255
255
255
255
255
255
255
255
255
255
255
255
255
254
254
254
254
254
254
254
254
254
255
255
255
255
255
255
255
255
255
255
255
255
255
255
255
255
255
255
255
255
255
254
254
254
254
254
254
255
255
255
255
255
255
255
255
255
255
255
255
255
255
255
254
254
254
254
254
254
254
254
254
254
254
254
255
255
255
255
255
255
255
255
255
255
255
255
255
255
255
255
255
255
255
255
255
255
255
255
255
255
255
255
255
255
255
255
255
255
255
255
255
255
255
255
255
255
255
255
255
255
255
255
255
255
255
255
255
255
255
255
255
255
255
255
255
255
255
255
255
255
255
255
255
255
255
255
255
255
255
255
255
255
255
255
255
255
255
255
255
255
255
255
255
255
255
255
255
255
255
255
255
255
255
255
255
255
255
255
255
255
255
255
255
255
255
255
255
255
255
255
255
255
255
255
255
255
255
255
255
255
255
255
255
255
255
255
255
255
255
255
255
255
255
255
255
255
255
255
255
255
255
255
255
255
255
255
255
255
255
255
255
255
255
255
255
255
255
255
255
255
255
255
255
255
255
255
255
255
255
255
255
255
255
255
255
255
255
255
255
255
255
255
255
255
255
255
255
255
255
255
255
255
255
255
255
255
255
255
255
255
255
255
255
255
255
255
255
255
255
255
255
255
255
255
255
255
255
255
255
255
255
255
255
255
255
255
255
255
255
255
255
255
255
255
255
255
255
255
255
255
255
255
255
255
255
255
255
255
255
255
255
255
255
255
255
255
255
255
255
255
255
255
255
255
255
255
255
255
255
255
255
255
255
255
255
255
255
255
255
255
255
255
255
255
255
255
255
255
255
255
255
255
255
255
255
255
255
255
255
255
255
255
255
255
255
255
255
255
255
255
255
255
255
255
255
255
255
255
255
255
255
255
255
255
255
255
255
255
255
255
255
255
255
255
255
255
255
255
255
255
255
255
255
255
255
254
254
254
255
255
255
254
254
254
254
254
254
255
255
255
254
254
254
254
254
254
255
255
255
255
255
255
255
255
255
255
255
255
255
255
255
255
255
255
255
255
255
255
255
255
255
255
255
255
255
255
254
254
254
255
255
255
254
254
254
254
254
254
255
255
255
255
255
255
255
255
255
255
255
255
255
255
255
255
255
255
255
255
255
255
255
255
254
254
254
254
254
254
255
255
255
255
255
255
255
255
255
255
255
255
255
255
255
254
254
254
254
254
254
255
255
255
255
255
255
255
255
255
255
255
255
255
255
255
255
255
255
255
255
255
255
255
255
255
255
255
255
255
255
255
255
255
255
255
255
255
255
255
255
255
255
255
255
255
255
255
255
255
255
255
255
255
255
255
255
255
255
255
255
255
255
255
255
255
255
255
255
255
255
255
255
255
255
255
255
255
255
255
255
255
255
255
255
255
255
255
255
255
255
255
255
255
255
255
255
255
255
255
255
255
255
255
255
255
255
255
255
255
255
255
255
255
255
255
255
255
255
255
255
255
255
255
255
255
255
255
255
255
255
255
255
255
255
255
255
255
255
255
255
255
255
255
255
255
255
255
255
255
255
255
255
255
255
255
255
255
255
255
255
255
255
255
255
255
255
255
255
255
255
255
255
255
255
255
255
255
255
255
255
255
255
255
255
255
255
255
255
255
255
255
255
255
255
255
255
255
255
255
255
255
255
255
255
255
255
255
255
255
255
255
255
255
255
255
255
255
255
255
255
255
255
255
255
255
255
255
255
255
255
255
255
255
255
255
255
255
255
255
255
255
255
255
255
255
255
255
255
255
255
255
255
255
255
255
255
255
255
255
255
255
255
255
255
255
255
255
255
255
255
255
255
255
255
255
255
255
255
255
255
255
255
255
255
255
255
255
255
255
255
255
255
255
255
255
255
255
255
255
255
255
255
255
255
255
255
255
255
255
255
255
255
255
255
255
255
255
255
255
255
255
255
255
255
255
255
255
255
255
255
255
255
255
255
255
255
255
255
255
255
255
255
255
255
255
255
255
255
255
255
255
255
255
255
254
254
254
254
254
254
255
255
255
254
254
254
254
254
254
254
254
254
255
255
255
254
254
254
255
255
255
255
255
255
255
255
255
255
255
255
255
255
255
255
255
255
255
255
255
255
255
255
255
255
255
255
255
255
254
254
254
255
255
255
254
254
254
254
254
254
255
255
255
255
255
255
255
255
255
255
255
255
255
255
255
255
255
255
255
255
255
254
254
254
255
255
255
254
254
254
255
255
255
255
255
255
255
255
255
255
255
255
255
255
255
254
254
254
255
255
255
255
255
255
255
255
255
255
255
255
255
255
255
255
255
255
255
255
255
255
255
255
255
255
255
255
255
255
255
255
255
255
255
255
255
255
255
255
255
255
255
255
255
255
255
255
255
255
255
255
255
255
255
255
255
255
255
255
255
255
255
255
255
255
255
255
255
255
255
255
255
255
255
255
255
255
255
255
255
255
255
255
255
255
255
255
255
255
255
255
255
255
255
255
255
255
255
255
255
255
255
255
255
255
255
255
255
255
255
255
255
255
255
255
255
255
255
255
255
255
255
255
255
255
255
255
255
255
255
255
255
255
255
255
255
255
255
255
255
255
255
255
255
255
255
255
255
255
255
255
255
255
255
255
255
255
255
255
255
255
255
255
255
255
255
255
255
255
255
255
255
255
255
255
255
255
255
255
255
255
255
255
255
255
255
255
255
255
255
255
255
255
255
255
255
255
255
255
255
255
255
255
255
255
255
255
255
255
255
255
255
255
255
255
255
255
255
255
255
255
255
255
255
255
255
255
255
255
255
255
255
255
255
255
255
255
255
255
255
255
255
255
255
255
255
255
255
255
255
255
255
255
255
255
255
255
255
255
255
255
255
255
255
255
255
255
255
255
255
255
255
255
255
255
255
255
255
255
255
255
255
255
255
255
255
255
255
255
255
255
255
255
255
255
255
255
255
255
255
255
255
255
255
255
255
255
255
255
255
255
255
255
255
255
255
255
255
255
255
255
255
255
255
255
255
255
255
255
255
255
255
255
255
255
255
255
255
255
255
255
255
255
255
255
255
255
253
255
254
254
254
254
254
254
254
255
255
255
255
255
255
255
255
255
254
254
254
254
254
254
254
254
254
254
254
254
254
254
254
255
255
255
255
255
255
255
255
255
255
255
255
255
255
255
255
255
255
255
255
255
255
255
255
255
255
255
254
254
254
254
254
254
255
255
255
254
254
254
254
254
254
255
255
255
255
255
255
255
255
255
255
255
255
255
255
255
255
255
255
255
255
255
254
254
254
254
254
254
254
254
254
255
255
255
255
255
255
255
255
255
255
255
255
255
255
255
255
255
255
255
255
255
255
255
255
255
255
255
255
255
255
255
255
255
255
255
255
255
255
255
255
255
255
255
255
255
255
255
255
255
255
255
255
255
255
255
255
255
255
255
255
255
255
255
255
255
255
255
255
255
255
255
255
255
255
255
255
255
255
255
255
255
255
255
255
255
255
255
255
255
255
255
255
255
255
255
255
255
255
255
255
255
255
255
255
255
255
255
255
255
255
255
255
255
255
255
255
255
255
255
255
255
255
255
255
255
255
255
255
255
255
255
255
255
255
255
255
255
255
255
255
255
255
255
255
255
255
255
255
255
255
255
255
255
255
255
255
255
255
255
255
255
255
255
255
255
255
255
255
255
255
255
255
255
255
255
255
255
255
255
255
255
255
255
255
255
255
255
255
255
255
255
255
255
255
255
255
255
255
255
255
255
255
255
255
255
255
255
255
255
255
255
255
255
255
255
255
255
255
255
255
255
255
255
255
255
255
255
255
255
255
255
255
255
255
255
255
255
255
255
255
255
255
255
255
255
255
255
255
255
255
255
255
255
255
255
255
255
255
255
255
255
255
255
255
255
255
255
255
255
255
255
255
255
255
255
255
255
255
255
255
255
255
255
255
255
255
255
255
255
255
255
255
255
255
255
255
255
255
255
255
255
255
255
255
255
255
255
255
255
255
255
255
255
255
255
255
255
255
255
255
255
255
255
255
255
255
255
255
255
255
255
255
255
255
255
255
255
255
255
255
255
255
255
255
255
255
255
255
255
255
255
255
255
255
255
255
255
255
255
255
255
255
255
253
255
254
254
255
254
255
255
255
255
255
255
255
255
255
255
255
255
255
255
255
254
254
254
254
254
254
255
255
255
254
254
254
255
255
255
255
255
255
255
255
255
255
255
255
255
255
255
255
255
255
255
255
255
255
255
255
255
255
255
255
255
255
255
255
255
255
255
255
255
255
255
254
254
254
254
254
254
255
255
255
255
255
255
255
255
255
255
255
255
255
255
255
255
255
255
255
255
255
255
255
255
254
254
254
254
254
254
255
255
255
255
255
255
255
255
255
255
255
255
255
255
255
255
255
255
255
255
255
255
255
255
255
255
255
255
255
255
255
255
255
255
255
255
255
255
255
255
255
255
255
255
255
255
255
255
255
255
255
255
255
255
255
255
255
255
255
255
255
255
255
255
255
255
255
255
255
255
255
255
255
255
255
255
255
255
255
255
255
255
255
255
255
255
255
255
255
255
255
255
255
255
255
255
255
255
255
255
255
255
255
255
255
255
255
255
255
255
255
255
255
255
255
255
255
255
255
255
255
255
255
255
255
255
255
255
255
255
255
255
255
255
255
255
255
255
255
255
255
255
255
255
255
255
255
255
255
255
255
255
255
255
255
255
255
255
255
255
255
255
255
255
255
255
255
255
255
255
255
255
255
255
255
255
255
255
255
255
255
255
255
255
255
255
255
255
255
255
255
255
255
255
255
255
255
255
255
255
255
255
255
255
255
255
255
255
255
255
255
255
255
255
255
255
255
255
255
255
255
255
255
255
255
255
255
255
255
255
255
255
255
255
255
255
255
255
255
255
255
255
255
255
255
255
255
255
255
255
255
255
255
255
255
255
255
255
255
255
255
255
255
255
255
255
255
255
255
255
255
255
255
255
255
255
255
255
255
255
255
255
255
255
255
255
255
255
255
255
255
255
255
255
255
255
255
255
255
255
255
255
255
255
255
255
255
255
255
255
255
255
255
255
255
255
255
255
255
255
255
255
255
255
255
255
255
255
255
255
255
255
255
255
255
255
255
255
255
255
255
255
255
255
255
255
255
255
255
255
255
255
255
255
251
255
254
252
255
254
252
255
254
254
254
254
254
254
254
255
255
255
255
255
255
255
255
255
255
255
255
255
255
255
254
254
254
254
254
254
255
255
255
255
255
255
255
255
255
255
255
255
255
255
255
255
255
255
255
255
255
255
255
255
255
255
255
255
255
255
255
255
255
255
255
255
255
255
255
255
255
255
255
255
255
254
254
254
254
254
254
254
254
254
255
255
255
255
255
255
255
255
255
255
255
255
255
255
255
255
255
255
255
255
255
254
254
254
254
254
254
255
255
255
255
255
255
255
255
255
255
255
255
255
255
255
255
255
255
255
255
255
255
255
255
255
255
255
255
255
255
255
255
255
255
255
255
255
255
255
255
255
255
255
255
255
255
255
255
255
255
255
255
255
255
255
255
255
255
255
255
255
255
255
255
255
255
255
255
255
255
255
255
255
255
255
255
255
255
255
255
255
255
255
255
255
255
255
255
255
255
255
255
255
255
255
255
255
255
255
255
255
255
255
255
255
255
255
255
255
255
255
255
255
255
255
255
255
255
255
255
255
255
255
255
255
255
255
255
255
255
255
255
255
255
255
255
255
255
255
255
255
255
255
255
255
255
255
255
255
255
255
255
255
255
255
255
255
255
255
255
255
255
255
255
255
255
255
255
255
255
255
255
255
255
255
255
255
255
255
255
255
255
255
255
255
255
255
255
255
255
255
255
255
255
255
255
255
255
255
255
255
255
255
255
255
255
255
255
255
255
255
255
255
255
255
255
255
255
255
255
255
255
255
255
255
255
255
255
255
255
255
255
255
255
255
255
255
255
255
255
255
255
255
255
255
255
255
255
255
255
255
255
255
255
255
255
255
255
255
255
255
255
255
255
255
255
255
255
255
255
255
255
255
255
255
255
255
255
255
255
255
255
255
255
255
255
255
255
255
255
255
255
255
255
255
255
255
255
255
255
255
255
255
255
255
255
255
255
255
255
255
255
255
255
255
255
255
255
255
255
255
255
255
255
255
255
255
255
255
255
255
255
255
255
255
255
255
255
255
255
255
255
255
255
255
255
255
255
255
255
255
252
255
254
252
255
254
254
255
255
255
255
255
254
254
254
254
254
254
255
255
255
255
255
255
255
255
255
255
255
255
255
255
255
255
255
255
255
255
255
255
255
255
255
255
255
255
255
255
255
255
255
255
255
255
255
255
255
255
255
255
255
255
255
254
254
254
255
255
255
255
255
255
255
255
255
255
255
255
255
255
255
255
255
255
254
254
254
254
254
254
255
255
255
255
255
255
255
255
255
255
255
255
255
255
255
255
255
255
255
255
255
255
255
255
254
254
254
255
255
255
255
255
255
255
255
255
255
255
255
255
255
255
255
255
255
255
255
255
255
255
255
255
255
255
255
255
255
255
255
255
255
255
255
255
255
255
255
255
255
255
255
255
255
255
255
255
255
255
255
255
255
255
255
255
255
255
255
255
255
255
255
255
255
255
255
255
255
255
255
255
255
255
255
255
255
255
255
255
255
255
255
255
255
255
255
255
255
255
255
255
255
255
255
255
255
255
255
255
255
255
255
255
255
255
255
255
255
255
255
255
255
255
255
255
255
255
255
255
255
255
255
255
255
255
255
255
255
255
255
255
255
255
255
255
255
255
255
255
255
255
255
255
255
255
255
255
255
255
255
255
255
255
255
255
255
255
255
255
255
255
255
255
255
255
255
255
255
255
255
255
255
255
255
255
255
255
255
255
255
255
255
255
255
255
255
255
255
255
255
255
255
255
255
255
255
255
255
255
255
255
255
255
255
255
255
255
255
255
255
255
255
255
255
255
255
255
255
255
255
255
255
255
255
255
255
255
255
255
255
255
255
255
255
255
255
255
255
255
255
255
255
255
255
255
255
255
255
255
255
255
255
255
255
255
255
255
255
255
255
255
255
255
255
255
255
255
255
255
255
255
255
255
255
255
255
255
255
255
255
255
255
255
255
255
255
255
255
255
255
255
255
255
255
255
255
255
255
255
255
255
255
255
255
255
255
255
255
255
255
255
255
255
255
255
255
255
255
255
255
255
255
255
255
255
255
255
255
255
255
255
255
255
255
255
255
255
255
255
255
255
255
255
255
255
255
253
255
254
252
255
254
255
255
255
253
255
255
254
255
255
254
254
254
255
255
255
254
254
254
255
255
255
255
255
255
255
255
255
255
255
255
255
255
255
255
255
255
255
255
255
255
255
255
255
255
255
255
255
255
255
255
255
255
255
255
255
255
255
255
255
255
254
254
254
255
255
255
255
255
255
255
255
255
255
255
255
255
255
255
255
255
255
255
255
255
254
254
254
254
254
254
255
255
255
255
255
255
255
255
255
255
255
255
255
255
255
255
255
255
254
254
254
254
254
254
255
255
255
255
255
255
255
255
255
255
255
255
255
255
255
255
255
255
255
255
255
255
255
255
255
255
255
255
255
255
255
255
255
255
255
255
255
255
255
255
255
255
255
255
255
255
255
255
255
255
255
255
255
255
255
255
255
255
255
255
255
255
255
255
255
255
255
255
255
255
255
255
255
255
255
255
255
255
255
255
255
255
255
255
255
255
255
255
255
255
255
255
255
255
255
255
255
255
255
255
255
255
255
255
255
255
255
255
255
255
255
255
255
255
255
255
255
255
255
255
255
255
255
255
255
255
255
255
255
255
255
255
255
255
255
255
255
255
255
255
255
255
255
255
255
255
255
255
255
255
255
255
255
255
255
255
255
255
255
255
255
255
255
255
255
255
255
255
255
255
255
255
255
255
255
255
255
255
255
255
255
255
255
255
255
255
255
255
255
255
255
255
255
255
255
255
255
255
255
255
255
255
255
255
255
255
255
255
255
255
255
255
255
255
255
255
255
255
255
255
255
255
255
255
255
255
255
255
255
255
255
255
255
255
255
255
255
255
255
255
255
255
255
255
255
255
255
255
255
255
255
255
255
255
255
255
255
255
255
255
255
255
255
255
255
255
255
255
255
255
255
255
255
255
255
255
255
255
255
255
255
255
255
255
255
255
255
255
255
255
255
255
255
255
255
255
255
255
255
255
255
255
255
255
255
255
255
255
255
255
255
255
255
255
255
255
255
255
255
255
255
255
255
255
255
255
255
255
255
255
255
255
255
255
255
255
255
255
255
255
255
255
254
254
254
253
255
254
253
255
254
253
255
254
252
255
255
253
255
255
254
255
255
255
255
255
254
254
254
254
254
254
254
254
254
255
255
255
255
255
255
255
255
255
255
255
255
255
255
255
255
255
255
255
255
255
255
255
255
255
255
255
255
255
255
255
255
255
255
255
255
255
255
255
255
255
255
255
255
255
255
255
255
255
255
255
255
255
255
255
255
255
255
255
255
255
255
255
255
255
255
254
254
254
254
254
254
255
255
255
254
254
254
255
255
255
255
255
255
255
255
255
255
255
255
255
255
255
255
255
255
255
255
255
255
255
255
255
255
255
255
255
255
255
255
255
255
255
255
255
255
255
255
255
255
255
255
255
255
255
255
255
255
255
255
255
255
255
255
255
255
255
255
255
255
255
255
255
255
255
255
255
255
255
255
255
255
255
255
255
255
255
255
255
255
255
255
255
255
255
255
255
255
255
255
255
255
255
255
255
255
255
255
255
255
255
255
255
255
255
255
255
255
255
255
255
255
255
255
255
255
255
255
255
255
255
255
255
255
255
255
255
255
255
255
255
255
255
255
255
255
255
255
255
255
255
255
255
255
255
255
255
255
255
255
255
255
255
255
255
255
255
255
255
255
255
255
255
255
255
255
255
255
255
255
255
255
255
255
255
255
255
255
255
255
255
255
255
255
255
255
255
255
255
255
255
255
255
255
255
255
255
255
255
255
255
255
255
255
255
255
255
255
255
255
255
255
255
255
255
255
255
255
255
255
255
255
255
255
255
255
255
255
255
255
255
255
255
255
255
255
255
255
255
255
255
255
255
255
255
255
255
255
255
255
255
255
255
255
255
255
255
255
255
255
255
255
255
255
255
255
255
255
255
255
255
255
255
255
255
255
255
255
255
255
255
255
255
255
255
255
255
255
255
255
255
255
255
255
255
255
255
255
255
255
255
255
255
255
255
255
255
255
255
255
255
255
255
255
255
255
255
255
255
255
255
255
255
255
255
255
255
255
255
255
255
255
255
255
255
255
255
255
255
255
255
255
255
255
255
255
255
255
255
255
255
255
255
255
255
254
254
254
254
254
254
255
255
255
253
255
254
253
255
254
254
255
255
255
255
255
255
255
255
255
255
255
255
255
255
254
254
254
254
254
254
255
255
255
255
255
255
255
255
255
255
255
255
255
255
255
255
255
255
255
255
255
255
255
255
255
255
255
255
255
255
255
255
255
255
255
255
255
255
255
255
255
255
255
255
255
255
255
255
255
255
255
255
255
255
255
255
255
255
255
255
255
255
255
255
255
255
254
254
254
254
254
254
254
254
254
255
255
255
255
255
255
255
255
255
255
255
255
255
255
255
255
255
255
255
255
255
255
255
255
255
255
255
255
255
255
255
255
255
255
255
255
255
255
255
255
255
255
255
255
255
255
255
255
255
255
255
255
255
255
255
255
255
255
255
255
255
255
255
255
255
255
255
255
255
255
255
255
255
255
255
255
255
255
255
255
255
255
255
255
255
255
255
255
255
255
255
255
255
255
255
255
255
255
255
255
255
255
255
255
255
255
255
255
255
255
255
255
255
255
255
255
255
255
255
255
255
255
255
255
255
255
255
255
255
255
255
255
255
255
255
255
255
255
255
255
255
255
255
255
255
255
255
255
255
255
255
255
255
255
255
255
255
255
255
255
255
255
255
255
255
255
255
255
255
255
255
255
255
255
255
255
255
255
255
255
255
255
255
255
255
255
255
255
255
255
255
255
255
255
255
255
255
255
255
255
255
255
255
255
255
255
255
255
255
255
255
255
255
255
255
255
255
255
255
255
255
255
255
255
255
255
255
255
255
255
255
255
255
255
255
255
255
255
255
255
255
255
255
255
255
255
255
255
255
255
255
255
255
255
255
255
255
255
255
255
255
255
255
255
255
255
255
255
255
255
255
255
255
255
255
255
255
255
255
255
255
255
255
255
255
255
255
255
255
255
255
255
255
255
255
255
255
255
255
255
255
255
255
255
255
255
255
255
255
255
255
255
255
255
255
255
255
255
255
255
255
255
255
255
255
255
255
255
255
255
255
255
255
255
255
255
255
255
255
255
255
255
255
255
255
255
255
255
255
255
255
255
253
254
255
253
254
255
253
254
254
254
254
254
254
254
254
254
254
254
254
254
255
255
255
255
255
255
255
255
255
255
255
255
255
255
255
255
254
255
254
254
254
254
254
254
255
255
255
255
255
255
255
255
255
255
255
255
255
255
255
255
255
255
255
255
255
254
254
254
254
254
254
254
254
254
255
255
255
255
255
255
255
255
255
255
255
255
255
255
255
255
255
255
254
254
254
255
255
255
255
255
255
255
255
255
255
255
255
255
255
255
254
254
254
254
254
254
254
254
254
254
254
254
255
255
255
255
255
255
255
255
255
255
255
255
255
255
255
255
255
255
255
255
255
255
255
255
255
255
255
255
255
255
255
255
255
255
255
255
255
255
255
255
255
255
255
255
255
255
255
255
255
255
255
255
255
255
255
255
255
255
255
255
255
255
255
255
255
255
255
255
255
255
255
255
255
255
255
255
255
255
255
255
255
255
255
255
255
255
255
255
255
255
255
255
255
255
255
255
255
255
255
255
255
255
255
255
255
255
255
255
255
255
255
255
255
255
255
255
255
255
255
255
255
255
255
255
255
255
255
255
255
255
255
255
255
255
255
255
255
255
255
255
255
255
255
255
255
255
255
255
255
255
255
255
255
255
255
255
255
255
255
255
255
255
255
255
255
255
255
255
255
255
255
255
255
255
255
255
255
255
255
255
255
255
255
255
255
255
255
255
255
255
255
255
255
255
255
255
255
255
255
255
255
255
255
255
255
255
255
255
255
255
255
255
255
255
255
255
255
255
255
255
255
255
255
255
255
255
255
255
255
255
255
255
255
255
255
255
255
255
255
255
255
255
255
255
255
255
255
255
255
255
255
255
255
255
255
255
255
255
255
255
255
255
255
255
255
255
255
255
255
255
255
255
255
255
255
255
255
255
255
255
255
255
255
255
255
255
255
255
255
255
255
255
255
255
255
255
255
255
255
255
255
255
255
255
255
255
255
255
255
255
255
255
255
255
255
255
255
255
255
255
255
255
255
255
255
255
255
255
255
255
255
255
255
255
255
255
255
255
255
255
255
255
255
255
255
255
253
254
255
253
254
255
253
254
255
255
255
255
253
254
255
253
254
255
255
255
255
254
255
255
255
255
255
255
255
255
255
255
255
255
255
255
254
255
255
255
255
254
254
254
254
254
254
255
255
255
255
255
255
255
255
255
255
255
255
255
255
255
254
254
254
254
254
254
255
255
255
254
254
254
255
255
255
255
255
255
255
255
255
255
255
255
255
255
255
255
255
255
254
254
254
254
254
254
255
255
255
255
255
255
255
255
255
255
255
255
255
255
255
254
254
254
254
254
254
255
255
255
255
255
255
255
255
255
255
255
255
255
255
255
255
255
255
255
255
255
255
255
255
255
255
255
255
255
255
255
255
255
255
255
255
255
255
255
255
255
255
255
255
255
255
255
255
255
255
255
255
255
255
255
255
255
255
255
255
255
255
255
255
255
255
255
255
255
255
255
255
255
255
255
255
255
255
255
255
255
255
255
255
255
255
255
255
255
255
255
255
255
255
255
255
255
255
255
255
255
255
255
255
255
255
255
255
255
255
255
255
255
255
255
255
255
255
255
255
255
255
255
255
255
255
255
255
255
255
255
255
255
255
255
255
255
255
255
255
255
255
255
255
255
255
255
255
255
255
255
255
255
255
255
255
255
255
255
255
255
255
255
255
255
255
255
255
255
255
255
255
255
255
255
255
255
255
255
255
255
255
255
255
255
255
255
255
255
255
255
255
255
255
255
255
255
255
255
255
255
255
255
255
255
255
255
255
255
255
255
255
255
255
255
255
255
255
255
255
255
255
255
255
255
255
255
255
255
255
255
255
255
255
255
255
255
255
255
255
255
255
255
255
255
255
255
255
255
255
255
255
255
255
255
255
255
255
255
255
255
255
255
255
255
255
255
255
255
255
255
255
255
255
255
255
255
255
255
255
255
255
255
255
255
255
255
255
255
255
255
255
255
255
255
255
255
255
255
255
255
255
255
255
255
255
255
255
255
255
255
255
255
255
255
255
255
255
255
255
255
255
255
255
255
255
255
255
255
255
255
255
255
255
255
255
255
255
255
255
255
255
255
255
255
255
253
254
255
253
254
255
255
255
255
254
255
255
253
254
255
255
255
255
253
254
255
253
254
255
255
255
255
255
255
255
255
255
255
255
255
255
255
255
255
254
255
255
254
255
254
254
254
255
255
255
254
254
254
255
255
255
255
255
255
255
255
255
254
254
254
255
255
255
254
254
254
254
254
254
254
254
254
255
255
255
255
255
255
255
255
255
255
255
255
255
255
255
255
255
255
254
254
254
255
255
255
254
254
254
255
255
255
255
255
255
255
255
255
255
255
255
255
255
255
255
255
255
255
255
255
255
255
255
255
255
255
255
255
255
255
255
255
255
255
255
255
255
255
255
255
255
255
255
255
255
255
255
255
255
255
255
255
255
255
255
255
255
255
255
255
255
255
255
255
255
255
255
255
255
255
255
254
254
254
255
255
255
255
255
255
255
255
255
255
255
255
255
255
255
255
255
255
255
255
255
255
255
255
255
255
255
255
255
255
255
255
255
255
255
255
255
255
255
255
255
255
255
255
255
255
255
255
255
255
255
255
255
255
255
255
255
255
255
255
255
255
255
255
255
255
255
255
255
255
255
255
255
255
255
255
255
255
255
255
255
255
255
255
255
255
255
255
255
255
255
255
255
255
255
255
255
255
255
255
255
255
255
255
255
255
255
255
255
255
255
255
255
255
255
255
255
255
255
255
255
255
255
255
255
255
255
255
255
255
255
255
255
255
255
255
255
255
255
255
255
255
255
255
255
255
255
255
255
255
255
255
255
255
255
255
255
255
255
255
255
255
255
255
255
255
255
255
255
255
255
255
255
255
255
255
255
255
255
255
255
255
255
255
255
255
255
255
255
255
255
255
255
255
255
255
255
255
255
255
255
255
255
255
255
255
255
255
255
255
255
255
255
255
255
255
255
255
255
255
255
255
255
255
255
255
255
255
255
255
255
255
255
255
255
255
255
255
255
255
255
255
255
255
255
255
255
255
255
255
255
255
255
255
255
255
255
255
255
255
255
255
255
255
255
255
255
255
255
255
255
255
255
255
255
255
255
255
255
255
255
255
255
253
254
255
253
254
255
253
254
255
254
255
255
254
255
255
254
255
255
254
255
255
253
254
255
254
255
255
254
255
255
255
255
255
255
255
255
255
255
255
255
255
255
255
255
255
254
255
255
254
255
255
254
255
254
254
254
254
254
254
254
254
254
255
255
255
254
254
254
254
254
254
254
254
254
255
255
255
255
255
255
255
255
255
255
255
255
255
255
255
255
255
255
255
255
255
255
255
255
255
255
255
255
255
255
254
254
254
255
255
255
255
255
255
255
255
255
255
255
255
255
255
255
255
255
255
255
255
255
255
255
255
255
255
255
255
255
255
255
255
255
255
255
255
255
255
255
255
255
255
255
255
255
255
255
255
255
255
255
255
255
255
255
255
255
255
255
255
255
255
255
255
255
255
255
255
255
255
255
255
255
255
255
255
255
255
254
254
254
255
255
255
255
255
255
255
255
255
255
255
255
255
255
255
255
255
255
255
255
255
255
255
255
255
255
255
255
255
255
255
255
255
255
255
255
255
255
255
255
255
255
255
255
255
255
255
255
255
255
255
255
255
255
255
255
255
255
255
255
255
255
255
255
255
255
255
255
255
255
255
255
255
255
255
255
255
255
255
255
255
255
255
255
255
255
255
255
255
255
255
255
255
255
255
255
255
255
255
255
255
255
255
255
255
255
255
255
255
255
255
255
255
255
255
255
255
255
255
255
255
255
255
255
255
255
255
255
255
255
255
255
255
255
255
255
255
255
255
255
255
255
255
255
255
255
255
255
255
255
255
255
255
255
255
255
255
255
255
255
255
255
255
255
255
255
255
255
255
255
255
255
255
255
255
255
255
255
255
255
255
255
255
255
255
255
255
255
255
255
255
255
255
255
255
255
255
255
255
255
255
255
255
255
255
255
255
255
255
255
255
255
255
255
255
255
255
255
255
255
255
255
255
255
255
255
255
255
255
255
255
255
255
255
255
255
255
255
255
255
255
255
255
255
255
255
255
255
255
255
255
255
255
255
255
255
255
255
255
255
255
255
255
255
255
255
255
255
255
255
255
255
255
255
255
255
255
255
255
255
253
254
255
253
254
255
255
255
255
254
255
255
254
255
255
254
255
255
255
255
255
254
255
255
254
255
255
255
255
255
255
255
255
255
255
255
255
255
255
255
255
255
255
255
255
254
255
255
255
255
255
254
255
255
254
255
255
255
255
254
254
254
254
255
254
254
254
254
255
255
255
255
255
255
255
255
255
255
255
255
255
255
255
255
255
255
255
255
255
255
255
255
255
255
255
255
255
255
255
255
255
255
255
255
255
255
255
255
255
255
255
255
255
255
255
255
255
255
255
255
255
255
255
255
255
255
255
255
255
255
255
255
255
255
255
255
255
255
255
255
255
255
255
255
255
255
255
255
255
255
255
255
255
255
255
255
255
255
255
255
255
255
255
255
255
255
255
255
255
255
255
255
255
255
255
255
255
255
255
255
255
255
255
255
255
255
255
255
255
255
255
255
255
255
255
255
255
255
255
255
255
255
255
255
255
255
255
255
255
255
255
255
255
255
255
255
255
255
255
255
255
255
255
255
255
255
255
255
255
255
255
255
255
255
255
255
255
255
255
255
255
255
255
255
255
255
255
255
255
255
255
255
255
255
255
255
255
255
255
255
255
255
255
255
255
255
255
255
255
255
255
255
255
255
255
255
255
255
255
255
255
255
255
255
255
255
255
255
255
255
255
255
255
255
255
255
255
255
255
255
255
255
255
255
255
255
255
255
255
255
255
255
255
255
255
255
255
255
255
255
255
255
255
255
255
255
255
255
255
255
255
255
255
255
255
255
255
255
255
255
255
255
255
255
255
255
255
255
255
255
255
255
255
255
255
255
255
255
255
255
255
255
255
255
255
255
255
255
255
255
255
255
255
255
255
255
255
255
255
255
255
255
255
255
255
255
255
255
255
255
255
255
255
255
255
255
255
255
255
255
255
255
255
255
255
255
255
255
255
255
255
255
255
255
255
255
255
255
255
255
255
255
255
255
255
255
255
255
255
255
255
255
255
255
255
255
255
255
255
255
255
255
255
255
255
255
255
255
255
255
255
255
255
255
255
255
255
255
255
255
255
254
254
254
255
253
254
254
254
254
253
255
254
254
254
254
253
255
254
254
255
255
255
255
255
255
254
255
255
254
255
255
255
255
255
255
255
255
255
255
255
255
255
254
255
255
254
255
255
254
255
255
254
255
255
255
254
255
255
255
255
255
255
255
254
255
255
251
254
252
252
255
253
254
255
254
255
255
255
255
255
255
255
255
255
255
255
255
255
255
255
255
255
255
254
254
254
254
254
254
254
254
254
254
254
254
255
255
255
255
255
255
255
255
255
255
255
255
255
255
255
255
255
255
254
254
254
255
255
255
255
255
255
255
255
255
255
255
255
255
255
255
255
255
255
255
255
255
255
255
255
255
255
255
255
255
255
255
255
255
255
255
255
255
255
255
255
255
255
255
255
255
255
255
255
254
255
255
254
255
255
252
255
254
253
255
254
254
255
255
254
255
255
255
255
255
255
255
255
255
255
255
254
254
254
254
254
254
254
254
254
254
254
254
255
255
255
255
255
255
255
255
255
255
255
255
255
255
255
255
255
255
255
255
255
255
255
255
255
255
255
255
255
255
255
255
255
255
255
255
255
255
255
255
255
255
255
255
255
255
255
255
255
255
255
255
255
255
255
255
255
255
255
255
255
255
255
255
255
255
255
255
255
255
255
255
255
255
255
255
255
255
255
255
255
255
255
255
255
255
255
255
255
255
255
255
255
255
255
255
255
255
255
255
255
255
255
255
255
255
255
255
255
255
255
255
255
255
255
255
255
255
255
255
255
255
255
255
255
255
255
255
255
255
255
255
255
255
255
255
255
255
255
255
255
255
255
255
255
255
255
255
255
255
255
255
255
255
255
255
255
255
255
255
255
255
255
255
255
255
255
255
255
255
255
255
255
255
255
255
255
255
255
255
255
255
255
255
255
255
255
255
255
255
255
255
255
255
255
255
255
255
255
255
255
255
255
255
255
255
255
255
255
255
255
255
255
255
255
255
255
255
255
255
255
255
255
255
255
255
255
255
255
255
255
255
255
255
255
255
255
255
255
255
255
255
255
255
255
255
255
255
255
255
255
255
255
255
255
254
254
254
253
254
254
253
255
254
255
255
255
253
255
254
253
255
254
255
255
255
254
255
255
255
255
255
255
255
255
255
255
255
255
255
255
255
255
255
255
255
255
254
255
255
253
255
255
255
255
255
254
255
255
255
255
255
255
255
255
255
255
255
253
255
253
250
254
251
255
255
255
253
255
254
254
255
254
255
255
255
255
255
255
255
255
255
255
255
255
255
255
255
254
254
254
254
254
254
255
255
255
254
254
254
255
255
255
255
255
255
255
255
255
255
255
255
255
255
255
255
255
255
254
254
254
254
254
254
255
255
255
255
255
255
255
255
255
255
255
255
255
255
255
255
255
255
255
255
255
255
255
255
255
255
255
255
255
255
255
255
255
255
255
255
255
255
255
255
255
255
255
255
255
254
255
255
252
255
253
251
255
254
255
255
255
253
255
255
255
255
255
255
255
255
255
255
255
255
255
255
255
255
255
254
254
254
254
254
254
254
254
254
255
255
255
255
255
255
255
255
255
255
255
255
255
255
255
255
255
255
255
255
255
255
255
255
255
255
255
255
255
255
255
255
255
255
255
255
255
255
255
255
255
255
255
255
255
255
255
255
255
255
255
255
255
255
255
255
255
255
255
255
255
255
255
255
255
255
255
255
255
255
255
255
255
255
255
255
255
255
255
255
255
255
255
255
255
255
255
255
255
255
255
255
255
255
255
255
255
255
255
255
255
255
255
255
255
255
255
255
255
255
255
255
255
255
255
255
255
255
255
255
255
255
255
255
255
255
255
255
255
255
255
255
255
255
255
255
255
255
255
255
255
255
255
255
255
255
255
255
255
255
255
255
255
255
255
255
255
255
255
255
255
255
255
255
255
255
255
255
255
255
255
255
255
255
255
255
255
255
255
255
255
255
255
255
255
255
255
255
255
255
255
255
255
255
255
255
255
255
255
255
255
255
255
255
255
255
255
255
255
255
255
255
255
255
255
255
255
255
255
255
255
255
255
255
255
255
255
255
255
255
255
255
255
255
255
255
255
255
255
255
255
255
255
255
255
255
255
255
255
254
254
254
254
254
254
251
254
253
250
254
254
249
254
253
252
255
254
251
254
254
251
255
254
253
255
254
253
255
254
255
255
255
255
255
255
255
255
255
255
255
255
254
255
255
254
255
255
253
255
255
252
255
255
252
255
255
253
255
255
255
255
255
255
255
255
254
255
254
254
255
253
252
255
253
252
255
253
253
255
253
254
254
253
254
254
254
254
254
254
255
255
255
255
255
255
255
255
255
255
255
255
254
254
254
254
254
254
255
255
255
255
255
255
255
255
255
255
255
255
255
255
255
255
255
255
255
255
255
255
255
255
254
254
254
255
255
255
255
255
255
255
255
255
255
255
255
255
255
255
255
255
255
255
255
255
255
255
255
255
255
255
255
255
255
255
255
255
255
255
255
255
255
255
254
255
255
254
255
255
253
255
253
250
255
252
250
255
254
251
255
255
253
255
255
255
255
255
255
255
255
255
255
255
255
255
255
255
255
255
255
255
255
254
254
254
255
255
255
255
255
255
255
255
255
255
255
255
255
255
255
255
255
255
255
255
255
255
255
255
255
255
255
255
255
255
255
255
255
255
255
255
255
255
255
255
255
255
255
255
255
255
255
255
255
255
255
255
255
255
255
255
255
255
255
255
255
255
255
255
255
255
255
255
255
255
255
255
255
255
255
255
255
255
255
255
255
255
255
255
255
255
255
255
255
255
255
255
255
255
255
255
255
255
255
255
255
255
255
255
255
255
255
255
255
255
255
255
255
255
255
255
255
255
255
255
255
255
255
255
255
255
255
255
255
255
255
255
255
255
255
255
255
255
255
255
255
255
255
255
255
255
255
255
255
255
255
255
255
255
255
255
255
255
255
255
255
255
255
255
255
255
255
255
255
255
255
255
255
255
255
255
255
255
255
255
255
255
255
255
255
255
255
255
255
255
255
255
255
255
255
255
255
255
255
255
255
255
255
255
255
255
255
255
255
255
255
255
255
255
255
255
255
255
255
255
255
255
255
255
255
255
255
255
255
255
255
255
255
255
255
255
255
255
255
255
255
255
255
255
255
255
255
255
255
255
255
255
254
255
255
252
254
254
247
253
251
255
255
255
248
254
253
248
253
252
255
255
255
250
254
254
252
254
254
254
254
254
255
255
255
255
254
255
255
255
255
255
255
255
254
255
255
253
255
255
252
255
255
255
255
255
253
255
255
254
255
255
255
255
255
255
254
255
254
254
254
255
255
255
252
255
253
252
254
252
254
254
252
255
255
255
254
253
253
254
254
254
255
255
255
255
255
255
255
255
255
255
255
255
255
255
255
255
255
255
255
255
255
255
255
255
255
255
255
255
255
255
255
255
255
254
254
254
255
255
255
255
255
255
255
255
255
255
255
255
255
255
255
255
255
255
255
255
255
255
255
255
255
255
255
255
255
255
255
255
255
255
255
255
255
255
255
255
255
255
255
255
255
255
255
255
255
255
255
254
255
253
252
255
252
255
255
255
250
255
254
252
255
255
255
255
255
255
255
255
255
255
255
255
255
255
255
255
255
255
255
255
255
255
255
255
255
255
255
255
255
255
255
255
255
255
255
255
255
255
255
255
255
255
255
255
255
255
255
255
255
255
255
255
255
255
255
255
255
255
255
255
255
255
255
255
255
255
255
255
255
255
255
255
255
255
255
255
255
255
255
255
255
255
255
255
255
255
255
255
255
255
255
255
255
255
255
255
255
255
255
255
255
255
255
255
255
255
255
255
255
255
255
255
255
255
255
255
255
255
255
255
255
255
255
255
255
255
255
255
255
255
255
255
255
255
255
255
255
255
255
255
255
255
255
255
255
255
255
255
255
255
255
255
255
255
255
255
255
255
255
255
255
255
255
255
255
255
255
255
255
255
255
255
255
255
255
255
255
255
255
255
255
255
255
255
255
255
255
255
255
255
255
255
255
255
255
255
255
255
255
255
255
255
255
255
255
255
255
255
255
255
255
255
255
255
255
255
255
255
255
255
255
255
255
255
255
255
255
255
255
255
255
255
255
255
255
255
255
255
255
255
255
255
255
255
255
255
255
255
255
255
255
255
255
255
255
255
255
255
255
255
255
255
255
255
255
255
255
255
255
255
255
255
255
255
255
254
255
255
253
255
255
255
255
255
249
254
253
248
254
253
248
253
252
255
255
255
251
254
254
252
254
254
255
255
255
254
255
255
255
253
254
255
255
255
255
254
255
255
255
255
254
255
255
255
255
255
252
255
255
252
255
255
255
255
255
253
255
255
254
253
255
254
253
255
255
255
255
252
252
253
252
253
251
255
255
255
253
252
251
253
252
252
255
255
255
254
253
253
254
254
254
255
255
255
255
255
255
255
255
255
255
255
255
255
255
255
255
255
255
255
255
255
255
255
255
255
255
255
254
254
254
255
255
255
255
255
255
255
255
255
255
255
255
255
255
255
255
255
255
255
255
255
255
255
255
255
255
255
255
255
255
255
255
255
255
255
255
255
255
255
255
255
255
255
255
255
255
255
255
255
255
255
254
255
254
255
255
255
253
255
253
252
255
254
252
255
254
255
255
255
254
254
255
255
254
255
255
255
255
255
255
255
255
255
255
255
255
255
255
255
255
255
255
255
255
255
255
255
255
255
255
255
255
255
255
255
255
255
255
255
255
255
255
255
255
255
255
255
255
255
255
255
255
255
255
255
255
255
255
255
255
255
255
255
255
255
255
255
255
255
255
255
255
255
255
255
255
255
255
255
255
255
255
255
255
255
255
255
255
255
255
255
255
255
255
255
255
255
255
255
255
255
255
255
255
255
255
255
255
255
255
255
255
255
255
255
255
255
255
255
255
255
255
255
255
255
255
255
255
255
255
255
255
255
255
255
255
255
255
255
255
255
255
255
255
255
255
255
255
255
255
255
255
255
255
255
255
255
255
255
255
255
255
255
255
255
255
255
255
255
255
255
255
255
255
255
255
255
255
255
255
255
255
255
255
255
255
255
255
255
255
255
255
255
255
255
255
255
255
255
255
255
255
255
255
255
255
255
255
255
255
255
255
255
255
255
255
255
255
255
255
255
255
255
255
255
255
255
255
255
255
255
255
255
255
255
255
255
255
255
255
255
255
255
255
255
255
255
255
255
255
255
255
255
255
255
255
255
255
255
255
255
255
255
255
255
255
254
255
255
254
255
255
252
255
254
250
255
254
251
255
255
249
254
253
249
255
254
251
255
254
251
255
254
253
255
255
254
255
255
254
255
255
254
252
253
254
252
253
255
253
254
255
253
254
255
254
255
254
255
255
253
255
255
253
255
255
252
255
255
252
255
255
254
255
255
255
253
255
255
253
255
253
251
254
254
252
254
254
253
253
251
251
250
254
253
253
254
252
253
253
251
252
254
254
254
254
254
254
254
254
254
255
255
255
255
255
255
255
255
255
255
255
255
255
255
255
255
255
255
254
254
254
254
254
254
254
254
254
254
254
254
255
255
255
255
255
255
255
255
255
255
255
255
255
255
255
255
255
255
254
254
254
255
255
255
255
255
255
255
255
255
255
255
255
255
255
255
255
255
255
255
255
255
255
255
255
255
255
255
255
255
254
254
255
253
255
255
255
254
254
255
255
253
255
254
254
255
255
253
255
255
254
255
255
254
255
255
255
254
255
255
254
255
255
255
255
255
255
255
255
255
255
255
255
255
255
255
254
254
254
255
255
255
255
255
255
255
255
255
255
255
255
255
255
255
255
255
255
255
255
255
255
255
255
255
255
255
255
255
255
255
255
255
255
255
255
255
255
255
255
255
255
255
255
255
255
255
255
255
255
255
255
255
255
255
255
255
255
255
255
255
255
255
255
255
255
255
255
255
255
255
255
255
255
255
255
255
255
255
255
255
255
255
255
255
255
255
255
255
255
255
255
255
255
255
255
255
255
255
255
255
255
255
255
255
255
255
255
255
255
255
255
255
255
255
255
255
255
255
255
255
255
255
255
255
255
255
255
255
255
255
255
255
255
255
255
255
255
255
255
255
255
255
255
255
255
255
255
255
255
255
255
255
255
255
255
255
255
255
255
255
255
255
255
255
255
255
255
255
255
255
255
255
255
255
255
255
255
255
255
255
255
255
255
255
255
255
255
255
255
255
255
255
255
255
255
255
255
255
255
255
255
255
255
255
255
255
255
255
255
255
255
255
255
255
255
255
255
255
255
255
255
255
255
255
255
255
255
255
255
255
255
255
255
254
254
254
253
255
255
255
255
255
250
255
254
249
254
253
249
254
253
255
255
255
252
255
254
252
255
254
255
255
255
254
255
255
254
253
253
254
251
252
255
255
255
255
253
254
255
253
254
255
255
255
255
254
255
254
255
255
253
255
255
255
255
255
254
255
255
255
255
255
255
255
255
255
253
255
254
253
255
255
255
255
255
254
255
255
254
254
255
254
255
255
255
255
254
253
254
253
254
255
255
255
255
253
253
254
254
255
255
255
255
255
255
255
255
255
255
255
255
255
255
255
255
255
254
254
254
254
254
254
255
255
255
254
254
254
254
254
254
255
255
255
255
255
255
255
255
255
255
255
255
255
255
255
254
254
254
254
254
254
255
255
255
255
255
255
255
255
255
255
255
255
255
255
255
255
255
255
255
255
255
255
255
255
255
255
255
255
255
255
255
255
255
255
255
255
255
253
255
255
253
255
255
255
255
255
253
255
255
255
253
255
255
253
255
255
255
255
255
254
255
255
255
255
255
255
255
255
255
255
255
255
254
254
254
255
255
255
255
255
255
255
255
255
255
255
255
254
254
254
255
255
255
255
255
255
255
255
255
255
255
255
255
255
255
255
255
255
255
255
255
255
255
255
255
255
255
255
255
255
255
255
255
255
255
255
255
255
255
255
255
255
255
255
255
255
255
255
255
255
255
255
255
255
255
255
255
255
255
255
255
255
255
255
255
255
255
255
255
255
255
255
255
255
255
255
255
255
255
255
255
255
255
255
255
255
255
255
255
255
255
255
255
255
255
255
255
255
255
255
255
255
255
255
255
255
255
255
255
255
255
255
255
255
255
255
255
255
255
255
255
255
255
255
255
255
255
255
255
255
255
255
255
255
255
255
255
255
255
255
255
255
255
255
255
255
255
255
255
255
255
255
255
255
255
255
255
255
255
255
255
255
255
255
255
255
255
255
255
255
255
255
255
255
255
255
255
255
255
255
255
255
255
255
255
255
255
255
255
255
255
255
255
255
255
255
255
255
255
255
255
255
255
255
255
255
255
255
255
255
255
255
255
254
254
254
254
254
254
254
254
254
253
255
255
252
255
255
253
255
255
251
254
253
253
255
254
253
255
254
254
254
254
254
254
254
255
255
255
255
254
254
255
252
253
255
251
252
255
253
254
255
254
255
255
254
255
255
253
254
255
253
254
254
254
254
253
253
252
254
254
254
253
253
253
252
252
254
255
254
255
254
254
255
253
253
255
254
253
255
255
254
255
255
254
255
255
252
253
254
252
253
254
253
254
253
253
254
251
252
254
252
254
255
253
255
255
254
255
255
255
255
255
255
255
255
255
255
255
255
255
255
255
255
255
254
254
254
254
254
254
254
254
254
254
254
254
254
254
254
255
255
255
255
255
255
255
255
255
255
255
255
255
255
255
254
254
254
254
254
254
255
255
255
255
255
255
255
255
255
255
255
255
255
255
255
255
255
255
255
255
255
255
255
255
255
255
255
255
254
255
255
254
255
255
254
255
255
253
255
255
253
255
255
254
253
255
255
253
255
255
253
255
255
253
255
254
254
255
254
255
255
254
255
255
254
255
255
255
255
255
255
255
255
255
255
255
255
255
255
255
255
255
255
255
255
255
255
254
254
254
255
255
255
255
255
255
255
255
255
255
255
255
255
255
255
255
255
255
255
255
255
255
255
255
255
255
255
255
255
255
255
255
255
255
255
255
255
255
255
255
255
255
255
255
255
255
255
255
255
255
255
255
255
255
255
255
255
255
255
255
255
255
255
255
255
255
255
255
255
255
255
255
255
255
255
255
255
255
255
255
255
255
255
255
255
255
255
255
255
255
255
255
255
255
255
255
255
255
255
255
255
255
255
255
255
255
255
255
255
255
255
255
255
255
255
255
255
255
255
255
255
255
255
255
255
255
255
255
255
255
255
255
255
255
255
255
255
255
255
255
255
255
255
255
255
255
255
255
255
255
255
255
255
255
255
255
255
255
255
255
255
255
255
255
255
255
255
255
255
255
255
255
255
255
255
255
255
255
255
255
255
255
255
255
255
255
255
255
255
255
255
255
255
255
255
255
255
255
255
255
255
255
255
255
255
255
255
255
255
255
254
254
254
254
254
254
254
255
255
255
255
255
253
254
254
254
255
255
255
255
255
254
254
254
254
254
254
253
253
253
255
255
255
254
253
253
255
253
254
255
255
255
255
252
253
255
252
253
255
255
255
255
254
255
255
254
255
254
254
254
255
255
255
253
253
252
252
252
251
255
255
255
251
252
253
252
253
254
252
253
255
255
255
255
253
254
255
255
255
255
255
255
255
255
253
254
255
253
254
255
255
255
255
255
255
253
254
255
252
255
255
255
255
255
253
255
255
254
255
255
255
255
255
255
255
255
255
255
255
255
255
255
255
255
255
254
254
254
254
254
254
255
255
255
254
254
254
254
254
254
255
255
255
255
255
255
255
255
255
255
255
255
255
255
255
254
254
254
254
254
254
255
255
255
255
255
255
255
255
255
255
255
255
255
255
255
255
255
255
255
255
255
255
255
255
255
254
255
255
254
255
255
254
255
255
255
255
255
254
254
255
255
253
255
255
255
255
255
253
255
254
254
255
255
255
255
253
255
255
254
255
255
254
255
255
255
255
255
255
255
255
255
255
255
255
255
255
255
255
255
255
255
255
255
255
255
255
255
254
254
254
255
255
255
255
255
255
255
255
255
255
255
255
255
255
255
255
255
255
255
255
255
255
255
255
255
255
255
255
255
255
255
255
255
255
255
255
255
255
255
255
255
255
255
255
255
255
255
255
255
255
255
255
255
255
255
255
255
255
255
255
255
255
255
255
255
255
255
255
255
255
255
255
255
255
255
255
255
255
255
255
255
255
255
255
255
255
255
255
255
255
255
255
255
255
255
255
255
255
255
255
255
255
255
255
255
255
255
255
255
255
255
255
255
255
255
255
255
255
255
255
255
255
255
255
255
255
255
255
255
255
255
255
255
255
255
255
255
255
255
255
255
255
255
255
255
255
255
255
255
255
255
255
255
255
255
255
255
255
255
255
255
255
255
255
255
255
255
255
255
255
255
255
255
255
255
255
255
255
255
255
255
255
255
255
255
255
255
255
255
255
255
255
255
255
255
255
255
255
255
255
255
255
255
255
254
254
254
254
254
254
255
255
255
253
254
254
253
253
253
255
255
255
253
253
253
255
254
254
255
254
254
255
255
255
253
253
253
253
252
253
255
255
255
254
252
253
255
254
255
255
253
254
255
255
255
255
254
255
254
254
255
255
255
255
254
255
254
254
255
253
252
253
251
255
255
255
253
254
253
250
253
253
255
255
255
251
254
255
250
253
254
255
255
255
252
254
255
255
255
255
255
253
254
255
255
255
255
254
255
254
255
255
255
255
255
253
255
255
251
255
255
253
255
255
255
255
255
254
255
255
254
254
254
255
255
255
254
254
254
254
254
254
255
255
255
254
254
254
254
254
254
254
254
254
255
255
255
254
254
254
255
255
255
255
255
255
255
255
255
255
255
255
254
254
254
255
255
255
254
254
254
255
255
255
255
255
255
255
255
255
255
255
255
255
255
255
255
255
255
255
254
255
255
254
255
255
255
255
255
254
255
255
255
255
255
255
255
255
255
254
255
255
253
255
254
254
255
255
255
255
253
255
255
253
255
255
255
255
255
253
255
255
254
254
254
254
254
255
255
255
254
254
254
255
255
255
255
255
255
255
255
255
255
255
255
255
255
255
254
254
254
255
255
255
255
255
255
255
255
255
255
255
255
255
255
255
255
255
255
255
255
255
255
255
255
255
255
255
255
255
255
255
255
255
255
255
255
255
255
255
255
255
255
255
255
255
255
255
255
255
255
255
255
255
255
255
255
255
255
255
255
255
255
255
255
255
255
255
255
255
255
255
255
255
255
255
255
255
255
255
255
255
255
255
255
255
255
255
255
255
255
255
255
255
255
255
255
255
255
255
255
255
255
255
255
255
255
255
255
255
255
255
255
255
255
255
255
255
255
255
255
255
255
255
255
255
255
255
255
255
255
255
255
255
255
255
255
255
255
255
255
255
255
255
255
255
255
255
255
255
255
255
255
255
255
255
255
255
255
255
255
255
255
255
255
255
255
255
255
255
255
255
255
255
255
255
255
255
255
255
255
255
255
255
255
255
255
255
255
255
255
255
255
255
255
255
255
253
254
255
254
254
255
254
254
255
254
255
254
253
254
254
254
254
254
253
254
253
252
252
254
251
253
254
252
253
255
254
255
254
253
254
253
254
254
253
254
254
253
252
253
252
254
254
250
255
254
252
255
255
254
254
255
249
255
254
248
255
253
252
255
255
248
255
254
247
255
252
246
255
250
251
255
252
246
255
252
245
255
252
249
255
254
245
255
254
245
254
255
249
254
254
248
255
255
250
255
254
253
255
254
254
254
255
254
254
254
254
254
255
254
255
255
252
255
255
250
255
255
251
255
255
253
255
255
254
255
255
254
254
254
254
254
254
254
254
254
254
254
254
254
254
254
254
254
254
254
254
254
255
255
255
254
254
254
254
254
254
254
254
254
255
255
255
255
255
255
255
255
255
255
255
255
254
254
254
255
254
255
255
254
255
255
255
255
255
255
255
255
255
255
255
255
255
255
254
255
255
254
255
255
254
255
255
254
255
255
255
255
255
255
255
255
255
255
254
255
255
255
255
254
255
254
255
255
253
255
255
253
255
255
253
255
255
252
255
255
251
255
254
254
254
253
255
254
254
254
254
253
254
254
254
254
254
255
255
255
254
254
254
255
255
255
255
255
255
255
255
255
255
255
255
255
255
255
255
255
255
255
255
255
255
255
255
255
255
255
255
255
255
255
255
255
255
255
255
255
255
255
255
255
255
255
255
255
255
255
255
255
255
255
255
255
255
255
255
255
255
255
255
255
255
255
255
255
255
255
255
255
255
255
255
255
255
255
255
255
255
255
255
255
255
255
255
255
255
255
255
255
255
255
255
255
255
255
255
255
255
255
255
255
255
255
255
255
255
255
255
255
255
255
255
255
255
255
255
255
255
255
255
255
255
255
255
255
255
255
255
255
255
255
255
255
255
255
255
255
255
255
255
255
255
255
255
255
255
255
255
255
255
255
255
255
255
255
255
255
255
255
255
255
255
255
255
255
255
255
255
255
255
255
255
255
255
255
255
255
255
255
255
255
255
255
255
255
255
255
255
255
255
255
255
255
255
255
255
255
255
255
255
255
255
255
255
255
253
254
255
253
254
255
255
255
255
254
255
255
254
255
255
254
255
255
255
255
255
253
254
254
251
252
255
255
255
253
251
253
253
254
255
252
255
255
255
255
255
249
255
255
246
255
253
255
255
255
245
255
253
244
255
254
255
255
255
240
253
251
241
255
254
238
252
248
255
255
255
239
255
249
240
255
251
255
255
255
239
254
250
239
255
252
237
252
251
255
255
255
241
255
255
244
255
254
255
255
255
248
255
254
251
254
252
255
255
255
253
254
253
251
253
253
249
254
254
255
255
255
248
255
254
253
255
255
255
255
255
254
254
254
254
254
254
254
254
254
255
255
255
254
254
254
254
254
254
255
255
255
255
255
255
255
255
255
254
254
254
255
255
255
254
254
254
255
255
255
255
255
255
255
255
255
255
254
255
255
255
255
255
254
255
255
254
254
255
255
255
255
255
255
255
255
255
255
255
255
255
255
255
255
254
255
254
254
254
255
255
255
255
255
255
254
255
255
254
255
255
255
255
255
254
255
255
253
254
255
255
255
255
254
254
255
255
253
255
253
253
254
255
255
255
252
255
254
252
255
254
255
255
255
253
254
254
254
254
254
254
254
254
255
255
255
255
255
255
255
255
255
255
255
255
255
255
255
255
255
255
255
255
255
255
255
255
255
255
255
255
255
255
255
255
255
255
255
255
255
255
255
255
255
255
255
255
255
255
255
255
255
255
255
255
255
255
255
255
255
255
255
255
255
255
255
255
255
255
255
255
255
255
255
255
255
255
255
255
255
255
255
255
255
255
255
255
255
255
255
255
255
255
255
255
255
255
255
255
255
255
255
255
255
255
255
255
255
255
255
255
255
255
255
255
255
255
255
255
255
255
255
255
255
255
255
255
255
255
255
255
255
255
255
255
255
255
255
255
255
255
255
255
255
255
255
255
255
255
255
255
255
255
255
255
255
255
255
255
255
255
255
255
255
255
255
255
255
255
255
255
255
255
255
255
255
255
255
255
255
255
255
255
255
255
255
255
255
255
255
255
255
255
255
255
255
255
255
255
255
255
255
253
254
255
253
254
255
253
254
255
254
255
255
254
255
255
254
255
255
254
255
255
254
255
255
253
255
253
254
255
253
253
253
251
250
251
250
252
253
247
254
253
239
255
250
245
255
253
227
248
243
229
255
247
237
255
251
209
239
230
205
237
230
231
251
249
183
222
214
179
216
208
168
206
195
219
243
236
169
208
195
168
207
195
231
252
249
172
207
196
175
211
200
180
218
207
222
245
242
192
226
218
207
237
228
240
254
251
226
250
242
229
247
239
249
254
251
247
254
252
243
251
249
247
255
254
245
254
253
246
255
254
251
255
255
254
255
255
254
255
255
254
255
254
253
255
254
254
254
254
254
254
254
255
255
255
255
255
255
255
255
255
255
255
255
255
255
255
254
254
254
254
254
254
254
254
254
255
255
255
255
254
255
255
254
255
255
254
255
255
254
255
255
254
254
254
254
254
255
255
255
254
255
255
254
255
255
255
255
255
254
255
254
253
255
254
253
255
254
254
255
255
253
255
255
252
255
255
253
255
255
250
255
255
247
255
254
251
255
254
246
255
253
246
254
252
243
252
250
250
255
254
243
255
252
243
254
251
250
255
254
249
255
254
253
254
254
254
254
254
254
254
254
255
255
255
255
255
255
255
255
255
255
255
255
255
255
255
255
255
255
255
255
255
255
255
255
255
255
255
255
255
255
255
255
255
255
255
255
255
255
255
255
255
255
255
255
255
255
255
255
255
255
255
255
255
255
255
255
255
255
255
255
255
255
255
255
255
255
255
255
255
255
255
255
255
255
255
255
255
255
255
255
255
255
255
255
255
255
255
255
255
255
255
255
255
255
255
255
255
255
255
255
255
255
255
255
255
255
255
255
255
255
255
255
255
255
255
255
255
255
255
255
255
255
255
255
255
255
255
255
255
255
255
255
255
255
255
255
255
255
255
255
255
255
255
255
255
255
255
255
255
255
255
255
255
255
255
255
255
255
255
255
255
255
255
255
255
255
255
255
255
255
255
255
255
255
255
255
255
255
255
255
255
255
255
255
255
255
255
255
255
255
255
255
255
255
255
255
253
254
255
253
254
255
254
255
255
255
255
255
254
255
255
254
255
255
255
255
254
254
255
251
254
254
255
255
255
251
255
254
248
254
254
243
253
251
255
255
255
231
251
245
208
237
227
255
255
255
202
236
225
172
211
198
171
213
201
255
255
255
137
186
174
130
184
171
255
255
255
118
169
156
116
168
151
110
165
147
255
255
255
116
167
151
115
164
148
255
255
255
124
176
159
131
182
165
255
255
255
156
203
187
161
201
187
200
233
220
255
255
255
202
225
217
231
247
241
255
255
255
234
248
245
242
255
253
246
255
254
255
255
255
250
255
255
253
255
254
255
255
255
253
255
254
253
255
254
255
255
255
254
254
254
255
255
255
255
255
255
255
255
255
255
255
255
255
255
255
255
255
255
254
254
254
255
255
255
255
254
255
255
255
255
255
254
255
255
254
254
255
255
255
254
254
254
254
255
254
254
255
255
255
255
255
254
255
255
253
255
254
255
255
255
253
255
254
253
255
255
255
255
255
251
255
255
249
255
255
245
255
254
255
255
255
241
255
252
230
247
242
255
255
255
230
246
243
213
234
227
232
252
245
255
255
255
235
251
246
248
255
254
255
255
255
252
254
254
254
254
254
255
255
255
255
255
255
255
255
255
255
255
255
255
255
255
255
255
255
255
255
255
255
255
255
255
255
255
255
255
255
255
255
255
255
255
255
255
255
255
255
255
255
255
255
255
255
255
255
255
255
255
255
255
255
255
255
255
255
255
255
255
255
255
255
255
255
255
255
255
255
255
255
255
255
255
255
255
255
255
255
255
255
255
255
255
255
255
255
255
255
255
255
255
255
255
255
255
255
255
255
255
255
255
255
255
255
255
255
255
255
255
255
255
255
255
255
255
255
255
255
255
255
255
255
255
255
255
255
255
255
255
255
255
255
255
255
255
255
255
255
255
255
255
255
255
255
255
255
255
255
255
255
255
255
255
255
255
255
255
255
255
255
255
255
255
255
255
255
255
255
255
255
255
255
255
255
255
255
255
255
255
255
255
255
255
255
255
255
255
255
253
254
255
253
254
255
253
254
255
254
255
253
254
254
254
254
254
253
254
254
251
255
254
253
255
254
248
255
254
242
255
253
243
255
252
225
252
243
215
241
235
179
211
202
218
243
235
160
201
188
112
165
147
158
202
188
102
158
139
70
131
110
69
133
112
95
153
137
48
120
101
51
124
105
68
133
117
48
120
99
45
117
93
48
122
97
71
135
115
44
118
94
48
122
97
63
126
105
42
116
91
47
121
96
78
141
119
58
130
105
64
127
104
88
145
124
144
186
170
97
149
128
134
179
161
206
234
223
158
196
182
191
223
213
211
239
232
241
253
252
234
250
247
244
255
251
252
255
253
249
255
252
249
255
253
252
255
254
253
255
255
254
255
255
255
255
255
255
255
255
255
255
255
255
255
255
255
255
255
255
255
254
255
255
255
255
255
255
255
255
255
255
255
255
254
254
254
254
254
254
254
255
254
253
255
254
254
255
255
254
255
255
254
255
255
253
255
254
253
255
254
253
254
255
252
254
255
252
254
255
248
255
255
243
255
255
237
255
254
238
255
252
192
222
213
171
209
196
202
231
221
127
171
155
125
169
152
140
182
166
215
245
233
183
220
207
209
231
225
246
255
254
246
255
254
252
254
254
255
255
255
255
255
255
255
255
255
255
255
255
255
255
255
255
255
255
255
255
255
255
255
255
255
255
255
255
255
255
255
255
255
255
255
255
255
255
255
255
255
255
255
255
255
255
255
255
255
255
255
255
255
255
255
255
255
255
255
255
255
255
255
255
255
255
255
255
255
255
255
255
255
255
255
255
255
255
255
255
255
255
255
255
255
255
255
255
255
255
255
255
255
255
255
255
255
255
255
255
255
255
255
255
255
255
255
255
255
255
255
255
255
255
255
255
255
255
255
255
255
255
255
255
255
255
255
255
255
255
255
255
255
255
255
255
255
255
255
255
255
255
255
255
255
255
255
255
255
255
255
255
255
255
255
255
255
255
255
255
255
255
255
255
255
255
255
255
255
255
255
255
255
255
255
255
255
255
255
255
255
255
255
255
255
255
255
253
254
255
255
255
255
253
254
255
254
255
255
255
255
253
254
254
251
254
253
255
255
255
249
255
253
245
255
253
241
255
255
255
255
255
204
236
227
192
233
220
255
255
255
142
184
171
121
170
154
71
132
112
255
255
255
72
137
115
50
118
95
255
255
255
52
122
98
44
118
95
255
255
255
39
119
97
40
119
95
40
118
92
255
255
255
38
118
90
37
118
91
255
255
255
38
119
92
37
118
90
37
120
92
255
255
255
39
121
92
43
122
94
255
255
255
49
120
94
63
130
105
255
255
255
54
117
92
100
154
132
113
160
143
255
255
255
160
203
189
184
220
208
255
255
255
225
247
240
237
252
246
246
255
251
255
255
255
249
255
254
252
255
255
255
255
255
254
254
254
254
254
254
255
255
255
255
255
255
255
255
254
255
255
254
255
255
255
255
255
255
254
255
255
255
255
255
254
255
255
254
255
255
254
255
255
255
255
255
253
255
255
254
255
255
255
255
255
254
255
255
254
254
255
253
253
255
255
255
255
248
255
255
241
255
254
255
255
255
236
255
255
177
211
202
255
255
255
138
183
167
95
149
129
77
134
112
255
255
255
73
128
107
113
164
146
255
255
255
150
192
178
202
227
221
246
255
254
255
255
255
253
255
255
255
255
255
255
255
255
255
255
255
255
255
255
255
255
255
255
255
255
255
255
255
255
255
255
255
255
255
255
255
255
255
255
255
255
255
255
255
255
255
255
255
255
255
255
255
255
255
255
255
255
255
255
255
255
255
255
255
255
255
255
255
255
255
255
255
255
255
255
255
255
255
255
255
255
255
255
255
255
255
255
255
255
255
255
255
255
255
255
255
255
255
255
255
255
255
255
255
255
255
255
255
255
255
255
255
255
255
255
255
255
255
255
255
255
255
255
255
255
255
255
255
255
255
255
255
255
255
255
255
255
255
255
255
255
255
255
255
255
255
255
255
255
255
255
255
255
255
255
255
255
255
255
255
255
255
255
255
255
255
255
255
255
255
255
255
255
255
255
255
255
255
255
255
255
255
255
255
255
255
255
255
255
255
255
253
254
255
253
254
255
255
255
254
254
254
253
255
255
250
255
254
255
255
255
247
255
253
239
253
249
255
255
255
236
255
252
180
217
207
255
255
255
156
208
190
107
162
144
86
144
125
255
255
255
57
124
102
47
119
95
255
255
255
42
117
92
43
118
91
41
118
91
255
255
255
38
120
94
35
119
94
255
255
255
36
119
91
36
120
89
34
120
89
255
255
255
35
122
92
34
121
90
255
255
255
33
120
90
32
121
90
255
255
255
33
122
90
36
120
90
41
118
90
255
255
255
43
118
90
44
115
87
255
255
255
69
132
108
81
139
119
127
180
162
255
255
255
151
194
180
211
240
229
255
255
255
227
248
239
245
255
252
255
255
255
249
255
254
251
255
254
253
254
254
255
255
255
254
254
254
254
255
254
255
255
255
254
255
253
254
255
255
254
255
255
255
255
255
253
255
254
253
255
255
255
255
255
253
255
255
253
255
255
254
255
255
255
255
255
254
255
255
255
254
255
255
255
255
254
254
255
249
254
255
255
255
255
242
255
254
232
255
252
165
202
192
255
255
255
112
163
145
78
140
118
255
255
255
50
118
93
53
121
95
54
118
95
255
255
255
92
150
130
134
180
166
255
255
255
197
223
217
246
255
255
255
255
255
253
255
255
255
255
255
254
254
254
255
255
255
255
255
255
255
255
255
255
255
255
255
255
255
255
255
255
255
255
255
255
255
255
255
255
255
255
255
255
255
255
255
255
255
255
255
255
255
255
255
255
255
255
255
255
255
255
255
255
255
255
255
255
255
255
255
255
255
255
255
255
255
255
255
255
255
255
255
255
255
255
255
255
255
255
255
255
255
255
255
255
255
255
255
255
255
255
255
255
255
255
255
255
255
255
255
255
255
255
255
255
255
255
255
255
255
255
255
255
255
255
255
255
255
255
255
255
255
255
255
255
255
255
255
255
255
255
255
255
255
255
255
255
255
255
255
255
255
255
255
255
255
255
255
255
255
255
255
255
255
255
255
255
255
255
255
255
255
255
255
255
255
255
255
255
255
255
255
253
254
255
253
254
254
253
254
253
253
253
254
254
254
250
255
255
247
255
255
243
255
254
245
255
254
217
237
232
201
232
222
224
248
242
139
183
169
86
147
127
117
177
157
65
137
113
45
120
95
39
119
92
46
120
95
36
119
91
34
121
92
37
119
91
36
120
92
37
120
91
36
121
90
37
121
91
34
122
93
33
122
94
33
120
91
31
122
89
31
124
88
30
124
88
32
124
90
31
125
90
32
125
92
31
121
89
34
123
89
33
123
89
29
123
89
30
124
90
32
122
89
34
121
89
36
119
89
34
120
89
35
119
88
38
116
86
36
119
88
41
118
91
52
126
101
92
153
133
69
136
113
105
160
141
194
229
215
166
205
190
195
221
212
244
255
253
242
255
255
244
255
253
249
255
254
253
254
254
253
255
253
254
255
253
254
255
253
254
255
255
253
255
255
251
255
254
253
255
254
252
255
254
252
255
255
252
255
255
252
255
255
253
255
255
254
255
255
254
255
255
255
254
255
254
254
255
254
254
255
252
255
255
245
255
254
244
255
254
237
255
253
160
199
187
89
146
125
91
147
126
57
129
104
39
120
92
43
119
92
36
122
92
37
121
92
40
120
93
46
117
93
42
116
92
74
138
118
120
169
155
111
161
146
193
220
214
246
255
255
245
255
255
252
255
255
254
255
255
254
254
254
255
255
255
255
255
255
255
255
255
255
255
255
255
255
255
255
255
255
255
255
255
255
255
255
255
255
255
255
255
255
255
255
255
255
255
255
255
255
255
255
255
255
255
255
255
255
255
255
255
255
255
255
255
255
255
255
255
255
255
255
255
255
255
255
255
255
255
255
255
255
255
255
255
255
255
255
255
255
255
255
255
255
255
255
255
255
255
255
255
255
255
255
255
255
255
255
255
255
255
255
255
255
255
255
255
255
255
255
255
255
255
255
255
255
255
255
255
255
255
255
255
255
255
255
255
255
255
255
255
255
255
255
255
255
255
255
255
255
255
255
255
255
255
255
255
255
255
255
255
255
255
255
255
255
255
255
255
255
255
255
255
255
255
255
255
255
254
255
255
254
254
254
254
254
255
255
255
250
254
254
245
255
254
255
255
255
240
255
254
203
227
222
255
255
255
172
208
196
122
171
154
64
127
105
255
255
255
54
128
103
39
120
93
255
255
255
36
119
91
34
120
91
33
122
92
255
255
255
34
122
93
35
121
92
255
255
255
34
122
91
33
122
92
255
255
255
32
123
95
30
123
92
30
125
89
255
255
255
30
126
89
27
123
87
255
255
255
29
124
90
33
123
90
36
123
89
255
255
255
33
123
89
31
124
90
255
255
255
33
121
89
35
121
91
255
255
255
33
122
90
35
122
90
34
121
90
255
255
255
38
120
92
44
123
96
255
255
255
51
122
98
90
149
129
137
180
164
255
255
255
179
207
199
236
254
250
255
255
255
240
254
251
248
255
253
253
255
253
255
255
255
254
255
254
254
255
255
255
255
255
252
255
254
252
255
254
255
255
255
251
255
254
252
255
255
253
255
255
255
255
255
254
255
255
255
254
255
255
255
255
254
254
255
252
255
255
246
255
253
255
255
255
237
255
252
160
196
185
255
255
255
86
142
121
56
130
104
255
255
255
36
121
92
33
123
92
32
123
93
255
255
255
34
123
93
36
121
92
255
255
255
39
117
92
69
135
114
110
162
146
255
255
255
193
222
215
244
255
255
255
255
255
252
255
255
254
255
255
255
255
255
255
255
255
255
255
255
255
255
255
255
255
255
255
255
255
255
255
255
255
255
255
255
255
255
255
255
255
255
255
255
255
255
255
255
255
255
255
255
255
255
255
255
255
255
255
255
255
255
255
255
255
255
255
255
255
255
255
255
255
255
255
255
255
255
255
255
255
255
255
255
255
255
255
255
255
255
255
255
255
255
255
255
255
255
255
255
255
255
255
255
255
255
255
255
255
255
255
255
255
255
255
255
255
255
255
255
255
255
255
255
255
255
255
255
255
255
255
255
255
255
255
255
255
255
255
255
255
255
255
255
255
255
255
255
255
255
255
255
255
255
255
255
255
255
255
255
255
255
255
255
255
255
255
255
255
255
255
254
255
255
254
255
255
254
255
254
254
254
247
255
253
249
254
254
238
253
250
228
253
246
236
254
252
181
214
205
116
162
147
140
181
167
87
145
126
48
118
94
42
120
94
46
121
96
37
119
92
36
121
93
36
121
92
34
122
93
32
123
92
31
123
92
32
123
93
32
122
93
31
121
91
33
122
92
32
123
92
30
123
93
30
123
94
28
124
93
27
124
92
28
127
92
30
127
90
29
127
90
26
123
88
23
120
85
27
122
92
32
122
92
34
122
89
35
122
88
34
121
88
33
120
88
32
121
89
35
122
92
37
122
93
35
122
92
35
121
93
34
124
93
32
124
93
32
121
91
33
122
93
34
121
92
37
120
92
34
120
93
41
118
93
66
130
108
109
155
139
90
139
123
152
191
178
227
253
244
216
247
237
231
250
244
247
255
254
252
255
254
252
255
254
253
254
255
254
255
255
254
255
255
253
255
255
252
255
255
253
255
255
253
255
255
254
255
255
254
255
255
255
254
255
254
254
255
254
254
255
251
255
255
245
255
254
236
255
250
236
255
250
160
196
184
82
135
115
82
136
116
52
123
99
36
121
93
36
122
93
30
124
92
28
124
92
27
124
93
30
124
94
27
123
90
31
123
90
35
121
92
37
123
91
38
119
90
68
137
113
112
167
149
105
163
143
187
219
211
243
255
254
243
255
254
251
255
254
255
255
255
255
255
255
255
255
255
255
255
255
255
255
255
255
255
255
255
255
255
255
255
255
255
255
255
255
255
255
255
255
255
255
255
255
255
255
255
255
255
255
255
255
255
255
255
255
255
255
255
255
255
255
255
255
255
255
255
255
255
255
255
255
255
255
255
255
255
255
255
255
255
255
255
255
255
255
255
255
255
255
255
255
255
255
255
255
255
255
255
255
255
255
255
255
255
255
255
255
255
255
255
255
255
255
255
255
255
255
255
255
255
255
255
255
255
255
255
255
255
255
255
255
255
255
255
255
255
255
255
255
255
255
255
255
255
255
255
255
255
255
255
255
255
255
255
255
255
255
255
255
255
255
255
255
255
255
255
255
254
255
255
254
255
254
254
254
255
255
255
247
255
253
233
252
246
255
255
255
217
247
238
169
208
196
96
146
129
255
255
255
74
136
115
44
118
93
255
255
255
39
119
92
37
120
92
255
255
255
36
121
93
34
123
93
33
124
93
255
255
255
30
123
92
30
122
91
255
255
255
30
121
90
31
122
90
31
124
92
255
255
255
29
123
91
27
123
92
255
255
255
26
125
91
27
126
90
29
126
90
255
255
255
27
123
91
30
124
96
255
255
255
33
122
92
35
122
89
255
255
255
34
120
88
35
121
91
38
122
94
255
255
255
36
120
93
34
121
93
255
255
255
32
124
94
32
123
94
34
123
95
255
255
255
33
122
94
33
121
94
255
255
255
40
118
92
58
125
103
255
255
255
74
127
110
139
184
169
205
241
229
255
255
255
227
247
242
246
255
254
255
255
255
252
254
255
254
255
255
254
255
255
255
255
255
254
255
254
254
255
255
255
255
255
254
255
255
255
254
255
254
254
255
255
255
255
251
255
255
246
255
254
255
255
255
237
255
251
161
196
184
255
255
255
83
136
117
54
124
100
36
118
91
255
255
255
31
123
93
29
124
93
255
255
255
27
123
92
27
124
90
27
123
86
255
255
255
34
125
88
36
122
89
255
255
255
36
117
87
65
137
112
255
255
255
99
158
139
185
217
209
242
255
254
255
255
255
255
255
255
255
255
255
255
255
255
255
255
255
255
255
255
255
255
255
255
255
255
255
255
255
255
255
255
255
255
255
255
255
255
255
255
255
255
255
255
255
255
255
255
255
255
255
255
255
255
255
255
255
255
255
255
255
255
255
255
255
255
255
255
255
255
255
255
255
255
255
255
255
255
255
255
255
255
255
255
255
255
255
255
255
255
255
255
255
255
255
255
255
255
255
255
255
255
255
255
255
255
255
255
255
255
255
255
255
255
255
255
255
255
255
255
255
255
255
255
255
255
255
255
255
255
255
255
255
255
255
255
255
255
255
255
255
255
255
255
255
255
255
255
255
255
255
255
255
255
255
255
255
255
255
255
255
255
253
254
255
254
254
255
255
255
254
254
254
247
255
254
231
249
245
255
255
255
206
240
229
156
201
186
255
255
255
81
135
117
63
129
107
255
255
255
42
119
93
37
119
91
35
120
92
255
255
255
35
121
92
34
123
93
255
255
255
33
124
93
30
123
92
30
123
91
255
255
255
30
121
89
32
122
89
255
255
255
32
123
89
30
123
88
255
255
255
29
123
88
26
121
88
27
125
89
255
255
255
27
125
87
28
123
89
255
255
255
29
123
92
32
122
94
35
122
90
255
255
255
36
122
89
35
121
90
255
255
255
36
122
93
37
120
93
255
255
255
35
120
93
32
122
93
32
123
94
255
255
255
33
122
95
33
123
96
255
255
255
32
122
95
35
123
95
39
118
93
255
255
255
51
121
99
62
120
102
255
255
255
128
177
161
194
232
220
223
244
239
255
255
255
246
255
255
253
255
255
255
255
255
255
255
255
255
255
254
255
255
255
255
255
254
255
255
255
255
254
255
255
255
255
254
254
255
251
255
255
255
255
255
246
255
254
238
255
252
161
197
185
255
255
255
83
137
117
57
126
102
255
255
255
38
119
93
33
122
94
255
255
255
31
124
94
30
125
94
29
125
90
255
255
255
29
124
86
32
125
84
255
255
255
35
124
86
35
120
86
37
120
90
255
255
255
63
136
110
95
155
135
255
255
255
183
216
208
242
255
253
255
255
255
255
255
255
255
255
255
255
255
255
255
255
255
255
255
255
255
255
255
255
255
255
255
255
255
255
255
255
255
255
255
255
255
255
255
255
255
255
255
255
255
255
255
255
255
255
255
255
255
255
255
255
255
255
255
255
255
255
255
255
255
255
255
255
255
255
255
255
255
255
255
255
255
255
255
255
255
255
255
255
255
255
255
255
255
255
255
255
255
255
255
255
255
255
255
255
255
255
255
255
255
255
255
255
255
255
255
255
255
255
255
255
255
255
255
255
255
255
255
255
255
255
255
255
255
255
255
255
255
255
255
255
255
255
255
255
255
255
255
255
255
255
255
255
255
255
255
255
254
254
254
254
254
254
254
254
254
254
254
254
254
254
254
247
255
254
227
246
242
184
221
209
194
230
218
133
184
166
56
118
97
68
126
107
47
120
96
37
120
92
40
119
92
33
120
90
32
121
91
34
123
93
35
122
92
34
122
91
33
122
90
33
123
92
31
122
89
31
122
88
32
125
88
31
123
88
35
123
86
38
125
87
34
124
88
36
123
81
36
125
81
31
124
84
36
126
82
37
127
84
34
128
84
29
125
85
37
128
85
35
124
83
29
122
88
35
126
89
37
125
90
36
121
88
36
122
89
38
123
87
36
122
88
35
121
91
36
121
90
37
121
92
36
120
93
37
122
93
33
122
92
31
121
93
32
122
94
30
122
94
31
123
97
31
122
96
28
120
95
31
122
96
33
121
96
37
118
94
36
118
95
42
116
94
53
115
96
50
114
93
114
167
150
175
214
202
220
241
236
218
239
234
247
255
254
254
255
255
254
255
253
255
255
253
255
255
253
255
255
253
255
254
255
254
253
255
254
253
255
251
254
255
246
255
255
246
255
255
239
255
255
164
198
188
84
138
118
84
137
117
54
124
100
38
120
93
40
121
95
34
123
95
32
122
93
32
122
93
32
122
91
34
124
88
43
133
92
33
127
87
40
129
82
40
128
80
34
125
81
36
125
80
35
121
86
36
121
91
38
122
92
36
121
92
57
132
107
91
152
131
86
148
127
179
213
204
255
255
255
255
255
255
255
255
255
255
255
255
255
255
255
255
255
255
255
255
255
255
255
255
255
255
255
255
255
255
255
255
255
255
255
255
255
255
255
255
255
255
255
255
255
255
255
255
255
255
255
255
255
255
255
255
255
255
255
255
255
255
255
255
255
255
255
255
255
255
255
255
255
255
255
255
255
255
255
255
255
255
255
255
255
255
255
255
255
255
255
255
255
255
255
255
255
255
255
255
255
255
255
255
255
255
255
255
255
255
255
255
255
255
255
255
255
255
255
255
255
255
255
255
255
255
255
255
255
255
255
255
255
255
255
255
255
255
255
255
255
255
255
255
255
255
255
255
255
255
255
255
255
254
254
254
255
255
255
254
254
254
248
255
254
225
244
240
255
255
255
176
215
202
124
177
159
255
255
255
55
119
98
41
116
91
35
120
92
255
255
255
32
121
91
31
122
91
255
255
255
35
124
94
33
122
92
255
255
255
33
122
90
32
122
88
32
122
86
255
255
255
34
123
85
36
124
83
255
255
255
40
124
83
39
122
79
43
128
80
255
255
255
42
128
78
48
134
85
255
255
255
46
134
85
50
138
89
49
135
87
255
255
255
47
133
87
46
131
91
255
255
255
43
126
88
39
123
84
255
255
255
40
125
85
35
120
83
37
122
89
255
255
255
38
122
91
35
123
91
255
255
255
32
122
91
28
120
90
30
123
95
255
255
255
30
122
96
28
120
95
255
255
255
31
122
96
34
122
97
255
255
255
36
118
95
40
116
93
49
114
92
255
255
255
109
163
145
169
209
196
255
255
255
216
237
232
248
255
253
254
255
253
255
255
255
255
255
253
255
254
254
255
255
255
254
254
255
251
254
255
246
255
255
255
255
255
238
255
254
167
200
190
255
255
255
87
140
120
55
124
100
255
255
255
37
119
92
33
123
95
32
122
93
255
255
255
32
121
90
35
121
86
255
255
255
49
135
94
70
154
106
51
135
84
255
255
255
47
132
81
36
122
80
255
255
255
36
121
87
35
120
91
255
255
255
35
120
92
53
130
105
82
144
123
255
255
255
255
255
255
255
255
255
255
255
255
255
255
255
255
255
255
255
255
255
255
255
255
255
255
255
255
255
255
255
255
255
255
255
255
255
255
255
255
255
255
255
255
255
255
255
255
255
255
255
255
255
255
255
255
255
255
255
255
255
255
255
255
255
255
255
255
255
255
255
255
255
255
255
255
255
255
255
255
255
255
255
255
255
255
255
255
255
255
255
255
255
255
255
255
255
255
255
255
255
255
255
255
255
255
255
255
255
255
255
255
255
255
255
255
255
255
255
255
255
255
255
255
255
255
255
255
255
255
255
255
255
255
255
255
255
255
255
255
255
255
255
255
255
255
255
254
255
255
255
255
255
254
255
255
254
254
254
254
254
254
248
255
255
224
242
239
162
202
189
169
208
196
110
166
147
50
120
96
53
121
98
39
119
92
33
121
91
31
123
92
31
122
92
30
123
92
34
125
94
35
125
94
35
123
91
34
121
88
33
122
90
36
123
87
36
123
85
34
122
81
34
123
83
46
131
84
49
131
82
41
124
79
65
144
92
70
147
91
87
163
101
59
141
84
85
164
99
96
175
111
62
145
89
94
170
108
95
172
109
97
175
112
68
149
95
91
167
106
96
171
113
58
138
93
81
159
105
74
154
100
46
129
83
66
149
93
56
139
87
42
125
81
39
123
88
43
126
85
36
122
82
34
124
88
33
124
85
30
121
85
30
121
88
31
123
95
31
123
95
30
123
96
30
122
97
30
122
97
32
123
97
34
123
98
33
122
96
35
120
92
41
118
92
49
115
93
48
116
93
102
158
139
163
205
191
161
204
189
216
238
230
247
255
252
254
255
253
253
254
253
254
254
255
254
254
255
250
255
255
244
255
254
235
255
252
237
255
254
169
203
192
95
146
126
92
143
124
60
127
104
38
119
92
37
119
92
32
123
95
31
123
93
31
121
90
31
120
90
37
121
85
50
129
86
51
131
89
84
158
107
106
181
124
98
174
113
63
143
87
67
145
87
51
132
82
36
121
81
38
121
82
35
120
88
34
119
91
33
119
92
34
120
93
50
127
101
77
139
118
255
255
255
255
255
255
255
255
255
255
255
255
255
255
255
255
255
255
255
255
255
255
255
255
255
255
255
255
255
255
255
255
255
255
255
255
255
255
255
255
255
255
255
255
255
255
255
255
255
255
255
255
255
255
255
255
255
255
255
255
255
255
255
255
255
255
255
255
255
255
255
255
255
255
255
255
255
255
255
255
255
255
255
255
255
255
255
255
255
255
255
255
255
255
255
255
255
255
255
255
255
255
255
255
255
255
255
255
255
255
255
255
255
255
255
255
255
255
255
255
255
255
255
255
255
255
255
255
255
255
255
255
255
255
255
255
255
255
255
255
255
255
255
255
253
255
255
254
255
255
254
254
254
255
255
255
248
255
255
224
241
238
255
255
255
158
197
185
104
161
142
49
119
96
255
255
255
38
119
92
32
121
91
255
255
255
30
123
91
30
124
92
255
255
255
32
124
93
34
123
90
34
121
86
255
255
255
36
122
85
40
125
85
255
255
255
39
125
81
54
139
89
61
143
88
255
255
255
80
159
102
88
164
103
255
255
255
101
175
108
106
181
110
255
255
255
115
191
120
108
183
113
117
189
119
255
255
255
112
185
114
113
186
116
255
255
255
117
187
119
108
181
115
101
178
115
255
255
255
91
171
105
86
168
102
255
255
255
66
148
91
58
139
90
255
255
255
46
129
83
37
124
79
34
125
82
255
255
255
32
123
83
32
123
90
255
255
255
31
124
95
30
122
96
30
122
96
255
255
255
32
123
96
32
121
93
255
255
255
35
120
91
42
119
92
47
116
92
255
255
255
99
157
137
160
205
190
255
255
255
215
239
231
247
255
253
255
255
255
252
254
254
249
255
255
244
255
255
255
255
255
235
255
253
168
203
192
255
255
255
97
148
129
61
127
104
40
120
93
255
255
255
33
123
94
30
123
93
255
255
255
31
122
90
35
122
85
255
255
255
48
128
84
77
150
98
106
176
117
255
255
255
119
191
126
101
176
111
255
255
255
70
147
87
53
133
82
38
121
83
255
255
255
35
120
89
33
120
93
255
255
255
35
121
94
48
125
97
255
255
255
255
255
255
255
255
255
255
255
255
255
255
255
255
255
255
255
255
255
255
255
255
255
255
255
255
255
255
255
255
255
255
255
255
255
255
255
255
255
255
255
255
255
255
255
255
255
255
255
255
255
255
255
255
255
255
255
255
255
255
255
255
255
255
255
255
255
255
255
255
255
255
255
255
255
255
255
255
255
255
255
255
255
255
255
255
255
255
255
255
255
255
255
255
255
255
255
255
255
255
255
255
255
255
255
255
255
255
255
255
255
255
255
255
255
255
255
255
255
255
255
255
255
255
255
255
255
255
255
255
255
255
255
255
255
255
255
255
255
253
255
254
254
255
254
255
255
255
254
254
254
248
255
254
255
255
255
224
241
239
155
195
182
101
158
139
255
255
255
49
119
96
38
119
92
255
255
255
32
122
92
29
122
91
30
123
92
255
255
255
31
122
91
33
122
89
255
255
255
34
120
85
36
122
82
255
255
255
43
128
85
46
130
82
64
148
93
255
255
255
79
161
100
93
171
109
255
255
255
104
179
114
110
183
111
115
188
111
255
255
255
119
193
113
118
191
114
255
255
255
119
190
113
122
191
114
121
191
114
255
255
255
123
190
113
122
191
116
255
255
255
117
188
115
111
189
114
255
255
255
103
183
108
104
185
112
82
162
100
255
255
255
74
154
100
51
134
83
255
255
255
43
130
79
36
126
79
33
123
83
255
255
255
34
125
92
30
123
95
255
255
255
30
122
95
31
124
95
255
255
255
31
123
94
31
121
90
36
121
91
255
255
255
41
120
92
45
116
90
255
255
255
98
158
137
161
208
193
215
240
233
255
255
255
245
255
254
248
255
255
255
255
255
243
255
255
236
255
255
167
203
193
255
255
255
97
148
130
61
127
104
255
255
255
40
119
93
34
123
93
255
255
255
30
123
93
29
121
90
33
123
85
255
255
255
43
126
81
68
141
88
255
255
255
101
171
109
123
191
123
121
192
121
255
255
255
104
177
108
73
149
87
255
255
255
55
135
84
38
123
85
255
255
255
35
121
90
34
122
94
36
122
92
255
255
255
255
255
255
255
255
255
255
255
255
255
255
255
255
255
255
255
255
255
255
255
255
255
255
255
255
255
255
255
255
255
255
255
255
255
255
255
255
255
255
255
255
255
255
255
255
255
255
255
255
255
255
255
255
255
255
255
255
255
255
255
255
255
255
255
255
255
255
255
255
255
255
255
255
255
255
255
255
255
255
255
255
255
255
255
255
255
255
255
255
255
255
255
255
255
255
255
255
255
255
255
255
255
255
255
255
255
255
255
255
255
255
255
255
255
255
255
255
255
255
255
255
255
255
255
255
255
255
255
255
255
255
255
255
255
255
254
255
255
254
255
255
254
255
254
254
254
254
254
254
254
248
255
254
226
243
239
224
242
239
159
198
186
100
156
137
50
121
97
49
120
97
39
120
93
33
123
93
33
123
92
30
124
92
30
124
92
32
124
93
32
123
92
34
123
88
37
122
84
35
121
84
40
123
78
53
135
85
48
131
85
70
152
96
86
167
103
111
191
120
96
176
110
110
187
114
119
194
119
115
190
120
123
195
116
123
193
111
123
193
105
121
193
109
123
194
108
124
194
108
121
191
110
125
193
107
127
194
107
127
193
105
125
192
109
126
192
105
126
192
104
125
193
111
125
194
106
121
194
105
117
194
110
117
196
104
117
195
108
117
194
112
97
175
109
107
185
113
96
177
109
60
143
85
72
156
91
58
145
84
33
121
71
34
124
83
34
124
85
32
124
94
30
123
94
30
123
94
31
123
93
32
124
94
33
124
93
31
122
89
31
121
87
36
122
90
35
122
88
39
120
88
44
116
89
42
117
90
99
163
142
163
213
198
214
240
235
210
240
235
232
255
253
241
255
255
232
255
254
163
201
192
95
150
131
96
148
131
60
127
103
39
117
90
40
118
92
35
122
92
32
123
94
31
123
93
29
122
93
31
123
86
37
125
80
39
126
80
50
132
76
86
161
95
95
165
101
124
192
117
124
192
112
123
193
110
122
194
117
122
194
114
106
180
105
77
153
88
80
156
91
59
140
88
37
123
84
38
123
83
36
121
89
35
121
91
36
122
91
255
255
255
255
255
255
255
255
255
255
255
255
255
255
255
255
255
255
255
255
255
255
255
255
255
255
255
255
255
255
255
255
255
255
255
255
255
255
255
255
255
255
255
255
255
255
255
255
255
255
255
255
255
255
255
255
255
255
255
255
255
255
255
255
255
255
255
255
255
255
255
255
255
255
255
255
255
255
255
255
255
255
255
255
255
255
255
255
255
255
255
255
255
255
255
255
255
255
255
255
255
255
255
255
255
255
255
255
255
255
255
255
255
255
255
255
255
255
255
255
255
255
255
255
255
255
255
255
255
255
255
255
255
255
255
253
255
254
253
255
254
255
255
255
253
255
254
248
255
253
227
245
241
255
255
255
164
203
190
103
158
139
255
255
255
52
121
97
40
120
93
34
122
92
255
255
255
30
124
92
30
124
92
255
255
255
32
124
93
34
123
88
255
255
255
38
123
83
43
125
77
59
139
85
255
255
255
83
164
105
95
175
108
255
255
255
116
196
119
115
192
114
120
194
114
255
255
255
123
196
114
125
195
111
255
255
255
124
192
105
124
194
106
255
255
255
125
195
107
123
193
105
127
194
105
255
255
255
127
194
103
127
194
102
255
255
255
127
193
101
128
195
103
125
195
102
255
255
255
121
196
101
120
197
103
255
255
255
120
197
107
118
194
110
255
255
255
114
191
115
100
180
108
82
166
95
255
255
255
64
150
85
35
123
74
255
255
255
35
125
87
32
124
94
31
123
92
255
255
255
32
123
90
32
123
91
255
255
255
31
122
88
32
122
86
35
122
87
255
255
255
38
120
88
43
119
92
255
255
255
99
165
144
158
213
197
255
255
255
197
236
228
221
255
250
157
198
188
255
255
255
88
145
126
60
129
104
255
255
255
39
117
89
35
120
91
34
123
94
255
255
255
31
123
94
30
124
88
255
255
255
34
125
81
45
130
74
255
255
255
79
157
91
120
191
115
124
193
110
255
255
255
123
193
106
121
194
107
255
255
255
121
194
112
107
181
105
84
160
94
255
255
255
61
141
88
38
121
81
255
255
255
36
121
87
34
121
91
255
255
255
255
255
255
255
255
255
255
255
255
255
255
255
255
255
255
255
255
255
255
255
255
255
255
255
255
255
255
255
255
255
255
255
255
255
255
255
255
255
255
255
255
255
255
255
255
255
255
255
255
255
255
255
255
255
255
255
255
255
255
255
255
255
255
255
255
255
255
255
255
255
255
255
255
255
255
255
255
255
255
255
255
255
255
255
255
255
255
255
255
255
255
255
255
255
255
255
255
255
255
255
255
255
255
255
255
255
255
255
255
255
255
255
255
255
255
255
255
255
255
255
255
255
255
255
255
255
253
255
254
253
255
254
253
255
254
252
254
253
253
255
254
248
255
254
230
248
244
179
217
205
171
210
197
112
167
149
51
120
96
52
121
97
41
119
92
34
121
91
31
122
91
31
123
92
30
123
92
33
124
93
33
124
93
34
123
86
37
124
80
38
124
82
54
136
83
71
150
89
104
181
114
94
173
110
110
188
113
119
197
113
120
198
118
120
196
109
120
194
106
122
193
106
123
195
110
124
194
107
125
194
105
124
192
105
125
193
105
125
195
105
125
195
105
124
195
104
123
194
103
125
196
104
126
194
102
126
195
100
126
195
98
127
195
100
126
196
100
126
196
100
125
197
98
123
196
99
121
196
98
120
196
99
122
198
102
122
197
102
123
195
107
121
193
110
123
191
112
119
193
113
113
192
110
93
175
98
104
183
106
81
162
98
38
126
78
43
131
83
39
129
90
31
122
89
31
122
89
31
122
88
32
123
88
32
123
89
31
122
88
31
123
87
33
125
88
35
123
87
34
123
88
37
120
89
42
120
93
39
119
93
85
157
135
140
200
183
109
174
157
116
175
160
69
133
113
80
140
120
54
127
102
39
121
91
40
119
90
36
121
90
34
121
92
34
121
94
33
123
95
33
123
91
32
124
84
31
125
82
34
125
73
67
152
87
73
155
89
110
189
112
118
194
107
122
196
103
124
195
104
123
196
101
122
195
102
121
194
105
120
193
104
121
194
110
109
183
106
88
164
97
92
167
98
65
144
88
37
121
79
37
120
78
34
121
87
255
255
255
255
255
255
255
255
255
255
255
255
255
255
255
255
255
255
255
255
255
255
255
255
255
255
255
255
255
255
255
255
255
255
255
255
255
255
255
255
255
255
255
255
255
255
255
255
255
255
255
255
255
255
255
255
255
255
255
255
255
255
255
255
255
255
255
255
255
255
255
255
255
255
255
255
255
255
255
255
255
255
255
255
255
255
255
255
255
255
255
255
255
255
255
255
255
255
255
255
255
255
255
255
255
255
255
255
255
255
255
255
255
255
255
255
255
255
255
255
255
255
255
255
255
255
255
255
255
253
255
254
253
255
254
252
254
253
255
255
255
248
255
254
233
250
246
255
255
255
186
224
211
119
174
155
255
255
255
52
120
96
41
118
92
35
120
91
255
255
255
32
122
91
30
122
91
255
255
255
32
123
92
34
123
86
38
124
80
255
255
255
58
139
83
77
156
92
255
255
255
106
183
113
116
193
115
255
255
255
119
196
110
120
196
106
121
195
103
255
255
255
122
193
105
124
193
105
255
255
255
125
194
105
124
193
104
125
194
104
255
255
255
125
195
104
124
195
103
255
255
255
124
195
103
124
195
101
125
195
98
255
255
255
124
195
97
124
196
99
255
255
255
123
196
98
123
196
98
255
255
255
120
195
98
120
195
99
124
196
104
255
255
255
126
193
110
124
192
111
255
255
255
122
197
113
117
193
109
113
189
111
255
255
255
85
166
101
49
136
87
255
255
255
40
129
90
31
121
87
255
255
255
31
122
87
32
123
88
31
122
87
255
255
255
32
123
87
33
125
89
255
255
255
33
122
88
34
119
89
38
120
94
255
255
255
68
144
121
72
143
124
255
255
255
55
125
104
48
124
99
38
122
92
255
255
255
35
123
91
34
121
91
255
255
255
35
121
93
34
122
91
255
255
255
33
124
86
32
124
75
60
149
87
255
255
255
103
186
111
116
193
108
255
255
255
121
196
102
122
197
99
123
197
101
255
255
255
121
195
103
121
194
105
255
255
255
121
194
110
111
184
106
255
255
255
96
171
100
67
147
89
37
122
79
255
255
255
255
255
255
255
255
255
255
255
255
255
255
255
255
255
255
255
255
255
255
255
255
255
255
255
255
255
255
255
255
255
255
255
255
255
255
255
255
255
255
255
255
255
255
255
255
255
255
255
255
255
255
255
255
255
255
255
255
255
255
255
255
255
255
255
255
255
255
255
255
255
255
255
255
255
255
255
255
255
255
255
255
255
255
255
255
255
255
255
255
255
255
255
255
255
255
255
255
255
255
255
255
255
255
255
255
255
255
255
255
255
255
255
255
255
255
255
255
255
255
255
255
255
255
254
254
254
254
254
254
253
255
254
253
255
254
248
255
254
248
255
254
239
253
251
208
242
231
196
232
220
135
185
168
56
121
99
53
120
97
42
117
91
37
120
92
35
123
93
33
122
92
32
122
92
31
122
91
32
123
92
34
123
87
40
126
81
65
146
88
61
143
85
86
164
95
112
187
111
108
185
111
118
193
112
121
195
108
120
196
108
120
195
102
122
195
101
124
194
103
123
194
104
124
193
103
124
193
103
125
194
105
125
194
104
125
193
102
125
194
102
125
195
104
124
195
102
123
194
101
123
194
102
123
194
101
123
194
99
124
195
97
123
194
96
123
194
96
123
195
99
121
194
98
121
194
100
122
195
101
122
196
99
122
196
102
121
195
102
127
196
107
128
194
108
128
193
109
127
193
109
125
193
110
121
193
105
122
195
104
122
194
106
116
191
111
119
191
112
93
171
106
54
140
91
58
142
93
43
131
90
31
122
86
32
123
87
33
124
89
32
123
88
30
121
86
30
121
88
31
124
90
33
126
91
33
126
92
31
121
90
33
121
94
37
121
95
35
122
96
36
119
96
40
117
95
38
121
96
35
121
92
33
123
90
34
123
91
33
123
91
33
121
92
34
120
91
34
120
91
35
122
89
35
123
87
35
124
82
52
141
87
89
175
106
96
182
109
110
190
108
120
196
105
120
196
103
121
197
100
121
197
99
121
197
101
123
197
102
122
196
103
122
194
104
121
194
105
123
194
106
123
194
108
113
186
106
114
188
105
105
181
106
72
155
94
38
124
80
255
255
255
255
255
255
255
255
255
255
255
255
255
255
255
255
255
255
255
255
255
255
255
255
255
255
255
255
255
255
255
255
255
255
255
255
255
255
255
255
255
255
255
255
255
255
255
255
255
255
255
255
255
255
255
255
255
255
255
255
255
255
255
255
255
255
255
255
255
255
255
255
255
255
255
255
255
255
255
255
255
255
255
255
255
255
255
255
255
255
255
255
255
255
255
255
255
255
255
255
255
255
255
255
255
255
255
255
255
255
255
255
255
255
255
255
255
255
255
255
255
255
255
254
254
254
254
255
254
253
255
254
255
255
255
249
255
254
240
254
253
255
255
255
217
248
238
145
193
177
58
120
99
255
255
255
43
116
91
38
119
91
255
255
255
37
123
94
34
123
93
31
122
91
255
255
255
34
123
86
41
127
82
255
255
255
67
149
89
91
168
98
255
255
255
114
189
111
120
194
113
121
195
108
255
255
255
122
195
104
121
194
100
255
255
255
125
194
103
125
193
103
124
193
102
255
255
255
125
194
103
125
194
103
255
255
255
125
194
101
125
195
101
255
255
255
124
194
100
124
195
101
124
194
100
255
255
255
125
194
97
125
194
97
255
255
255
124
194
100
124
194
103
122
194
103
255
255
255
123
196
104
122
196
103
255
255
255
125
195
106
127
194
107
255
255
255
128
193
108
124
194
106
119
193
102
255
255
255
122
195
103
123
194
106
255
255
255
121
192
114
94
172
107
60
144
95
255
255
255
44
132
90
34
123
87
255
255
255
34
124
89
32
122
89
29
120
89
255
255
255
32
124
92
32
125
93
255
255
255
31
122
94
33
122
95
255
255
255
34
123
97
35
121
96
36
123
95
255
255
255
32
122
91
33
123
91
255
255
255
33
122
92
33
121
92
35
121
90
255
255
255
36
124
86
51
138
88
255
255
255
81
167
103
107
187
108
255
255
255
120
195
106
121
196
101
120
197
100
255
255
255
120
197
101
121
197
102
255
255
255
122
195
103
123
194
104
124
194
105
255
255
255
123
195
106
116
190
105
255
255
255
109
187
109
76
158
95
255
255
255
255
255
255
255
255
255
255
255
255
255
255
255
255
255
255
255
255
255
255
255
255
255
255
255
255
255
255
255
255
255
255
255
255
255
255
255
255
255
255
255
255
255
255
255
255
255
255
255
255
255
255
255
255
255
255
255
255
255
255
255
255
255
255
255
255
255
255
255
255
255
255
255
255
255
255
255
255
255
255
255
255
255
255
255
255
255
255
255
255
255
255
255
255
255
255
255
255
255
255
255
255
255
255
255
255
255
255
255
255
255
255
255
255
255
255
255
255
254
254
254
254
254
254
255
255
255
255
255
255
250
255
254
243
255
254
255
255
255
225
253
244
156
200
185
255
255
255
58
117
97
44
115
91
255
255
255
37
117
90
38
122
94
35
124
94
255
255
255
32
123
92
33
123
86
255
255
255
40
128
82
69
151
91
92
170
99
255
255
255
116
190
111
121
194
113
255
255
255
122
194
109
123
195
105
255
255
255
123
195
102
125
195
103
126
194
103
255
255
255
126
192
102
125
193
102
255
255
255
125
194
103
125
194
101
125
195
100
255
255
255
125
196
100
124
195
101
255
255
255
125
195
101
126
194
98
127
194
98
255
255
255
126
193
98
126
194
105
255
255
255
125
194
106
124
195
105
255
255
255
124
195
105
122
193
103
125
194
106
255
255
255
125
192
106
127
194
107
255
255
255
122
194
104
119
194
101
123
194
103
255
255
255
124
193
106
121
192
114
255
255
255
96
172
107
62
145
96
255
255
255
45
132
90
35
122
87
34
122
89
255
255
255
32
121
90
30
120
91
255
255
255
32
124
94
30
123
94
30
122
94
255
255
255
32
123
95
33
121
96
255
255
255
34
122
95
32
121
92
32
122
91
255
255
255
33
122
92
33
122
93
255
255
255
34
121
92
36
123
89
255
255
255
50
136
89
75
159
99
104
183
107
255
255
255
120
195
107
122
194
101
255
255
255
121
196
101
119
196
102
120
197
102
255
255
255
121
196
103
123
194
102
255
255
255
124
194
104
125
195
104
255
255
255
123
195
104
117
192
105
113
191
110
255
255
255
255
255
255
255
255
255
255
255
255
255
255
255
255
255
255
255
255
255
255
255
255
255
255
255
255
255
255
255
255
255
255
255
255
255
255
255
255
255
255
255
255
255
255
255
255
255
255
255
255
255
255
255
255
255
255
255
255
255
255
255
255
255
255
255
255
255
255
255
255
255
255
255
255
255
255
255
255
255
255
255
255
255
255
255
255
255
255
255
255
255
255
255
255
255
255
255
255
255
255
255
255
255
255
255
255
255
255
255
255
255
255
255
255
255
255
254
255
255
254
255
254
254
254
254
254
254
255
255
255
251
255
254
246
255
253
238
255
252
232
254
249
178
214
203
81
134
116
68
124
105
51
117
95
41
118
92
38
116
90
37
120
92
35
123
93
32
123
92
32
123
92
33
123
87
39
127
82
40
128
82
67
151
91
93
172
101
115
191
110
115
190
111
121
195
112
122
194
110
122
194
110
123
193
106
124
193
104
124
195
103
126
195
104
127
194
104
128
194
104
127
193
103
125
193
102
124
193
102
125
194
103
125
194
102
125
194
100
125
195
99
125
195
100
126
196
102
127
196
103
126
196
102
128
195
105
131
197
106
131
196
104
128
194
100
135
198
112
133
196
115
128
195
110
135
199
118
134
199
115
128
196
108
132
196
110
132
197
111
128
194
107
126
193
106
128
194
108
126
193
106
125
195
106
123
195
104
121
194
102
122
195
103
124
194
103
124
195
104
124
193
106
121
192
114
121
192
114
96
173
107
62
146
95
62
145
93
46
130
89
34
121
86
33
122
89
34
122
91
32
122
93
32
122
94
34
124
99
31
123
96
27
120
93
29
122
94
32
123
96
33
122
96
32
120
95
32
121
93
33
122
93
33
122
92
33
122
92
34
123
94
33
122
94
33
122
94
33
122
92
44
130
91
48
133
90
63
146
93
100
177
105
121
194
110
121
195
109
123
195
104
123
195
103
122
194
101
121
194
104
120
195
104
119
195
104
120
196
103
120
196
105
122
195
104
124
194
102
125
194
103
125
194
102
125
195
103
124
194
101
122
195
100
119
196
103
115
194
111
255
255
255
255
255
255
255
255
255
255
255
255
255
255
255
255
255
255
255
255
255
255
255
255
255
255
255
255
255
255
255
255
255
255
255
255
255
255
255
255
255
255
255
255
255
255
255
255
255
255
255
255
255
255
255
255
255
255
255
255
255
255
255
255
255
255
255
255
255
255
255
255
255
255
255
255
255
255
255
255
255
255
255
255
255
255
255
255
255
255
255
255
255
255
255
255
255
255
255
255
255
255
255
255
255
255
255
255
255
255
255
255
255
255
255
255
255
255
254
255
255
255
255
254
254
254
252
255
254
247
255
254
255
255
255
240
255
253
190
220
212
255
255
255
97
146
130
57
122
100
42
118
92
255
255
255
38
121
93
34
122
92
255
255
255
32
122
92
33
123
87
39
126
82
255
255
255
66
149
91
92
171
101
255
255
255
114
190
110
121
194
112
255
255
255
122
194
110
123
193
107
124
193
104
255
255
255
126
193
103
126
194
103
255
255
255
127
193
103
125
193
102
124
193
102
255
255
255
125
194
102
125
194
101
255
255
255
124
193
99
128
197
104
255
255
255
130
198
107
133
198
110
135
200
112
255
255
255
139
203
115
142
204
119
255
255
255
142
203
124
144
206
128
142
204
125
255
255
255
143
205
122
140
202
119
255
255
255
139
201
118
135
199
114
255
255
255
132
196
111
129
195
108
124
194
104
255
255
255
122
193
103
123
195
105
255
255
255
124
195
104
124
193
106
121
193
113
255
255
255
97
174
106
63
144
94
255
255
255
47
130
89
35
122
87
33
122
91
255
255
255
32
121
94
34
124
99
255
255
255
30
121
95
31
122
96
255
255
255
33
123
96
33
122
95
34
123
94
255
255
255
34
123
93
34
123
93
255
255
255
33
122
93
31
120
91
41
127
91
255
255
255
58
141
92
97
174
104
255
255
255
121
194
110
123
195
104
255
255
255
123
195
104
122
195
105
121
194
105
255
255
255
120
194
104
120
195
105
255
255
255
121
195
105
123
195
104
125
194
102
255
255
255
125
194
101
123
194
98
255
255
255
122
196
98
119
197
102
255
255
255
255
255
255
255
255
255
255
255
255
255
255
255
255
255
255
255
255
255
255
255
255
255
255
255
255
255
255
255
255
255
255
255
255
255
255
255
255
255
255
255
255
255
255
255
255
255
255
255
255
255
255
255
255
255
255
255
255
255
255
255
255
255
255
255
255
255
255
255
255
255
255
255
255
255
255
255
255
255
255
255
255
255
255
255
255
255
255
255
255
255
255
255
255
255
255
255
255
255
255
255
255
255
255
255
255
255
255
255
255
255
255
255
255
255
255
255
255
254
254
254
254
255
255
252
255
255
248
255
255
244
255
254
213
235
230
138
180
166
115
161
146
73
134
114
41
117
91
39
121
93
38
121
93
35
122
93
30
120
90
31
122
91
33
123
87
38
126
83
60
143
88
63
146
90
88
167
100
115
190
113
114
190
111
121
194
111
122
194
110
122
194
110
123
193
107
124
193
105
126
193
103
126
193
103
127
193
103
127
193
103
127
193
103
126
192
104
125
192
103
127
193
105
126
194
104
130
197
107
130
197
106
125
193
101
136
203
113
140
207
119
133
201
112
147
211
128
148
210
129
154
216
134
146
210
125
154
214
134
157
215
139
153
211
134
155
212
139
156
213
141
158
215
141
152
211
133
158
215
138
158
215
138
150
208
129
156
213
138
152
210
133
142
203
121
149
208
127
143
205
122
138
202
118
125
194
106
128
197
110
126
197
108
123
196
106
124
194
105
125
193
103
125
192
105
122
194
113
123
194
114
99
173
108
65
144
95
67
147
96
50
133
91
36
121
88
32
120
90
34
121
90
35
122
94
34
124
98
33
122
95
33
122
94
33
123
96
34
123
94
32
121
90
31
120
88
35
124
94
34
122
90
34
122
90
34
123
93
32
121
89
38
125
88
51
134
88
53
136
90
93
169
105
121
193
112
121
193
110
122
194
103
123
195
103
123
195
103
122
195
106
122
195
106
122
194
105
121
194
105
122
193
105
122
194
105
120
194
105
121
194
105
123
194
105
124
194
104
125
194
101
125
194
101
124
194
99
123
194
98
124
196
99
121
195
98
255
255
255
255
255
255
255
255
255
255
255
255
255
255
255
255
255
255
255
255
255
255
255
255
255
255
255
255
255
255
255
255
255
255
255
255
255
255
255
255
255
255
255
255
255
255
255
255
255
255
255
255
255
255
255
255
255
255
255
255
255
255
255
255
255
255
255
255
255
255
255
255
255
255
255
255
255
255
255
255
255
255
255
255
255
255
255
255
255
255
255
255
255
255
255
255
255
255
255
255
255
255
255
255
255
255
255
255
254
255
254
255
255
255
255
255
255
255
255
255
254
255
255
253
255
255
255
255
255
249
255
254
227
245
241
164
203
190
255
255
255
84
143
124
41
117
91
255
255
255
36
120
92
36
123
94
255
255
255
31
122
91
32
123
87
38
126
84
255
255
255
57
140
87
85
164
98
255
255
255
114
189
113
121
195
112
122
194
109
255
255
255
123
193
106
123
193
104
255
255
255
125
193
103
127
193
103
255
255
255
127
193
103
127
193
104
127
192
105
255
255
255
127
193
105
133
199
111
255
255
255
136
202
113
142
207
120
147
212
126
255
255
255
152
215
134
155
216
137
255
255
255
157
217
139
157
216
138
159
217
141
255
255
255
158
214
141
158
213
142
255
255
255
160
215
143
160
215
142
255
255
255
162
217
142
160
215
142
161
216
144
255
255
255
156
212
137
154
212
133
255
255
255
149
209
128
143
206
123
132
200
114
255
255
255
130
198
111
124
194
105
255
255
255
126
193
103
125
192
106
255
255
255
123
193
115
100
174
108
70
149
98
255
255
255
52
134
92
37
122
87
255
255
255
36
122
90
35
121
91
33
121
92
255
255
255
35
123
92
34
122
90
255
255
255
30
118
85
33
121
88
34
121
88
255
255
255
33
121
88
38
125
86
255
255
255
50
133
86
92
169
105
255
255
255
121
192
113
123
193
104
123
194
102
255
255
255
122
195
106
122
195
106
255
255
255
122
195
106
123
194
105
123
193
105
255
255
255
122
194
105
122
194
105
255
255
255
124
194
105
124
194
104
255
255
255
124
193
101
124
194
100
124
195
100
255
255
255
255
255
255
255
255
255
255
255
255
255
255
255
255
255
255
255
255
255
255
255
255
255
255
255
255
255
255
255
255
255
255
255
255
255
255
255
255
255
255
255
255
255
255
255
255
255
255
255
255
255
255
255
255
255
255
255
255
255
255
255
255
255
255
255
255
255
255
255
255
255
255
255
255
255
255
255
255
255
255
255
255
255
255
255
255
255
255
255
255
255
255
255
255
255
255
255
255
255
255
255
255
255
255
255
255
253
255
254
254
255
254
255
255
255
255
255
255
254
255
255
255
255
255
253
255
255
250
255
254
235
251
247
255
255
255
193
228
216
98
155
136
255
255
255
42
116
91
35
119
91
34
123
93
255
255
255
33
124
93
32
122
87
255
255
255
36
126
84
53
137
85
81
160
96
255
255
255
113
188
113
121
195
112
255
255
255
121
195
108
122
194
106
255
255
255
123
193
104
125
194
103
126
193
103
255
255
255
127
193
103
127
193
105
255
255
255
128
194
107
128
193
107
135
200
114
255
255
255
142
208
121
146
211
125
255
255
255
153
216
133
156
218
138
255
255
255
157
218
141
158
216
141
159
216
140
255
255
255
159
215
140
160
216
142
255
255
255
159
214
142
161
215
144
161
215
143
255
255
255
161
215
142
162
216
144
255
255
255
161
215
144
161
215
145
255
255
255
159
214
139
159
216
138
153
213
133
255
255
255
148
210
129
138
203
119
255
255
255
133
200
114
125
194
105
127
193
105
255
255
255
125
192
107
123
193
113
255
255
255
100
175
108
73
152
100
54
136
92
255
255
255
38
123
86
37
122
87
255
255
255
35
121
88
35
123
89
255
255
255
35
122
88
33
121
86
33
121
85
255
255
255
35
122
87
35
122
87
255
255
255
40
126
86
50
133
84
92
168
103
255
255
255
121
192
114
123
193
105
255
255
255
123
194
103
122
195
106
255
255
255
122
195
106
122
195
106
123
194
105
255
255
255
124
194
105
124
193
104
255
255
255
123
193
104
123
193
104
124
194
105
255
255
255
124
194
104
123
192
101
255
255
255
125
194
101
124
194
100
255
255
255
255
255
255
255
255
255
255
255
255
255
255
255
255
255
255
255
255
255
255
255
255
255
255
255
255
255
255
255
255
255
255
255
255
255
255
255
255
255
255
255
255
255
255
255
255
255
255
255
255
255
255
255
255
255
255
255
255
255
255
255
255
255
255
255
255
255
255
255
255
255
255
255
255
255
255
255
255
255
255
255
255
255
255
255
255
255
255
255
255
255
255
255
255
255
255
255
253
255
254
253
255
254
254
255
254
254
254
254
254
254
254
254
254
254
253
253
253
253
254
254
252
254
254
246
255
253
232
255
248
214
244
234
130
180
163
46
118
94
44
117
92
35
119
91
31
121
90
34
125
94
34
125
94
33
123
90
32
121
82
34
124
83
41
129
79
69
152
90
108
186
114
111
187
114
119
194
112
121
195
106
121
195
107
121
195
104
122
194
102
123
193
103
125
194
101
125
194
102
127
193
103
127
193
103
127
192
105
129
195
109
129
194
108
135
199
115
141
204
122
152
215
134
147
212
128
153
216
135
156
218
138
155
218
136
158
217
142
159
217
144
159
218
144
158
215
144
160
215
143
162
215
143
160
214
141
161
214
141
162
215
143
160
215
142
162
215
142
161
214
143
161
214
142
161
214
142
162
214
143
162
213
144
162
214
145
161
213
145
161
214
144
162
215
144
162
215
143
162
216
141
161
215
139
157
215
137
161
217
140
157
216
138
143
207
124
147
211
128
140
206
121
133
199
111
128
194
107
130
196
107
125
192
105
122
193
112
122
194
113
103
178
109
82
161
104
57
139
92
61
142
92
42
124
78
37
121
83
37
121
78
36
121
78
36
122
85
37
122
80
36
122
79
35
122
80
36
122
85
37
124
83
47
132
87
43
128
86
54
137
84
91
169
100
120
192
111
120
192
113
123
192
106
124
193
105
124
193
104
123
193
107
122
194
106
121
195
106
121
195
106
122
195
105
123
194
105
124
194
105
125
194
105
124
193
103
124
193
103
124
193
102
123
193
103
123
193
105
124
194
105
125
195
107
124
194
105
124
193
103
126
195
104
127
194
103
255
255
255
255
255
255
255
255
255
255
255
255
255
255
255
255
255
255
255
255
255
255
255
255
255
255
255
255
255
255
255
255
255
255
255
255
255
255
255
255
255
255
255
255
255
255
255
255
255
255
255
255
255
255
255
255
255
255
255
255
255
255
255
255
255
255
255
255
255
255
255
255
255
255
255
255
255
255
255
255
255
255
255
255
255
255
255
255
255
255
255
255
255
255
255
255
255
255
255
253
255
254
254
255
254
255
255
255
255
255
255
255
255
255
254
254
254
255
255
255
254
255
254
248
255
254
255
255
255
239
255
253
149
192
178
57
125
102
255
255
255
36
120
92
31
121
90
255
255
255
32
123
92
33
124
91
255
255
255
31
121
84
36
124
78
63
147
88
255
255
255
105
185
114
118
194
113
255
255
255
121
195
106
122
196
103
122
195
101
255
255
255
124
194
101
125
194
102
255
255
255
126
194
103
126
192
105
255
255
255
129
194
110
137
201
119
144
207
126
255
255
255
154
216
137
155
217
139
255
255
255
157
218
140
159
217
143
160
216
145
255
255
255
159
214
145
160
215
144
255
255
255
163
216
143
162
214
141
163
215
142
255
255
255
164
216
143
162
214
142
255
255
255
162
214
142
163
215
143
255
255
255
163
214
144
162
214
145
161
213
144
255
255
255
162
214
144
163
215
142
255
255
255
162
215
140
160
213
139
162
217
142
255
255
255
159
217
140
151
214
133
255
255
255
144
208
125
137
203
115
255
255
255
132
197
108
126
193
106
122
194
112
255
255
255
105
180
109
91
170
111
255
255
255
67
147
93
45
127
75
42
125
76
255
255
255
38
121
73
38
122
75
255
255
255
39
124
77
35
122
77
52
137
89
255
255
255
61
144
89
92
170
100
255
255
255
119
192
110
122
192
104
255
255
255
124
193
105
124
194
108
122
194
107
255
255
255
122
195
105
122
195
104
255
255
255
122
195
104
124
194
105
124
194
104
255
255
255
124
193
102
124
193
102
255
255
255
124
193
104
124
194
106
255
255
255
124
194
106
125
194
105
126
193
103
255
255
255
255
255
255
255
255
255
255
255
255
255
255
255
255
255
255
255
255
255
255
255
255
255
255
255
255
255
255
255
255
255
255
255
255
255
255
255
255
255
255
255
255
255
255
255
255
255
255
255
255
255
255
255
255
255
255
255
255
255
255
255
255
255
255
255
255
255
255
255
255
255
255
255
255
255
255
255
255
255
255
255
255
255
255
255
255
255
255
255
255
255
255
255
255
253
255
254
253
255
254
254
255
254
255
255
255
255
255
255
254
254
254
254
254
254
254
254
254
254
254
254
251
254
254
246
255
254
244
255
255
195
224
216
106
160
142
49
124
99
42
122
94
33
121
91
31
122
91
32
122
91
32
123
92
33
123
89
32
122
86
33
121
82
52
137
86
96
178
114
101
182
114
114
193
114
119
195
105
121
195
105
123
195
101
124
195
100
124
195
99
124
194
100
125
194
101
125
194
103
125
194
103
126
193
106
130
195
112
129
194
111
141
204
124
148
210
132
157
217
143
156
217
140
157
216
141
158
216
142
158
217
142
161
216
144
162
215
145
160
213
145
159
214
145
162
215
145
163
215
143
163
216
144
165
217
143
163
215
141
165
217
142
165
217
142
163
215
141
161
213
140
162
214
141
162
215
143
163
216
144
163
216
144
162
214
143
162
214
143
161
213
141
162
213
143
162
214
143
163
215
142
163
215
141
163
215
141
162
213
140
160
213
140
163
217
143
162
216
143
158
216
140
154
216
136
157
217
138
150
214
130
141
207
119
146
211
123
135
200
111
127
194
106
122
194
111
123
193
111
113
186
113
101
178
116
112
187
121
86
164
99
76
156
92
49
131
75
63
144
81
61
143
82
45
129
76
60
144
86
69
153
95
89
171
110
72
155
97
100
178
104
120
194
108
119
193
109
123
193
102
124
192
103
123
192
103
124
192
107
123
193
108
122
194
107
122
195
105
121
195
102
121
195
101
122
195
103
121
194
102
123
194
105
124
194
105
124
193
103
124
193
103
125
193
102
124
193
102
125
194
103
124
193
104
124
194
106
123
193
105
123
193
104
124
193
103
125
192
101
255
255
255
255
255
255
255
255
255
255
255
255
255
255
255
255
255
255
255
255
255
255
255
255
255
255
255
255
255
255
255
255
255
255
255
255
255
255
255
255
255
255
255
255
255
255
255
255
255
255
255
255
255
255
255
255
255
255
255
255
255
255
255
255
255
255
255
255
255
255
255
255
255
255
255
255
255
255
255
255
255
255
255
255
255
255
255
255
255
255
255
255
255
254
254
254
253
254
254
255
255
255
255
255
255
255
255
255
254
254
254
255
255
255
254
254
254
251
254
253
255
255
255
246
255
253
218
242
235
140
187
171
255
255
255
62
131
108
36
120
91
255
255
255
32
122
91
32
123
92
33
124
91
255
255
255
34
123
86
47
133
86
255
255
255
87
170
108
112
191
115
120
195
106
255
255
255
122
195
101
124
195
99
255
255
255
125
195
99
125
194
99
255
255
255
125
193
102
127
194
107
131
196
112
255
255
255
142
205
125
149
211
134
255
255
255
157
217
143
158
216
142
159
215
142
255
255
255
161
216
143
163
215
145
255
255
255
161
213
145
162
215
145
255
255
255
164
216
144
165
216
144
164
215
141
255
255
255
162
214
139
164
216
141
255
255
255
161
213
139
161
214
141
162
216
144
255
255
255
163
215
144
163
215
143
255
255
255
162
214
142
161
213
141
255
255
255
163
215
143
163
215
142
164
215
141
255
255
255
162
213
141
161
213
142
255
255
255
160
215
143
156
214
139
158
218
138
255
255
255
153
216
131
148
212
125
255
255
255
136
201
112
127
195
107
123
193
110
255
255
255
117
190
114
116
191
119
255
255
255
99
176
105
92
172
100
255
255
255
80
161
92
82
165
99
83
166
101
255
255
255
100
182
116
107
186
109
255
255
255
120
194
107
122
194
101
124
193
102
255
255
255
124
192
106
124
193
109
255
255
255
123
194
108
122
195
104
255
255
255
121
195
100
121
195
100
122
193
103
255
255
255
124
194
105
123
193
105
255
255
255
125
193
103
126
193
103
124
193
102
255
255
255
123
193
103
123
192
104
255
255
255
123
193
104
125
195
103
255
255
255
255
255
255
255
255
255
255
255
255
255
255
255
255
255
255
255
255
255
255
255
255
255
255
255
255
255
255
255
255
255
255
255
255
255
255
255
255
255
255
255
255
255
255
255
255
255
255
255
255
255
255
255
255
255
255
255
255
255
255
255
255
255
255
255
255
255
255
255
255
255
255
255
255
255
255
255
255
255
255
255
255
255
255
255
254
254
254
254
254
254
253
253
253
252
252
252
253
253
253
254
254
254
254
254
254
254
255
255
254
255
255
254
255
255
250
255
254
247
255
252
244
255
254
202
231
223
95
148
130
78
139
118
44
118
93
34
122
92
33
122
92
31
122
92
31
123
92
36
124
92
35
124
89
41
128
88
65
148
95
77
160
102
101
180
108
121
196
109
124
197
104
123
196
102
125
195
100
125
195
101
125
195
100
125
194
100
123
192
99
124
193
100
126
193
105
131
196
113
142
206
125
142
206
126
151
212
134
157
216
142
157
216
142
158
215
142
159
214
141
161
215
141
161
215
142
162
215
142
163
215
143
162
213
144
163
213
143
164
215
143
165
216
144
163
214
141
164
214
141
159
211
137
160
212
137
161
213
138
163
215
140
162
214
139
161
215
142
160
215
143
161
216
144
162
216
145
162
215
144
162
215
143
164
216
144
163
216
144
162
214
142
162
214
142
164
216
144
163
216
142
163
214
140
165
215
142
165
215
142
164
214
143
162
214
144
163
215
146
159
214
142
160
217
143
158
219
137
158
218
137
155
216
132
148
212
125
151
214
127
139
204
115
130
197
110
123
194
110
124
194
109
121
193
111
119
193
116
120
194
112
116
193
110
105
185
107
114
193
111
113
193
113
117
197
118
110
191
119
116
194
111
121
196
106
121
196
106
123
195
101
123
194
100
123
193
104
124
192
105
123
192
107
123
193
109
124
193
109
124
194
108
123
195
103
122
195
101
122
196
99
121
195
99
122
194
102
123
193
104
123
193
105
123
193
105
124
193
104
125
194
104
126
193
102
125
193
100
123
192
101
126
193
101
125
193
102
123
193
103
125
195
104
124
196
103
255
255
255
255
255
255
255
255
255
255
255
255
255
255
255
255
255
255
255
255
255
255
255
255
255
255
255
255
255
255
255
255
255
255
255
255
255
255
255
255
255
255
255
255
255
255
255
255
255
255
255
255
255
255
255
255
255
255
255
255
255
255
255
255
255
255
255
255
255
255
255
255
255
255
255
255
255
255
255
255
255
255
255
255
255
255
255
254
254
254
254
254
254
252
252
252
255
255
255
253
253
253
253
253
253
255
255
255
254
255
255
253
255
254
252
255
254
255
255
255
247
255
254
225
242
240
255
255
255
120
163
149
49
117
94
35
121
92
255
255
255
31
122
92
30
122
91
255
255
255
34
123
92
39
125
88
255
255
255
54
137
88
93
172
104
122
196
111
255
255
255
123
196
103
126
196
101
255
255
255
125
194
102
125
194
102
123
192
100
255
255
255
125
192
104
130
194
112
255
255
255
140
203
123
150
211
133
255
255
255
157
215
141
158
215
142
159
214
141
255
255
255
161
215
141
163
216
141
255
255
255
163
215
143
163
214
143
163
214
143
255
255
255
165
215
143
163
213
140
255
255
255
161
213
139
161
213
138
164
216
141
255
255
255
161
216
142
159
216
143
255
255
255
160
216
143
160
216
143
255
255
255
160
214
142
161
215
143
162
215
143
255
255
255
162
215
143
164
216
143
255
255
255
162
215
140
163
214
140
165
215
142
255
255
255
164
215
144
163
215
146
255
255
255
160
215
145
160
217
143
255
255
255
159
218
137
156
216
133
153
214
129
255
255
255
141
205
118
132
198
111
255
255
255
125
194
108
122
193
108
121
194
108
255
255
255
120
196
109
118
195
109
255
255
255
121
199
114
119
197
111
120
196
105
255
255
255
122
196
101
124
195
100
255
255
255
123
194
103
123
193
105
255
255
255
123
192
108
123
193
108
124
194
107
255
255
255
123
195
101
121
195
99
255
255
255
121
195
100
122
194
102
123
193
105
255
255
255
124
194
105
125
193
104
255
255
255
126
193
101
127
194
101
255
255
255
127
194
101
125
195
103
123
196
103
255
255
255
255
255
255
255
255
255
255
255
255
255
255
255
255
255
255
255
255
255
255
255
255
255
255
255
255
255
255
255
255
255
255
255
255
255
255
255
255
255
255
255
255
255
255
255
255
255
255
255
255
255
255
255
255
255
255
255
255
255
255
255
255
255
255
255
255
255
255
255
255
255
255
255
255
255
255
255
255
255
255
255
255
255
255
255
255
254
255
255
254
255
255
255
255
254
254
254
254
254
254
254
254
254
255
255
255
254
255
255
254
255
254
255
255
255
252
254
253
251
255
254
255
255
255
235
248
246
148
182
172
67
127
107
255
255
255
37
120
92
32
122
92
255
255
255
30
123
92
32
123
92
36
123
89
255
255
255
44
128
81
84
163
99
255
255
255
121
196
113
123
195
103
125
195
101
255
255
255
124
194
102
125
194
103
255
255
255
125
194
102
123
192
104
255
255
255
127
193
110
138
200
120
149
209
131
255
255
255
157
215
139
159
216
142
255
255
255
159
215
142
161
214
140
162
215
141
255
255
255
164
216
142
163
215
143
255
255
255
163
215
143
166
216
145
255
255
255
164
215
143
163
215
141
161
214
139
255
255
255
163
217
141
162
217
141
255
255
255
160
217
142
158
216
142
160
216
143
255
255
255
159
215
142
159
215
142
255
255
255
160
215
142
160
213
141
255
255
255
162
215
142
162
216
141
162
214
140
255
255
255
164
214
141
163
215
141
255
255
255
163
215
144
160
214
145
160
216
145
255
255
255
160
217
143
159
218
138
255
255
255
157
217
134
155
215
131
143
206
120
255
255
255
133
198
112
127
194
108
255
255
255
123
194
107
122
196
105
255
255
255
121
196
106
119
195
106
121
197
108
255
255
255
121
196
105
122
196
102
255
255
255
123
195
101
124
195
103
123
193
104
255
255
255
123
193
105
123
193
107
255
255
255
123
193
107
124
194
106
255
255
255
122
195
101
121
195
100
121
195
100
255
255
255
122
194
102
124
194
105
255
255
255
124
193
104
125
193
103
127
194
102
255
255
255
127
194
101
125
194
101
255
255
255
123
195
102
121
196
101
255
255
255
255
255
255
255
255
255
255
255
255
255
255
255
255
255
255
255
255
255
255
255
255
255
255
255
255
255
255
255
255
255
255
255
255
255
255
255
255
255
255
255
255
255
255
255
255
255
255
255
255
255
255
255
255
255
255
255
255
255
255
255
255
255
255
255
255
255
255
255
255
255
255
255
255
255
255
255
254
255
255
254
255
255
254
255
255
255
255
255
255
255
254
254
254
255
255
255
254
254
254
255
255
255
254
254
254
254
254
254
253
254
254
254
254
254
251
254
254
243
252
250
217
238
232
127
174
158
48
121
97
42
120
94
34
121
92
29
124
92
30
123
92
32
123
91
34
122
88
35
121
80
38
124
80
66
147
91
111
187
111
117
192
112
120
193
105
123
193
100
125
194
104
125
194
103
124
193
104
125
194
105
125
194
104
123
194
106
122
194
108
125
193
108
128
195
112
143
205
125
158
215
138
157
215
138
161
216
141
162
216
142
160
215
142
162
215
141
163
215
141
163
215
141
163
215
141
163
215
142
163
215
143
163
215
143
163
215
143
164
216
144
165
216
145
160
212
141
160
214
140
158
214
139
161
216
140
158
216
139
158
216
139
159
217
141
157
217
140
156
216
139
160
218
142
159
216
142
157
215
139
158
215
140
159
215
141
160
216
141
160
216
141
159
214
140
160
216
141
161
216
142
160
212
140
162
213
140
162
214
141
163
215
141
162
215
141
161
214
142
161
214
144
161
214
146
160
215
145
160
215
145
160
216
143
160
218
139
161
218
140
160
217
137
159
216
135
145
206
122
146
206
123
135
198
113
127
194
108
127
195
107
125
194
104
123
195
102
123
194
100
121
194
102
121
194
103
121
195
104
121
194
103
122
194
103
123
195
102
124
194
105
124
194
104
124
195
103
123
194
103
123
194
102
123
194
103
123
193
106
123
193
105
123
193
105
123
194
105
123
193
105
123
194
102
123
194
100
122
195
100
123
194
100
123
194
102
123
193
104
122
192
103
127
194
104
127
194
103
127
194
102
125
193
101
124
195
101
124
195
101
122
196
101
115
193
108
255
255
255
255
255
255
255
255
255
255
255
255
255
255
255
255
255
255
255
255
255
255
255
255
255
255
255
255
255
255
255
255
255
255
255
255
255
255
255
255
255
255
255
255
255
255
255
255
255
255
255
255
255
255
255
255
255
255
255
255
255
255
255
255
255
255
255
255
255
255
255
255
255
255
255
255
255
255
255
255
255
255
254
255
255
255
255
254
254
254
253
253
253
253
253
253
255
255
255
253
253
253
254
254
254
255
255
255
253
253
253
255
254
254
253
255
255
255
255
255
238
252
249
160
199
186
255
255
255
57
125
102
36
120
92
30
124
92
255
255
255
32
124
91
33
123
88
255
255
255
35
122
81
57
140
88
255
255
255
99
177
106
118
192
107
122
194
102
255
255
255
125
195
105
124
194
105
255
255
255
124
193
105
123
194
105
122
194
107
255
255
255
123
194
108
138
203
119
255
255
255
157
216
136
161
217
140
255
255
255
163
217
142
163
215
141
163
215
141
255
255
255
163
215
141
162
215
142
255
255
255
162
215
143
161
214
142
162
215
143
255
255
255
162
214
144
159
213
140
255
255
255
158
215
139
155
214
136
154
214
135
255
255
255
153
215
135
152
214
135
255
255
255
154
214
137
156
216
138
255
255
255
154
214
136
158
216
140
159
216
140
255
255
255
159
217
140
162
218
143
255
255
255
162
216
142
161
214
140
162
215
141
255
255
255
162
215
141
161
214
143
255
255
255
161
214
145
161
214
146
255
255
255
161
215
145
161
216
143
162
217
141
255
255
255
161
216
139
160
216
138
255
255
255
147
206
124
135
199
114
128
195
107
255
255
255
126
194
102
123
194
101
255
255
255
122
194
102
122
193
103
122
193
103
255
255
255
123
193
104
123
193
104
255
255
255
123
194
103
123
195
102
255
255
255
122
195
101
122
194
102
123
193
105
255
255
255
123
193
105
123
193
105
255
255
255
123
193
101
123
194
100
123
194
100
255
255
255
123
193
101
126
193
104
255
255
255
127
194
104
124
193
101
255
255
255
123
194
101
122
196
102
114
191
106
255
255
255
255
255
255
255
255
255
255
255
255
255
255
255
255
255
255
255
255
255
255
255
255
255
255
255
255
255
255
255
255
255
255
255
255
255
255
255
255
255
255
255
255
255
255
255
255
255
255
255
255
255
255
255
255
255
255
255
255
255
255
255
255
255
255
255
255
255
255
255
255
255
255
255
255
255
255
255
255
255
255
255
255
254
254
254
254
254
254
254
254
254
254
254
254
254
253
254
253
253
253
254
253
254
255
253
254
254
253
253
254
253
254
254
254
254
250
255
255
246
255
253
211
235
228
105
158
140
76
137
116
48
124
98
31
122
91
30
123
91
31
124
91
32
124
89
35
123
85
35
122
83
42
128
81
69
151
90
86
165
100
108
185
109
123
196
110
125
196
107
125
195
106
124
194
105
121
191
103
123
193
105
124
194
106
123
195
105
122
195
106
121
194
107
126
196
107
141
206
118
152
213
129
156
216
133
161
217
139
163
217
142
163
215
141
163
215
141
163
215
141
163
215
141
162
215
142
162
215
143
162
215
143
160
215
142
158
214
141
159
216
143
161
216
144
154
211
137
152
210
133
158
214
138
144
204
123
141
204
120
138
203
117
146
210
127
139
203
119
138
201
118
147
209
129
139
202
121
141
203
122
150
212
133
141
205
122
146
207
126
149
209
130
156
215
137
152
212
132
157
215
137
163
219
144
160
216
141
160
215
140
160
216
141
161
216
141
161
216
142
160
215
143
161
214
144
160
215
144
160
215
145
161
214
146
162
215
147
162
215
146
163
214
144
162
216
142
163
215
143
162
215
142
161
215
139
160
214
139
146
205
125
136
199
112
130
195
106
130
195
107
126
193
104
123
194
103
125
194
104
124
193
105
124
192
105
123
193
104
123
193
104
123
193
103
123
193
103
122
194
101
122
196
100
122
196
100
122
196
99
121
195
99
122
194
102
123
193
105
123
193
105
123
193
105
123
193
104
123
191
104
124
193
101
124
193
100
123
194
100
126
193
102
126
193
104
127
193
104
123
192
102
122
193
104
123
194
103
123
196
105
111
188
103
93
174
101
96
176
104
255
255
255
255
255
255
255
255
255
255
255
255
255
255
255
255
255
255
255
255
255
255
255
255
255
255
255
255
255
255
255
255
255
255
255
255
255
255
255
255
255
255
255
255
255
255
255
255
255
255
255
255
255
255
255
255
255
255
255
255
255
255
255
255
255
255
255
255
255
255
255
255
255
255
255
255
255
255
254
254
254
255
255
255
254
254
254
255
255
255
255
255
255
255
254
255
255
254
255
255
253
254
255
255
255
255
253
254
254
253
254
255
255
255
251
255
255
230
248
243
255
255
255
150
195
180
66
134
111
34
121
92
255
255
255
30
122
91
30
124
90
255
255
255
33
123
87
36
123
81
53
138
82
255
255
255
96
176
106
121
196
113
255
255
255
124
196
107
124
194
105
121
191
103
255
255
255
125
195
106
126
195
106
255
255
255
124
194
104
123
194
104
255
255
255
132
200
109
149
212
125
159
217
137
255
255
255
161
215
140
163
215
142
255
255
255
163
215
142
162
215
142
161
215
142
255
255
255
160
216
142
156
214
140
255
255
255
155
214
139
149
209
133
255
255
255
145
205
127
140
201
118
134
197
111
255
255
255
134
199
111
131
197
110
255
255
255
131
195
110
131
195
111
132
196
113
255
255
255
133
198
113
135
199
114
255
255
255
139
202
120
142
204
123
255
255
255
148
209
128
153
212
134
158
215
139
255
255
255
160
216
140
160
216
141
255
255
255
160
216
142
159
215
143
159
215
144
255
255
255
161
215
146
162
215
147
255
255
255
163
214
146
163
214
144
163
214
143
255
255
255
162
214
142
160
214
139
255
255
255
146
205
124
137
201
114
255
255
255
129
195
108
126
193
105
125
194
105
255
255
255
124
192
105
123
193
105
255
255
255
123
193
104
122
194
101
121
195
100
255
255
255
122
196
99
121
196
98
255
255
255
121
195
99
122
194
102
255
255
255
123
193
105
124
192
105
125
192
104
255
255
255
125
193
102
126
193
102
255
255
255
126
192
104
123
191
104
122
193
104
255
255
255
122
195
107
108
185
103
255
255
255
90
171
98
53
138
85
255
255
255
255
255
255
255
255
255
255
255
255
255
255
255
255
255
255
255
255
255
255
255
255
255
255
255
255
255
255
255
255
255
255
255
255
255
255
255
255
255
255
255
255
255
255
255
255
255
255
255
255
255
255
255
255
255
255
255
255
255
255
255
255
255
255
255
255
255
254
254
254
255
255
255
255
255
255
255
255
255
254
254
254
255
255
255
254
254
254
255
254
255
255
254
255
255
255
255
255
254
255
255
254
255
255
255
255
254
254
254
252
254
254
240
252
250
255
255
255
196
234
222
93
154
134
255
255
255
38
120
93
31
122
92
30
123
91
255
255
255
32
123
89
34
123
84
255
255
255
40
126
77
85
167
103
255
255
255
115
193
114
122
195
108
123
194
105
255
255
255
121
191
102
125
195
106
255
255
255
127
197
107
125
194
104
124
194
103
255
255
255
124
193
100
139
205
115
255
255
255
155
217
133
160
216
139
255
255
255
161
215
140
163
215
143
161
214
141
255
255
255
160
214
142
159
215
140
255
255
255
154
213
137
150
212
135
144
206
128
255
255
255
137
199
120
135
198
114
255
255
255
131
195
107
130
195
106
129
195
106
255
255
255
125
191
104
127
193
106
255
255
255
126
192
105
127
193
107
255
255
255
129
195
108
129
195
108
134
199
114
255
255
255
137
200
117
145
206
125
255
255
255
148
208
129
158
216
139
158
216
139
255
255
255
159
217
140
159
216
141
255
255
255
159
215
142
160
216
144
255
255
255
161
215
145
162
215
147
163
214
145
255
255
255
163
214
145
163
213
144
255
255
255
162
214
142
160
214
138
147
208
125
255
255
255
138
202
116
129
195
107
255
255
255
126
193
105
125
193
106
124
193
105
255
255
255
123
193
104
123
194
101
255
255
255
122
195
99
122
196
99
255
255
255
121
196
98
121
197
97
121
195
99
255
255
255
122
194
102
125
193
106
255
255
255
125
192
105
127
193
104
126
193
103
255
255
255
126
193
104
124
191
106
255
255
255
122
192
107
121
195
108
255
255
255
105
183
102
86
168
96
51
135
81
255
255
255
255
255
255
255
255
255
255
255
255
255
255
255
255
255
255
255
255
255
255
255
255
255
255
255
255
255
255
255
255
255
255
255
255
255
255
255
255
255
255
255
255
255
255
255
255
255
255
255
255
255
255
255
255
255
255
255
255
255
255
255
255
255
255
255
255
255
255
255
255
255
255
255
255
255
255
255
255
255
255
255
255
255
255
255
254
254
254
255
255
255
255
255
255
254
253
253
254
253
254
254
254
254
253
255
254
254
254
254
251
254
253
246
253
251
238
255
252
222
247
241
160
201
190
52
118
98
43
118
94
38
120
96
30
121
95
30
123
93
32
124
92
31
123
90
35
125
87
37
125
82
57
142
91
100
181
113
108
187
114
117
194
111
122
195
106
124
194
105
123
193
104
124
194
105
126
195
106
127
196
107
125
194
103
125
193
101
126
193
100
125
193
100
127
194
101
131
198
106
145
209
121
148
211
127
159
216
138
160
215
139
159
214
138
158
213
139
155
212
138
158
213
140
151
210
134
146
209
129
151
212
133
138
203
120
133
199
116
126
192
109
131
195
114
127
194
107
126
193
103
128
193
105
127
194
101
126
193
102
125
191
101
125
191
102
124
192
103
125
194
105
124
192
103
125
194
104
125
194
104
125
192
104
124
193
104
125
194
105
124
193
104
130
196
109
127
193
106
132
197
111
140
202
120
133
196
112
141
202
120
151
213
132
156
215
137
154
214
134
158
216
139
158
216
141
158
216
139
159
216
141
160
216
144
160
216
142
162
215
143
163
214
145
163
214
145
163
214
146
163
214
145
163
213
144
162
214
142
160
215
139
157
216
136
147
209
125
147
209
125
137
201
115
130
195
108
130
194
108
127
192
106
125
193
106
124
193
105
124
194
104
123
195
101
122
194
100
121
195
99
121
196
98
121
196
98
121
197
97
121
197
97
121
196
98
122
195
100
123
195
102
124
194
103
124
193
105
124
193
103
126
193
102
127
194
104
127
193
104
125
193
106
123
192
111
122
192
110
121
193
115
101
178
105
103
180
101
79
161
93
47
133
78
34
123
79
35
123
81
255
255
255
255
255
255
255
255
255
255
255
255
255
255
255
255
255
255
255
255
255
255
255
255
255
255
255
255
255
255
255
255
255
255
255
255
255
255
255
255
255
255
255
255
255
255
255
255
255
255
255
255
255
255
255
255
255
255
255
255
255
255
255
255
255
255
255
255
255
255
255
255
255
255
255
255
255
255
255
255
255
255
255
255
255
255
255
255
255
255
255
255
255
255
254
255
254
254
254
253
255
254
255
255
255
252
255
255
248
254
252
255
255
255
240
255
251
194
225
217
255
255
255
95
150
134
45
120
98
33
122
96
255
255
255
27
120
93
29
123
92
255
255
255
30
122
87
41
129
83
80
163
100
255
255
255
114
193
113
120
195
107
255
255
255
123
195
104
123
194
104
125
194
105
255
255
255
124
193
102
124
193
101
255
255
255
126
193
100
127
194
101
255
255
255
129
195
103
133
198
111
148
208
128
255
255
255
153
210
133
153
210
134
255
255
255
153
210
135
146
206
129
141
205
123
255
255
255
132
198
113
129
197
111
255
255
255
124
192
106
125
193
105
255
255
255
125
193
102
125
194
99
125
194
101
255
255
255
124
192
102
124
192
101
255
255
255
124
193
103
125
195
104
125
195
104
255
255
255
125
195
104
124
194
103
255
255
255
124
194
103
121
190
100
255
255
255
127
193
104
130
195
108
131
195
110
255
255
255
139
201
117
148
210
127
255
255
255
152
212
132
157
217
138
158
217
139
255
255
255
159
216
140
160
215
141
255
255
255
162
214
142
162
213
144
162
214
145
255
255
255
163
214
144
160
215
141
255
255
255
159
216
139
157
216
136
255
255
255
147
208
126
137
200
116
130
193
108
255
255
255
127
192
106
125
194
105
255
255
255
123
194
103
122
196
101
122
196
99
255
255
255
122
196
98
121
197
97
255
255
255
121
197
98
121
195
100
255
255
255
124
195
102
124
194
102
124
192
100
255
255
255
125
193
102
125
194
105
255
255
255
122
193
110
121
193
116
100
176
107
255
255
255
78
158
96
45
132
79
255
255
255
33
123
79
33
123
89
255
255
255
255
255
255
255
255
255
255
255
255
255
255
255
255
255
255
255
255
255
255
255
255
255
255
255
255
255
255
255
255
255
255
255
255
255
255
255
255
255
255
255
255
255
255
255
255
255
255
255
255
255
255
255
255
255
255
255
255
255
255
255
255
255
255
255
255
255
255
255
255
255
255
255
255
255
255
255
255
255
255
255
255
255
255
255
255
255
255
255
255
255
255
255
255
255
255
255
252
254
253
252
254
254
252
254
254
252
255
255
245
255
252
237
254
249
193
230
218
141
187
173
84
143
126
40
117
96
31
122
96
28
121
94
29
122
94
32
125
95
29
123
89
33
124
84
52
139
86
100
182
110
108
188
112
118
196
111
118
193
100
121
194
102
121
194
104
122
194
105
124
194
105
124
193
104
124
194
103
125
194
101
126
193
100
126
194
101
127
195
102
127
194
102
127
194
104
129
194
109
130
193
112
142
203
124
135
198
116
134
198
115
146
206
128
135
199
115
131
197
112
125
195
105
128
196
109
123
195
103
122
195
103
122
193
104
123
195
104
125
195
103
124
193
102
125
194
101
125
194
100
125
194
101
124
193
102
125
194
102
124
194
102
123
193
101
123
194
102
124
195
103
123
194
102
124
195
103
123
195
101
123
195
101
124
195
102
123
195
101
123
193
99
121
190
99
124
193
100
126
194
104
128
194
106
130
194
108
129
193
107
134
198
112
144
207
123
141
205
119
148
211
127
157
219
136
158
217
138
158
217
137
159
216
138
161
215
139
161
215
139
161
214
141
161
214
144
162
214
145
161
215
144
160
216
142
159
215
140
159
216
140
159
216
139
158
216
137
159
216
139
147
206
126
137
197
114
130
193
108
130
194
108
127
194
105
125
194
104
124
195
103
123
196
102
122
196
101
122
196
99
121
196
99
121
197
99
121
197
98
122
196
100
122
195
100
123
195
101
124
195
101
125
195
100
124
194
100
124
192
99
123
194
101
122
195
108
122
194
108
119
193
112
97
174
106
74
155
98
76
156
98
47
131
88
33
123
84
32
123
80
31
125
88
31
123
89
255
255
255
255
255
255
255
255
255
255
255
255
255
255
255
255
255
255
255
255
255
255
255
255
255
255
255
255
255
255
255
255
255
255
255
255
255
255
255
255
255
255
255
255
255
255
255
255
255
255
255
255
255
255
255
255
255
255
255
255
255
255
255
255
255
255
255
255
255
255
255
255
255
255
255
255
255
255
255
255
255
255
255
255
255
255
255
255
255
255
255
255
255
255
255
255
255
255
255
254
255
255
253
254
253
255
255
255
254
254
255
246
255
253
219
246
237
255
255
255
114
166
150
48
118
98
255
255
255
35
120
96
30
121
94
32
123
94
255
255
255
33
125
87
45
133
84
255
255
255
86
169
103
116
195
113
255
255
255
119
195
104
120
194
104
121
195
106
255
255
255
123
195
106
124
195
105
255
255
255
125
195
103
125
193
100
126
194
101
255
255
255
126
195
104
126
193
105
255
255
255
127
193
108
127
193
108
255
255
255
128
195
109
128
195
108
127
194
106
255
255
255
125
194
103
122
195
101
255
255
255
122
196
101
122
195
104
124
196
104
255
255
255
125
195
103
125
194
101
255
255
255
125
194
101
125
194
101
125
194
102
255
255
255
124
194
103
123
194
102
255
255
255
123
194
102
122
195
101
255
255
255
122
195
100
124
196
102
124
195
100
255
255
255
124
195
100
123
193
100
255
255
255
126
194
103
128
193
106
127
192
106
255
255
255
132
197
110
138
202
116
255
255
255
147
210
126
157
219
135
255
255
255
158
217
136
160
216
137
161
215
139
255
255
255
161
214
141
161
214
144
255
255
255
160
215
143
160
216
142
160
216
140
255
255
255
161
216
140
159
216
139
255
255
255
147
206
125
136
198
113
130
194
107
255
255
255
126
194
104
124
195
103
255
255
255
123
196
102
122
196
101
255
255
255
122
196
100
122
196
101
122
196
101
255
255
255
123
195
101
125
196
101
255
255
255
124
195
101
123
194
102
122
195
107
255
255
255
119
195
113
95
174
102
255
255
255
72
154
97
47
131
90
255
255
255
34
122
88
31
124
91
30
123
90
255
255
255
255
255
255
255
255
255
255
255
255
255
255
255
255
255
255
255
255
255
255
255
255
255
255
255
255
255
255
255
255
255
255
255
255
255
255
255
255
255
255
255
255
255
255
255
255
255
255
255
255
255
255
255
255
255
255
255
255
255
255
255
255
255
255
255
255
255
255
255
255
255
255
255
255
255
255
255
255
255
255
255
255
255
255
255
255
255
255
255
255
255
255
255
255
255
255
255
255
255
255
254
254
254
255
255
255
255
254
255
250
255
254
255
255
255
235
252
247
155
198
184
255
255
255
64
127
108
40
119
96
34
121
95
255
255
255
30
120
92
32
123
89
255
255
255
36
126
81
67
153
91
105
185
108
255
255
255
120
196
107
119
194
104
255
255
255
121
195
106
122
195
106
122
195
105
255
255
255
125
196
105
125
195
102
255
255
255
124
193
100
124
195
102
255
255
255
125
195
105
124
192
105
125
193
106
255
255
255
124
194
105
126
195
105
255
255
255
125
194
102
124
194
101
122
195
100
255
255
255
121
197
99
122
196
104
255
255
255
122
195
105
124
196
104
255
255
255
125
195
103
125
194
101
125
194
101
255
255
255
125
194
101
124
195
103
255
255
255
124
195
103
123
194
102
122
194
101
255
255
255
121
195
100
123
196
102
255
255
255
123
197
101
124
196
100
255
255
255
123
195
100
123
194
100
126
194
103
255
255
255
127
193
105
126
192
105
255
255
255
131
196
109
135
199
113
146
209
124
255
255
255
157
219
134
159
217
135
255
255
255
161
217
137
161
215
139
162
215
143
255
255
255
161
214
144
160
215
143
255
255
255
161
215
143
162
216
141
255
255
255
161
216
141
159
216
139
146
206
124
255
255
255
135
197
112
129
194
106
255
255
255
126
194
103
124
195
103
123
196
102
255
255
255
122
196
101
122
196
101
255
255
255
122
196
102
121
195
100
255
255
255
123
195
101
125
197
102
123
195
103
255
255
255
121
195
107
119
196
114
255
255
255
94
173
101
71
154
93
46
131
89
255
255
255
34
123
90
30
123
94
255
255
255
30
123
92
30
122
91
255
255
255
255
255
255
255
255
255
255
255
255
255
255
255
255
255
255
255
255
255
255
255
255
255
255
255
255
255
255
255
255
255
255
255
255
255
255
255
255
255
255
255
255
255
255
255
255
255
255
255
255
255
255
255
255
255
255
255
255
255
255
255
255
255
255
254
254
254
254
254
254
254
254
254
255
255
255
255
255
255
255
255
255
255
255
255
255
255
255
255
255
255
255
255
255
255
255
255
254
254
254
254
254
254
253
254
254
250
255
255
244
254
252
224
246
240
145
194
176
100
156
138
56
124
101
39
119
93
36
122
95
34
122
94
34
123
92
33
124
86
34
125
83
38
127
77
70
155
90
111
190
110
117
193
109
120
195
108
119
193
104
120
194
105
121
194
105
121
196
106
120
195
104
121
195
104
121
195
102
123
195
101
124
194
100
122
195
99
120
194
99
123
195
102
123
194
103
123
193
104
123
193
104
123
193
104
124
194
105
125
195
103
125
194
102
125
194
100
125
195
99
122
195
99
121
196
99
122
196
103
121
196
105
121
195
105
121
195
105
123
195
104
124
195
104
124
195
103
124
194
102
124
193
100
124
194
101
124
194
102
124
195
103
124
195
103
124
195
103
122
194
102
121
194
102
121
194
101
121
195
101
121
195
100
122
197
101
121
195
99
122
196
99
123
196
99
122
196
99
123
195
100
124
195
102
125
194
104
125
194
104
125
194
105
126
192
105
126
192
105
129
194
107
131
195
108
145
208
122
144
207
121
156
218
133
159
218
135
159
218
136
160
216
140
163
216
144
162
215
144
162
215
144
162
214
144
161
215
144
163
214
145
163
214
144
162
215
143
162
215
143
161
216
142
159
216
139
145
205
123
144
204
122
132
196
109
129
194
105
128
193
104
125
194
103
124
195
103
123
195
102
124
195
103
124
195
104
123
196
103
123
196
104
121
194
102
120
194
101
120
193
103
122
196
106
119
196
109
120
195
108
117
194
113
90
170
98
92
172
100
67
150
88
45
132
85
33
123
87
34
123
89
29
122
94
29
123
94
30
123
94
31
123
94
34
122
92
255
255
255
255
255
255
255
255
255
255
255
255
255
255
255
255
255
255
255
255
255
255
255
255
255
255
255
255
255
255
255
255
255
255
255
255
255
255
255
255
255
255
255
255
255
255
255
255
255
255
255
255
255
255
255
255
255
255
255
255
255
255
255
255
255
255
255
255
255
254
254
254
254
254
254
255
255
255
255
255
255
255
255
255
255
255
255
255
255
255
255
255
255
255
255
255
255
255
255
255
255
255
254
255
254
255
255
255
252
255
254
243
255
253
185
221
209
255
255
255
69
131
108
42
118
92
255
255
255
35
120
92
34
122
92
33
123
88
255
255
255
36
126
81
58
144
84
255
255
255
104
186
111
118
194
110
255
255
255
122
196
106
121
194
104
121
195
105
255
255
255
122
197
106
120
195
102
255
255
255
121
195
100
122
196
99
121
195
99
255
255
255
121
195
100
123
193
103
255
255
255
122
192
103
123
193
104
255
255
255
124
195
104
125
194
101
125
194
99
255
255
255
125
196
100
123
195
102
255
255
255
122
196
105
120
194
105
121
194
104
255
255
255
123
194
102
123
194
102
255
255
255
123
194
101
123
194
102
123
194
102
255
255
255
124
195
103
123
194
103
255
255
255
121
194
102
121
194
102
255
255
255
120
194
101
119
194
99
121
196
99
255
255
255
121
197
99
122
196
100
255
255
255
123
196
101
124
195
103
125
194
105
255
255
255
125
194
105
126
193
106
255
255
255
129
194
107
129
193
107
255
255
255
143
206
120
155
218
133
157
217
138
255
255
255
160
216
142
163
216
144
255
255
255
163
215
144
163
213
144
163
214
145
255
255
255
163
214
144
163
215
143
255
255
255
161
216
142
158
216
139
142
204
121
255
255
255
131
195
108
126
193
103
255
255
255
124
194
103
124
195
103
255
255
255
124
194
104
125
195
106
122
194
104
255
255
255
120
193
104
121
195
107
255
255
255
119
196
111
115
194
113
89
169
98
255
255
255
64
148
86
45
132
85
255
255
255
34
124
87
29
122
93
255
255
255
29
123
94
30
123
93
33
121
92
255
255
255
255
255
255
255
255
255
255
255
255
255
255
255
255
255
255
255
255
255
255
255
255
255
255
255
255
255
255
255
255
255
255
255
255
255
255
255
255
255
255
255
255
255
255
255
255
255
255
255
255
255
255
255
255
255
255
255
255
255
255
255
255
255
255
255
255
255
255
255
255
254
254
254
254
254
254
254
254
254
254
254
254
255
255
255
255
255
255
255
255
255
255
255
255
255
255
255
255
255
255
255
255
255
255
255
255
254
255
254
252
255
253
238
252
247
172
211
197
121
173
154
78
142
119
40
120
93
37
120
92
34
121
91
31
121
88
31
121
84
33
123
83
39
127
80
61
146
84
84
167
99
104
182
106
123
196
108
124
197
108
124
195
104
123
195
103
121
194
102
121
195
104
121
196
102
121
196
100
121
195
100
122
196
98
122
196
98
122
196
99
121
195
99
122
195
102
123
193
104
122
192
103
122
192
103
122
193
104
124
194
104
124
195
104
123
194
101
122
192
96
124
194
98
125
193
99
124
194
102
123
195
105
122
194
105
121
194
105
121
194
104
122
194
103
123
195
104
124
195
103
123
194
102
123
194
102
123
194
102
123
194
102
123
194
102
123
194
104
123
193
104
122
194
103
122
194
103
121
194
102
120
194
101
119
193
100
120
195
101
120
195
100
121
196
99
121
196
100
121
196
101
122
196
101
122
196
101
124
195
103
125
195
106
125
194
105
125
194
106
125
193
106
127
193
106
127
193
106
127
194
106
128
193
105
126
192
104
140
205
122
152
215
138
156
216
140
157
215
141
161
215
142
163
216
144
165
215
144
164
213
144
163
213
144
163
214
145
163
213
144
163
214
144
163
215
143
162
215
143
159
216
141
155
216
138
141
204
120
140
204
119
128
194
106
125
193
103
125
193
103
125
194
103
124
194
103
123
192
103
124
194
105
123
194
106
121
193
105
120
194
108
120
196
114
120
195
113
117
196
121
88
169
102
64
147
89
64
147
86
42
129
82
34
124
86
35
125
87
31
123
92
29
123
93
29
123
94
29
124
94
30
121
92
36
119
91
38
120
92
255
255
255
255
255
255
255
255
255
255
255
255
255
255
255
255
255
255
255
255
255
255
255
255
255
255
255
255
255
255
255
255
255
255
255
255
255
255
255
255
255
255
255
255
255
255
255
255
254
254
254
255
255
255
255
255
255
255
255
255
255
255
255
255
255
255
255
255
255
255
255
255
254
254
254
254
254
254
254
254
254
255
255
255
255
255
255
255
255
255
255
255
255
255
255
255
255
255
255
254
255
255
255
255
255
254
254
253
248
255
252
255
255
255
220
244
235
116
169
150
255
255
255
44
118
93
37
122
94
32
122
90
255
255
255
31
121
87
33
122
81
255
255
255
47
133
79
92
170
100
120
193
110
255
255
255
124
195
104
124
194
103
255
255
255
123
195
103
122
195
100
122
196
99
255
255
255
123
196
98
123
196
97
255
255
255
122
196
99
122
196
101
255
255
255
123
195
104
123
193
104
122
193
104
255
255
255
122
195
104
123
194
103
255
255
255
122
193
99
125
193
99
125
193
100
255
255
255
124
195
103
122
194
104
255
255
255
121
194
104
122
195
105
255
255
255
124
196
104
125
195
104
124
195
103
255
255
255
124
195
103
124
194
104
255
255
255
123
193
104
123
193
104
122
194
103
255
255
255
120
194
101
121
196
102
255
255
255
122
197
102
121
196
101
255
255
255
121
196
101
121
196
101
123
195
102
255
255
255
124
195
104
125
195
106
255
255
255
125
194
106
125
192
105
126
195
106
255
255
255
126
195
105
125
193
107
255
255
255
139
205
125
153
214
139
158
215
141
255
255
255
163
215
142
165
214
143
255
255
255
164
213
143
163
213
144
255
255
255
163
213
144
162
214
144
160
216
143
255
255
255
157
217
141
154
217
136
255
255
255
138
203
117
127
192
104
126
193
103
255
255
255
125
193
103
124
193
104
255
255
255
124
194
106
121
195
109
255
255
255
120
195
115
119
197
122
87
169
103
255
255
255
63
147
90
41
127
82
255
255
255
34
123
85
32
124
92
30
124
92
255
255
255
29
124
93
30
122
93
255
255
255
35
119
92
42
117
92
255
255
255
255
255
255
255
255
255
255
255
255
255
255
255
255
255
255
255
255
255
255
255
255
255
255
255
255
255
255
255
255
255
255
255
255
255
255
255
255
255
255
255
255
255
255
255
255
254
254
254
254
254
254
254
254
254
255
255
255
255
255
255
255
255
255
255
255
255
254
254
254
254
254
254
254
254
254
254
254
254
254
254
254
254
254
254
255
255
255
255
255
255
255
255
255
255
255
255
254
255
255
254
255
254
253
255
254
248
255
252
241
255
250
203
229
221
97
150
132
59
125
103
47
122
97
36
122
93
33
123
91
32
122
89
32
122
87
34
122
80
37
124
77
57
139
84
97
173
103
122
193
110
124
194
107
125
194
105
126
192
102
125
194
103
124
194
101
124
195
99
123
195
97
123
196
97
123
195
96
123
195
96
122
196
98
122
195
100
122
194
103
123
196
104
123
194
104
123
193
104
121
194
104
122
194
104
122
195
104
124
196
104
122
194
102
123
193
101
125
193
100
124
193
100
124
194
101
124
194
102
123
195
103
122
194
104
122
195
103
123
195
104
123
196
105
124
196
104
125
196
104
125
196
104
124
195
103
125
195
103
125
194
104
124
194
105
124
194
105
124
194
105
125
195
105
122
194
103
122
194
103
122
195
102
123
198
103
121
195
101
120
195
100
121
196
101
122
197
102
122
196
102
122
195
103
124
195
103
124
194
104
124
194
106
125
195
106
125
195
107
124
194
105
123
195
102
125
196
104
123
196
102
122
195
104
124
193
110
125
194
110
141
204
125
156
213
137
161
214
140
162
215
139
164
214
141
166
213
143
165
212
142
164
213
144
163
213
145
163
214
146
161
214
146
159
215
145
159
217
143
158
217
143
156
217
139
154
216
135
153
215
132
135
199
112
127
192
102
127
193
103
127
194
102
125
193
103
124
193
105
124
194
107
121
195
113
120
195
114
119
195
120
84
164
98
57
139
85
61
145
91
43
128
88
33
121
88
32
121
85
32
122
93
32
123
93
30
124
92
29
124
92
31
123
91
34
121
93
35
120
93
42
118
95
68
132
111
255
255
255
255
255
255
255
255
255
255
255
255
255
255
255
255
255
255
255
255
255
255
255
255
255
255
255
255
255
255
255
255
255
255
255
255
254
254
254
255
255
255
255
255
255
255
255
255
255
255
255
254
254
254
255
255
255
254
254
254
255
255
255
255
255
255
255
255
255
255
255
255
254
254
254
255
255
255
255
255
255
254
254
254
255
255
255
254
254
254
255
255
255
255
255
255
255
255
255
254
255
255
253
255
255
255
255
255
250
255
254
238
254
250
154
194
182
255
255
255
66
131
109
39
120
93
255
255
255
33
122
91
32
123
90
33
122
85
255
255
255
43
125
78
78
156
93
255
255
255
116
189
112
125
195
109
255
255
255
126
193
104
125
192
100
124
194
99
255
255
255
124
195
97
123
195
96
255
255
255
123
195
96
122
194
99
121
194
102
255
255
255
122
194
104
123
194
105
255
255
255
122
193
104
121
194
104
255
255
255
123
196
104
124
195
103
124
193
100
255
255
255
124
193
100
124
194
100
255
255
255
124
195
102
123
195
103
122
195
103
255
255
255
123
194
104
125
195
104
255
255
255
125
196
104
125
195
103
125
194
103
255
255
255
125
194
104
124
194
105
255
255
255
124
194
105
123
193
104
255
255
255
121
193
102
121
194
101
120
194
99
255
255
255
120
195
100
122
196
103
255
255
255
122
195
103
122
195
103
124
194
105
255
255
255
124
194
106
125
195
106
255
255
255
123
194
103
122
196
100
255
255
255
121
196
100
122
196
103
126
194
110
255
255
255
143
204
124
158
214
135
255
255
255
162
215
138
164
214
140
164
212
142
255
255
255
163
213
145
162
214
147
255
255
255
160
214
146
158
215
145
157
216
142
255
255
255
156
216
137
149
211
127
255
255
255
133
197
109
128
193
102
255
255
255
127
194
101
124
193
104
123
194
111
255
255
255
119
195
118
88
166
99
255
255
255
56
138
82
42
127
85
34
122
90
255
255
255
32
122
94
32
122
92
255
255
255
31
123
92
31
123
90
255
255
255
34
121
92
41
119
95
63
127
107
255
255
255
255
255
255
255
255
255
255
255
255
255
255
255
255
255
255
255
255
255
255
255
255
255
255
255
255
255
255
255
255
255
255
255
255
254
254
254
255
255
255
255
255
255
255
255
255
255
255
255
255
255
255
255
255
255
254
254
254
254
254
254
255
255
255
255
255
255
255
255
255
255
255
255
255
255
255
255
255
255
255
255
255
255
255
255
254
254
254
255
254
255
255
255
255
255
254
255
254
254
255
254
255
255
255
255
255
252
255
255
244
255
252
255
255
255
223
248
244
101
154
137
255
255
255
45
119
94
34
120
92
32
122
91
255
255
255
32
123
90
37
122
82
255
255
255
57
136
83
104
178
110
123
194
114
255
255
255
126
194
107
125
193
102
255
255
255
125
192
98
124
194
97
124
195
97
255
255
255
124
196
97
122
195
99
255
255
255
121
194
102
121
194
103
255
255
255
123
194
104
123
193
104
122
194
103
255
255
255
122
195
103
124
195
103
255
255
255
124
195
102
124
193
100
124
194
101
255
255
255
124
195
101
123
195
103
255
255
255
122
195
103
123
194
104
255
255
255
123
194
103
124
195
103
125
194
102
255
255
255
125
194
103
125
194
103
255
255
255
124
194
104
124
194
105
123
193
104
255
255
255
121
191
102
121
193
102
255
255
255
121
194
101
120
194
99
255
255
255
122
195
101
123
196
104
122
195
103
255
255
255
123
195
104
124
194
106
255
255
255
124
194
106
124
194
105
122
196
100
255
255
255
121
197
97
121
197
99
255
255
255
124
195
104
129
193
109
145
204
122
255
255
255
160
214
134
162
214
138
255
255
255
164
213
141
163
213
143
255
255
255
162
214
145
161
215
147
159
215
146
255
255
255
158
216
145
157
215
140
255
255
255
154
214
134
144
206
121
132
196
107
255
255
255
128
194
102
125
193
102
255
255
255
123
194
107
121
195
116
255
255
255
96
174
104
61
143
84
42
127
83
255
255
255
35
122
88
32
122
96
255
255
255
31
122
93
31
122
91
31
123
90
255
255
255
32
121
90
39
120
94
255
255
255
59
127
106
96
146
131
255
255
255
255
255
255
255
255
255
255
255
255
255
255
255
255
255
255
255
255
255
255
255
255
255
255
255
254
254
254
254
254
254
254
254
254
255
255
255
255
255
255
255
255
255
255
255
255
255
255
255
255
255
255
255
255
255
254
254
254
254
254
254
254
254
254
254
254
254
255
255
255
255
255
255
255
255
255
255
255
255
255
255
255
255
255
255
255
254
255
255
254
255
255
252
254
254
250
253
254
254
255
253
255
255
252
255
253
242
254
248
235
253
247
195
225
214
84
139
121
61
126
105
45
119
96
33
119
92
32
122
94
32
122
92
34
122
93
37
122
87
45
126
83
63
142
92
103
178
112
120
192
115
123
193
111
123
193
107
124
193
102
124
193
100
124
193
98
123
194
96
124
196
97
125
196
98
124
196
101
122
195
103
122
194
103
122
194
103
122
193
103
122
194
104
125
193
103
125
194
103
123
194
102
123
194
102
123
195
102
124
195
103
124
195
103
124
195
101
123
195
102
124
195
103
124
195
102
123
195
103
122
195
103
122
195
103
122
195
105
122
195
105
122
193
103
122
193
102
123
193
101
124
193
100
124
193
102
124
193
101
124
193
102
124
193
103
124
193
103
125
194
105
123
193
104
122
192
103
122
192
103
123
194
104
122
194
102
124
197
103
123
195
101
122
194
100
124
195
101
123
195
102
122
195
103
122
195
103
123
194
104
124
194
105
124
194
105
124
194
105
124
194
102
122
196
99
121
197
98
121
197
97
121
197
98
122
196
100
123
195
102
127
194
106
131
193
108
146
204
122
148
205
122
161
215
135
162
214
138
163
214
139
163
214
142
162
213
144
162
213
144
161
214
145
160
215
147
159
215
146
160
216
146
159
216
143
159
216
140
160
218
141
151
211
129
136
198
111
132
196
105
131
195
104
125
193
102
124
194
104
123
195
106
115
191
111
107
185
111
87
168
100
49
133
80
37
123
83
36
123
86
34
122
91
31
123
92
31
123
94
30
124
92
30
123
90
32
123
90
32
121
89
33
120
90
44
122
95
55
127
103
82
144
123
166
207
195
255
255
255
255
255
255
255
255
255
255
255
255
255
255
255
255
255
255
255
255
255
255
255
255
255
255
255
254
254
254
254
254
254
255
255
255
254
254
254
255
255
255
255
255
255
255
255
255
255
255
255
255
255
255
255
255
255
255
255
255
254
254
254
254
254
254
255
255
255
254
254
254
255
255
255
255
255
255
255
255
255
255
255
255
255
255
255
255
254
255
255
253
255
255
252
254
255
255
255
255
253
254
253
254
253
255
255
255
250
255
251
235
255
246
149
191
176
255
255
255
56
121
100
37
119
93
255
255
255
31
120
92
33
122
96
35
121
92
255
255
255
40
123
82
82
161
102
255
255
255
116
191
118
121
193
111
255
255
255
123
193
104
124
194
100
124
195
97
255
255
255
123
195
96
124
196
100
255
255
255
124
196
104
123
194
104
123
193
103
255
255
255
125
192
102
125
194
102
255
255
255
125
195
102
124
195
101
255
255
255
124
195
102
124
195
101
123
195
102
255
255
255
122
195
103
123
195
103
255
255
255
122
195
103
122
195
105
122
195
105
255
255
255
122
195
104
122
193
102
255
255
255
123
193
101
124
193
100
124
193
101
255
255
255
123
192
101
125
194
104
255
255
255
125
194
105
122
192
103
255
255
255
123
193
104
126
197
105
124
196
102
255
255
255
123
194
100
124
195
101
255
255
255
123
195
102
123
194
102
124
194
104
255
255
255
125
194
105
125
194
103
255
255
255
124
195
100
122
196
97
255
255
255
122
197
98
122
196
101
124
194
103
255
255
255
127
193
106
133
193
109
255
255
255
148
205
123
161
216
136
162
215
140
255
255
255
162
215
142
161
214
144
255
255
255
160
215
145
161
216
148
160
216
145
255
255
255
159
216
142
160
219
139
255
255
255
149
209
125
133
196
108
255
255
255
128
194
103
122
192
102
120
195
109
255
255
255
103
182
106
55
137
78
255
255
255
38
124
78
35
122
88
32
123
90
255
255
255
30
123
90
29
123
90
255
255
255
30
123
90
34
124
91
255
255
255
38
121
91
60
130
106
152
201
186
255
255
255
255
255
255
255
255
255
255
255
255
255
255
255
255
255
255
255
255
255
255
255
255
254
254
254
254
254
254
254
254
254
255
255
255
254
254
254
254
254
254
254
254
254
254
254
254
255
255
255
254
254
254
255
255
255
255
255
255
255
255
255
255
255
255
254
254
254
254
254
254
254
254
254
254
254
254
255
255
255
255
255
255
255
255
255
255
255
255
253
254
255
253
253
254
255
254
255
255
253
254
253
253
253
248
251
248
252
253
251
248
254
251
228
248
240
138
179
165
93
146
129
62
127
106
40
123
97
34
121
94
34
122
96
34
123
96
33
120
89
35
121
85
44
129
84
87
169
106
103
182
114
112
190
114
121
195
111
122
193
107
121
194
102
122
195
99
125
197
98
124
196
97
123
194
98
123
193
100
124
195
103
125
195
105
124
194
105
124
193
103
125
193
102
125
193
102
125
192
99
126
194
101
125
195
101
124
195
101
124
195
101
124
195
103
123
195
103
122
195
103
122
195
103
122
195
104
122
195
105
122
195
104
124
194
105
123
194
105
122
195
105
122
195
105
122
195
104
122
195
103
122
194
101
123
195
101
124
194
101
124
193
100
123
192
101
124
193
102
125
194
105
125
195
106
124
193
105
123
193
104
123
193
104
124
194
105
124
195
103
122
193
99
123
194
100
123
194
100
123
194
100
124
195
101
123
194
100
123
194
101
123
193
104
124
194
105
126
193
105
127
194
104
126
194
102
126
195
100
125
195
99
123
196
98
124
195
101
123
195
101
123
194
103
125
194
104
126
193
105
129
193
107
134
193
109
134
194
110
148
206
126
159
216
140
161
216
141
161
217
143
160
216
144
160
214
144
158
214
143
161
216
146
162
218
146
160
216
143
160
215
142
160
217
139
160
218
137
157
215
133
141
203
116
131
195
106
129
194
104
123
193
103
118
193
107
114
192
110
102
183
105
64
147
84
41
125
72
37
123
76
37
122
85
35
123
90
31
123
89
30
123
89
29
123
89
28
123
89
27
122
88
32
123
90
37
125
93
41
126
94
64
135
110
127
180
162
192
231
219
255
255
255
255
255
255
255
255
255
255
255
255
255
255
255
255
255
255
255
255
255
255
255
255
254
254
254
255
255
255
255
255
255
255
255
255
254
254
254
255
255
255
254
254
254
254
254
254
254
254
254
255
255
255
255
255
255
255
255
255
255
255
255
255
255
255
254
254
254
255
255
255
254
254
254
254
254
254
254
255
255
255
255
255
254
255
255
253
253
254
255
255
255
253
253
255
254
254
255
251
253
251
255
255
255
248
253
251
242
255
249
255
255
255
199
231
220
91
145
128
255
255
255
44
119
96
36
122
96
34
122
96
255
255
255
33
122
92
34
121
82
255
255
255
57
142
85
101
183
111
118
195
113
255
255
255
121
194
106
121
194
100
255
255
255
124
196
99
124
194
99
123
192
99
255
255
255
124
194
103
124
195
106
255
255
255
124
194
104
125
194
103
255
255
255
126
194
102
124
194
100
124
195
101
255
255
255
123
195
103
123
195
104
255
255
255
122
195
104
122
195
104
122
195
105
255
255
255
124
194
105
124
194
105
255
255
255
123
194
104
122
195
105
255
255
255
122
195
104
122
195
103
124
195
101
255
255
255
125
194
101
124
193
101
255
255
255
124
193
104
124
193
104
123
193
104
255
255
255
123
193
104
123
194
103
255
255
255
122
193
100
124
195
101
255
255
255
123
194
100
123
194
99
123
194
100
255
255
255
122
193
101
125
192
104
255
255
255
127
193
105
127
194
103
126
194
100
255
255
255
126
194
101
125
194
101
255
255
255
124
194
102
124
193
104
126
193
106
255
255
255
129
194
108
134
194
112
255
255
255
148
207
128
159
217
142
255
255
255
160
216
144
159
215
144
160
216
145
255
255
255
162
218
147
161
215
145
255
255
255
160
215
142
160
217
139
150
210
126
255
255
255
135
198
110
127
195
104
255
255
255
122
195
106
115
193
110
255
255
255
87
168
97
50
134
78
38
121
79
255
255
255
37
122
87
33
121
89
255
255
255
30
123
89
29
124
90
26
120
86
255
255
255
33
123
90
43
122
93
255
255
255
77
143
119
136
183
166
255
255
255
255
255
255
255
255
255
255
255
255
255
255
255
255
255
255
255
255
255
255
255
255
255
255
255
255
255
255
255
255
255
255
255
255
255
255
255
254
254
254
254
254
254
255
255
255
254
254
254
254
254
254
255
255
255
255
255
255
255
255
255
255
255
255
255
255
255
254
254
254
254
254
254
255
255
255
254
254
254
254
255
255
255
255
255
254
255
255
253
253
255
253
254
255
255
255
255
254
255
255
251
254
252
255
255
255
247
255
253
233
254
247
148
193
178
255
255
255
55
122
101
38
120
96
255
255
255
32
121
96
32
122
94
34
122
87
255
255
255
37
124
74
78
162
96
255
255
255
113
193
114
121
196
109
255
255
255
121
194
102
123
194
99
124
194
100
255
255
255
123
192
100
123
193
102
255
255
255
124
195
106
124
195
106
124
194
104
255
255
255
126
196
104
125
195
101
255
255
255
124
195
101
122
195
103
255
255
255
122
195
104
122
195
105
122
195
105
255
255
255
122
195
105
124
194
105
255
255
255
124
194
105
123
193
104
123
194
104
255
255
255
122
195
105
122
195
103
255
255
255
122
194
102
124
194
101
124
194
101
255
255
255
124
193
102
124
193
104
255
255
255
123
193
104
123
193
104
255
255
255
122
193
103
121
192
101
124
195
102
255
255
255
124
195
101
123
194
99
255
255
255
123
195
100
122
194
99
124
193
103
255
255
255
126
192
104
127
193
104
255
255
255
128
194
102
127
194
101
255
255
255
125
194
101
125
194
101
124
194
103
255
255
255
123
193
104
125
194
106
255
255
255
129
194
109
134
195
115
148
207
130
255
255
255
159
216
143
159
215
144
255
255
255
160
216
145
162
218
147
161
215
145
255
255
255
161
214
143
162
217
142
255
255
255
157
215
135
142
204
118
255
255
255
131
197
108
126
196
105
121
197
110
255
255
255
109
189
110
69
151
86
255
255
255
44
126
77
38
120
83
35
121
87
255
255
255
32
121
89
30
124
90
255
255
255
28
123
89
25
119
85
255
255
255
35
121
90
45
121
94
85
146
123
255
255
255
255
255
255
255
255
255
255
255
255
255
255
255
255
255
255
254
254
254
254
254
254
255
255
255
255
255
255
255
255
255
255
255
255
255
255
255
254
254
254
254
254
254
254
254
254
254
254
254
254
254
254
254
254
254
254
254
254
254
254
254
255
255
255
255
255
255
255
255
255
255
255
255
254
254
254
254
254
254
254
254
254
254
254
255
254
255
255
254
255
255
253
254
255
253
254
255
254
255
255
254
255
254
251
254
252
249
255
252
246
253
250
233
252
247
144
188
174
88
145
126
61
130
109
34
121
96
32
121
96
29
123
95
31
122
93
34
123
87
36
124
82
43
128
80
79
162
96
98
179
106
112
190
112
124
197
109
122
195
105
122
194
101
124
194
101
125
194
103
124
193
102
124
193
103
122
193
104
123
194
105
122
195
107
122
195
106
122
194
103
124
195
103
123
194
102
123
195
101
124
195
101
122
195
103
122
195
104
122
195
104
122
195
106
122
195
106
122
195
105
122
195
105
124
195
104
124
194
104
124
194
104
123
194
104
123
193
103
123
193
103
123
194
104
123
194
103
122
195
102
122
195
102
122
194
100
124
194
101
124
194
103
124
194
102
125
194
104
124
194
105
123
193
104
123
193
104
122
194
105
122
193
104
121
194
104
123
196
105
126
197
105
125
196
103
123
194
101
123
194
102
123
195
100
123
196
103
121
194
102
122
193
104
124
192
104
124
192
104
126
192
103
127
193
103
128
193
102
128
194
101
126
194
101
125
194
101
124
194
101
124
195
102
123
194
103
122
194
103
121
194
104
124
194
106
124
195
106
128
196
111
134
198
118
148
208
132
148
208
133
158
215
143
159
216
144
160
216
144
161
215
143
161
214
143
161
214
143
161
214
142
161
216
141
160
217
140
158
216
136
146
209
123
136
200
112
130
197
107
123
195
103
120
196
106
119
196
112
116
195
113
98
176
110
61
140
83
54
133
82
39
121
80
37
121
87
34
121
88
34
122
89
34
124
91
31
124
91
32
124
91
33
124
92
32
123
92
35
124
94
38
119
90
51
124
97
91
150
129
255
255
255
255
255
255
255
255
255
255
255
255
255
255
255
255
255
255
255
255
255
254
254
254
255
255
255
255
255
255
255
255
255
254
254
254
254
254
254
255
255
255
254
254
254
254
254
254
254
254
254
255
255
255
254
254
254
254
254
254
255
255
255
255
255
255
255
255
255
255
255
255
255
255
255
254
254
254
254
254
255
255
255
255
254
254
255
254
254
255
255
255
255
252
253
255
254
255
254
253
255
253
255
255
255
248
252
249
242
254
250
255
255
255
218
247
239
102
159
141
255
255
255
40
120
96
29
122
95
29
122
93
255
255
255
32
121
91
37
124
83
255
255
255
53
136
82
98
177
107
119
194
112
255
255
255
121
194
103
123
194
102
255
255
255
125
194
103
124
194
104
123
194
105
255
255
255
121
195
107
121
195
107
255
255
255
121
195
105
121
194
102
255
255
255
122
194
102
122
195
103
122
195
104
255
255
255
122
195
106
122
195
106
255
255
255
122
195
105
124
195
103
124
195
104
255
255
255
124
195
103
123
194
103
255
255
255
123
194
102
123
194
102
255
255
255
122
194
102
121
195
100
123
195
102
255
255
255
125
195
104
125
194
105
255
255
255
124
194
105
123
193
105
123
194
106
255
255
255
122
195
106
122
195
106
255
255
255
124
196
106
123
194
102
255
255
255
121
193
102
122
195
105
121
194
105
255
255
255
120
192
104
122
193
105
255
255
255
125
193
104
126
192
102
128
193
102
255
255
255
127
193
101
125
193
100
255
255
255
124
194
101
124
195
101
122
195
102
255
255
255
121
195
103
123
196
106
255
255
255
127
197
111
136
199
120
255
255
255
148
207
132
158
214
142
160
214
142
255
255
255
161
214
142
160
213
142
255
255
255
161
215
142
160
217
139
152
213
130
255
255
255
138
204
116
124
194
102
255
255
255
121
194
102
118
194
105
255
255
255
114
191
115
94
171
110
52
132
85
255
255
255
38
121
81
38
124
89
255
255
255
35
123
90
35
125
93
32
124
92
255
255
255
34
124
94
34
121
92
255
255
255
38
119
90
52
125
98
255
255
255
255
255
255
255
255
255
255
255
255
255
255
255
255
255
255
255
255
255
255
255
255
254
254
254
254
254
254
254
254
254
254
254
254
254
254
254
254
254
254
254
254
254
254
254
254
254
254
254
254
254
254
254
254
254
254
254
254
254
254
254
254
254
254
255
255
255
255
255
255
255
255
254
255
254
255
254
254
255
254
254
255
254
254
255
254
254
255
253
254
255
254
254
255
255
255
254
255
255
253
252
254
252
253
254
251
249
255
253
238
255
250
206
232
224
107
160
143
66
135
113
45
124
99
31
122
94
28
121
93
30
121
92
33
122
90
39
124
86
42
126
81
53
134
85
92
170
106
117
190
112
120
193
108
121
193
107
124
194
105
125
194
104
125
195
105
124
195
106
121
195
106
121
195
106
120
195
106
120
196
106
121
195
106
121
195
104
121
194
102
121
194
102
121
194
102
121
194
104
122
195
106
122
195
106
122
195
106
123
195
105
122
195
105
124
195
104
124
195
102
124
195
103
124
195
103
124
194
102
124
193
102
123
194
102
123
194
102
123
194
102
123
194
102
122
194
102
123
195
102
125
196
104
125
196
104
124
193
104
124
192
105
124
193
105
123
192
104
121
192
104
122
194
108
122
194
107
121
194
108
122
194
107
123
195
107
122
195
106
121
194
106
120
193
103
118
192
106
119
195
112
119
195
113
119
193
107
118
194
111
119
194
109
123
194
106
124
195
108
125
194
106
127
193
103
127
193
102
127
193
103
127
193
100
124
193
100
124
194
100
123
195
100
123
197
100
121
196
101
121
196
100
121
195
101
123
196
104
122
195
102
127
196
109
135
199
119
134
198
118
148
206
129
159
215
140
160
214
141
161
215
141
161
215
142
160
215
141
161
217
142
159
218
138
148
211
127
144
208
123
132
199
111
125
195
103
121
193
100
121
194
100
120
195
103
119
194
107
120
194
110
111
187
117
86
165
109
50
131
85
48
130
83
36
122
81
35
122
87
33
120
85
32
121
88
31
121
91
33
123
93
33
124
93
32
121
91
34
121
91
35
121
92
39
120
91
255
255
255
255
255
255
254
254
254
255
255
255
255
255
255
255
255
255
255
255
255
255
255
255
255
255
255
254
254
254
254
254
254
255
255
255
254
254
254
254
254
254
254
254
254
255
255
255
255
255
255
255
255
255
255
255
255
255
255
255
254
254
254
254
254
254
255
255
255
255
255
254
255
254
254
255
255
255
255
254
255
255
254
255
255
255
255
255
253
255
254
254
254
255
255
254
255
255
255
255
255
253
255
255
252
255
255
255
253
255
252
243
255
252
169
206
195
255
255
255
64
129
108
35
120
94
255
255
255
30
123
94
31
122
91
36
123
88
255
255
255
36
118
76
69
148
93
255
255
255
111
185
116
120
192
111
255
255
255
123
194
107
125
195
104
124
195
104
255
255
255
122
196
105
120
195
105
255
255
255
119
195
105
121
196
104
121
195
102
255
255
255
121
194
102
121
194
103
255
255
255
121
194
105
122
195
106
255
255
255
123
195
105
124
194
104
125
194
102
255
255
255
125
194
102
125
194
102
255
255
255
124
194
101
123
194
102
123
194
102
255
255
255
123
195
103
123
194
102
255
255
255
124
195
104
124
193
105
124
192
105
255
255
255
125
193
106
122
192
104
255
255
255
121
193
106
121
193
109
255
255
255
121
193
108
122
195
108
121
194
109
255
255
255
120
195
111
117
193
114
255
255
255
115
193
115
116
196
117
113
191
111
255
255
255
118
193
111
122
194
108
255
255
255
124
194
107
126
193
105
255
255
255
126
193
103
125
193
100
123
194
99
255
255
255
123
195
99
123
197
100
255
255
255
121
196
100
120
196
99
122
195
102
255
255
255
127
195
108
134
196
116
255
255
255
147
206
128
159
215
139
159
215
139
255
255
255
160
217
141
161
219
141
255
255
255
153
214
131
134
200
113
255
255
255
127
196
105
124
196
102
122
195
99
255
255
255
121
195
104
120
194
110
255
255
255
108
184
116
81
161
106
46
130
83
255
255
255
35
122
81
32
121
86
255
255
255
31
121
89
34
125
94
255
255
255
31
122
92
32
121
91
36
122
93
255
255
255
254
254
254
254
254
254
254
254
254
254
254
254
255
255
255
255
255
255
255
255
255
255
255
255
255
255
255
255
255
255
254
254
254
254
254
254
254
254
254
254
254
254
254
254
254
254
254
254
254
254
254
255
255
255
255
255
255
255
255
255
255
255
255
255
254
253
255
254
253
255
254
252
255
255
253
255
254
254
255
254
255
255
254
255
255
253
255
255
253
255
255
253
255
254
254
254
255
255
254
255
254
252
255
253
250
255
254
251
254
254
251
242
252
248
186
221
210
124
174
158
84
147
127
34
120
93
32
122
94
30
122
94
30
121
91
35
124
89
36
122
83
39
124
80
60
139
85
89
166
105
105
180
112
123
194
115
122
194
110
124
194
107
124
195
103
123
194
99
122
195
102
122
195
102
121
196
103
120
195
104
121
195
103
122
195
103
122
195
103
121
195
102
121
194
103
121
194
104
121
194
105
121
194
105
122
194
104
122
195
105
124
194
102
125
194
102
125
194
101
125
194
101
125
194
101
125
194
101
125
194
101
125
194
101
124
194
102
124
195
103
124
195
103
123
194
102
123
194
102
124
195
103
124
193
104
124
192
105
125
193
106
125
193
106
124
194
104
123
195
104
121
194
104
121
195
109
121
195
111
121
194
109
121
195
110
114
189
107
115
192
114
119
195
114
100
178
108
96
175
108
109
188
115
88
169
102
84
168
101
86
170
102
105
185
109
92
174
101
104
182
105
119
192
109
114
188
109
120
192
110
125
193
106
124
194
108
124
193
104
124
193
100
123
194
98
123
194
98
123
195
99
123
197
100
122
196
99
122
196
99
122
196
100
123
194
101
123
193
101
127
193
106
133
195
114
133
195
112
143
204
122
149
210
128
156
215
136
151
211
131
150
211
130
156
216
135
139
202
117
129
196
108
128
195
106
125
194
103
125
197
102
124
198
101
123
196
99
123
195
99
123
195
105
120
194
111
121
194
113
101
178
111
73
156
100
45
131
84
45
132
85
34
124
84
33
123
88
34
124
89
33
123
92
32
123
93
30
120
92
31
123
92
34
124
94
36
123
94
254
254
254
254
254
254
254
254
254
255
255
255
254
254
254
255
255
255
255
255
255
255
255
255
255
255
255
255
255
255
255
255
255
254
254
254
254
254
254
255
255
255
254
254
254
254
254
254
254
254
254
255
255
255
255
255
255
255
255
255
255
255
255
255
254
253
255
254
252
255
255
255
255
254
252
255
255
254
255
254
255
255
255
255
255
254
255
255
253
255
255
255
255
254
254
254
254
254
253
255
253
251
255
255
255
255
253
250
252
254
251
255
255
255
226
243
238
134
183
167
255
255
255
47
123
99
32
123
96
29
122
94
255
255
255
31
122
89
36
124
85
255
255
255
45
129
80
85
162
101
117
190
116
255
255
255
123
193
108
124
194
103
255
255
255
123
195
98
123
194
98
122
195
101
255
255
255
121
195
103
122
195
103
255
255
255
123
195
103
122
195
104
255
255
255
121
194
104
121
194
104
122
194
104
255
255
255
124
194
102
125
194
101
255
255
255
125
194
101
125
194
101
125
194
101
255
255
255
125
194
101
125
194
102
255
255
255
124
194
104
123
194
102
255
255
255
123
194
102
124
194
104
124
192
105
255
255
255
124
193
105
124
193
103
255
255
255
123
194
102
122
195
109
119
194
112
255
255
255
118
194
113
107
182
103
255
255
255
103
180
105
83
162
96
255
255
255
78
159
98
64
147
87
64
148
87
255
255
255
61
147
86
64
149
88
255
255
255
79
162
94
91
170
98
109
184
108
255
255
255
118
191
112
123
194
110
255
255
255
123
193
104
123
194
100
123
194
98
255
255
255
123
195
98
123
195
100
255
255
255
123
195
100
123
195
100
255
255
255
124
192
101
128
192
105
131
194
109
255
255
255
139
202
117
141
205
120
255
255
255
143
206
123
134
198
113
130
196
109
255
255
255
125
194
104
124
195
102
255
255
255
124
198
101
122
196
99
255
255
255
124
195
99
124
194
106
120
193
112
255
255
255
98
176
109
71
156
100
255
255
255
44
132
86
34
124
84
33
123
89
255
255
255
30
121
91
30
121
92
255
255
255
31
124
93
33
124
93
254
254
254
255
255
255
254
254
254
254
254
254
254
254
254
255
255
255
255
255
255
255
255
255
255
255
255
255
255
255
255
255
255
255
255
255
254
254
254
254
254
254
254
254
254
255
255
255
254
254
254
254
254
254
255
255
255
255
255
255
255
255
254
255
254
252
255
255
255
255
254
252
255
254
253
255
255
255
255
254
255
255
254
255
255
255
255
255
254
255
254
254
254
254
254
254
255
255
255
254
254
252
255
253
251
255
255
255
254
253
250
248
255
251
199
228
218
255
255
255
76
139
119
39
122
98
255
255
255
30
124
97
29
122
91
32
123
87
255
255
255
35
123
80
56
139
84
255
255
255
108
184
115
120
192
112
255
255
255
122
193
102
123
195
97
123
195
97
255
255
255
124
195
99
122
195
101
255
255
255
122
194
102
123
195
103
123
195
104
255
255
255
122
195
105
121
194
104
255
255
255
122
194
104
124
194
102
255
255
255
125
194
101
125
194
101
125
194
101
255
255
255
125
194
101
125
194
101
255
255
255
125
194
102
124
194
105
123
194
103
255
255
255
123
194
102
125
194
104
255
255
255
125
193
104
124
193
104
123
193
102
255
255
255
122
193
100
121
195
108
255
255
255
116
192
113
113
191
114
255
255
255
97
174
100
87
164
93
70
150
90
255
255
255
57
138
84
49
134
79
255
255
255
47
132
77
38
127
72
46
135
80
255
255
255
45
132
77
66
150
88
255
255
255
77
157
90
103
180
108
255
255
255
113
188
112
122
194
112
123
194
105
255
255
255
123
194
99
123
194
98
255
255
255
123
195
100
124
195
101
124
195
101
255
255
255
124
194
101
125
192
101
255
255
255
128
193
104
130
194
107
133
198
111
255
255
255
133
200
112
129
196
109
255
255
255
127
193
105
125
194
105
255
255
255
123
195
103
122
196
101
122
196
99
255
255
255
122
194
99
125
194
101
255
255
255
123
194
106
119
193
112
95
176
108
255
255
255
68
155
99
41
131
84
255
255
255
32
124
84
31
122
89
255
255
255
31
121
91
30
121
92
31
124
93
255
255
255
255
255
255
255
255
255
255
255
255
254
254
254
254
254
254
254
254
254
254
254
254
255
255
255
255
255
255
255
255
255
255
255
255
255
255
255
255
255
255
254
254
254
254
254
254
254
254
254
254
254
254
254
254
254
254
254
254
254
254
254
255
255
255
255
254
253
255
254
252
255
254
253
255
253
254
255
253
254
255
254
254
255
254
255
255
254
255
255
255
255
255
255
255
253
255
254
253
255
253
254
254
254
255
255
253
255
254
251
255
255
252
250
254
250
221
247
236
165
208
193
116
170
152
43
123
100
34
123
98
31
121
96
30
123
95
33
125
91
33
124
85
35
124
81
39
125
71
69
151
90
88
168
101
122
196
116
122
194
107
121
195
103
122
196
97
124
196
97
124
196
98
124
195
100
123
194
100
122
194
101
123
194
102
122
194
103
122
195
105
122
195
105
122
195
105
123
195
104
122
194
104
124
194
102
125
194
101
125
194
101
125
194
101
125
194
102
125
194
101
125
194
101
125
194
102
125
194
104
125
194
103
124
194
105
123
194
103
123
194
102
123
194
102
125
195
103
125
195
103
125
194
104
124
193
102
122
194
101
120
194
100
121
194
100
118
194
107
109
188
110
113
190
112
96
177
110
76
159
97
87
166
97
52
134
74
48
132
81
36
124
81
45
129
81
37
125
84
36
124
80
37
124
74
34
123
77
33
125
79
30
124
80
35
126
77
32
125
81
34
125
79
53
138
81
39
125
72
56
139
81
96
175
107
89
169
107
104
181
111
121
194
113
122
194
105
122
195
104
122
194
98
123
194
99
124
195
101
125
195
103
125
194
103
124
194
102
125
194
102
125
194
102
125
192
102
126
193
102
126
192
102
124
191
101
128
195
106
124
194
103
123
195
102
125
193
103
124
194
102
124
195
104
123
195
104
122
195
103
122
195
102
123
195
101
122
194
99
124
193
101
124
193
100
125
194
101
125
194
101
122
195
107
117
195
114
93
175
108
91
175
107
63
152
96
39
131
84
38
130
84
32
124
85
32
123
90
33
124
91
31
121
91
31
121
93
32
124
94
255
255
255
255
255
255
255
255
255
255
255
255
254
254
254
254
254
254
255
255
255
254
254
254
255
255
255
255
255
255
255
255
255
255
255
255
255
255
255
255
255
255
254
254
254
254
254
254
254
254
254
255
255
255
254
254
254
254
255
254
255
255
255
255
255
255
255
254
254
255
255
255
254
254
254
254
254
254
254
254
255
255
255
255
255
255
255
255
255
255
255
255
255
255
255
255
254
254
254
254
254
254
255
255
255
255
255
253
253
255
252
255
255
255
243
254
249
173
209
196
255
255
255
72
136
116
36
121
97
30
121
95
255
255
255
32
126
96
34
124
87
255
255
255
37
125
78
61
145
86
104
181
110
255
255
255
122
196
110
121
196
100
255
255
255
123
197
97
124
195
99
124
195
101
255
255
255
123
194
102
123
194
103
255
255
255
121
194
104
122
195
105
255
255
255
123
195
104
124
194
102
125
194
101
255
255
255
125
194
101
125
194
102
255
255
255
125
194
102
125
194
102
125
194
104
255
255
255
124
194
105
123
194
103
255
255
255
123
194
102
125
195
102
255
255
255
125
195
102
123
194
101
122
194
100
255
255
255
121
195
100
118
195
107
255
255
255
107
186
108
88
171
108
69
153
96
255
255
255
42
128
75
41
127
79
255
255
255
34
122
83
32
122
87
255
255
255
33
123
85
32
122
80
33
125
82
255
255
255
31
125
83
29
125
86
255
255
255
30
124
84
32
123
82
36
123
75
255
255
255
52
137
84
82
163
104
255
255
255
101
179
110
119
196
113
121
195
104
255
255
255
122
195
99
125
195
102
255
255
255
125
194
104
124
193
104
255
255
255
125
194
103
126
194
104
126
193
102
255
255
255
125
192
102
121
193
101
255
255
255
122
195
102
122
196
101
123
195
102
255
255
255
123
195
103
122
195
103
255
255
255
124
195
103
126
196
104
255
255
255
125
194
101
124
193
100
124
194
102
255
255
255
122
196
108
117
194
113
255
255
255
89
173
106
61
150
95
39
130
84
255
255
255
33
124
85
34
123
91
255
255
255
32
121
92
34
123
95
255
255
255
255
255
255
255
255
255
255
255
255
255
255
255
254
254
254
254
254
254
254
254
254
254
254
254
255
255
255
255
255
255
255
255
255
255
255
255
255
255
255
255
255
255
254
254
254
254
255
254
254
255
255
254
255
255
253
255
254
254
255
254
254
255
254
255
255
255
254
254
254
254
254
254
254
254
254
254
254
255
254
254
255
254
254
255
255
255
255
255
255
255
255
254
255
255
254
255
255
253
254
255
254
254
255
253
254
253
253
251
250
254
252
244
255
250
205
236
225
126
174
157
92
153
133
37
118
94
29
118
92
30
122
94
33
121
93
35
120
88
36
123
83
37
124
81
55
139
85
101
178
114
115
190
115
119
193
114
121
196
103
122
197
99
122
196
100
122
195
99
124
195
102
124
195
102
124
194
103
123
193
104
122
194
104
123
193
103
123
193
104
123
194
104
124
194
102
125
194
101
125
194
101
125
194
101
125
194
102
125
194
103
125
194
103
124
194
103
124
195
104
124
194
105
124
194
105
123
194
103
123
194
102
123
194
102
124
194
101
125
194
100
125
195
101
123
194
100
122
195
99
121
195
99
121
195
100
118
195
107
102
182
106
104
184
107
73
155
96
56
142
92
35
123
81
37
125
78
34
124
82
32
122
85
32
122
84
29
121
89
30
123
92
30
121
89
29
120
88
33
123
87
35
127
90
32
126
87
31
124
89
31
124
91
29
124
90
29
123
93
31
123
91
32
123
87
35
122
78
35
123
82
49
135
88
77
160
104
76
161
106
98
181
111
118
196
111
120
195
103
121
195
102
125
195
101
125
195
103
125
194
104
124
193
104
124
193
104
123
192
103
125
194
104
126
194
103
126
193
103
125
194
103
123
195
102
121
194
101
122
197
102
122
196
100
122
195
99
123
195
102
123
194
101
124
194
103
124
195
104
128
195
106
128
194
105
128
196
105
129
195
105
124
193
102
123
194
102
124
195
103
125
196
104
123
195
109
118
194
114
119
192
114
88
169
104
61
147
93
39
130
84
40
130
84
34
123
85
34
123
91
33
122
90
33
122
93
254
254
254
255
255
255
254
254
254
255
255
255
255
255
255
255
255
255
254
254
254
254
254
254
255
255
255
254
254
254
255
255
255
255
255
255
255
255
255
255
255
255
254
255
255
255
255
255
253
255
254
254
255
255
255
255
255
254
255
255
253
255
254
254
255
254
255
255
255
254
255
255
254
254
255
255
255
255
253
254
255
254
254
255
255
255
255
254
254
255
255
254
255
255
254
255
255
255
255
255
254
255
255
253
255
255
255
255
254
253
254
252
254
251
234
252
245
255
255
255
164
209
194
66
137
114
255
255
255
33
119
93
32
120
93
35
121
92
255
255
255
34
120
85
40
125
80
255
255
255
66
146
91
111
185
117
255
255
255
121
194
111
122
195
103
122
195
100
255
255
255
123
196
102
124
195
103
255
255
255
124
194
103
123
194
103
123
193
103
255
255
255
124
194
102
125
194
101
255
255
255
125
194
101
125
194
102
255
255
255
125
194
103
124
194
104
124
195
104
255
255
255
123
195
105
123
194
103
255
255
255
123
193
101
124
194
101
124
194
100
255
255
255
123
194
99
123
195
99
255
255
255
121
195
99
118
195
107
100
181
105
255
255
255
66
149
91
51
136
88
255
255
255
34
122
81
34
124
85
255
255
255
32
123
86
29
122
88
30
123
93
255
255
255
32
124
93
31
120
88
255
255
255
35
124
90
32
122
89
32
123
92
255
255
255
32
123
94
32
122
95
255
255
255
33
122
93
33
124
89
255
255
255
35
123
84
46
135
89
75
162
106
255
255
255
98
181
110
118
196
108
255
255
255
122
195
102
125
195
102
124
194
104
255
255
255
123
193
104
124
193
104
255
255
255
125
195
104
125
195
103
125
195
103
255
255
255
124
196
102
123
197
101
255
255
255
123
196
99
123
194
99
255
255
255
124
194
102
127
193
105
128
193
105
255
255
255
128
193
105
126
194
104
255
255
255
123
193
102
123
194
102
126
195
105
255
255
255
125
194
110
118
190
113
255
255
255
88
167
103
60
145
92
255
255
255
40
128
83
34
122
84
32
121
89
255
255
255
254
254
254
254
254
254
254
254
254
255
255
255
255
255
255
255
255
255
255
255
255
254
254
254
254
254
254
254
254
254
255
255
255
255
255
255
255
255
255
255
255
255
255
255
255
254
254
255
253
255
254
255
255
255
254
255
255
254
255
255
255
255
255
253
255
254
254
255
254
255
255
255
254
255
255
253
254
255
253
254
255
255
255
255
254
254
255
254
254
255
255
255
255
255
254
255
255
254
255
255
253
255
255
255
255
255
253
255
254
253
253
255
255
255
250
255
251
211
237
228
255
255
255
118
175
156
46
125
99
32
121
93
255
255
255
35
122
95
35
121
91
255
255
255
34
120
83
45
128
82
84
161
102
255
255
255
118
190
116
122
194
108
255
255
255
122
195
103
123
197
102
123
196
102
255
255
255
124
195
103
124
194
103
255
255
255
123
194
102
125
194
101
255
255
255
125
194
101
125
194
101
125
194
103
255
255
255
125
194
103
124
194
104
255
255
255
123
194
104
123
196
105
122
194
104
255
255
255
122
193
101
124
194
101
255
255
255
124
194
100
123
194
98
255
255
255
123
195
99
122
196
100
118
195
108
255
255
255
100
180
105
61
144
88
255
255
255
47
132
86
33
121
82
32
123
85
255
255
255
33
125
88
30
123
88
255
255
255
30
124
90
33
127
95
255
255
255
33
122
91
34
120
89
35
121
91
255
255
255
32
119
90
35
121
94
255
255
255
35
121
94
35
121
96
34
122
93
255
255
255
33
123
89
32
122
84
255
255
255
46
135
89
75
163
105
101
184
110
255
255
255
118
196
106
123
196
103
255
255
255
124
195
102
123
193
103
255
255
255
123
194
104
124
194
105
124
195
104
255
255
255
124
195
103
125
195
102
255
255
255
124
196
101
124
197
101
123
195
99
255
255
255
125
194
100
127
193
103
255
255
255
127
192
105
127
191
104
255
255
255
126
193
105
125
194
105
124
194
103
255
255
255
125
194
104
128
194
106
255
255
255
125
192
109
118
190
112
87
166
102
255
255
255
59
144
91
40
127
82
255
255
255
33
121
84
32
121
89
254
254
254
254
254
254
254
254
254
254
254
254
254
254
254
255
255
255
255
255
255
255
255
255
254
254
254
254
254
254
255
255
255
255
255
255
255
255
255
255
255
255
255
254
255
255
254
255
254
254
255
254
255
255
254
255
255
254
255
255
254
255
255
254
255
255
253
255
254
253
255
254
252
255
254
252
255
255
253
254
255
253
254
255
253
254
255
254
254
255
254
254
255
254
254
255
255
253
255
255
252
255
255
252
255
255
252
255
255
251
253
253
252
252
250
251
251
238
254
249
180
216
204
144
191
174
49
123
98
33
121
93
32
123
94
33
122
95
35
122
94
34
121
89
33
121
88
37
124
82
78
156
102
104
178
114
114
187
115
122
194
108
122
194
105
122
195
102
122
196
102
122
195
101
122
196
101
122
196
101
124
195
102
124
194
102
125
194
101
125
194
101
125
194
101
125
194
101
124
194
103
124
194
105
124
194
104
123
194
105
123
194
104
123
194
104
122
194
103
122
195
103
121
194
102
122
194
102
123
194
101
125
194
100
125
194
100
124
194
99
123
195
99
123
195
99
122
196
100
117
194
107
99
179
105
99
179
105
58
141
86
42
127
84
44
129
85
35
122
87
33
123
87
30
123
88
31
124
88
30
123
88
31
125
89
30
124
90
32
126
92
32
121
90
34
123
92
36
119
91
42
118
92
46
119
95
38
118
92
44
116
93
47
119
96
40
120
95
48
120
97
41
117
93
40
120
96
35
122
93
37
121
92
34
123
89
33
123
84
35
125
84
49
137
87
87
173
108
106
188
111
111
192
112
121
196
106
123
196
103
123
195
103
123
194
102
123
194
104
122
195
105
123
196
105
122
196
104
123
195
103
122
195
102
122
194
101
123
195
101
123
194
101
125
196
101
124
195
100
125
195
100
126
194
101
129
194
105
128
192
104
129
191
106
131
194
109
127
192
105
131
196
110
132
199
112
130
198
109
126
195
105
128
196
108
126
193
105
128
193
105
128
192
105
126
193
110
119
190
113
86
165
101
86
165
101
59
143
91
40
127
82
40
127
82
34
122
84
254
254
254
255
255
255
254
254
254
254
254
254
254
254
254
255
255
255
255
255
255
255
255
255
255
255
255
254
254
254
255
255
255
255
255
255
255
255
255
255
255
255
255
254
255
255
255
255
255
254
255
255
254
255
255
255
255
254
255
255
254
255
255
254
255
255
255
255
255
252
255
254
251
255
254
255
255
255
252
255
255
253
254
255
255
255
255
253
254
255
253
254
255
254
254
255
255
255
255
254
252
255
255
253
255
255
255
255
255
253
255
253
250
252
246
252
250
255
255
255
225
252
241
112
168
148
255
255
255
38
118
91
33
121
93
34
122
94
255
255
255
33
121
92
34
122
86
255
255
255
42
127
81
91
167
105
255
255
255
120
193
115
122
193
104
123
195
103
255
255
255
121
194
102
121
195
101
255
255
255
123
196
102
125
195
102
125
194
101
255
255
255
125
194
101
124
194
103
255
255
255
124
194
105
123
195
105
255
255
255
122
195
104
121
194
102
122
195
103
255
255
255
122
195
103
123
195
101
255
255
255
124
195
100
124
195
99
123
195
99
255
255
255
122
197
100
117
194
107
255
255
255
99
179
106
58
141
87
41
126
84
255
255
255
35
122
88
33
123
88
255
255
255
31
123
88
29
123
88
255
255
255
30
123
89
30
124
90
34
121
91
255
255
255
35
117
89
45
117
92
255
255
255
58
125
103
54
117
96
74
137
117
255
255
255
65
128
108
67
133
112
255
255
255
51
121
98
46
122
97
255
255
255
38
120
91
38
126
91
35
124
81
255
255
255
51
139
85
95
179
110
255
255
255
115
194
112
121
195
106
123
195
103
255
255
255
123
194
103
123
195
105
255
255
255
122
196
105
121
196
103
121
195
102
255
255
255
121
194
101
124
196
102
255
255
255
125
195
101
123
192
99
255
255
255
127
193
103
129
193
106
133
195
111
255
255
255
137
200
116
139
203
118
255
255
255
139
204
117
134
200
112
129
196
108
255
255
255
127
192
104
129
193
106
255
255
255
125
192
109
119
190
113
255
255
255
87
166
102
59
143
90
39
127
82
255
255
255
254
254
254
254
254
254
255
255
255
255
255
255
254
254
254
254
254
254
254
254
254
255
255
255
255
255
255
255
255
255
255
255
255
255
255
255
254
255
254
253
255
254
254
254
255
255
254
255
255
254
255
255
254
255
254
254
255
254
254
254
254
254
254
254
254
254
253
254
254
254
255
254
252
255
254
251
255
254
253
255
254
254
255
255
253
254
255
254
255
254
253
255
254
254
255
255
254
254
255
254
254
255
255
254
255
255
253
255
255
253
255
253
253
254
250
255
253
240
253
248
222
242
236
138
185
167
83
147
124
60
130
105
37
120
92
36
120
92
34
121
91
35
121
90
35
124
89
36
124
84
43
128
83
71
151
94
102
177
109
110
186
111
122
194
109
124
195
107
123
195
104
123
195
104
121
194
102
122
195
101
124
196
103
125
196
102
124
195
101
124
195
101
124
194
103
124
194
105
124
194
105
122
195
105
122
195
104
121
195
104
120
195
102
121
195
102
121
196
103
122
195
103
123
194
102
123
194
100
124
194
100
123
194
99
122
195
99
121
195
101
122
196
101
118
194
108
101
179
107
100
179
106
63
145
92
43
127
87
35
122
90
35
122
89
33
122
90
32
123
91
32
123
89
31
124
90
31
123
91
30
123
90
32
123
92
37
120
91
47
123
98
40
119
92
58
123
102
90
146
128
72
134
113
116
166
150
139
184
170
163
205
193
111
164
147
158
201
187
156
203
186
89
147
127
112
162
144
76
136
115
46
120
95
46
118
91
39
119
88
34
122
83
35
124
77
35
124
74
61
146
84
101
183
111
108
187
111
121
195
111
123
195
106
123
194
104
123
193
106
122
194
105
122
196
105
121
197
104
120
197
104
120
197
103
120
195
102
122
197
104
124
196
104
125
195
103
124
194
102
126
193
103
125
192
101
127
192
103
132
193
108
142
201
119
141
202
119
153
214
132
155
215
133
149
210
126
158
217
133
148
210
125
137
201
114
130
195
108
129
195
107
126
192
104
128
192
105
127
191
104
125
193
110
120
192
115
121
193
116
85
165
99
57
141
86
40
127
82
255
255
255
255
255
255
255
255
255
255
255
255
255
255
255
254
254
254
255
255
255
254
254
254
255
255
255
255
255
255
255
255
255
254
255
254
253
255
254
255
255
255
253
255
254
254
254
255
255
254
255
255
255
255
254
254
254
254
254
254
255
255
255
254
254
254
254
254
254
255
255
255
254
255
255
253
255
253
254
255
253
255
255
255
255
255
253
254
255
254
255
255
255
253
255
254
253
254
255
254
254
255
255
255
255
255
254
255
254
254
255
255
255
255
252
255
254
246
255
253
255
255
255
201
229
220
93
149
127
46
120
93
255
255
255
38
119
92
36
120
91
255
255
255
36
121
89
36
122
84
52
134
85
255
255
255
92
171
107
116
190
113
255
255
255
122
193
110
124
196
107
122
195
104
255
255
255
122
195
103
124
196
103
255
255
255
124
195
101
124
194
103
255
255
255
124
194
105
122
195
105
121
196
104
255
255
255
121
196
103
120
195
102
255
255
255
121
196
103
122
195
102
123
194
101
255
255
255
124
193
100
123
194
99
255
255
255
121
195
101
119
194
108
255
255
255
103
181
108
65
146
93
45
128
89
255
255
255
34
121
91
34
122
92
255
255
255
33
123
91
33
124
93
32
123
92
255
255
255
34
124
93
38
118
91
255
255
255
51
121
98
71
131
112
255
255
255
106
157
141
155
199
186
168
205
194
255
255
255
193
226
217
196
227
217
255
255
255
191
225
213
182
220
205
124
171
154
255
255
255
82
140
118
46
118
92
255
255
255
38
120
86
33
121
79
40
127
74
255
255
255
69
151
85
112
188
110
255
255
255
122
194
109
124
193
107
255
255
255
123
193
106
120
194
104
120
197
105
255
255
255
119
197
104
121
198
104
255
255
255
122
196
104
124
195
103
126
194
104
255
255
255
128
193
105
130
193
106
255
255
255
140
200
117
157
216
135
255
255
255
159
218
138
162
219
139
159
218
134
255
255
255
149
210
125
136
200
113
255
255
255
128
193
106
125
190
103
127
192
104
255
255
255
125
194
110
119
192
114
255
255
255
84
163
97
58
140
86
255
255
255
255
255
255
255
255
255
255
255
255
255
255
255
255
255
255
254
254
254
255
254
254
255
253
254
255
254
255
255
255
255
254
254
255
254
255
255
253
255
254
253
255
254
253
255
254
254
255
255
255
254
255
254
255
255
254
254
254
254
254
254
254
254
254
254
254
254
255
255
255
255
254
255
255
255
254
254
254
252
254
255
253
255
254
253
255
255
253
254
255
254
253
255
253
252
254
253
252
252
254
253
253
254
253
252
254
255
255
255
254
255
254
252
255
254
245
255
253
239
254
251
221
249
239
139
191
169
49
121
92
41
118
89
39
119
90
38
121
92
37
120
90
38
122
91
38
122
86
40
123
78
65
146
91
77
157
97
118
194
121
120
193
115
120
193
111
122
194
107
121
194
104
122
194
104
121
195
104
123
196
104
124
195
102
123
194
102
123
193
104
123
194
105
123
195
105
122
196
104
120
197
101
121
196
102
120
196
101
120
195
101
121
196
102
122
194
102
124
194
102
125
194
101
124
193
100
124
194
101
123
195
101
122
195
101
121
195
108
110
186
111
106
184
109
78
157
100
51
134
91
36
121
90
35
120
91
34
122
93
34
123
95
33
122
93
32
123
92
31
122
92
29
119
91
33
122
93
39
118
92
57
122
100
54
121
99
102
150
136
140
177
167
122
167
154
194
226
217
204
229
223
217
235
231
213
238
232
218
235
232
219
235
231
215
237
229
220
234
227
215
236
226
200
231
218
133
177
160
128
172
157
71
130
110
46
119
92
46
122
94
38
122
86
38
127
81
47
132
76
57
140
81
92
169
96
116
189
109
119
189
106
125
192
106
125
193
107
125
193
106
122
194
105
120
196
106
119
197
105
119
197
105
119
196
103
120
196
103
118
193
100
123
195
104
127
195
106
128
194
106
128
193
106
135
198
113
138
199
115
153
212
131
159
217
139
160
218
140
160
218
140
160
217
138
158
216
136
159
218
135
158
217
135
143
206
120
133
198
111
129
195
107
124
193
103
124
194
103
126
194
104
126
195
104
124
194
109
118
191
113
119
190
113
85
164
98
255
255
255
255
255
255
255
255
255
255
255
255
255
255
255
255
255
255
255
255
255
255
254
254
255
255
255
255
254
255
255
254
255
255
255
255
255
254
255
254
255
255
253
255
254
255
255
255
253
255
254
254
255
255
255
255
255
254
255
254
254
254
254
254
255
255
255
255
255
255
254
254
255
254
255
255
255
255
255
254
254
254
254
253
255
255
255
255
254
253
255
255
253
253
254
253
255
255
255
253
254
254
252
252
254
255
255
255
254
253
254
254
255
255
250
255
254
255
255
255
239
254
250
197
235
220
255
255
255
109
169
145
43
121
91
38
122
93
255
255
255
36
121
92
37
122
90
255
255
255
36
120
82
49
130
80
255
255
255
90
168
103
119
193
115
121
193
108
255
255
255
122
194
106
120
194
104
255
255
255
121
195
104
122
195
103
122
193
103
255
255
255
124
194
105
123
196
105
255
255
255
122
197
104
119
196
101
255
255
255
120
195
100
120
194
102
123
194
103
255
255
255
125
195
103
125
194
101
255
255
255
124
194
101
122
195
107
113
189
112
255
255
255
87
165
105
56
138
93
255
255
255
36
121
88
34
121
91
33
123
94
255
255
255
32
122
93
30
122
92
255
255
255
28
120
91
37
118
93
255
255
255
58
124
103
114
158
145
156
187
179
255
255
255
205
229
223
214
233
229
255
255
255
221
233
231
221
232
231
223
233
231
255
255
255
224
233
229
222
232
226
255
255
255
219
236
228
198
229
218
255
255
255
120
165
150
60
122
101
43
122
93
255
255
255
37
123
86
39
127
80
255
255
255
67
148
86
104
177
102
122
190
105
255
255
255
125
192
104
125
194
106
255
255
255
122
195
106
120
196
105
119
196
104
255
255
255
119
194
101
121
194
102
255
255
255
125
195
105
126
192
105
255
255
255
132
196
110
147
208
126
157
215
136
255
255
255
159
217
140
160
217
140
255
255
255
158
216
137
159
218
137
152
213
130
255
255
255
137
202
115
125
195
106
255
255
255
123
195
103
126
196
104
255
255
255
126
194
104
124
193
108
120
192
113
255
255
255
255
255
255
255
255
255
255
255
255
255
255
255
255
255
255
255
255
255
255
255
255
255
255
255
255
254
255
255
254
255
255
255
255
255
254
255
255
254
255
255
255
255
254
255
255
253
255
254
253
255
254
255
255
255
253
255
254
254
255
254
255
255
255
254
255
255
255
254
255
255
255
255
255
253
254
255
253
254
255
253
254
255
255
255
255
254
253
255
254
251
255
255
255
255
255
253
254
254
253
254
253
254
255
255
255
253
252
254
254
253
255
255
255
255
254
255
255
247
255
253
255
255
255
231
251
245
166
211
193
78
146
119
255
255
255
39
123
92
34
122
93
255
255
255
34
121
92
34
120
88
38
123
82
255
255
255
61
140
85
99
176
106
255
255
255
120
193
110
122
195
107
121
194
104
255
255
255
120
195
104
121
196
103
255
255
255
121
194
102
123
194
104
255
255
255
124
195
106
123
197
105
121
196
102
255
255
255
119
196
100
120
194
102
255
255
255
122
193
103
125
195
104
125
194
102
255
255
255
125
194
101
122
194
106
255
255
255
116
192
112
96
174
110
255
255
255
62
143
95
37
121
86
34
121
89
255
255
255
32
121
92
32
122
94
255
255
255
32
122
94
28
121
92
36
119
93
255
255
255
59
127
106
119
164
150
255
255
255
167
194
187
213
231
227
255
255
255
219
234
231
224
233
232
224
231
231
255
255
255
224
231
230
226
231
230
255
255
255
227
232
229
224
229
225
218
236
228
255
255
255
194
226
215
106
155
139
255
255
255
51
118
95
39
120
91
36
122
84
255
255
255
40
127
79
77
156
92
255
255
255
113
184
106
125
192
104
255
255
255
126
193
103
124
195
105
122
195
104
255
255
255
121
196
104
119
195
102
255
255
255
121
195
103
123
196
104
124
193
104
255
255
255
127
192
106
140
203
119
255
255
255
152
212
132
158
216
139
255
255
255
160
217
140
159
217
140
159
217
138
255
255
255
155
216
134
145
209
124
255
255
255
129
198
110
122
195
105
125
196
105
255
255
255
126
195
104
127
193
103
255
255
255
125
194
108
120
194
114
254
254
254
255
255
255
255
255
255
255
255
255
255
255
255
254
254
254
254
254
254
254
254
254
255
253
254
255
254
255
255
254
255
255
254
255
255
254
255
255
254
255
254
254
255
253
255
254
252
255
254
252
255
254
251
255
254
253
255
255
254
255
255
254
255
255
255
255
255
255
254
254
255
254
254
255
253
254
255
253
254
255
253
254
255
253
252
255
252
249
255
253
250
255
254
251
254
254
250
254
253
252
254
253
255
255
253
255
255
252
255
254
253
255
254
253
254
250
254
254
244
255
253
242
255
252
203
235
223
91
153
128
48
123
95
40
122
93
30
124
94
32
123
93
31
124
94
33
122
93
33
120
84
43
127
82
51
135
87
91
170
105
108
184
109
116
191
111
124
196
106
123
194
102
121
194
103
121
195
102
122
197
101
121
195
102
120
194
101
122
194
102
123
195
104
123
195
104
121
195
103
120
195
102
120
195
102
121
195
104
122
194
105
122
193
104
124
194
105
125
193
104
124
193
102
124
193
102
123
193
105
120
193
109
118
192
111
111
188
116
76
156
99
69
149
96
39
121
77
37
122
85
34
122
90
33
121
91
33
123
93
32
122
94
32
122
94
34
124
96
38
120
94
56
126
105
57
127
106
115
164
150
171
201
193
171
199
191
216
231
228
223
233
232
223
234
232
225
231
231
227
230
232
229
232
232
226
231
231
226
232
230
227
232
230
229
232
230
232
232
231
229
230
226
224
231
224
217
236
227
214
235
226
171
211
198
92
147
129
78
140
121
41
117
92
33
120
88
34
122
83
34
123
83
46
132
80
87
164
97
96
172
102
124
193
108
126
193
102
127
193
100
126
194
100
122
193
101
122
195
103
122
196
103
122
196
104
122
196
103
124
197
104
124
196
103
123
193
101
124
192
103
126
193
104
136
200
114
145
208
125
149
211
130
156
217
137
158
217
139
159
218
140
158
217
140
157
217
140
157
217
138
153
216
136
138
205
120
134
201
114
124
195
107
122
195
104
125
196
105
125
196
104
125
194
103
125
193
101
127
194
102
127
195
102
123
195
107
254
254
254
255
255
255
255
255
255
254
255
255
254
255
255
255
255
255
253
255
254
253
254
254
255
255
255
255
253
254
255
254
254
255
255
255
255
254
255
255
254
255
254
254
255
255
255
255
253
255
254
252
255
254
255
255
255
251
255
254
253
255
255
254
255
255
255
255
255
254
254
254
255
254
254
255
255
255
255
253
254
255
253
253
255
255
255
255
253
251
255
254
250
255
255
251
255
255
255
253
252
248
254
253
253
255
255
255
255
254
255
255
253
255
253
254
254
255
255
255
251
255
255
234
252
246
255
255
255
182
222
206
74
141
117
35
121
93
255
255
255
28
124
93
30
123
94
255
255
255
31
121
92
36
123
85
255
255
255
59
143
91
103
180
110
121
194
110
255
255
255
126
195
102
122
194
101
255
255
255
122
196
101
120
195
100
121
194
100
255
255
255
124
195
103
122
194
103
255
255
255
121
194
102
122
195
105
255
255
255
123
195
106
124
193
106
125
192
104
255
255
255
125
191
103
124
194
105
255
255
255
122
194
108
115
192
115
83
163
100
255
255
255
40
122
74
37
122
83
255
255
255
35
122
89
34
123
92
33
123
93
255
255
255
33
123
95
38
120
94
255
255
255
53
123
102
109
160
145
255
255
255
166
199
190
214
232
228
222
233
231
255
255
255
225
230
230
227
230
231
255
255
255
228
230
231
227
233
231
226
232
230
255
255
255
229
232
231
232
229
227
255
255
255
229
229
224
224
232
225
255
255
255
203
229
219
149
196
182
67
133
113
255
255
255
39
119
93
33
122
90
255
255
255
37
126
84
54
137
83
104
179
104
255
255
255
125
194
105
127
194
99
255
255
255
125
194
100
123
194
102
123
196
103
255
255
255
123
196
104
124
196
102
255
255
255
124
195
101
123
192
99
255
255
255
129
196
107
140
203
118
151
214
131
255
255
255
157
219
137
159
220
142
255
255
255
157
218
141
157
219
141
142
207
125
255
255
255
129
198
112
121
193
104
255
255
255
123
194
104
127
196
105
255
255
255
124
193
101
124
193
100
126
196
102
255
255
255
254
254
254
254
254
254
254
254
254
253
255
254
252
255
254
252
255
254
251
255
254
251
254
253
253
253
253
253
254
253
253
253
253
254
254
254
254
253
254
255
253
254
255
254
255
254
254
255
254
254
255
253
255
254
252
255
254
252
255
254
251
255
254
253
255
254
254
255
254
254
255
254
255
254
255
255
254
254
255
254
255
255
253
254
255
254
253
255
254
253
255
254
252
255
255
251
254
254
250
254
254
250
252
252
250
254
253
253
254
254
253
255
253
254
255
254
255
253
254
255
252
254
254
245
255
251
223
247
237
197
227
215
111
163
144
48
125
100
33
122
93
33
122
93
29
122
93
30
121
93
31
121
91
34
122
88
40
127
86
47
133
86
82
163
100
119
193
113
124
195
108
124
194
106
121
191
98
122
194
100
124
196
101
123
197
101
122
196
99
123
195
101
123
195
100
123
194
102
122
194
102
123
194
104
124
195
105
124
195
106
125
194
106
126
193
105
125
191
103
125
191
103
125
193
104
124
195
106
123
194
107
120
194
109
99
178
103
55
139
78
46
129
75
39
125
78
35
123
85
35
122
87
32
121
89
31
121
91
30
121
90
32
122
92
35
119
92
46
120
97
49
121
99
87
142
126
150
188
178
159
195
185
209
232
226
219
235
230
221
231
227
223
230
229
227
231
230
228
230
230
228
230
230
227
231
230
226
231
230
226
232
230
227
232
230
230
230
229
231
229
227
232
228
225
233
229
227
228
231
227
221
233
225
217
233
225
168
204
192
84
143
126
56
127
105
46
124
100
34
123
93
33
124
90
33
124
88
51
136
86
87
166
100
111
184
105
115
187
105
124
192
102
127
194
99
126
193
101
125
193
101
124
195
103
123
195
103
123
194
101
122
193
99
124
195
101
124
195
99
125
195
100
125
193
100
127
194
101
132
198
108
140
206
118
151
216
131
149
215
130
152
216
134
157
219
141
154
217
138
144
208
129
135
201
119
132
200
116
126
195
110
123
193
106
121
192
103
124
193
104
124
194
103
125
194
102
124
193
100
124
195
101
124
195
101
124
195
100
255
255
255
254
254
254
253
254
254
255
255
255
252
255
255
251
255
254
255
255
255
251
255
254
252
254
254
254
254
254
255
255
255
254
254
254
255
254
254
255
255
255
255
253
254
255
254
255
254
254
255
255
255
255
253
255
254
252
255
254
255
255
255
251
255
254
253
255
254
255
255
255
255
255
255
255
254
255
255
254
255
255
255
255
255
253
254
255
254
253
255
255
255
254
254
252
254
255
251
253
254
251
255
255
255
253
254
252
254
254
254
255
255
255
254
252
255
254
253
254
255
255
255
250
254
252
239
255
248
170
206
192
255
255
255
77
136
116
42
121
95
255
255
255
34
121
92
32
122
92
33
122
90
255
255
255
37
125
87
58
142
91
255
255
255
97
176
108
122
194
112
124
193
104
255
255
255
123
193
101
124
196
102
255
255
255
122
196
101
123
195
99
255
255
255
124
195
101
124
195
103
124
195
104
255
255
255
125
195
105
126
194
106
255
255
255
126
192
104
125
193
103
124
194
104
255
255
255
121
194
106
107
185
106
255
255
255
72
156
89
42
129
78
255
255
255
33
123
82
32
123
88
30
121
90
255
255
255
31
123
92
33
119
90
255
255
255
42
118
93
73
131
114
138
179
168
255
255
255
205
231
225
219
236
231
255
255
255
222
232
229
226
231
229
255
255
255
229
231
230
228
230
229
226
230
229
255
255
255
226
230
229
230
229
229
255
255
255
232
229
228
233
229
228
232
230
228
255
255
255
224
232
227
218
237
230
255
255
255
147
188
176
61
126
108
39
121
96
255
255
255
31
121
89
35
124
84
255
255
255
61
143
88
101
178
108
255
255
255
118
190
107
125
193
104
125
192
101
255
255
255
125
193
102
124
195
103
255
255
255
123
194
100
122
193
98
125
196
100
255
255
255
127
196
101
125
192
99
255
255
255
131
198
108
138
206
118
255
255
255
144
211
125
146
213
128
141
206
126
255
255
255
133
199
118
127
194
112
255
255
255
124
193
108
125
193
105
123
193
103
255
255
255
123
194
101
124
194
101
255
255
255
124
195
101
124
195
99
254
255
255
255
255
255
254
254
254
252
254
254
251
255
254
255
255
255
251
255
254
252
255
255
255
255
255
254
255
255
254
254
254
255
255
255
254
254
254
255
254
254
255
253
254
255
255
255
255
254
255
254
254
255
255
255
255
253
255
254
251
255
254
251
255
254
255
255
255
254
255
255
255
255
255
255
255
255
255
254
255
255
254
255
255
255
255
255
253
254
254
254
253
254
254
252
255
255
255
254
255
251
253
255
252
255
255
255
254
255
254
254
253
255
254
253
255
255
255
255
253
253
253
248
255
251
255
255
255
231
253
243
143
185
169
59
123
101
255
255
255
39
119
92
34
121
92
255
255
255
34
122
92
35
123
89
255
255
255
39
126
83
70
154
97
109
186
112
255
255
255
125
195
110
125
193
104
255
255
255
124
194
103
123
195
102
123
195
100
255
255
255
124
195
99
124
195
102
255
255
255
124
195
103
125
196
104
255
255
255
125
195
104
127
193
104
126
193
103
255
255
255
124
194
102
121
194
103
255
255
255
113
191
108
89
172
100
50
138
83
255
255
255
32
122
80
31
123
87
255
255
255
30
122
89
30
123
91
34
122
92
255
255
255
39
116
90
62
122
103
255
255
255
125
169
156
201
230
223
255
255
255
218
237
232
222
234
230
225
231
229
255
255
255
230
230
230
230
230
229
255
255
255
228
229
229
226
229
228
230
228
228
255
255
255
232
227
229
232
228
228
255
255
255
232
230
229
229
231
228
255
255
255
222
233
228
214
237
230
126
172
161
255
255
255
48
118
99
34
118
91
255
255
255
33
121
87
38
124
79
68
150
91
255
255
255
111
187
114
122
193
110
255
255
255
125
194
105
125
192
102
125
194
104
255
255
255
124
195
103
122
193
100
255
255
255
124
194
100
127
197
102
255
255
255
126
194
100
124
191
98
130
199
108
255
255
255
135
203
114
139
207
119
255
255
255
135
203
118
131
197
115
126
194
111
255
255
255
124
192
108
125
193
107
255
255
255
124
193
104
123
194
102
255
255
255
123
195
102
123
195
100
123
195
99
255
255
255
253
255
255
254
255
255
253
254
254
252
253
253
252
254
254
250
254
253
251
254
253
254
255
255
254
255
255
254
254
254
254
255
255
254
255
255
254
254
254
255
255
255
255
254
255
255
254
255
255
254
255
255
254
255
254
254
255
253
254
254
251
255
254
251
255
254
251
255
254
251
255
254
254
255
255
255
255
255
255
254
255
255
254
255
255
254
255
255
254
255
254
254
254
254
254
253
254
254
252
253
255
253
252
255
254
253
255
254
253
255
255
253
255
254
254
254
254
255
254
254
254
252
252
253
254
252
244
254
249
238
251
245
192
225
211
95
149
130
47
115
92
44
116
92
36
119
91
34
121
91
35
120
91
36
123
90
35
123
86
34
121
82
48
133
80
97
176
105
118
193
114
120
194
111
125
194
107
125
193
105
125
193
105
124
194
105
123
194
102
123
194
100
123
194
101
124
195
103
124
195
103
125
195
104
125
195
104
125
195
104
125
194
103
126
193
102
126
193
101
125
193
102
122
194
99
120
196
106
117
194
108
113
194
114
66
153
90
36
128
78
34
126
79
29
123
82
31
125
88
31
124
89
31
125
90
30
122
89
37
122
92
39
120
92
45
116
92
94
145
128
109
157
142
181
216
206
211
235
228
215
237
230
220
236
231
224
234
230
227
230
229
229
230
229
232
229
228
235
229
230
231
229
229
233
228
229
233
227
228
235
228
228
233
227
228
235
227
228
234
229
231
233
229
230
233
232
232
229
230
230
226
230
228
225
231
229
216
231
229
171
204
197
105
157
144
83
141
126
39
117
95
34
119
91
34
120
91
36
123
84
45
130
77
77
158
95
87
168
101
117
194
114
123
194
110
123
195
108
123
193
104
125
194
106
125
195
105
125
195
105
125
196
105
124
194
102
125
195
103
125
194
102
126
195
101
125
194
101
125
193
100
124
193
100
129
198
106
127
196
104
126
196
104
130
200
110
124
195
104
124
194
105
125
193
107
125
193
108
126
194
108
123
192
105
124
193
105
123
193
103
123
195
104
123
195
104
123
196
103
122
195
100
123
195
98
124
195
98
250
255
255
250
255
255
251
254
254
255
255
255
253
254
254
253
254
254
255
255
255
253
255
254
254
255
254
254
254
254
255
255
255
254
254
254
254
254
254
255
255
255
255
255
255
255
254
255
255
254
255
255
255
255
254
254
254
253
255
254
255
255
255
251
255
254
251
255
254
255
255
255
252
255
254
254
254
255
255
254
255
255
255
255
255
254
255
255
254
255
255
255
255
255
255
255
254
255
254
253
255
254
255
255
255
252
255
255
252
255
254
255
255
255
252
254
253
254
252
253
255
255
255
253
251
251
251
255
252
224
242
233
255
255
255
157
197
181
75
136
115
255
255
255
41
118
92
35
119
90
35
121
90
255
255
255
36
123
89
38
125
81
255
255
255
60
143
83
104
182
106
121
194
108
255
255
255
125
193
106
125
194
106
255
255
255
123
193
105
123
194
103
255
255
255
124
194
103
125
195
104
126
195
104
255
255
255
125
194
103
125
193
102
255
255
255
126
193
100
123
193
98
121
194
103
255
255
255
119
198
115
82
165
101
255
255
255
39
129
78
30
124
81
255
255
255
28
122
84
33
127
91
30
123
89
255
255
255
32
121
89
41
118
91
255
255
255
76
135
115
161
200
187
206
230
222
255
255
255
217
232
227
223
234
230
255
255
255
226
231
229
231
228
227
255
255
255
235
229
229
238
229
230
235
227
228
255
255
255
237
229
230
238
229
230
255
255
255
238
232
233
236
234
235
234
235
234
255
255
255
229
232
231
228
234
235
255
255
255
203
223
221
134
174
165
64
129
111
255
255
255
38
119
95
35
122
91
255
255
255
39
125
83
57
141
84
255
255
255
97
178
107
117
193
110
121
193
105
255
255
255
122
192
104
124
194
106
255
255
255
124
194
105
126
196
107
124
194
103
255
255
255
125
194
102
125
194
101
255
255
255
125
194
101
124
193
100
255
255
255
124
195
101
123
194
101
123
195
102
255
255
255
124
194
104
127
195
108
255
255
255
124
193
105
122
192
102
123
195
103
255
255
255
122
196
103
122
196
101
255
255
255
123
196
99
124
195
99
231
250
245
239
255
252
242
255
252
250
255
254
248
255
253
253
255
254
254
255
255
254
254
254
255
254
255
255
253
254
255
253
254
255
253
254
253
253
253
254
254
254
253
252
253
255
254
255
255
253
254
255
253
254
255
253
254
255
254
255
254
255
255
253
255
255
251
255
254
251
255
254
252
255
254
253
255
254
254
254
255
255
254
255
255
254
255
255
254
255
255
255
255
255
255
255
255
255
255
253
255
254
253
255
254
253
255
254
251
255
254
251
255
254
252
254
254
254
255
255
254
252
252
254
254
253
253
254
252
244
252
246
207
230
219
184
214
200
82
137
117
58
125
102
46
119
94
36
121
92
34
121
92
35
121
90
33
121
90
34
122
84
44
130
81
54
139
85
93
173
100
117
191
105
121
193
104
123
194
103
125
195
106
124
194
106
123
195
106
121
194
105
122
194
104
123
194
105
125
194
105
126
195
106
126
194
105
125
194
104
125
193
102
125
193
101
126
193
101
125
194
102
121
194
107
119
195
110
111
188
118
77
158
108
55
141
90
39
128
85
32
124
84
29
122
83
30
121
84
31
123
87
28
122
89
30
122
89
32
123
92
45
122
96
60
127
104
92
146
128
176
206
196
224
236
232
221
234
230
225
232
229
226
232
230
226
232
229
228
231
228
232
229
228
234
229
228
237
229
230
237
227
228
239
230
231
239
230
230
245
237
238
246
240
241
242
235
236
247
244
245
247
246
246
245
245
245
237
238
238
241
242
243
236
240
241
226
236
237
222
237
236
164
201
192
67
128
110
48
120
100
42
118
96
36
120
94
36
122
89
36
121
86
48
134
85
75
158
96
92
175
108
113
192
112
121
196
105
121
193
104
122
194
104
123
194
105
123
193
105
122
193
104
123
194
105
123
193
104
124
193
103
125
194
104
125
195
103
125
194
101
125
194
101
124
194
101
124
194
101
124
195
101
124
196
102
123
196
102
124
195
102
125
196
102
125
195
102
125
194
104
124
193
102
124
193
102
123
194
102
123
195
102
122
195
100
122
196
99
123
197
100
124
197
99
124
194
99
205
234
225
255
255
255
232
255
248
232
248
243
247
255
252
255
255
255
252
253
253
254
253
253
255
255
255
255
253
253
255
253
254
255
255
255
255
254
255
252
251
252
253
251
252
255
255
255
254
252
253
255
253
254
255
255
255
255
253
254
254
255
255
253
255
255
255
255
255
251
255
254
252
255
254
255
255
255
253
255
254
255
254
255
255
255
255
255
254
255
255
255
255
255
255
255
255
255
255
254
255
255
253
255
254
255
255
255
253
255
254
252
254
255
253
254
255
255
255
255
254
255
255
254
255
254
255
255
255
252
254
250
234
248
239
160
197
181
255
255
255
59
123
99
39
119
91
255
255
255
36
124
94
32
121
92
255
255
255
32
122
90
34
123
82
64
148
89
255
255
255
110
188
109
120
193
104
255
255
255
124
195
103
124
196
106
122
195
106
255
255
255
121
194
105
123
194
105
255
255
255
124
194
105
125
194
105
255
255
255
124
193
104
126
192
102
126
193
102
255
255
255
125
195
105
119
193
117
255
255
255
95
174
117
45
130
88
34
123
84
255
255
255
32
123
85
31
122
86
255
255
255
30
123
88
29
124
91
38
122
93
255
255
255
57
122
100
152
189
176
255
255
255
218
234
229
227
232
230
255
255
255
227
231
229
228
233
229
230
230
228
255
255
255
235
230
229
236
228
229
255
255
255
240
232
232
247
241
241
249
244
245
255
255
255
251
248
249
252
250
251
255
255
255
251
251
251
248
250
249
255
255
255
244
246
246
235
243
243
212
236
231
255
255
255
141
189
175
54
122
101
255
255
255
39
118
94
36
120
93
36
122
83
255
255
255
55
141
88
102
184
113
255
255
255
117
196
111
123
197
105
122
195
104
255
255
255
123
195
106
121
193
105
255
255
255
122
193
104
124
194
105
255
255
255
125
195
104
124
195
103
124
195
101
255
255
255
124
195
101
126
197
103
255
255
255
124
196
102
124
195
101
124
195
101
255
255
255
124
194
101
125
194
101
255
255
255
124
194
101
124
195
101
255
255
255
122
195
99
122
196
97
124
196
99
255
255
255
163
205
191
164
201
189
207
236
227
255
255
255
219
239
232
248
254
253
255
255
255
252
252
253
254
252
253
255
252
253
255
255
255
255
254
255
254
253
254
255
255
255
252
251
252
254
253
254
254
252
253
255
255
255
255
253
254
254
254
254
255
255
255
254
255
255
253
255
255
255
255
255
252
255
254
253
255
254
254
254
254
255
255
255
255
254
255
255
254
255
255
255
255
255
255
255
254
255
255
254
255
255
255
255
255
254
255
254
254
254
254
255
255
255
253
253
255
253
254
255
255
255
255
254
255
255
254
254
253
248
253
248
255
255
255
220
241
229
134
180
161
255
255
255
46
116
90
37
121
92
33
122
92
255
255
255
31
121
92
32
123
88
255
255
255
35
124
79
74
158
93
115
191
108
255
255
255
122
194
103
125
196
102
255
255
255
123
196
106
122
195
105
255
255
255
121
194
104
123
194
104
124
194
105
255
255
255
124
194
105
124
193
103
255
255
255
125
192
102
125
194
103
122
193
109
255
255
255
109
185
120
63
144
96
255
255
255
34
121
82
34
123
85
255
255
255
33
123
87
32
123
88
29
125
90
255
255
255
32
123
92
45
118
93
255
255
255
124
170
155
207
228
221
224
231
229
255
255
255
227
230
228
226
231
227
255
255
255
229
232
228
233
230
229
255
255
255
236
230
230
240
233
234
250
244
244
255
255
255
251
248
248
252
252
252
255
255
255
253
252
253
254
255
255
250
253
252
255
255
255
251
253
252
245
249
249
255
255
255
232
244
242
197
230
221
115
170
153
255
255
255
46
118
95
37
118
92
255
255
255
37
122
92
37
123
81
255
255
255
66
150
93
109
190
113
119
196
108
255
255
255
122
196
103
122
196
105
255
255
255
121
194
104
121
194
104
122
193
104
255
255
255
124
194
105
124
195
104
255
255
255
124
195
103
124
195
102
255
255
255
125
196
103
125
196
102
124
195
101
255
255
255
123
194
99
123
194
99
255
255
255
125
194
100
125
194
101
124
194
101
255
255
255
123
195
100
122
195
97
255
255
255
124
196
99
124
194
100
66
133
109
69
126
107
110
158
142
177
212
200
150
189
176
204
225
220
248
254
254
246
254
253
252
253
253
255
254
255
255
253
254
255
254
255
255
254
255
254
253
254
255
253
254
255
253
254
254
252
253
255
253
254
255
254
255
255
254
254
254
254
254
255
254
254
254
255
255
253
255
255
254
255
255
254
255
255
255
254
254
255
253
254
255
253
254
255
254
255
255
254
255
255
255
255
254
255
255
255
255
255
255
255
255
255
254
255
255
253
254
254
253
254
254
253
254
253
254
255
253
254
255
253
254
255
253
254
255
251
255
252
242
251
244
229
247
237
166
204
187
108
161
140
82
142
120
38
119
90
32
121
91
30
121
91
31
124
93
31
124
92
32
124
87
33
125
85
50
137
82
95
174
100
118
193
106
121
194
106
125
195
101
125
196
102
124
195
101
121
195
103
121
195
104
120
195
102
120
195
101
122
195
103
124
194
105
123
194
105
123
193
104
124
193
103
123
193
103
126
196
103
121
193
108
116
190
112
106
182
112
61
141
92
46
129
86
36
122
82
33
122
85
33
123
86
32
123
87
28
121
87
29
124
90
31
124
91
34
122
92
60
127
104
92
148
129
144
182
169
213
229
223
226
231
229
227
230
229
227
232
228
225
230
226
226
231
227
227
231
228
234
234
232
235
232
231
240
238
237
252
250
248
254
253
252
253
251
250
252
255
255
252
255
255
253
254
254
253
255
255
250
254
254
251
255
255
251
254
254
252
255
255
252
253
254
244
249
249
242
249
248
217
238
231
142
187
172
90
151
131
67
131
109
40
118
92
38
120
92
38
123
92
40
126
89
45
130
84
56
140
90
94
175
109
115
193
108
119
195
105
120
194
102
123
195
100
122
194
103
122
194
102
124
195
104
122
194
103
122
194
104
123
195
104
124
195
104
124
195
103
124
195
103
123
194
102
124
195
102
123
194
102
123
194
101
123
194
100
123
194
99
123
194
98
124
194
99
124
195
99
125
195
99
124
194
99
124
194
101
124
194
101
124
195
102
124
195
102
124
196
100
125
196
103
126
195
105
50
122
97
255
255
255
52
114
93
94
147
129
131
175
160
255
255
255
200
225
218
244
255
252
255
255
255
252
255
254
254
254
254
255
255
255
254
253
254
254
253
253
255
254
254
255
255
255
254
253
253
254
253
254
255
255
255
255
254
255
255
254
254
255
254
254
255
255
255
255
255
255
255
255
255
255
255
255
255
255
255
255
254
254
255
255
255
255
253
254
255
254
255
255
255
255
255
255
255
254
255
255
255
255
255
255
255
255
255
254
255
255
253
254
254
254
255
255
255
255
253
254
255
253
254
255
255
255
255
253
254
255
246
254
249
215
240
227
255
255
255
132
178
160
61
129
105
255
255
255
36
121
92
32
123
92
255
255
255
31
124
92
31
125
90
37
128
83
255
255
255
67
151
91
106
184
106
255
255
255
123
195
105
125
195
101
123
195
101
255
255
255
120
195
102
120
195
101
255
255
255
120
195
100
122
195
103
255
255
255
122
194
104
123
193
104
124
195
103
255
255
255
125
196
105
116
191
111
255
255
255
83
161
101
41
124
80
34
121
84
255
255
255
32
122
86
31
122
88
255
255
255
28
122
88
31
123
92
46
123
98
255
255
255
92
142
126
190
215
207
255
255
255
225
232
230
227
231
229
255
255
255
227
232
228
226
232
228
232
235
232
255
255
255
240
240
238
252
251
249
255
255
255
254
254
253
252
255
255
251
255
254
255
255
255
252
255
255
251
254
255
255
255
255
249
254
254
250
255
255
255
255
255
252
254
255
251
252
253
240
249
247
255
255
255
205
229
221
113
162
145
255
255
255
54
121
99
38
120
92
37
123
90
255
255
255
41
126
85
70
153
99
255
255
255
106
184
113
119
193
106
123
195
102
255
255
255
124
194
99
124
195
102
255
255
255
124
196
104
122
195
103
255
255
255
123
195
103
123
195
103
122
194
102
255
255
255
122
194
102
123
194
102
255
255
255
123
194
101
123
194
100
124
195
100
255
255
255
125
195
99
124
194
98
255
255
255
124
194
101
124
195
103
255
255
255
125
195
103
125
196
104
127
196
106
255
255
255
35
120
92
40
117
91
39
118
92
45
116
93
78
140
120
127
174
158
131
180
164
203
231
221
243
255
251
245
255
253
250
254
253
252
253
253
252
253
253
251
252
252
254
254
254
255
254
255
254
254
255
254
253
254
254
253
254
255
253
254
255
253
254
254
253
254
254
254
254
254
254
254
255
255
255
255
255
255
255
254
255
255
254
255
255
253
254
255
253
254
255
253
254
255
254
255
255
255
255
254
255
255
255
255
255
255
255
255
255
255
255
255
254
255
255
255
255
254
255
255
254
255
255
254
254
255
254
254
255
254
254
255
252
254
254
232
251
243
198
231
217
176
217
202
75
140
118
44
120
94
38
119
94
32
122
92
31
123
93
30
122
92
30
123
89
29
121
79
43
131
81
53
139
84
103
181
111
115
190
110
120
193
110
124
194
104
123
194
101
122
194
101
123
195
102
121
195
100
120
195
100
120
196
99
120
196
98
121
195
102
121
195
101
121
194
102
122
195
103
123
196
104
121
195
105
112
187
110
100
176
107
76
153
96
43
124
83
35
121
87
33
121
87
36
123
91
36
124
93
31
122
90
32
124
93
32
122
93
46
121
98
66
130
109
111
162
146
204
227
220
217
232
227
225
231
229
228
227
227
228
231
229
229
232
229
231
236
232
238
242
238
239
241
239
251
252
250
253
254
253
254
255
253
253
254
254
251
254
254
251
254
253
252
255
254
254
255
255
254
255
255
251
254
254
251
254
254
250
255
255
251
255
255
251
255
255
251
253
253
253
255
255
235
247
243
229
244
239
166
200
188
92
145
127
74
131
112
41
117
91
33
120
88
35
122
86
33
121
81
47
131
81
83
164
104
96
174
109
119
193
112
125
196
105
125
195
101
125
194
100
125
194
99
125
196
102
126
195
102
122
195
101
122
196
102
122
196
101
121
195
102
121
194
102
122
194
102
121
194
102
122
195
102
123
195
102
124
195
103
125
196
102
125
196
102
125
195
100
125
195
100
124
195
100
124
195
100
124
195
103
124
195
103
125
196
104
125
196
104
126
195
104
125
194
103
126
195
106
35
125
94
34
121
93
38
119
93
255
255
255
41
115
92
81
144
124
255
255
255
140
189
172
213
238
231
246
255
254
255
255
255
250
255
254
252
254
254
255
255
255
252
254
253
253
255
254
254
254
255
255
255
255
255
253
254
255
254
254
255
255
255
254
252
253
254
253
254
255
255
255
254
254
254
255
254
255
255
254
255
255
255
255
255
254
255
255
253
254
255
255
255
255
253
254
255
254
254
254
254
254
255
255
255
255
255
255
255
255
255
255
255
255
255
255
255
254
255
255
255
255
255
254
255
255
255
254
255
254
254
255
255
255
255
249
253
252
219
243
234
255
255
255
151
200
184
61
132
111
35
120
95
255
255
255
31
124
95
29
123
92
255
255
255
31
124
88
33
123
78
64
148
88
255
255
255
113
188
113
122
193
109
255
255
255
124
193
104
124
194
102
255
255
255
123
195
102
121
196
100
120
196
98
255
255
255
120
196
98
121
194
101
255
255
255
121
194
102
122
196
105
118
192
109
255
255
255
105
181
115
56
135
88
255
255
255
37
120
85
36
122
92
255
255
255
36
123
93
33
122
92
31
122
93
255
255
255
34
119
93
71
135
116
255
255
255
156
194
182
222
234
230
228
229
229
255
255
255
230
227
228
231
234
231
255
255
255
237
241
238
250
252
250
255
255
255
253
255
253
251
253
252
252
254
254
255
255
255
251
254
253
254
255
255
255
255
255
255
255
255
255
255
255
252
255
255
255
255
255
251
255
255
249
253
253
255
255
255
251
254
253
251
255
255
212
232
224
255
255
255
138
179
163
62
126
104
255
255
255
38
119
91
32
122
87
255
255
255
37
124
81
57
139
84
102
179
108
255
255
255
121
193
109
125
195
103
255
255
255
126
194
100
127
194
101
124
195
101
255
255
255
121
195
100
121
196
101
255
255
255
121
195
102
122
195
103
255
255
255
122
196
102
123
196
102
124
196
102
255
255
255
124
195
101
124
195
101
255
255
255
124
195
101
124
195
101
124
195
103
255
255
255
125
195
103
126
195
104
255
255
255
125
194
102
123
193
102
32
123
94
31
123
95
33
122
96
36
119
95
36
120
95
45
120
97
87
150
130
98
158
138
186
229
214
231
252
247
245
255
254
246
255
255
250
255
255
251
255
254
251
255
254
250
254
253
252
255
254
254
255
255
254
255
255
254
255
255
255
254
254
254
254
254
253
253
253
254
254
254
254
254
254
254
254
254
255
254
255
255
254
255
255
254
255
255
254
255
255
253
254
255
253
254
255
253
254
254
254
254
254
254
254
254
255
254
254
255
255
254
255
255
253
255
255
252
255
255
253
255
255
253
255
255
254
255
255
255
254
255
252
254
254
251
252
252
239
250
246
202
232
223
175
211
201
86
149
132
41
124
101
34
123
97
32
123
97
27
121
94
29
124
92
30
125
93
35
127
86
50
135
79
77
157
91
90
167
98
121
191
110
124
192
107
124
193
106
124
193
104
124
194
103
124
195
103
123
195
102
120
196
99
120
196
98
121
195
101
122
195
103
121
194
102
123
196
103
122
196
104
120
195
111
114
189
114
97
174
106
47
127
81
41
122
83
38
122
89
35
123
96
36
122
94
34
121
94
31
122
93
31
124
95
31
121
93
36
120
94
67
131
111
109
161
146
161
199
188
216
233
228
229
229
229
230
228
228
231
229
229
239
239
236
237
240
237
249
251
248
252
254
252
253
255
253
253
255
254
252
254
253
254
255
255
252
254
254
254
255
255
255
254
255
255
255
255
255
254
255
255
254
255
255
254
255
253
255
255
253
255
255
252
255
254
250
253
253
252
255
255
249
255
253
238
252
244
191
217
206
162
196
181
78
133
112
52
122
98
44
120
94
34
122
90
33
124
88
35
127
88
51
137
86
89
168
100
109
184
108
116
189
108
124
193
103
126
195
102
128
195
102
127
193
102
126
193
103
123
194
101
122
194
101
121
195
101
121
196
102
121
196
103
121
196
102
123
196
102
123
197
102
122
196
100
122
195
99
124
195
101
122
194
99
123
194
101
123
194
101
123
194
102
124
195
103
124
195
103
124
195
103
125
194
103
125
194
103
125
194
102
124
193
100
123
196
102
32
123
95
255
255
255
31
123
96
33
122
96
37
120
96
255
255
255
44
116
93
112
168
149
255
255
255
209
247
234
237
255
251
255
255
255
248
255
255
250
255
255
250
255
254
255
255
255
249
255
253
252
255
254
255
255
255
253
255
255
254
255
255
254
254
254
255
255
255
254
254
254
254
254
254
255
255
255
254
254
254
255
254
255
255
255
255
255
254
255
255
254
255
255
253
254
255
255
255
255
253
254
254
254
254
255
255
255
253
255
254
253
255
255
252
255
255
255
255
255
251
255
255
253
255
255
255
255
255
254
255
254
255
253
254
249
251
251
255
255
255
233
249
243
147
190
178
255
255
255
57
127
108
37
123
99
255
255
255
30
123
97
27
122
95
31
125
91
255
255
255
35
127
81
64
147
87
255
255
255
104
178
106
123
192
108
125
193
105
255
255
255
125
194
105
124
195
103
255
255
255
123
195
101
121
195
101
255
255
255
122
195
103
125
198
106
122
196
102
255
255
255
121
196
106
115
191
112
255
255
255
78
157
97
38
122
83
34
122
92
255
255
255
31
121
96
30
121
93
255
255
255
29
123
93
33
123
95
46
122
99
255
255
255
97
149
133
190
218
210
255
255
255
224
233
230
229
228
229
255
255
255
237
236
235
251
251
249
252
254
252
255
255
255
252
254
253
252
254
253
255
255
255
253
254
254
254
255
255
255
254
255
255
255
255
254
253
255
255
253
255
255
255
255
255
253
255
255
254
255
255
255
255
253
254
255
253
255
255
252
255
254
255
255
255
246
254
249
225
245
234
255
255
255
135
176
159
57
119
96
38
119
92
255
255
255
32
123
89
34
125
84
255
255
255
62
146
90
108
184
112
121
192
107
255
255
255
127
195
102
127
193
102
255
255
255
127
192
102
124
193
103
255
255
255
122
194
102
122
195
103
121
195
103
255
255
255
121
196
102
122
195
100
255
255
255
122
196
99
121
195
98
122
194
100
255
255
255
123
194
102
124
195
103
255
255
255
124
195
103
125
194
103
255
255
255
125
194
103
124
194
102
123
196
101
255
255
255
33
122
94
30
122
94
31
123
96
255
255
255
33
121
96
38
119
93
255
255
255
47
116
93
130
181
163
225
254
246
255
255
255
243
255
254
248
255
255
255
255
255
250
255
255
249
255
254
249
255
253
255
255
255
251
255
255
252
255
254
255
255
255
253
255
255
253
255
255
255
255
255
253
255
255
253
254
254
254
254
254
255
255
255
255
254
255
255
254
255
255
255
255
255
254
255
255
253
254
255
254
254
255
255
255
254
255
254
253
255
254
255
255
255
252
255
255
251
255
255
255
255
255
252
255
255
253
255
254
254
254
254
255
255
255
255
252
254
246
251
248
255
255
255
221
242
235
118
169
154
47
121
101
255
255
255
34
122
98
30
123
97
255
255
255
28
124
95
31
125
86
40
129
79
255
255
255
80
160
96
115
187
111
255
255
255
125
193
106
126
193
105
255
255
255
125
194
104
124
194
103
123
195
102
255
255
255
123
195
103
125
197
105
255
255
255
122
195
102
120
194
101
118
194
107
255
255
255
105
182
110
57
138
87
255
255
255
33
121
86
30
121
94
255
255
255
27
121
93
26
122
92
29
123
94
255
255
255
35
122
94
61
128
107
255
255
255
140
182
170
210
230
224
226
230
229
255
255
255
235
234
234
250
250
248
255
255
255
253
254
252
251
253
252
255
255
255
253
254
253
252
254
253
254
255
255
255
255
255
254
254
255
254
252
255
255
255
255
255
252
255
255
252
255
255
252
255
255
255
255
255
253
254
254
254
254
255
255
255
253
254
253
252
255
252
240
251
244
255
255
255
206
233
219
110
158
139
255
255
255
47
116
92
33
119
90
255
255
255
32
123
87
35
125
80
74
157
96
255
255
255
116
191
113
124
194
104
255
255
255
128
195
102
127
192
102
125
192
102
255
255
255
124
193
104
123
195
104
255
255
255
121
195
103
120
195
103
255
255
255
121
195
102
122
196
101
122
196
99
255
255
255
122
194
99
123
194
102
255
255
255
124
195
103
125
196
104
125
194
103
255
255
255
125
194
103
124
195
103
255
255
255
122
195
102
121
197
104
36
124
89
32
122
92
33
124
96
31
124
97
31
122
93
34
120
91
40
119
92
45
121
95
80
137
118
174
207
198
237
255
253
242
255
254
247
255
254
248
255
254
249
255
254
250
255
255
250
255
255
250
255
254
251
255
254
251
254
254
251
254
253
250
254
253
251
254
254
252
255
255
251
254
254
251
255
255
253
254
254
254
254
254
254
255
254
254
255
255
255
255
255
255
255
255
255
254
255
255
255
255
255
255
255
255
255
255
253
255
254
252
255
254
251
255
254
251
255
255
251
255
255
252
255
255
254
255
255
255
254
254
255
253
254
255
253
253
254
251
250
241
248
244
232
244
239
167
200
189
75
136
118
40
118
96
39
118
96
33
122
97
30
123
96
31
123
94
31
124
90
35
124
80
46
132
79
58
141
84
106
180
110
122
193
113
124
194
112
127
193
106
126
193
105
125
193
105
124
193
104
124
194
102
124
195
102
125
196
102
125
196
103
123
196
103
120
193
98
120
194
99
119
195
106
113
189
108
104
182
108
60
141
86
44
128
84
37
124
86
34
126
96
29
123
94
29
124
94
28
125
93
28
124
93
31
123
93
33
121
93
43
118
95
91
149
131
125
174
159
206
230
222
226
234
231
231
232
232
240
242
240
253
253
252
254
254
252
253
253
253
254
254
254
254
254
254
255
255
255
254
255
255
254
255
255
254
254
255
255
254
255
255
253
255
255
252
255
255
251
255
255
252
255
255
252
254
255
252
254
255
253
254
254
253
252
254
254
253
253
253
251
253
253
250
249
255
249
231
246
237
219
239
228
142
186
169
88
145
124
67
132
110
37
118
91
33
120
90
32
122
89
33
124
83
49
136
84
85
166
100
95
174
104
121
193
108
126
195
103
127
195
102
127
193
99
126
192
102
125
193
104
126
194
105
124
194
105
122
194
104
122
194
104
120
194
104
120
195
104
121
195
105
123
196
104
123
196
102
123
195
100
123
194
101
124
195
102
124
195
103
124
196
104
124
195
103
123
194
103
124
194
103
123
194
104
122
194
103
122
194
103
120
194
105
118
196
111
35
123
86
255
255
255
35
124
93
32
123
92
31
121
91
255
255
255
37
121
92
54
125
101
255
255
255
109
158
141
194
220
213
255
255
255
247
255
254
249
255
253
250
255
254
255
255
255
251
255
255
251
255
254
255
255
255
252
255
255
251
254
253
250
254
253
255
255
255
251
254
253
251
254
254
255
255
255
251
255
254
252
255
254
255
255
255
253
255
254
254
255
255
255
254
255
255
255
255
255
254
255
255
255
255
255
255
255
255
255
255
252
255
254
251
255
254
255
255
255
252
255
255
253
255
255
255
255
255
255
255
255
255
253
254
255
252
252
255
255
255
251
252
250
212
230
223
255
255
255
126
166
153
60
126
106
255
255
255
37
119
95
33
121
94
32
123
92
255
255
255
32
124
87
41
128
80
255
255
255
71
151
91
112
186
111
124
193
110
255
255
255
127
193
106
125
192
105
255
255
255
124
193
103
124
195
102
255
255
255
124
195
101
125
196
101
121
194
99
255
255
255
123
198
104
118
194
112
255
255
255
90
169
103
48
131
85
35
123
89
255
255
255
37
130
101
29
125
93
255
255
255
29
126
93
30
123
92
37
121
93
255
255
255
53
120
99
152
193
180
255
255
255
220
238
232
232
238
236
255
255
255
247
248
247
254
255
255
254
254
254
255
255
255
255
255
255
255
255
255
255
255
255
254
254
255
255
254
255
255
253
255
255
255
255
255
253
255
255
252
255
255
255
255
255
253
255
255
254
255
255
255
255
255
254
253
254
254
252
254
254
250
255
255
255
252
254
249
247
255
248
255
255
255
198
223
213
104
155
138
52
123
99
255
255
255
34
120
91
31
123
88
255
255
255
38
128
84
66
151
94
104
182
108
255
255
255
122
193
105
126
194
99
255
255
255
127
193
99
128
194
105
255
255
255
126
194
105
123
194
105
120
193
104
255
255
255
120
194
104
122
195
106
255
255
255
123
195
103
124
195
103
124
195
102
255
255
255
124
195
103
124
195
103
255
255
255
122
194
103
121
194
104
255
255
255
121
194
105
120
194
107
118
195
112
255
255
255
45
132
84
34
121
83
34
122
84
33
122
89
33
122
91
34
122
92
35
123
94
40
118
94
64
130
109
76
137
118
168
203
191
214
234
228
232
246
242
253
253
253
253
254
254
251
255
255
253
255
255
252
255
254
252
255
254
252
255
254
254
255
255
253
255
254
252
255
254
253
255
254
251
254
253
250
254
253
251
255
254
251
255
255
252
255
254
252
255
254
254
255
254
255
254
255
255
254
255
255
254
255
255
254
255
255
254
255
255
254
255
254
254
254
252
255
254
251
255
254
252
255
254
253
255
254
254
255
254
254
254
254
255
253
254
255
252
253
254
251
251
252
253
252
239
251
245
189
214
204
162
196
183
67
122
103
50
119
98
44
117
94
36
120
93
34
122
92
33
123
90
34
123
87
34
121
78
50
134
82
62
144
88
102
178
110
121
191
112
124
192
109
125
192
111
125
191
109
124
192
106
124
193
106
123
193
100
123
194
100
122
193
97
122
195
98
121
194
97
122
196
100
123
197
102
120
194
109
109
186
110
94
171
102
57
137
88
34
118
85
34
122
93
32
122
93
28
123
90
29
125
92
29
124
90
31
123
91
36
122
92
43
121
96
58
129
105
118
170
152
176
211
199
194
224
214
232
245
241
240
246
244
248
254
253
252
255
254
253
254
254
254
254
255
255
253
255
255
253
255
254
254
255
254
252
255
254
253
255
255
252
255
255
252
255
255
252
255
255
253
255
255
253
255
255
253
254
253
253
252
255
254
254
254
254
252
253
254
251
254
255
251
254
254
250
253
254
250
248
253
249
238
250
244
226
243
238
147
187
174
50
116
95
41
118
92
37
120
92
31
123
89
31
123
85
32
123
82
54
141
89
100
180
114
113
188
111
118
192
111
123
193
102
126
193
99
126
194
100
126
194
102
127
194
105
125
195
105
122
194
103
121
194
105
120
193
104
121
194
105
122
193
104
123
195
104
123
194
102
124
194
102
123
194
102
123
195
103
122
195
103
121
194
104
122
194
104
120
193
105
121
194
108
120
194
106
118
192
108
115
192
113
88
168
100
92
172
102
74
159
98
43
130
82
35
123
84
255
255
255
33
121
89
34
123
93
255
255
255
36
123
96
41
118
94
89
145
127
255
255
255
197
226
216
244
253
250
255
255
255
255
252
252
254
254
254
254
255
255
255
255
255
252
254
253
253
254
254
255
255
255
255
255
255
254
254
254
255
255
255
253
255
255
251
255
254
251
255
255
255
255
255
251
255
255
253
255
254
255
255
255
254
254
254
255
254
255
255
254
255
255
255
255
255
254
255
254
254
254
255
255
255
254
254
254
252
255
254
255
255
255
253
255
254
254
254
254
255
254
254
255
255
255
255
253
255
255
253
254
255
255
255
249
254
252
221
241
232
134
176
160
255
255
255
53
115
94
41
118
92
255
255
255
35
121
92
35
123
91
35
122
85
255
255
255
39
124
77
77
156
96
255
255
255
117
192
118
123
192
112
255
255
255
126
192
111
126
193
110
124
193
104
255
255
255
123
194
100
122
195
99
255
255
255
122
196
99
121
195
97
122
196
103
255
255
255
113
188
107
80
158
97
255
255
255
43
124
83
35
120
91
255
255
255
31
122
93
29
123
89
30
123
89
255
255
255
33
123
91
39
120
92
255
255
255
74
139
116
158
202
187
214
237
229
255
255
255
244
255
251
249
255
253
255
255
255
252
255
254
254
252
255
255
255
255
255
253
255
255
253
255
254
253
255
255
255
255
255
253
255
255
252
255
255
255
255
255
253
255
255
254
255
254
253
253
255
255
255
252
252
250
252
254
251
255
255
255
252
254
251
254
255
251
252
254
252
255
255
255
244
252
250
207
231
223
255
255
255
120
167
152
43
116
94
255
255
255
34
121
92
30
124
87
35
126
82
255
255
255
65
150
94
111
188
119
255
255
255
122
194
110
124
193
102
125
193
100
255
255
255
124
194
102
123
194
102
255
255
255
121
194
103
123
196
106
255
255
255
122
193
104
123
193
103
124
195
103
255
255
255
123
195
103
122
195
103
255
255
255
121
194
104
120
194
105
121
194
110
255
255
255
116
190
109
112
189
112
255
255
255
84
164
98
50
133
79
63
148
89
255
255
255
41
127
81
36
123
86
33
122
91
255
255
255
35
124
96
35
122
95
255
255
255
44
118
95
105
157
139
255
255
255
217
239
231
250
253
252
255
252
253
255
255
255
255
254
254
254
254
254
255
255
255
253
254
253
254
254
254
255
254
254
255
255
255
254
254
254
253
254
254
255
255
255
252
255
255
251
255
255
255
255
255
251
255
255
253
254
254
255
253
254
255
255
255
255
254
255
255
254
255
255
255
255
255
254
255
254
254
254
253
255
254
255
255
255
253
255
254
253
255
254
255
255
255
254
254
254
255
254
255
255
252
254
255
255
255
254
254
254
240
251
247
255
255
255
193
223
211
103
153
135
255
255
255
46
115
91
38
120
91
34
122
92
255
255
255
35
123
90
36
123
83
255
255
255
48
131
79
92
170
104
118
192
112
255
255
255
124
193
111
125
192
110
255
255
255
125
193
109
123
193
102
255
255
255
122
195
100
122
196
100
121
195
98
255
255
255
122
196
99
119
194
105
255
255
255
108
185
109
67
145
92
41
123
87
255
255
255
35
121
93
31
122
91
255
255
255
29
123
89
31
123
89
36
121
91
255
255
255
43
118
91
91
149
128
255
255
255
189
225
213
233
251
245
255
255
255
246
255
253
251
255
254
254
254
255
255
255
255
255
252
255
255
253
255
255
255
255
254
254
255
255
254
255
255
253
255
255
255
255
255
253
255
255
254
255
255
255
255
255
254
255
252
253
251
255
255
255
253
254
252
251
254
251
252
255
251
255
255
255
252
255
252
250
255
254
255
255
255
236
248
245
181
212
202
92
147
130
255
255
255
39
118
94
32
122
90
255
255
255
32
125
87
41
130
83
78
160
99
255
255
255
118
193
118
124
195
109
255
255
255
125
193
101
124
193
101
255
255
255
124
194
102
121
193
101
121
194
103
255
255
255
122
194
103
123
193
103
255
255
255
124
195
104
124
195
103
123
195
103
255
255
255
121
194
105
120
194
107
255
255
255
121
194
112
114
188
110
255
255
255
105
182
108
80
160
95
45
128
75
255
255
255
79
161
96
52
137
81
43
126
75
37
123
83
35
123
92
35
124
95
31
121
93
31
120
92
35
121
93
35
119
89
65
131
106
124
171
153
145
187
170
234
247
243
250
254
253
255
252
253
255
253
254
254
254
254
253
254
254
253
253
253
254
254
254
255
253
254
254
252
253
255
253
254
254
254
254
253
254
254
253
255
254
252
255
255
251
255
255
252
255
255
253
255
255
255
254
254
255
253
254
255
253
254
255
254
255
255
254
255
255
254
255
255
255
255
254
255
254
253
255
254
253
255
254
253
255
254
254
254
254
255
254
255
255
253
254
255
251
253
255
252
253
255
253
254
246
255
252
228
245
239
212
237
228
117
166
148
76
135
114
52
121
95
37
122
91
33
123
92
33
122
91
32
122
90
33
121
85
40
125
82
44
128
81
81
160
95
112
186
107
120
193
108
125
197
109
124
193
107
124
192
108
123
193
105
122
193
103
122
194
102
121
195
101
123
197
101
121
195
99
121
195
98
121
196
101
121
196
105
117
192
108
112
189
110
81
160
96
48
131
86
38
122
88
36
122
87
33
123
91
31
123
90
32
124
90
31
123
88
35
121
89
38
120
90
40
118
88
58
119
97
113
162
145
136
176
163
230
250
245
240
253
250
245
255
254
249
255
255
252
254
254
254
254
254
252
253
253
253
255
255
254
254
255
253
255
255
254
255
255
255
254
255
255
253
255
255
253
255
255
254
255
255
255
255
255
255
255
254
255
255
253
254
253
254
255
253
252
255
253
251
255
252
252
255
252
251
255
253
251
255
254
248
255
254
244
254
253
205
233
227
111
159
146
68
131
112
47
118
96
33
121
92
32
123
90
31
124
88
37
127
83
65
149
92
91
170
105
105
182
111
122
195
111
124
195
106
124
194
103
124
194
102
124
194
102
124
195
103
123
194
104
121
193
101
121
193
102
122
193
101
124
195
103
124
195
104
124
195
103
123
195
103
121
195
106
121
195
106
120
194
109
119
195
115
120
195
113
109
184
110
88
166
98
98
175
104
70
150
90
40
123
73
38
123
80
39
124
81
110
190
116
68
150
90
37
122
76
255
255
255
35
122
87
33
122
92
255
255
255
29
119
90
32
120
89
39
120
89
255
255
255
83
146
121
170
207
193
255
255
255
238
251
247
251
254
254
255
254
255
255
255
255
254
254
254
254
254
254
255
255
255
255
254
255
255
253
254
255
255
255
255
253
254
254
254
254
253
255
255
255
255
255
252
255
255
253
255
255
255
255
255
254
255
255
255
254
254
255
253
254
255
255
255
255
254
255
255
254
255
255
255
255
255
255
255
254
255
254
255
255
255
253
255
254
254
254
255
255
254
255
255
255
255
255
251
252
255
252
253
255
255
255
252
254
254
240
255
250
187
222
209
255
255
255
81
140
118
43
120
92
255
255
255
34
124
92
31
123
91
31
122
90
255
255
255
33
121
83
55
137
86
255
255
255
101
177
106
120
194
110
255
255
255
125
196
107
123
193
104
124
195
105
255
255
255
121
194
101
123
197
102
255
255
255
122
197
100
121
196
100
121
196
104
255
255
255
119
195
108
102
180
106
255
255
255
63
144
86
41
125
82
255
255
255
34
122
87
33
124
90
33
124
89
255
255
255
32
123
88
35
121
88
255
255
255
44
118
90
74
128
109
159
193
182
255
255
255
239
254
252
247
255
255
255
255
255
250
255
255
251
254
253
255
255
255
253
254
254
252
255
255
253
255
255
255
255
255
254
255
255
255
254
255
255
255
255
255
253
255
255
255
255
255
255
255
255
255
255
254
255
254
253
255
253
255
255
255
251
254
251
252
255
252
252
255
254
255
255
255
251
255
255
237
252
250
255
255
255
182
217
209
79
137
120
255
255
255
41
119
95
31
122
90
32
124
85
255
255
255
41
129
81
80
161
99
255
255
255
113
189
113
122
195
106
123
194
102
255
255
255
123
194
102
124
195
105
255
255
255
123
193
103
122
193
101
255
255
255
124
195
103
124
195
103
122
194
103
255
255
255
121
194
107
120
194
110
255
255
255
120
195
118
106
182
111
81
159
93
255
255
255
64
144
87
40
122
75
255
255
255
37
122
81
35
122
86
111
188
110
86
165
102
48
131
84
35
120
82
34
121
86
32
122
93
31
121
92
31
122
92
33
124
91
37
122
90
45
122
92
53
125
99
136
187
169
195
228
217
215
244
235
245
255
253
252
255
255
255
255
255
255
254
255
255
254
255
255
254
255
255
254
255
255
252
254
255
252
254
255
252
254
255
253
254
254
255
255
254
255
255
254
255
255
254
255
255
254
255
255
254
255
255
255
255
255
255
253
254
255
253
254
255
253
254
255
254
255
255
254
255
254
254
255
253
255
255
253
255
254
253
255
254
251
253
252
253
253
254
255
253
254
255
253
254
255
253
254
254
253
254
252
254
254
242
254
251
208
239
230
159
204
188
116
170
151
48
123
96
37
121
90
35
124
91
29
126
91
29
125
92
31
122
90
32
122
89
42
125
84
66
147
92
80
159
99
118
192
112
123
196
109
122
194
105
123
193
101
126
196
103
124
196
104
123
195
101
122
196
100
122
197
100
119
194
97
121
196
100
121
196
104
120
196
106
120
195
108
117
194
116
92
171
102
82
161
99
44
127
78
38
124
83
37
123
84
32
122
87
33
125
90
33
124
89
32
125
90
33
122
89
37
120
88
38
119
89
57
125
100
119
165
149
178
208
199
191
218
210
244
254
253
248
255
254
248
255
253
252
255
254
252
254
253
253
255
254
251
255
254
252
255
255
253
255
255
254
255
255
255
254
255
255
253
255
255
253
255
255
254
255
255
255
255
254
255
255
254
255
254
254
255
253
252
254
252
252
253
250
253
254
253
253
254
254
252
255
255
253
255
255
247
254
254
223
245
241
208
235
230
120
172
158
64
131
111
51
126
103
33
120
90
33
124
88
34
124
82
35
124
79
60
144
89
94
174
107
106
184
113
122
195
112
124
194
103
123
194
102
124
194
102
124
194
103
124
194
103
124
193
102
125
195
103
124
195
103
123
195
103
120
193
101
120
193
106
121
194
106
119
193
112
116
191
119
119
194
120
102
178
113
68
146
85
55
135
81
59
139
84
40
123
78
37
122
83
37
122
82
34
122
88
32
122
90
104
181
107
255
255
255
66
147
90
41
126
84
33
121
90
255
255
255
31
123
93
31
124
92
255
255
255
36
126
94
39
119
91
255
255
255
62
128
106
158
204
189
230
254
247
255
255
255
247
255
255
252
255
255
255
255
255
254
254
254
255
254
255
255
253
255
255
255
255
255
252
254
255
253
254
255
255
255
254
254
254
254
255
255
255
255
255
254
255
255
254
255
255
255
255
255
255
255
255
255
254
255
255
253
254
255
255
255
255
253
254
254
254
254
254
255
254
255
255
255
252
255
255
251
254
253
255
255
255
250
251
251
254
254
254
255
254
255
255
255
255
255
255
255
249
255
254
255
255
255
236
253
250
171
210
198
255
255
255
80
141
120
41
123
93
31
125
90
255
255
255
27
127
91
30
124
91
255
255
255
35
122
89
54
136
90
96
173
107
255
255
255
121
195
110
123
193
103
255
255
255
124
193
100
124
194
100
255
255
255
123
195
100
119
193
96
121
195
99
255
255
255
122
197
102
121
195
105
255
255
255
119
194
111
113
189
118
75
155
97
255
255
255
42
125
81
34
122
84
255
255
255
31
122
87
32
125
91
32
124
91
255
255
255
33
122
90
39
119
90
255
255
255
64
130
106
134
178
163
255
255
255
204
229
222
243
255
251
249
254
252
255
255
255
252
255
253
252
255
254
255
255
255
251
255
254
254
255
255
255
255
255
255
255
255
255
254
255
255
253
254
255
255
255
255
254
254
254
254
254
255
255
255
254
254
253
255
255
253
253
254
252
255
255
255
253
253
254
254
254
254
255
255
255
252
254
255
242
253
253
175
210
203
255
255
255
86
146
129
41
121
95
255
255
255
33
121
88
36
126
88
43
131
83
255
255
255
75
158
99
113
189
114
255
255
255
123
195
108
125
195
102
255
255
255
125
194
103
125
194
103
125
195
103
255
255
255
123
195
103
120
192
101
255
255
255
120
194
106
118
193
111
112
188
117
255
255
255
98
175
112
62
141
82
255
255
255
50
130
79
40
123
79
255
255
255
37
122
83
34
122
88
32
122
90
255
255
255
117
193
110
96
174
103
86
167
100
38
125
78
31
122
87
31
122
94
29
123
95
30
125
94
32
125
93
32
123
93
34
117
89
42
117
92
47
117
95
90
143
127
195
223
217
238
255
254
242
255
254
250
255
254
252
255
255
253
255
254
254
254
254
255
254
255
255
253
255
255
253
255
255
254
255
255
254
255
255
254
255
254
254
254
254
255
254
253
255
254
253
255
254
255
255
255
255
255
255
255
254
255
255
254
255
255
253
254
255
253
254
254
253
254
253
254
254
253
255
254
251
254
253
252
255
255
251
253
253
252
254
253
254
254
254
255
254
255
255
254
255
254
254
255
250
255
254
245
255
253
240
255
253
208
239
232
135
182
167
102
157
138
43
119
91
29
123
87
27
125
88
27
126
87
29
126
87
31
123
89
33
124
86
47
131
85
93
171
109
112
187
115
117
191
113
125
195
107
124
193
102
127
195
102
125
193
98
124
194
99
125
195
100
123
195
99
122
196
101
122
196
102
122
195
102
121
194
103
120
194
106
121
193
109
115
190
113
95
174
111
68
149
96
59
142
93
36
123
85
32
121
85
31
121
87
30
121
90
32
123
95
33
123
93
32
123
94
31
122
91
39
119
91
40
119
92
73
137
116
152
194
180
170
211
198
226
247
239
247
252
248
250
254
251
252
255
252
252
255
254
251
255
254
251
255
254
252
255
254
255
255
255
255
254
255
255
253
255
255
252
254
255
253
254
255
253
254
255
254
253
254
254
253
254
254
252
255
254
252
255
255
253
254
253
253
253
251
253
253
252
254
255
254
255
255
254
255
245
252
252
216
238
235
144
187
177
117
166
153
47
119
95
36
120
90
34
120
87
33
123
84
34
121
79
52
138
88
64
148
95
103
183
117
117
191
113
118
192
111
123
194
105
126
195
103
126
195
104
125
194
103
124
194
103
124
195
103
121
193
102
120
195
108
120
194
107
119
194
114
103
181
113
86
165
106
92
170
110
55
135
83
44
125
79
46
127
78
39
122
82
37
122
85
36
122
84
33
121
88
32
123
91
32
124
93
31
123
93
121
194
105
112
190
109
76
159
95
255
255
255
33
122
79
29
123
90
255
255
255
28
124
96
29
124
94
32
121
92
255
255
255
37
115
90
59
122
102
255
255
255
117
162
148
209
232
226
245
255
252
255
255
255
252
255
254
254
255
254
255
255
255
255
255
255
255
254
255
255
255
255
255
254
255
255
254
255
254
254
255
255
255
255
253
255
254
253
255
254
255
255
255
253
255
254
255
254
254
255
253
254
255
255
255
255
254
255
255
253
254
255
255
255
253
253
253
251
254
253
255
255
255
249
254
253
252
255
255
253
254
254
255
255
255
255
255
255
255
254
255
255
255
255
253
254
254
247
255
253
231
250
246
255
255
255
174
215
202
75
138
116
255
255
255
37
121
90
27
124
86
27
126
86
255
255
255
28
125
85
35
124
82
255
255
255
54
136
82
104
180
111
255
255
255
121
193
111
131
198
109
128
194
101
255
255
255
126
194
99
125
195
100
255
255
255
123
194
100
123
195
102
123
194
103
255
255
255
122
193
105
121
193
110
255
255
255
112
187
113
83
162
104
255
255
255
51
135
89
35
122
86
31
121
89
255
255
255
31
121
93
32
123
96
255
255
255
31
123
94
31
121
93
40
118
93
255
255
255
78
142
122
181
219
206
255
255
255
233
251
243
251
254
249
255
255
255
253
255
253
252
255
255
251
255
254
255
255
255
252
255
254
255
254
255
255
255
255
255
253
254
255
253
254
255
254
254
255
255
255
255
255
253
255
254
252
255
255
255
255
254
253
255
254
254
253
252
254
255
255
255
255
253
255
255
254
255
255
255
255
239
248
248
196
224
220
255
255
255
94
149
132
41
119
90
33
122
86
255
255
255
33
123
82
37
123
78
255
255
255
76
158
101
114
192
121
121
194
109
255
255
255
124
194
104
124
193
103
255
255
255
124
194
102
123
194
102
255
255
255
120
195
109
118
194
115
98
178
111
255
255
255
80
161
104
50
131
81
255
255
255
41
124
79
38
122
83
37
122
86
255
255
255
34
122
88
31
123
91
255
255
255
31
123
93
30
123
94
119
194
106
255
255
255
104
184
106
62
148
88
31
122
82
255
255
255
29
124
92
27
124
96
255
255
255
29
123
95
34
120
93
255
255
255
41
114
91
77
134
114
149
188
174
255
255
255
222
241
235
249
255
253
255
255
255
253
255
254
254
254
254
255
255
255
255
255
255
255
254
255
255
254
255
255
255
255
255
254
255
254
255
255
255
255
255
253
255
254
253
255
254
254
254
254
255
255
255
255
253
254
255
253
254
255
255
255
255
254
255
254
253
254
252
254
254
255
255
255
248
254
252
250
255
254
255
255
255
252
255
255
254
255
254
255
254
255
255
255
255
254
254
254
251
253
253
255
255
255
245
255
253
214
239
233
255
255
255
124
174
157
50
122
97
32
123
88
255
255
255
26
126
86
26
125
85
255
255
255
30
124
83
37
124
76
76
157
95
255
255
255
113
188
112
125
194
110
255
255
255
131
197
106
126
193
99
255
255
255
127
195
100
124
194
101
123
193
101
255
255
255
124
194
103
123
193
104
255
255
255
123
193
105
122
194
111
108
184
111
255
255
255
71
151
96
45
129
86
255
255
255
35
122
89
32
121
92
31
122
94
255
255
255
31
124
96
31
122
94
255
255
255
31
121
93
40
118
94
255
255
255
85
147
127
191
226
213
238
254
246
255
255
255
253
255
251
253
255
254
255
255
255
251
255
254
251
255
254
253
255
255
255
255
255
255
254
255
255
253
254
255
255
255
255
254
254
255
255
254
255
255
255
255
255
253
255
254
252
255
255
254
255
255
255
255
254
255
255
253
255
255
255
255
255
253
255
253
254
255
227
242
241
255
255
255
160
196
188
72
134
113
255
255
255
39
119
88
33
123
84
34
122
79
255
255
255
43
128
78
87
169
106
255
255
255
120
196
116
124
195
106
255
255
255
123
193
102
124
193
102
123
194
102
255
255
255
121
195
109
116
194
115
255
255
255
93
174
108
74
156
102
47
130
82
255
255
255
38
122
79
36
122
84
255
255
255
36
122
87
34
122
89
255
255
255
31
123
91
29
122
92
29
122
93
255
255
255
121
195
106
116
193
107
111
191
108
73
158
89
39
129
78
31
125
87
29
125
87
26
125
92
27
125
96
28
125
95
33
123
94
37
119
93
41
119
93
49
114
92
114
163
145
182
215
202
211
237
226
246
253
249
252
254
253
253
252
251
254
254
254
255
255
255
255
255
255
255
255
255
255
254
255
255
254
255
255
254
255
255
255
255
254
255
254
254
254
254
254
254
254
254
254
254
254
254
254
255
253
254
255
253
254
255
253
254
255
253
254
255
253
254
253
255
255
251
255
254
251
255
255
250
255
255
251
255
255
250
255
255
253
254
254
254
253
254
255
253
254
255
254
254
253
253
253
250
253
253
249
255
254
235
255
250
184
218
208
149
193
178
51
122
97
33
123
89
28
125
88
27
127
90
27
125
88
28
125
85
31
124
87
35
124
79
72
154
94
96
175
106
109
185
111
122
192
109
126
194
107
125
192
103
124
191
99
126
193
100
126
193
101
126
195
102
124
193
102
124
193
103
124
193
105
125
192
105
124
192
104
124
192
104
123
193
105
121
194
113
104
180
109
99
177
107
53
135
83
41
125
84
37
123
82
34
123
91
33
122
93
32
123
95
32
123
95
31
123
94
31
122
94
31
123
94
33
122
94
44
121
97
49
124
101
101
157
139
205
232
223
243
255
249
246
255
252
254
255
254
252
255
254
252
255
254
250
254
255
252
255
255
253
255
255
254
255
255
255
254
255
255
254
255
255
254
255
255
255
255
255
255
254
255
255
253
254
254
252
255
255
254
255
254
254
255
254
255
254
253
255
255
253
255
254
253
255
252
254
255
242
253
253
207
229
225
181
211
204
82
135
118
57
125
100
45
119
90
37
122
85
35
123
80
38
125
79
45
131
80
72
154
89
100
179
106
111
187
106
121
194
105
122
193
102
121
193
102
123
193
104
120
193
107
120
194
108
113
191
113
82
164
101
88
169
105
62
147
95
43
128
85
36
121
83
37
121
81
35
121
87
34
122
89
35
122
88
34
122
91
32
123
92
31
123
91
31
122
92
30
121
93
33
123
94
32
122
94
124
194
105
120
197
109
105
186
107
255
255
255
58
145
81
35
127
78
255
255
255
26
124
86
27
124
91
29
124
93
255
255
255
35
122
93
42
118
92
255
255
255
49
112
90
134
178
162
233
251
244
255
255
255
248
252
250
254
253
251
255
255
255
255
255
255
255
255
255
255
255
255
255
255
255
255
254
255
255
254
255
255
255
255
254
254
254
253
255
254
255
255
255
254
254
254
254
254
254
255
253
254
255
255
255
255
253
254
255
253
254
255
255
255
254
254
254
252
255
255
255
255
255
250
255
255
249
255
255
250
255
254
255
255
255
253
253
253
255
253
254
255
255
255
255
254
255
253
254
254
245
255
253
255
255
255
225
254
244
108
163
144
255
255
255
38
119
90
31
124
91
28
125
90
255
255
255
30
124
91
33
123
84
255
255
255
42
128
79
88
167
102
255
255
255
117
190
112
124
192
107
125
192
103
255
255
255
124
190
100
125
193
101
255
255
255
125
195
102
125
194
104
125
193
105
255
255
255
126
192
105
124
192
104
255
255
255
122
193
105
119
195
113
255
255
255
93
173
104
47
130
78
36
123
82
255
255
255
33
123
91
33
122
93
255
255
255
32
123
94
31
124
95
31
123
93
255
255
255
34
122
94
54
127
105
255
255
255
110
163
147
211
234
228
255
255
255
247
255
254
255
255
255
252
254
255
255
255
255
251
254
255
254
255
255
255
255
255
255
255
255
255
254
255
255
254
255
255
255
255
255
255
254
254
254
252
255
255
255
254
254
253
255
254
255
255
253
255
255
255
255
254
253
255
254
254
255
255
255
255
248
254
254
234
252
250
255
255
255
152
192
181
55
117
96
42
121
89
255
255
255
36
122
84
38
126
80
255
255
255
52
138
81
92
172
99
115
191
107
255
255
255
121
193
105
123
194
107
255
255
255
119
192
109
111
189
111
255
255
255
77
159
96
56
142
91
42
128
86
255
255
255
36
122
85
36
121
88
255
255
255
34
122
90
32
122
92
31
123
93
255
255
255
31
123
93
31
121
93
255
255
255
34
121
93
40
123
96
124
194
104
122
196
108
114
193
113
97
180
106
85
169
101
46
134
81
32
125
80
32
125
84
27
124
89
29
125
91
30
124
91
31
122
89
37
120
89
42
116
90
43
118
91
68
130
107
173
207
195
241
254
250
246
255
252
253
254
252
255
254
253
255
255
253
255
255
255
255
255
255
255
255
255
255
255
255
254
254
254
254
254
254
253
255
254
253
255
254
254
254
254
254
254
254
254
254
254
255
254
255
255
254
255
255
254
255
255
253
254
255
253
254
254
254
254
252
255
254
251
255
254
249
255
254
247
255
252
248
255
253
250
254
253
252
254
254
255
252
254
255
253
254
255
252
254
253
252
253
248
254
253
239
255
251
217
239
235
117
165
149
72
137
115
50
122
97
34
122
93
31
123
93
29
122
90
31
122
91
34
122
86
37
124
82
46
130
82
83
162
100
103
179
108
115
189
114
124
194
110
126
195
106
125
193
103
126
194
103
123
192
99
124
194
101
124
195
102
124
194
103
124
192
104
125
192
105
126
192
105
126
192
105
124
193
104
124
193
104
120
194
106
116
193
112
112
191
110
81
163
96
42
128
78
35
122
83
35
123
84
31
121
88
32
122
92
30
123
90
31
124
92
30
123
92
32
123
93
33
123
93
38
122
95
62
132
110
69
138
117
133
180
166
216
237
232
220
239
235
249
254
255
254
252
255
252
253
255
254
254
255
254
255
255
254
255
255
255
255
255
255
254
254
254
254
254
254
255
254
254
255
254
254
255
253
254
254
252
254
254
252
254
254
253
255
254
255
255
253
255
255
255
255
255
255
255
252
254
255
249
254
255
236
250
249
213
239
234
187
222
212
92
150
129
42
119
89
39
121
87
35
120
84
35
124
81
38
126
76
38
126
73
70
155
89
116
194
117
119
194
111
121
195
116
115
189
111
117
191
110
106
183
110
67
150
89
72
153
92
45
130
82
38
127
87
35
123
88
36
123
87
35
123
91
34
122
92
34
122
91
32
122
92
31
123
94
32
122
93
32
123
93
34
121
92
38
120
93
35
120
92
46
124
97
63
130
106
124
195
105
255
255
255
121
195
110
106
185
109
73
157
95
255
255
255
41
130
83
32
124
88
255
255
255
30
126
91
29
124
89
255
255
255
32
121
87
36
120
90
48
123
96
255
255
255
95
153
131
192
222
212
255
255
255
248
255
253
252
255
252
255
255
254
255
255
255
254
254
254
254
254
254
255
255
255
254
254
254
253
255
254
255
255
255
253
255
254
254
254
254
254
254
254
255
255
255
255
254
255
255
254
255
255
255
255
255
254
255
255
253
254
254
254
254
255
255
255
251
255
254
248
255
253
255
255
255
246
254
251
250
255
254
253
254
255
255
255
255
255
251
253
254
252
253
255
255
255
251
251
251
243
254
254
255
255
255
186
217
210
75
134
114
40
118
92
255
255
255
36
125
97
32
122
93
255
255
255
33
122
90
36
121
80
60
141
87
255
255
255
109
187
117
121
194
113
255
255
255
127
197
110
127
196
106
255
255
255
125
195
102
124
194
101
123
195
102
255
255
255
123
194
102
124
192
104
255
255
255
126
192
105
127
193
105
123
194
105
255
255
255
119
195
106
106
186
106
255
255
255
74
158
93
42
128
80
34
123
83
255
255
255
29
120
86
31
124
90
255
255
255
31
124
91
31
123
92
255
255
255
34
122
93
38
121
95
80
144
124
255
255
255
146
190
176
224
241
238
255
255
255
249
254
255
254
252
255
254
254
255
255
255
255
255
255
255
255
254
255
255
255
255
255
253
254
254
255
255
255
255
255
254
255
254
254
255
253
254
254
252
255
255
255
254
254
253
255
255
255
255
255
255
255
255
255
254
254
255
248
254
255
255
255
255
226
245
241
143
187
173
255
255
255
69
134
110
38
118
89
36
121
86
255
255
255
36
124
81
42
131
77
255
255
255
80
165
100
116
193
120
255
255
255
109
185
112
99
177
106
63
146
86
255
255
255
40
127
79
36
125
87
255
255
255
34
123
89
33
122
92
33
122
92
255
255
255
32
122
93
31
123
94
255
255
255
32
121
93
35
120
91
255
255
255
40
119
92
52
125
100
76
139
116
255
255
255
125
194
103
123
195
106
120
194
111
255
255
255
97
176
104
58
142
87
255
255
255
37
126
86
31
123
92
30
126
91
255
255
255
30
122
88
33
122
90
255
255
255
36
120
90
58
130
105
128
181
162
255
255
255
211
238
229
246
254
250
255
255
255
252
255
252
255
255
254
255
255
255
254
254
254
254
254
254
253
255
254
255
255
255
253
255
254
253
255
254
255
255
255
254
254
254
254
254
254
255
254
255
255
255
255
255
254
255
255
254
255
255
255
255
255
253
254
253
254
254
255
255
255
251
255
254
248
254
252
249
255
254
255
255
255
252
255
255
254
253
254
255
255
255
255
251
253
253
251
253
249
253
252
255
255
255
228
247
244
137
182
167
255
255
255
53
120
98
38
121
95
34
124
95
255
255
255
33
122
92
35
121
86
255
255
255
42
124
78
78
157
96
255
255
255
117
192
116
125
196
111
123
193
104
255
255
255
126
196
103
124
194
100
255
255
255
123
195
100
122
194
101
122
194
102
255
255
255
125
192
104
126
192
104
255
255
255
126
193
105
123
195
105
255
255
255
118
195
107
99
180
103
67
151
88
255
255
255
41
128
80
34
123
82
255
255
255
30
122
86
31
124
89
31
124
91
255
255
255
32
122
92
35
120
93
255
255
255
41
119
95
90
151
131
255
255
255
159
200
187
228
244
240
250
254
255
255
255
255
254
252
255
255
254
255
255
255
255
255
254
255
255
253
254
255
254
254
255
255
255
254
255
254
254
255
253
255
255
255
254
255
253
254
254
252
254
254
253
255
255
255
255
255
255
255
255
255
255
255
255
252
252
254
245
254
254
255
255
255
207
234
227
109
160
143
52
121
97
255
255
255
38
119
90
36
122
87
255
255
255
34
124
79
51
140
87
91
175
113
255
255
255
102
181
114
91
171
104
255
255
255
59
144
83
37
125
76
255
255
255
35
125
86
33
123
90
33
122
92
255
255
255
32
121
93
32
121
93
255
255
255
31
123
94
32
121
93
35
119
91
255
255
255
42
116
91
59
126
103
255
255
255
92
150
129
132
176
160
127
196
104
123
194
101
120
193
106
118
193
112
118
192
116
75
154
94
46
130
83
39
121
83
34
121
92
32
123
94
29
124
90
28
122
91
32
122
93
34
122
92
34
122
93
39
118
91
88
150
129
163
211
195
191
232
218
235
255
248
245
254
250
248
255
253
252
255
254
254
254
254
253
254
253
253
255
254
253
255
254
253
255
254
253
255
254
254
255
254
254
255
254
255
255
255
255
254
254
255
253
254
255
254
255
255
254
255
255
254
255
255
254
255
255
254
255
254
254
254
253
255
254
252
255
254
250
255
254
250
255
254
251
255
254
249
254
253
253
254
254
254
253
254
254
253
254
255
254
254
250
255
253
243
254
251
233
249
247
142
185
173
93
149
131
53
119
99
37
118
93
33
121
93
34
122
94
36
123
94
36
121
87
38
121
83
40
122
79
74
153
93
96
173
104
112
187
111
123
194
108
122
192
102
122
192
100
123
194
98
122
195
97
122
195
98
121
196
97
120
196
99
121
195
100
122
194
102
123
194
102
125
192
103
126
192
104
126
193
104
124
193
105
122
195
106
121
195
108
114
192
110
85
167
95
62
146
85
56
142
82
40
126
79
34
123
82
34
124
83
32
124
88
31
123
90
31
123
91
31
121
91
35
120
94
37
119
94
39
119
94
47
117
95
101
159
140
113
166
149
187
221
210
237
250
247
250
254
255
251
254
255
255
253
255
255
253
255
255
253
255
255
253
255
255
253
253
254
254
253
254
254
252
254
255
253
254
255
253
254
255
253
254
255
251
254
254
252
254
254
253
254
254
254
254
254
254
253
253
254
252
253
254
250
254
254
241
254
252
229
247
242
160
198
185
69
128
110
48
118
95
45
116
95
37
120
93
33
121
85
31
121
85
40
130
88
65
153
106
84
168
112
71
157
106
52
141
88
55
142
85
34
125
76
34
126
83
34
125
85
33
124
89
33
122
92
33
122
93
32
122
93
32
122
94
32
122
94
31
123
94
35
121
94
38
118
91
48
117
92
45
116
91
72
129
109
131
178
161
110
164
144
162
198
185
212
229
223
125
195
101
255
255
255
122
192
100
121
193
109
112
187
114
255
255
255
65
143
91
37
121
86
255
255
255
35
122
95
31
122
94
255
255
255
29
122
93
33
124
94
35
121
92
255
255
255
42
116
91
108
163
145
255
255
255
215
246
237
242
255
253
250
255
254
255
255
255
252
254
254
253
255
254
255
255
255
253
255
254
253
255
254
255
255
255
253
255
254
255
255
255
255
255
255
255
255
255
255
253
254
255
253
254
255
255
255
255
254
255
255
254
255
255
254
255
255
255
255
253
255
254
252
255
254
255
255
255
250
255
254
249
255
253
250
254
253
255
255
255
253
253
253
253
254
252
255
255
255
254
255
253
245
255
253
255
255
255
200
228
222
91
145
130
45
118
95
255
255
255
34
120
92
33
121
91
255
255
255
37
123
92
36
120
83
53
134
85
255
255
255
97
175
107
119
192
111
255
255
255
124
194
106
123
194
101
255
255
255
122
195
97
121
196
95
120
196
97
255
255
255
120
196
98
121
194
101
255
255
255
123
194
102
125
192
103
124
193
104
255
255
255
123
193
106
120
194
110
255
255
255
112
190
111
79
163
92
52
137
78
255
255
255
39
125
79
34
124
84
255
255
255
33
124
90
31
122
91
255
255
255
31
120
92
36
121
95
41
119
95
255
255
255
49
116
95
124
174
158
255
255
255
203
233
223
241
253
251
251
254
255
255
255
255
255
253
255
255
253
255
255
255
255
255
253
254
254
254
252
255
255
255
254
254
252
254
255
253
254
255
251
255
255
255
254
255
252
254
254
254
255
255
255
254
254
253
254
254
254
253
254
254
255
255
255
248
254
253
212
234
227
255
255
255
128
169
155
59
119
103
42
117
95
255
255
255
34
121
94
31
122
87
255
255
255
41
131
91
58
146
103
255
255
255
48
136
92
33
126
79
32
124
82
255
255
255
34
123
87
33
121
91
255
255
255
34
122
94
32
122
94
32
122
94
255
255
255
36
121
93
40
118
92
255
255
255
58
122
99
80
133
113
255
255
255
147
190
173
180
211
199
216
230
225
255
255
255
124
194
98
123
193
98
123
193
99
124
194
105
115
187
108
101
176
106
83
160
96
48
130
87
37
122
90
35
121
89
31
121
93
30
122
94
29
121
93
31
124
94
32
121
91
36
119
91
41
122
95
72
135
114
131
178
162
157
197
185
235
251
250
248
255
255
251
255
255
252
255
254
254
255
255
254
255
255
254
255
255
253
255
254
253
255
254
253
255
254
254
255
255
255
255
255
255
255
255
255
255
255
255
253
254
255
253
254
255
253
254
255
254
255
255
254
255
255
254
255
255
254
255
253
255
254
252
255
254
251
255
254
250
255
254
251
255
255
252
255
255
253
255
253
253
254
252
253
254
252
252
255
252
246
255
253
228
245
242
203
230
224
99
152
135
46
119
94
39
120
93
36
123
92
30
121
87
33
122
89
33
122
88
36
122
85
48
131
85
68
148
93
90
169
107
119
192
114
123
194
111
123
194
108
124
194
104
123
194
100
122
194
99
121
195
97
120
196
97
120
196
97
120
196
99
121
195
100
122
195
101
123
195
102
124
193
102
124
193
104
124
193
105
124
192
106
121
193
110
119
194
112
118
194
113
109
188
114
72
153
88
49
133
76
46
130
75
35
124
79
33
124
85
33
123
86
32
124
93
31
122
92
30
121
93
33
122
95
38
122
96
42
118
95
43
117
93
59
118
98
139
185
169
154
196
182
232
251
248
247
255
255
252
254
255
252
255
255
255
254
255
255
254
255
255
254
254
254
254
254
254
254
252
254
254
252
253
255
252
254
255
251
254
255
251
254
255
252
254
255
252
254
254
253
254
254
252
254
254
254
253
254
254
252
255
254
249
255
254
235
250
244
182
209
200
152
184
173
74
125
109
44
116
96
38
118
95
34
121
95
30
123
95
31
123
89
31
123
92
34
124
92
42
131
94
32
123
89
30
123
88
31
122
86
33
123
86
35
121
89
37
120
92
36
122
94
37
122
96
35
122
95
36
120
93
36
120
93
42
118
92
82
139
118
69
129
107
110
153
136
173
207
193
162
200
185
206
229
220
220
231
227
227
230
230
228
231
230
123
193
97
124
194
97
124
194
100
255
255
255
125
195
107
105
179
105
255
255
255
64
143
86
41
125
85
33
121
89
255
255
255
29
120
91
29
122
92
255
255
255
29
122
91
32
121
91
47
125
99
255
255
255
98
156
136
185
217
207
255
255
255
241
253
252
249
254
254
255
255
255
253
255
254
254
255
255
254
255
255
255
255
255
253
255
254
253
255
254
255
255
255
254
255
255
255
255
255
255
255
255
255
255
255
255
253
254
255
253
254
255
255
255
255
254
255
255
254
255
255
255
255
254
254
255
252
255
254
251
255
254
255
255
255
250
255
254
252
255
253
255
255
255
254
255
253
254
255
252
251
255
254
255
255
255
243
255
255
151
191
179
255
255
255
53
117
95
40
122
93
33
124
90
255
255
255
29
120
85
34
122
86
255
255
255
37
121
80
68
150
96
255
255
255
107
184
115
121
194
112
124
193
107
255
255
255
124
193
104
122
194
100
255
255
255
121
195
98
121
197
99
121
196
101
255
255
255
122
196
101
123
194
101
255
255
255
125
193
102
126
192
104
255
255
255
124
193
107
120
193
111
118
193
116
255
255
255
108
186
116
68
151
88
255
255
255
42
127
75
32
122
80
31
123
88
255
255
255
31
124
95
31
122
95
255
255
255
33
122
96
37
121
95
255
255
255
45
117
94
66
122
104
168
202
193
255
255
255
241
255
254
249
255
255
255
255
255
253
255
255
255
255
255
255
254
254
255
255
255
254
254
253
253
255
252
255
255
255
253
255
252
254
255
251
254
255
251
255
255
255
254
255
251
254
254
253
255
255
255
253
254
254
251
255
254
255
255
255
245
255
252
223
245
236
127
166
152
255
255
255
58
117
98
38
118
95
255
255
255
32
121
95
29
123
96
31
122
93
255
255
255
30
120
91
31
123
92
255
255
255
31
123
91
36
123
91
255
255
255
38
120
93
39
120
95
37
121
95
255
255
255
39
120
94
43
117
92
255
255
255
96
151
131
128
168
152
182
212
200
255
255
255
213
233
225
223
231
228
255
255
255
228
229
230
232
228
231
124
194
97
255
255
255
124
194
98
125
195
103
122
193
110
255
255
255
94
169
101
49
130
80
255
255
255
36
122
84
33
122
90
255
255
255
30
121
91
31
122
93
26
119
88
255
255
255
33
120
91
53
128
103
255
255
255
127
178
161
212
238
231
245
253
253
255
255
255
251
254
254
254
254
254
255
255
255
254
255
255
254
255
255
255
255
255
253
255
254
254
255
254
254
255
255
255
255
255
255
255
255
255
255
255
255
255
255
255
253
254
255
253
254
255
254
255
255
255
255
255
254
255
254
255
255
255
255
255
252
255
254
251
255
254
250
255
252
255
255
255
253
255
252
254
254
252
255
255
255
254
254
254
249
255
255
255
255
255
203
230
224
100
153
136
41
117
90
255
255
255
35
123
91
30
123
87
255
255
255
33
122
87
36
122
84
45
129
82
255
255
255
88
168
106
117
193
115
255
255
255
122
193
109
124
192
106
255
255
255
124
192
104
122
194
101
121
196
100
255
255
255
121
196
101
122
195
102
255
255
255
123
195
100
124
193
101
126
193
103
255
255
255
126
193
105
123
194
109
255
255
255
120
193
112
117
193
118
106
186
117
255
255
255
64
147
87
37
123
74
255
255
255
31
122
82
30
123
90
255
255
255
30
124
96
30
123
96
32
122
95
255
255
255
36
120
94
48
118
96
255
255
255
75
127
110
181
210
203
243
255
255
255
255
255
250
255
255
253
255
255
255
255
255
255
255
255
254
255
254
255
255
255
253
255
252
253
255
252
253
255
252
255
255
255
254
255
251
254
255
251
255
255
255
253
255
253
253
255
253
253
255
253
255
255
255
250
255
253
240
254
248
255
255
255
204
234
220
105
153
136
47
115
94
255
255
255
35
118
94
30
121
95
255
255
255
30
123
97
30
121
94
255
255
255
29
119
92
32
123
94
34
123
93
255
255
255
40
121
94
40
119
95
255
255
255
39
120
96
44
122
98
47
117
93
255
255
255
111
163
145
150
186
172
255
255
255
190
216
205
218
235
228
255
255
255
225
231
229
229
229
230
232
227
231
255
255
255
125
196
100
125
195
98
126
196
100
125
195
102
123
194
109
118
190
112
111
187
115
72
154
99
39
123
79
37
122
82
35
122
88
33
122
91
34
123
92
34
124
95
31
122
93
25
118
87
27
120
89
38
120
92
61
131
107
69
134
110
182
217
207
242
254
254
248
253
253
252
254
254
254
254
254
254
254
254
254
252
253
255
254
255
254
255
255
254
255
255
254
254
254
254
255
254
254
255
255
254
255
255
255
255
255
255
254
255
255
254
255
255
253
254
255
253
254
255
254
255
255
254
255
255
255
255
254
255
255
254
255
255
252
255
255
252
255
253
251
255
251
253
255
253
254
253
253
254
253
253
255
252
255
246
255
254
229
246
243
198
228
221
88
145
127
40
118
91
35
119
89
33
123
90
32
124
89
33
124
88
35
124
89
36
122
83
50
134
85
64
146
91
93
174
109
115
192
113
121
195
112
123
195
108
125
192
107
125
192
106
125
192
106
124
194
106
122
195
104
121
196
102
122
195
105
123
195
103
123
195
102
124
195
101
126
194
101
127
194
102
126
194
104
126
195
105
123
194
106
121
193
109
120
193
110
120
194
116
115
192
119
103
183
116
99
178
114
55
138
84
35
122
75
34
122
77
31
124
88
31
124
93
30
124
94
27
123
95
28
122
95
31
121
94
30
120
94
38
120
93
53
121
98
61
127
105
120
163
149
207
229
224
246
255
255
248
255
255
252
255
255
254
255
255
255
255
255
255
255
255
254
255
254
254
255
254
253
255
254
253
255
252
253
255
252
253
255
252
253
255
251
252
255
252
252
255
252
252
255
253
251
255
252
251
255
252
249
255
252
244
255
250
229
249
240
215
241
229
153
197
180
78
140
118
43
116
93
42
118
94
37
119
98
33
121
98
35
121
99
34
123
99
31
120
95
33
121
95
35
125
97
34
120
93
36
120
93
39
117
93
43
116
95
41
118
96
63
132
113
74
136
119
138
182
168
124
173
156
189
218
208
205
224
215
197
220
210
221
233
228
226
231
230
226
231
230
230
231
232
232
230
233
232
229
231
232
229
231
124
196
102
125
197
101
124
195
99
255
255
255
124
195
104
118
191
109
255
255
255
101
179
113
61
144
94
36
122
83
255
255
255
34
122
87
33
122
91
255
255
255
35
124
96
31
122
93
30
122
90
255
255
255
41
120
91
93
151
131
255
255
255
203
230
225
246
255
255
255
255
255
254
254
255
254
252
254
255
253
254
255
255
255
255
255
255
255
254
255
255
255
255
254
254
254
254
255
254
254
255
255
255
255
255
255
254
255
255
254
255
255
255
255
255
253
254
255
253
254
255
255
255
255
254
255
255
255
255
254
255
254
255
255
255
253
255
255
253
255
254
255
255
255
254
254
254
255
252
255
252
253
255
255
255
255
229
248
245
140
184
172
255
255
255
50
121
97
34
121
91
32
124
90
255
255
255
34
124
90
34
121
85
255
255
255
39
124
81
68
151
95
255
255
255
107
186
113
120
195
110
124
193
106
255
255
255
126
191
106
125
192
106
255
255
255
124
194
106
123
195
105
122
195
104
255
255
255
124
195
102
125
195
100
255
255
255
127
194
101
127
195
103
255
255
255
124
195
104
122
194
106
121
194
111
255
255
255
119
193
115
112
189
116
255
255
255
92
172
109
51
136
83
35
123
81
255
255
255
31
125
90
28
124
94
255
255
255
27
123
95
27
122
94
255
255
255
31
122
94
39
120
93
74
137
116
255
255
255
149
188
175
220
239
234
255
255
255
250
255
255
254
255
255
255
255
255
255
255
255
255
255
255
254
255
254
255
255
255
253
255
253
253
255
252
253
255
252
255
255
255
253
255
252
253
255
253
255
255
255
251
255
253
250
255
253
255
255
255
249
255
252
240
254
248
198
229
217
255
255
255
134
183
165
72
137
114
255
255
255
44
118
97
40
119
99
38
121
99
255
255
255
34
121
96
35
123
96
255
255
255
37
121
94
39
117
92
255
255
255
45
115
93
74
138
121
97
155
140
255
255
255
152
191
182
204
228
222
255
255
255
212
228
222
222
232
227
226
231
231
255
255
255
230
231
232
232
231
233
255
255
255
231
230
231
230
229
230
121
195
100
123
197
102
122
195
99
122
193
98
123
194
99
120
193
106
113
189
110
110
187
112
71
153
94
41
126
79
35
121
82
35
122
84
33
122
88
33
122
91
32
121
91
32
122
93
33
122
92
34
123
91
37
121
92
73
140
117
121
172
155
154
198
182
228
245
241
249
255
255
250
254
255
254
253
255
255
254
255
255
254
255
255
254
255
255
254
255
255
254
255
254
255
255
253
255
254
254
255
254
255
255
255
255
255
255
255
254
255
255
254
255
255
254
255
255
253
254
255
253
254
255
253
254
255
253
255
254
254
254
254
254
254
254
255
255
253
255
254
254
255
254
254
254
255
255
253
255
251
255
255
245
253
253
227
247
246
133
179
168
91
149
132
49
121
99
32
120
90
31
122
90
32
123
90
33
123
91
32
120
86
35
121
82
38
123
82
70
152
96
89
170
105
109
187
114
124
196
111
126
194
105
125
192
104
126
191
103
125
191
106
125
192
106
124
193
105
122
194
105
122
194
103
123
195
102
123
194
100
125
195
99
126
195
100
126
195
100
126
196
101
125
195
102
124
195
102
122
195
104
121
195
106
120
194
110
120
193
108
121
194
113
109
186
114
106
183
112
77
158
99
48
133
87
35
125
85
35
125
89
29
124
92
28
123
94
28
123
94
30
125
96
29
124
95
29
124
94
30
121
91
40
119
92
88
148
127
101
159
138
208
238
228
233
248
245
243
255
252
252
254
254
254
254
255
255
255
255
255
254
255
255
255
255
254
255
254
255
254
253
255
253
253
254
254
252
254
254
252
255
254
252
254
255
253
252
255
254
252
255
254
253
255
254
251
255
253
252
255
254
246
254
251
230
250
241
186
220
207
176
211
198
118
168
151
73
136
116
75
135
118
46
112
93
45
116
96
39
118
96
40
115
92
44
117
93
41
119
94
56
124
100
66
125
104
51
117
95
103
156
138
151
198
184
179
210
204
165
200
194
218
234
234
224
230
232
218
230
227
226
231
231
228
231
232
229
230
232
229
230
232
231
230
232
229
229
230
230
230
231
229
230
229
228
229
229
121
195
100
255
255
255
122
196
101
124
195
101
122
194
101
255
255
255
120
196
111
103
181
109
255
255
255
57
139
83
38
124
79
255
255
255
35
123
85
33
122
89
32
121
91
255
255
255
32
122
92
35
122
93
255
255
255
40
119
92
96
157
135
185
223
209
255
255
255
239
252
249
252
254
255
255
255
255
255
253
255
255
254
255
255
255
255
255
254
255
254
254
254
254
255
255
255
255
255
253
255
254
254
255
254
255
255
255
255
255
255
255
254
255
255
254
255
255
255
255
255
253
254
255
254
255
255
255
255
255
253
255
254
255
255
252
254
254
255
255
255
253
255
254
254
254
255
255
255
255
254
254
255
243
255
255
255
255
255
178
212
207
70
132
114
37
119
92
255
255
255
30
121
91
32
124
93
255
255
255
32
123
91
33
120
84
50
134
86
255
255
255
96
177
112
117
191
110
255
255
255
128
197
108
125
192
101
255
255
255
126
192
103
125
192
105
123
193
105
255
255
255
121
194
104
122
194
101
255
255
255
124
194
99
125
195
99
126
195
100
255
255
255
124
196
100
122
195
101
255
255
255
121
196
104
121
195
105
122
194
108
255
255
255
123
196
114
102
178
108
255
255
255
69
150
94
45
130
88
255
255
255
34
125
90
29
123
93
29
124
95
255
255
255
31
126
96
27
122
91
255
255
255
32
121
90
41
118
90
120
172
153
255
255
255
231
255
248
247
255
253
255
255
255
253
254
253
254
254
254
255
255
255
255
254
255
255
255
255
255
254
254
255
255
255
255
253
254
255
254
252
255
255
255
254
254
253
253
255
254
254
254
255
255
255
255
254
254
255
252
254
254
255
255
255
244
252
249
226
245
237
173
207
195
255
255
255
124
171
156
80
136
119
255
255
255
55
115
98
50
115
95
255
255
255
54
119
97
69
128
107
91
142
122
255
255
255
121
167
150
177
217
203
255
255
255
191
221
213
221
235
235
226
230
233
255
255
255
229
229
232
230
230
232
255
255
255
229
230
232
229
230
231
255
255
255
228
229
229
228
230
229
228
230
229
255
255
255
120
195
100
120
195
100
122
195
100
125
196
102
123
195
101
122
195
103
122
195
106
114
191
112
94
174
104
80
161
95
43
129
78
36
123
79
35
124
82
33
123
87
31
122
90
31
122
91
32
122
92
33
122
94
36
121
93
37
119
91
51
120
95
146
191
176
216
246
236
229
252
246
247
255
254
252
254
255
252
255
255
255
254
255
255
254
255
254
254
254
253
253
253
254
254
254
254
255
255
254
255
254
253
255
254
254
255
254
254
255
254
255
255
254
255
254
254
255
254
255
255
253
253
255
254
254
255
254
255
254
254
254
251
255
253
246
253
250
249
253
252
250
254
253
254
254
255
254
254
255
253
254
255
235
248
247
210
233
230
154
193
185
64
133
112
32
120
91
30
121
90
29
123
92
30
125
96
31
124
94
30
123
93
34
124
86
48
133
83
67
149
92
98
176
106
119
191
106
123
194
106
125
194
102
125
191
99
126
192
101
127
193
102
123
191
101
122
193
103
122
194
104
121
194
102
121
195
102
123
194
100
123
195
100
125
195
100
125
194
99
125
195
99
123
194
99
121
195
99
121
196
101
121
196
102
121
195
103
123
194
104
124
194
108
123
194
106
122
193
114
96
172
105
90
166
101
51
133
84
41
128
87
37
125
86
32
123
91
30
123
93
31
125
95
31
125
94
30
124
91
28
123
90
30
124
90
37
121
90
65
131
106
141
187
170
165
203
190
244
255
253
249
254
253
250
253
252
254
253
252
255
254
254
255
254
254
255
254
255
255
254
255
255
254
254
255
254
254
255
253
254
255
253
253
255
253
254
255
253
255
255
252
255
255
253
255
255
252
255
254
253
255
252
253
253
251
252
252
239
246
243
221
237
232
175
206
196
183
212
203
165
201
191
97
146
131
119
160
148
120
163
149
74
129
110
113
155
139
151
185
170
170
198
184
144
181
166
207
234
222
209
233
224
201
229
221
219
236
231
226
231
231
231
229
232
230
228
232
231
229
231
229
228
230
229
229
231
228
229
230
227
230
231
227
229
229
227
229
228
229
231
230
229
230
229
229
230
229
123
197
103
122
194
100
124
195
101
255
255
255
124
195
101
123
195
103
255
255
255
121
195
109
102
180
105
65
148
87
255
255
255
40
128
79
34
124
83
255
255
255
32
123
88
31
122
90
32
122
92
255
255
255
33
121
92
40
119
92
255
255
255
62
123
103
163
201
189
255
255
255
239
255
252
249
255
254
253
255
255
255
255
255
255
255
255
253
254
253
255
255
255
252
252
252
254
254
254
253
254
254
255
255
255
254
254
254
254
254
254
255
255
255
255
255
253
255
254
252
255
255
255
255
253
252
254
253
253
252
254
253
255
255
255
245
254
249
249
254
252
255
255
255
252
255
254
255
253
255
244
251
251
255
255
255
210
237
233
94
154
135
255
255
255
35
121
92
29
123
91
28
124
93
255
255
255
30
124
97
32
123
89
255
255
255
41
129
84
83
164
99
255
255
255
119
193
112
125
195
104
125
193
100
255
255
255
125
192
99
125
193
101
255
255
255
121
191
100
121
195
102
121
195
102
255
255
255
122
196
101
124
195
100
255
255
255
125
194
100
124
193
99
255
255
255
122
193
99
121
195
100
121
195
102
255
255
255
121
195
102
122
194
102
255
255
255
122
193
106
120
192
115
84
161
100
255
255
255
43
126
80
36
123
87
255
255
255
32
122
92
32
125
94
255
255
255
30
123
91
31
125
91
33
123
89
255
255
255
45
123
93
98
156
134
255
255
255
190
222
211
247
255
253
252
253
252
255
255
255
254
253
252
255
254
255
255
255
255
255
254
255
255
255
255
255
254
254
255
255
255
255
253
254
255
253
255
255
255
255
255
253
255
255
251
255
255
255
255
255
252
255
254
253
254
249
250
250
255
255
255
236
242
240
220
234
230
255
255
255
198
221
214
194
223
213
163
196
185
255
255
255
166
198
186
180
206
194
255
255
255
193
214
203
218
235
225
255
255
255
215
235
225
219
235
228
225
232
229
255
255
255
230
229
230
234
230
231
255
255
255
230
229
229
228
228
229
227
230
231
255
255
255
227
230
230
229
231
230
255
255
255
229
230
229
229
229
229
123
195
102
255
255
255
123
194
101
124
195
101
123
194
101
255
255
255
123
195
105
120
195
111
255
255
255
90
170
99
53
137
79
255
255
255
37
126
79
32
123
83
32
123
89
255
255
255
31
123
91
31
123
93
255
255
255
32
120
91
44
120
95
82
136
118
255
255
255
180
211
202
245
255
254
255
255
255
251
255
254
254
255
255
255
255
255
254
255
254
253
254
253
253
254
253
255
255
255
253
254
254
253
254
253
255
255
255
254
254
254
254
254
254
255
255
252
255
255
255
255
253
251
255
254
253
255
255
255
253
254
253
249
255
251
248
255
251
255
255
255
252
255
254
254
253
255
255
255
255
250
254
254
228
248
244
255
255
255
127
178
162
41
121
93
31
124
91
255
255
255
27
124
91
28
124
94
255
255
255
30
123
92
35
125
85
63
148
89
255
255
255
107
185
109
123
195
107
255
255
255
126
195
102
125
193
100
255
255
255
128
196
103
123
193
101
121
194
102
255
255
255
120
195
102
121
196
102
255
255
255
123
195
101
125
194
101
124
193
100
255
255
255
123
192
99
122
193
99
255
255
255
121
195
101
120
195
102
120
195
102
255
255
255
121
193
101
121
192
107
255
255
255
119
192
117
79
157
98
255
255
255
40
123
80
35
122
88
32
122
92
255
255
255
31
123
91
29
121
88
255
255
255
34
125
91
36
121
88
59
130
102
255
255
255
133
184
165
216
241
232
255
255
255
249
255
253
253
254
252
255
255
255
255
254
254
255
254
255
255
255
255
255
255
255
254
255
255
255
254
254
255
255
255
255
254
255
255
253
255
255
252
255
255
255
255
255
252
255
255
253
255
255
255
255
254
252
254
247
247
247
233
238
237
255
255
255
221
233
229
213
231
225
255
255
255
206
228
221
199
222
214
255
255
255
205
224
215
213
228
218
223
234
226
255
255
255
220
234
226
220
233
227
255
255
255
224
232
228
229
230
228
232
230
228
255
255
255
232
230
229
229
229
228
255
255
255
226
229
230
227
231
231
255
255
255
228
231
231
229
230
230
230
230
230
255
255
255
124
195
103
123
194
102
124
195
103
125
195
102
124
194
101
123
194
102
126
195
105
124
196
111
117
193
113
114
191
116
68
151
89
43
129
75
36
124
73
32
122
81
32
122
88
32
123
90
33
124
92
31
124
94
31
123
94
30
123
93
35
120
93
66
133
110
105
152
136
138
178
165
215
234
229
248
255
255
250
255
254
253
255
254
254
255
254
253
255
254
253
255
253
253
255
254
253
255
254
254
255
255
253
254
254
253
254
253
253
254
253
254
254
253
255
254
251
255
255
251
255
255
251
255
255
253
254
255
253
254
255
253
251
255
252
251
255
253
252
255
253
254
254
253
253
254
254
252
254
255
248
255
254
184
221
207
156
200
185
83
151
125
36
124
90
29
125
89
29
126
91
29
126
91
28
124
92
28
123
92
29
122
89
34
124
77
66
152
87
85
168
96
107
186
105
121
194
105
123
195
103
122
193
100
122
193
100
125
194
102
124
195
103
121
194
101
120
196
102
121
196
103
120
197
103
121
196
101
122
195
101
122
195
100
124
195
101
124
194
100
124
193
100
124
193
100
124
193
100
123
194
100
123
194
101
122
197
104
121
196
102
120
195
101
120
194
101
123
194
104
122
193
110
122
194
112
106
181
114
71
150
96
64
144
93
36
122
83
34
122
90
32
122
92
33
123
92
31
121
88
32
123
89
34
123
90
35
120
87
44
118
90
74
137
113
90
144
125
196
228
217
231
249
243
243
255
251
252
254
253
254
254
254
254
254
254
255
254
255
254
255
254
254
255
255
253
255
254
254
255
255
255
255
255
254
255
255
254
255
255
254
254
255
255
253
255
254
253
255
255
253
254
255
253
254
255
253
253
252
249
249
240
239
239
231
235
234
230
232
231
224
230
228
218
232
227
222
232
228
223
231
226
219
231
225
227
233
229
229
231
228
226
231
227
223
233
226
223
231
226
225
232
227
224
232
227
227
231
227
230
229
225
231
229
225
232
229
227
232
229
227
230
231
230
228
230
230
227
230
231
227
231
232
228
232
231
229
232
231
231
232
231
238
238
238
235
235
235
124
195
103
124
195
103
124
195
103
255
255
255
125
195
102
125
193
101
255
255
255
127
196
107
122
195
113
106
186
115
255
255
255
60
144
86
34
123
77
255
255
255
32
122
85
33
123
90
33
124
93
255
255
255
31
124
94
31
123
94
255
255
255
39
121
94
80
142
121
255
255
255
169
204
192
230
245
241
251
253
253
255
255
255
252
254
253
252
255
252
255
255
255
252
255
253
253
255
254
254
255
255
255
255
255
253
254
254
253
254
254
255
255
255
254
254
252
253
253
250
255
255
255
255
255
252
254
255
253
251
255
252
255
255
255
251
255
252
254
255
253
255
255
255
253
254
252
249
255
253
209
239
227
255
255
255
119
181
156
50
132
100
255
255
255
30
125
87
29
126
90
28
124
91
255
255
255
28
123
91
33
124
83
255
255
255
49
137
80
95
177
102
255
255
255
118
194
107
122
194
102
122
193
100
255
255
255
121
193
101
120
194
102
255
255
255
119
195
102
120
197
103
121
196
102
255
255
255
121
195
100
123
195
101
255
255
255
124
195
101
124
193
101
255
255
255
124
193
101
124
193
101
124
195
102
255
255
255
122
197
103
121
195
101
255
255
255
121
196
101
125
196
106
115
188
110
255
255
255
94
171
108
56
138
90
255
255
255
37
122
86
36
124
93
255
255
255
33
121
91
33
122
90
34
122
89
255
255
255
36
118
88
49
115
93
255
255
255
116
161
147
217
240
234
248
255
253
255
255
255
253
254
254
255
254
255
255
255
255
255
254
254
253
255
254
254
255
255
255
255
255
253
255
255
253
255
255
255
255
255
253
255
255
253
254
255
255
255
255
254
254
253
255
253
253
255
252
251
255
255
255
249
246
246
237
236
236
255
255
255
228
230
229
225
230
228
224
231
228
255
255
255
227
230
227
230
230
228
255
255
255
228
230
227
225
230
226
255
255
255
226
232
227
227
231
228
230
229
226
255
255
255
230
228
224
232
228
225
255
255
255
231
231
229
229
231
231
227
231
231
255
255
255
228
231
231
231
233
232
255
255
255
240
240
240
245
245
245
124
195
103
123
195
103
124
195
103
125
196
104
125
196
104
125
193
100
125
193
101
125
193
102
125
193
108
112
187
111
97
178
112
81
164
102
45
133
84
33
123
81
32
124
84
32
123
88
31
122
90
33
124
93
32
123
93
30
124
93
32
123
94
33
123
93
41
118
92
93
151
131
105
159
141
221
243
238
247
253
253
251
252
252
253
253
253
253
254
252
252
254
252
252
255
252
250
255
251
252
255
253
254
255
255
254
255
255
254
254
255
254
254
254
254
253
253
252
251
250
253
253
251
254
254
254
254
255
254
251
254
252
250
254
251
253
255
252
252
255
252
253
255
252
248
255
250
238
254
249
188
231
214
159
213
190
81
149
121
36
121
87
33
123
87
32
125
87
29
124
88
28
123
90
28
123
91
31
124
91
38
128
86
43
132
83
62
149
90
103
183
106
111
189
107
122
196
108
124
195
103
123
193
102
122
193
102
122
195
104
120
195
104
120
195
103
120
196
104
121
196
102
122
195
100
122
195
101
122
194
100
121
195
101
122
195
101
121
194
102
124
194
104
124
194
102
125
194
104
126
193
102
126
194
102
124
195
102
124
195
101
121
195
98
121
196
99
121
196
97
122
197
102
118
192
108
108
183
109
104
180
111
66
146
93
49
132
88
42
127
86
35
122
89
35
122
91
34
121
91
35
122
92
34
123
92
35
121
90
36
121
92
41
116
92
66
127
108
88
143
127
185
215
209
242
251
251
251
255
254
253
255
255
255
253
254
255
253
254
255
253
254
255
255
254
254
255
255
254
255
255
253
255
255
252
255
255
252
255
255
252
255
255
252
255
252
253
255
253
253
255
251
254
255
252
255
254
254
253
250
250
250
249
250
241
240
240
233
233
233
230
231
231
226
230
228
225
231
228
226
230
227
226
229
226
230
230
228
229
230
228
229
230
228
227
230
228
226
231
228
228
231
228
230
231
228
230
229
227
230
228
225
230
227
225
231
230
229
232
231
228
230
231
230
227
230
229
229
232
232
228
232
232
232
234
233
244
245
245
242
243
242
250
250
250
253
253
253
124
195
103
255
255
255
122
195
103
124
195
103
126
196
104
255
255
255
125
193
100
126
193
103
255
255
255
123
192
108
103
178
107
255
255
255
64
149
92
39
128
83
32
124
88
255
255
255
31
122
89
31
122
91
255
255
255
32
123
92
31
124
93
34
122
93
255
255
255
42
116
91
118
167
151
255
255
255
236
251
251
249
254
254
255
255
255
255
254
254
253
254
253
252
255
252
255
255
255
249
254
250
251
255
253
255
255
255
254
255
255
254
255
255
253
253
252
255
255
255
254
254
254
255
255
255
255
255
255
255
255
255
253
255
253
252
255
252
255
255
255
248
255
250
240
255
250
255
255
255
213
243
234
99
159
134
255
255
255
39
117
86
33
123
87
31
124
89
255
255
255
29
122
89
33
123
94
255
255
255
34
125
89
47
135
83
89
172
101
255
255
255
118
193
109
123
195
104
255
255
255
124
193
101
123
195
105
255
255
255
122
195
105
120
195
104
121
195
102
255
255
255
121
195
100
122
194
100
255
255
255
121
193
101
120
193
103
123
195
105
255
255
255
125
195
106
125
192
104
255
255
255
126
193
103
125
194
102
123
194
99
255
255
255
119
193
94
122
197
98
255
255
255
122
197
102
119
194
113
255
255
255
97
175
111
52
135
85
37
123
85
255
255
255
34
121
89
35
121
92
255
255
255
35
122
92
34
123
93
36
120
92
255
255
255
44
116
95
123
173
160
255
255
255
213
238
234
247
255
254
255
255
255
254
254
255
255
253
254
254
253
253
255
255
255
255
255
253
254
255
255
255
255
255
253
255
255
251
255
255
251
255
252
255
255
255
251
255
250
253
255
251
255
255
255
255
255
253
255
254
255
248
247
247
255
255
255
236
237
237
227
230
229
255
255
255
226
230
229
224
229
226
255
255
255
228
229
226
230
230
229
228
230
228
255
255
255
229
230
229
231
231
229
255
255
255
231
230
229
230
229
228
230
229
230
255
255
255
230
230
230
227
229
229
255
255
255
232
234
233
235
236
235
255
255
255
246
246
246
253
253
253
253
253
253
255
255
255
124
195
103
123
195
103
122
194
102
255
255
255
124
195
104
125
196
104
255
255
255
126
194
102
127
194
106
122
190
109
255
255
255
95
171
103
51
135
82
255
255
255
36
125
84
33
124
91
31
122
90
255
255
255
31
122
91
32
123
92
255
255
255
32
123
93
36
121
92
255
255
255
49
120
96
132
175
162
239
252
251
255
255
255
251
254
255
255
253
255
255
255
255
253
255
253
251
255
252
248
255
251
255
255
255
251
255
254
253
255
254
255
255
255
254
254
253
253
253
251
255
255
255
255
254
254
255
255
255
254
255
255
255
255
255
252
255
253
248
255
251
255
255
255
241
255
250
219
244
238
118
170
149
255
255
255
48
121
91
35
120
86
255
255
255
33
124
89
31
123
90
34
123
95
255
255
255
35
123
92
37
125
82
255
255
255
75
160
96
118
196
114
255
255
255
122
195
106
125
194
103
125
195
105
255
255
255
123
195
106
121
195
105
255
255
255
121
194
102
122
194
100
122
194
100
255
255
255
122
193
101
120
193
103
255
255
255
122
195
105
124
196
107
255
255
255
124
192
106
126
192
105
127
193
104
255
255
255
126
194
102
123
193
97
255
255
255
122
194
95
123
197
98
121
197
102
255
255
255
116
193
116
89
170
110
255
255
255
43
129
83
34
121
85
255
255
255
34
121
89
35
121
92
34
121
92
255
255
255
34
124
94
36
119
93
255
255
255
52
123
103
154
197
188
235
253
252
255
255
255
251
255
255
255
254
254
255
255
255
254
252
253
254
254
253
255
255
253
255
255
255
254
255
254
253
255
255
255
255
255
251
255
252
251
255
250
255
255
255
251
255
250
254
255
252
255
255
254
255
255
255
254
253
254
245
245
245
255
255
255
231
232
232
227
230
229
226
230
228
255
255
255
225
229
225
228
229
227
255
255
255
229
229
228
229
229
229
255
255
255
231
230
230
231
231
231
230
230
231
255
255
255
229
228
231
230
230
232
255
255
255
227
229
230
234
235
235
239
240
239
255
255
255
247
248
247
254
254
254
255
255
255
254
254
254
254
254
254
124
195
103
124
195
103
123
195
103
121
194
102
122
195
103
123
195
103
124
195
103
122
194
102
127
194
104
127
193
107
121
189
111
121
190
114
80
158
96
41
126
77
36
122
77
33
123
87
30
123
92
31
122
91
31
122
92
32
123
92
32
123
92
33
122
92
34
122
92
38
121
93
41
121
94
75
137
116
157
194
182
241
252
252
241
253
252
251
254
255
255
254
255
255
254
255
251
254
252
248
254
251
249
255
252
251
255
254
253
254
254
254
255
253
255
254
252
254
254
251
254
254
252
255
255
252
252
252
251
251
254
252
252
255
255
248
255
254
242
255
253
241
255
251
225
247
241
149
190
176
78
139
115
61
127
100
44
119
91
37
121
89
36
122
89
37
124
93
34
121
93
36
121
95
38
123
96
37
121
89
54
139
87
63
148
91
98
180
106
117
193
109
121
195
108
123
194
104
126
194
106
125
194
106
125
195
107
125
195
107
123
194
104
122
194
103
123
194
102
124
194
101
124
194
102
123
194
102
124
194
104
122
194
105
122
195
105
123
196
106
122
193
106
123
193
106
123
192
107
127
193
110
134
199
113
131
196
108
136
200
112
132
197
106
126
194
99
128
195
100
126
197
93
122
196
97
120
195
104
118
194
106
102
182
113
77
160
104
64
150
97
35
125
86
34
122
88
33
122
89
34
123
93
32
121
91
33
121
92
32
122
92
32
122
94
37
119
95
46
125
103
99
158
143
206
234
230
242
255
255
246
255
255
252
254
254
254
253
253
254
253
252
255
255
251
254
255
251
254
255
252
253
254
250
255
255
252
253
255
252
254
255
251
254
255
251
252
255
250
254
254
252
255
254
252
255
254
254
255
254
254
254
253
254
253
251
252
241
242
241
240
240
240
230
232
231
229
232
229
228
231
228
229
231
227
229
229
227
229
229
228
229
229
228
231
229
230
231
230
230
231
230
232
231
231
233
228
229
233
229
229
232
229
230
235
230
231
235
228
229
232
238
239
240
246
246
246
251
251
251
249
249
249
255
255
255
255
255
255
255
255
255
255
255
255
255
255
255
124
195
103
255
255
255
124
195
103
123
195
103
122
196
103
255
255
255
122
195
103
122
194
102
255
255
255
127
194
104
126
193
109
255
255
255
116
186
113
72
151
92
35
122
79
255
255
255
32
123
88
29
122
92
255
255
255
32
123
92
33
123
92
33
122
92
255
255
255
34
121
91
46
123
97
255
255
255
89
148
128
165
201
190
255
255
255
242
253
252
251
254
255
254
254
254
255
255
255
250
254
251
250
255
253
255
255
255
253
254
254
255
253
253
255
254
251
255
255
255
255
255
251
254
254
250
255
255
255
250
253
250
249
255
253
244
255
254
255
255
255
226
247
243
157
196
183
255
255
255
92
148
128
49
120
95
255
255
255
39
119
90
37
124
92
35
121
92
255
255
255
35
119
93
37
121
91
255
255
255
46
130
85
80
162
95
112
189
108
255
255
255
122
194
106
124
193
105
255
255
255
125
193
106
124
193
106
255
255
255
125
194
106
124
194
103
124
194
102
255
255
255
124
195
102
124
194
105
255
255
255
123
194
105
123
195
106
123
194
106
255
255
255
123
192
107
126
193
110
255
255
255
137
201
119
142
206
121
141
205
117
255
255
255
134
198
108
127
195
98
255
255
255
124
195
92
121
194
97
255
255
255
114
190
106
89
171
107
50
137
89
255
255
255
33
123
87
32
122
90
255
255
255
33
122
92
32
121
91
34
123
94
255
255
255
33
120
95
62
134
114
255
255
255
149
198
186
226
248
245
255
255
255
248
255
255
253
254
253
255
255
252
255
255
255
255
255
251
254
254
250
255
255
255
254
255
251
255
255
251
255
255
251
255
255
255
255
254
253
255
254
253
255
255
255
255
253
253
255
253
254
254
252
254
255
255
255
252
250
251
239
239
239
255
255
255
229
231
229
229
231
228
255
255
255
229
230
226
230
230
227
230
229
228
255
255
255
231
229
231
230
230
232
255
255
255
229
229
233
230
231
236
232
233
238
255
255
255
240
241
244
249
249
250
255
255
255
252
252
252
255
255
255
255
255
255
255
255
255
255
255
255
255
255
255
255
255
255
124
195
104
124
195
103
124
195
103
123
195
103
121
195
103
122
197
104
122
196
104
122
194
103
123
193
102
122
194
104
124
193
106
122
191
109
116
186
107
95
169
101
59
141
87
35
123
82
36
124
85
31
123
90
29
122
92
30
122
92
31
124
92
31
123
92
33
122
92
33
122
92
36
119
91
52
126
101
56
128
104
108
163
145
171
205
195
175
208
199
242
253
253
250
255
255
254
255
254
254
255
255
253
254
255
253
254
254
255
253
254
255
253
254
255
254
252
255
254
250
254
255
250
251
255
249
251
254
250
247
255
249
242
255
254
227
246
245
229
247
245
161
196
186
103
157
138
100
155
136
55
124
100
40
118
92
39
118
91
36
121
91
37
122
91
35
120
90
35
119
90
36
121
89
40
124
85
43
127
85
52
136
80
95
176
104
120
196
112
122
195
109
123
193
106
125
193
105
125
193
106
126
193
106
124
193
105
125
194
105
125
194
105
125
194
103
125
194
104
124
194
103
124
194
105
123
193
104
123
194
105
122
194
104
122
193
104
123
193
104
123
193
106
124
192
106
135
202
118
137
202
120
148
212
131
154
216
135
152
213
130
144
206
120
143
204
118
131
195
105
127
194
98
126
194
98
126
197
97
121
195
101
121
195
106
107
185
111
60
146
91
41
129
84
34
123
82
29
121
86
31
121
89
30
121
89
32
121
89
35
123
93
35
122
94
35
120
93
44
118
97
92
154
138
126
176
163
224
248
246
238
253
252
246
255
255
253
255
254
254
255
253
255
255
252
254
254
251
255
255
251
255
255
251
255
255
251
255
254
252
255
254
253
255
254
253
255
253
255
255
253
255
255
253
254
255
253
255
255
252
255
255
252
255
254
252
253
253
251
252
248
247
248
238
239
238
237
238
236
228
230
227
228
230
226
229
230
226
230
229
227
230
229
227
230
228
228
230
229
229
230
230
232
229
230
233
234
235
239
240
241
245
245
245
248
242
243
246
253
253
255
254
254
255
253
253
253
255
255
255
254
254
254
255
255
255
254
254
254
255
255
255
255
255
255
255
255
255
124
194
105
124
195
104
124
195
103
255
255
255
122
194
102
122
194
103
255
255
255
123
196
104
122
194
103
122
194
105
255
255
255
122
192
106
113
184
107
255
255
255
85
160
95
51
134
84
36
125
88
255
255
255
31
123
90
30
123
91
255
255
255
30
123
92
31
123
91
255
255
255
33
122
91
38
119
91
60
130
106
255
255
255
113
166
150
173
208
200
255
255
255
240
253
252
248
255
254
253
253
255
255
255
255
254
253
255
254
253
254
255
255
255
254
254
255
254
255
252
255
255
255
250
255
249
245
255
248
240
255
252
255
255
255
225
246
244
158
194
184
255
255
255
103
155
137
55
124
101
40
118
92
255
255
255
35
120
91
37
122
91
255
255
255
37
122
90
36
121
88
37
122
83
255
255
255
44
129
78
88
170
103
255
255
255
119
196
115
123
193
107
255
255
255
125
192
105
127
193
106
125
193
105
255
255
255
125
194
104
125
194
103
255
255
255
124
194
103
124
194
105
123
193
104
255
255
255
123
193
104
122
193
104
255
255
255
122
192
103
122
191
103
255
255
255
130
197
111
146
211
128
153
216
135
255
255
255
158
219
138
152
211
128
255
255
255
140
200
115
131
195
104
126
194
100
255
255
255
127
199
102
119
194
111
255
255
255
97
177
109
49
136
87
255
255
255
33
123
85
28
121
88
30
121
90
255
255
255
33
122
90
35
121
92
255
255
255
40
118
94
59
122
105
163
202
193
255
255
255
240
255
254
249
255
254
255
255
255
253
255
253
253
254
252
252
254
250
255
255
255
255
255
251
255
254
252
255
255
255
255
254
253
255
253
255
255
255
255
255
253
255
255
253
255
255
252
255
255
255
255
255
252
255
255
252
254
255
255
255
252
251
252
247
247
247
237
239
237
255
255
255
230
232
229
231
231
229
255
255
255
232
231
229
231
230
228
255
255
255
233
233
233
236
237
239
245
246
249
255
255
255
248
248
251
254
254
255
255
255
255
254
254
255
255
255
255
254
254
254
255
255
255
254
254
254
255
255
255
255
255
255
255
255
255
255
255
255
124
194
105
125
194
105
124
195
104
124
195
103
123
194
103
123
193
104
123
194
104
123
194
104
122
195
103
122
195
104
122
194
105
122
195
106
121
193
112
109
182
108
104
178
108
60
140
82
40
126
80
36
126
88
35
125
87
32
125
89
31
125
91
31
125
90
29
123
89
31
122
90
30
122
89
33
121
89
40
120
92
62
131
108
59
130
108
106
165
149
170
207
198
161
202
192
234
252
249
246
252
255
252
251
255
249
253
255
247
252
253
251
252
254
247
254
255
246
255
254
249
255
251
241
255
250
227
253
243
212
242
236
221
244
243
138
181
168
93
150
130
99
153
134
52
124
98
39
120
91
34
121
91
34
120
91
34
121
91
36
123
91
37
123
90
36
122
88
36
122
84
36
122
78
38
123
77
74
157
100
109
189
116
114
193
116
119
193
108
124
193
104
125
192
104
126
192
104
126
193
105
125
193
104
124
193
104
125
194
103
124
193
103
124
193
103
124
193
104
123
193
104
123
193
104
123
193
104
122
194
104
122
194
104
122
193
104
122
193
104
123
192
102
126
194
106
130
197
109
143
208
123
154
217
136
157
218
138
157
218
138
158
217
137
149
208
125
145
204
122
132
194
108
126
192
103
126
194
102
124
194
104
120
193
109
113
189
112
103
181
111
63
146
92
43
131
86
38
126
85
31
123
88
30
123
92
31
122
91
32
123
93
35
123
94
36
120
93
38
118
93
63
128
108
147
191
178
197
226
220
228
250
243
248
255
252
251
255
253
252
255
252
251
255
252
248
254
251
251
254
251
252
255
253
252
253
253
254
254
253
253
253
254
254
253
255
255
253
255
255
252
255
255
254
255
255
254
255
255
253
255
255
254
255
255
254
255
255
254
255
255
255
255
252
253
252
249
251
251
239
241
240
243
244
244
241
240
241
236
235
234
241
240
239
243
241
238
238
236
234
245
244
242
251
251
251
253
254
255
251
251
253
255
255
255
255
255
255
255
255
255
255
255
255
254
254
254
254
254
254
254
254
254
255
255
255
255
255
255
255
255
255
255
255
255
255
255
255
124
194
105
255
255
255
125
194
105
124
194
104
123
193
104
255
255
255
123
193
104
123
194
104
255
255
255
123
196
104
122
195
105
255
255
255
123
196
108
120
193
115
99
174
108
255
255
255
52
133
79
37
124
80
255
255
255
34
124
86
32
124
88
30
124
89
255
255
255
29
123
89
31
123
89
255
255
255
33
122
90
38
119
92
255
255
255
56
129
107
98
159
142
149
191
180
255
255
255
234
251
251
231
244
244
255
255
255
242
253
253
238
253
252
236
252
249
255
255
255
238
254
251
206
236
225
255
255
255
197
238
225
122
170
155
79
139
118
255
255
255
49
124
96
37
120
91
255
255
255
33
122
92
33
121
92
255
255
255
33
122
91
35
122
88
36
122
85
255
255
255
36
121
80
67
151
97
255
255
255
102
182
114
117
191
109
123
193
104
255
255
255
127
193
103
127
193
104
255
255
255
126
193
105
125
194
103
255
255
255
125
194
103
124
194
105
124
194
104
255
255
255
123
193
104
121
193
103
255
255
255
122
195
104
124
194
105
123
193
103
255
255
255
125
194
103
136
202
114
255
255
255
149
212
128
156
217
138
157
217
138
255
255
255
156
215
135
139
199
116
255
255
255
129
192
106
125
193
104
255
255
255
122
194
106
117
191
114
88
167
104
255
255
255
45
130
82
33
123
85
255
255
255
30
122
89
30
123
92
32
123
94
255
255
255
35
122
95
41
116
93
255
255
255
85
143
125
198
232
221
255
255
255
240
255
250
251
255
252
251
255
252
255
255
255
249
254
252
250
254
254
255
255
255
252
254
254
249
250
252
253
253
255
255
255
255
254
252
255
255
254
255
255
255
255
255
254
255
255
255
255
255
254
254
255
255
255
255
255
255
254
255
255
255
255
255
252
253
253
252
253
255
255
255
255
248
247
248
247
246
248
248
245
244
255
255
255
249
247
244
253
252
250
255
255
255
254
254
254
255
255
255
255
255
255
255
255
255
255
255
255
254
254
254
255
255
255
254
254
254
255
255
255
255
255
255
255
255
255
255
255
255
255
255
255
255
255
255
124
194
105
124
194
105
124
193
104
255
255
255
123
193
104
123
193
104
255
255
255
123
193
104
124
195
105
122
195
103
255
255
255
122
195
105
122
196
109
255
255
255
119
192
117
93
171
108
48
130
79
255
255
255
36
122
80
33
123
85
255
255
255
31
124
87
30
124
88
255
255
255
30
124
89
31
124
89
32
122
89
255
255
255
36
119
92
53
128
105
255
255
255
82
145
127
133
177
166
204
230
226
255
255
255
209
232
228
224
249
246
255
255
255
214
240
236
219
246
239
255
255
255
182
215
204
161
208
191
103
158
140
255
255
255
65
128
106
47
123
95
255
255
255
36
120
90
32
122
92
32
121
94
255
255
255
32
121
93
34
123
90
255
255
255
35
122
86
37
122
82
61
145
95
255
255
255
94
175
111
115
191
110
255
255
255
122
193
105
126
194
102
255
255
255
127
193
104
127
193
105
125
194
103
255
255
255
125
195
103
125
195
104
255
255
255
125
195
104
124
194
104
121
193
102
255
255
255
121
194
103
124
196
105
255
255
255
124
194
104
124
193
102
255
255
255
129
196
107
143
207
121
155
217
135
255
255
255
157
217
138
157
216
136
255
255
255
148
207
125
134
195
111
126
192
104
255
255
255
123
193
104
118
192
108
255
255
255
114
189
118
72
153
97
255
255
255
37
123
80
31
121
86
29
122
91
255
255
255
29
123
94
32
123
95
255
255
255
36
120
94
50
119
97
115
164
147
255
255
255
221
246
237
247
255
251
255
255
255
251
254
251
251
254
252
248
254
252
255
255
255
252
255
255
252
253
254
255
255
255
252
253
254
253
253
255
255
255
255
254
254
255
254
254
255
254
255
255
255
255
255
254
254
253
254
254
254
255
255
255
254
254
255
253
255
255
252
254
255
255
255
255
253
253
255
252
250
252
255
255
255
252
250
251
252
250
248
255
255
255
254
253
250
255
255
253
255
255
255
255
255
255
254
254
254
255
255
255
255
255
255
255
255
255
254
254
254
255
255
255
255
255
255
255
255
255
255
255
255
255
255
255
255
255
255
255
255
255
122
195
103
124
194
105
125
194
104
124
193
104
124
193
104
124
193
104
123
193
104
124
194
105
124
194
105
123
194
104
121
194
102
121
194
102
122
195
106
121
195
111
121
195
112
112
187
118
83
163
107
46
128
81
44
128
83
34
122
83
32
122
84
32
122
84
31
123
86
30
124
87
30
124
87
30
126
89
30
124
89
32
122
90
33
124
93
36
122
94
49
126
102
44
123
99
50
120
97
91
148
130
164
201
193
102
153
140
123
174
161
178
217
208
109
161
146
113
167
149
149
193
178
80
140
117
71
135
111
45
116
91
49
117
94
38
118
91
36
121
91
36
121
90
32
123
91
34
123
96
33
121
97
32
121
95
33
122
94
33
122
89
34
123
87
35
123
84
54
138
90
80
162
102
85
167
106
110
189
111
120
196
107
121
195
106
123
196
102
125
195
103
126
194
103
126
194
104
126
194
105
125
194
104
125
194
103
124
195
103
125
196
104
125
196
104
125
196
104
123
195
103
121
194
102
120
193
102
121
194
102
124
196
104
125
196
105
125
196
104
125
192
103
127
194
105
131
196
108
146
208
123
156
217
135
158
218
137
159
218
138
160
219
139
155
214
133
151
210
129
133
195
110
127
193
105
125
193
104
124
195
104
120
196
107
117
193
112
113
191
114
86
165
105
58
141
90
47
131
86
35
123
89
29
123
91
28
122
92
27
123
94
30
123
96
33
122
95
35
121
95
47
120
96
106
159
140
160
199
185
206
235
224
246
254
251
250
254
252
252
254
252
254
255
254
251
254
253
251
254
253
254
255
255
254
254
255
253
253
254
254
254
255
254
254
255
254
254
255
254
254
255
254
254
254
254
255
254
255
255
254
254
255
253
253
254
251
253
254
253
252
254
254
251
254
255
251
253
255
252
253
255
253
252
255
255
253
255
254
252
254
255
253
254
255
253
252
255
254
251
255
255
252
255
255
254
254
254
254
254
254
254
254
254
254
255
255
255
255
255
255
255
255
255
255
255
255
255
255
255
255
255
255
255
255
255
255
255
255
255
255
255
255
255
255
255
255
255
123
195
103
255
255
255
125
194
104
124
194
104
124
193
104
255
255
255
124
194
105
124
194
105
255
255
255
124
194
105
123
194
104
255
255
255
121
194
102
122
195
107
120
193
112
255
255
255
107
184
117
79
159
105
255
255
255
43
128
85
34
122
83
32
122
85
255
255
255
31
124
86
31
125
88
255
255
255
30
125
88
30
124
89
255
255
255
34
125
94
36
123
95
38
119
93
255
255
255
42
115
90
65
131
109
255
255
255
64
127
109
72
134
116
73
137
115
255
255
255
54
121
96
55
125
99
255
255
255
42
118
91
37
119
91
35
122
92
255
255
255
33
124
92
33
123
94
255
255
255
34
122
97
33
121
95
255
255
255
32
122
89
33
122
84
51
137
88
255
255
255
75
158
98
109
188
111
255
255
255
119
196
108
122
196
102
124
196
103
255
255
255
125
194
103
125
194
105
255
255
255
125
194
104
124
195
103
255
255
255
124
195
103
124
195
103
123
196
104
255
255
255
121
195
102
121
194
101
255
255
255
122
194
102
125
196
104
125
194
103
255
255
255
126
192
104
138
200
115
255
255
255
153
214
131
159
218
138
160
217
140
255
255
255
160
218
139
145
205
123
255
255
255
129
193
107
126
195
104
255
255
255
123
197
104
119
197
109
104
185
109
255
255
255
64
147
91
38
125
84
255
255
255
33
124
91
27
123
92
29
123
95
255
255
255
31
122
95
39
119
94
255
255
255
60
124
101
154
196
180
255
255
255
232
248
241
251
254
252
253
253
252
255
255
255
254
255
255
254
255
255
255
255
255
254
254
255
254
253
255
254
254
255
255
255
255
254
254
255
254
254
254
255
255
255
254
254
253
255
255
253
254
255
252
255
255
255
252
254
252
252
254
255
255
255
255
251
254
255
251
252
255
255
255
255
253
252
255
255
253
255
255
253
253
255
255
255
255
254
253
255
255
254
255
255
255
255
255
254
254
254
254
254
254
254
255
255
255
255
255
255
255
255
255
255
255
255
255
255
255
255
255
255
255
255
255
255
255
255
255
255
255
255
255
255
255
255
255
124
195
102
124
195
103
123
195
102
124
195
103
125
194
104
125
194
105
125
194
105
124
194
105
124
194
105
124
194
105
124
194
105
123
194
104
123
195
103
123
195
103
122
194
108
118
191
112
117
190
111
98
176
112
74
155
104
71
153
103
41
127
86
34
122
83
33
123
85
32
123
83
32
124
86
31
125
88
29
124
87
28
122
88
30
123
90
30
122
91
32
122
93
32
119
90
34
117
89
36
122
91
37
120
89
48
122
97
39
120
92
39
119
92
40
121
91
45
120
93
40
122
91
37
120
90
39
119
90
35
122
92
33
122
93
33
125
95
34
125
94
32
122
92
33
121
92
33
122
95
33
120
93
33
122
91
32
122
90
32
124
85
46
135
85
70
154
94
72
155
96
106
185
110
120
196
110
120
196
109
120
195
100
121
195
102
123
195
103
124
195
103
124
194
104
125
194
104
125
194
104
124
195
103
124
195
103
124
195
103
123
194
102
122
195
101
122
196
102
122
196
103
121
195
101
121
195
100
121
194
101
122
194
101
124
194
103
125
193
103
125
192
103
126
190
103
138
199
115
146
207
123
154
213
132
159
216
140
160
215
141
160
217
140
158
215
138
147
206
126
138
200
116
130
194
109
125
194
103
124
196
103
122
196
102
116
195
100
110
192
107
91
174
102
75
159
93
37
124
78
35
124
85
32
124
87
29
123
92
30
123
95
31
123
96
33
122
95
39
120
94
45
118
94
54
120
96
129
171
154
194
221
210
224
239
232
251
253
249
252
253
251
253
254
253
254
255
255
253
254
255
254
254
255
254
254
255
255
254
255
255
255
255
255
255
255
255
255
255
254
254
253
254
254
253
254
254
252
254
254
252
254
255
253
254
255
253
254
255
255
254
255
255
252
255
255
253
255
255
254
254
255
253
252
255
254
252
255
255
251
255
255
253
255
255
253
254
255
254
255
255
255
255
255
255
255
255
255
255
255
255
255
254
254
254
254
254
254
255
255
255
255
255
255
255
255
255
255
255
255
255
255
255
255
255
255
255
255
255
255
255
255
255
255
255
255
255
255
124
195
101
123
195
101
123
195
101
255
255
255
125
194
103
125
194
104
255
255
255
125
194
105
124
194
104
124
194
105
255
255
255
124
195
104
124
195
103
255
255
255
125
196
104
122
194
107
116
190
111
255
255
255
95
174
111
69
151
103
255
255
255
41
126
85
36
123
83
255
255
255
32
123
82
31
124
85
29
123
88
255
255
255
28
122
90
31
122
93
255
255
255
33
121
93
35
122
92
35
123
91
255
255
255
34
121
89
35
120
90
255
255
255
35
121
90
35
122
89
255
255
255
35
122
90
34
122
92
32
122
93
255
255
255
31
124
95
32
122
93
255
255
255
32
121
90
34
121
91
35
122
90
255
255
255
34
125
86
46
136
85
255
255
255
68
154
92
106
184
109
120
195
110
255
255
255
120
195
101
121
195
102
255
255
255
122
195
103
124
194
104
255
255
255
124
194
104
124
195
103
124
195
103
255
255
255
124
195
103
122
195
101
255
255
255
121
195
101
122
196
101
122
196
101
255
255
255
121
195
100
124
194
102
255
255
255
125
194
103
125
190
102
255
255
255
132
194
110
148
208
126
158
215
138
255
255
255
160
215
142
160
215
141
255
255
255
155
212
135
136
198
116
128
193
106
255
255
255
123
194
102
118
195
99
255
255
255
113
194
101
101
184
103
255
255
255
57
143
83
35
123
81
31
124
88
255
255
255
29
123
93
32
123
95
255
255
255
36
121
94
44
120
94
84
140
118
255
255
255
178
208
194
242
251
244
255
255
255
253
254
251
254
255
255
254
255
255
255
255
255
254
254
255
255
254
255
255
255
255
255
254
255
255
255
255
255
255
255
255
255
253
254
254
252
254
254
251
255
255
255
254
254
253
254
255
255
255
255
255
254
255
255
254
255
255
254
255
254
255
255
255
255
254
255
255
252
255
255
255
255
255
253
255
255
254
255
255
255
255
255
255
255
255
255
255
255
255
255
255
255
255
254
254
254
255
255
255
255
255
255
255
255
255
255
255
255
255
255
255
255
255
255
255
255
255
255
255
255
255
255
255
255
255
255
255
255
255
124
195
101
255
255
255
123
195
101
124
195
101
124
195
102
255
255
255
124
195
104
125
194
104
255
255
255
124
194
104
124
194
105
255
255
255
124
195
103
124
195
103
125
196
103
255
255
255
122
194
106
115
190
111
255
255
255
94
172
111
68
150
102
45
128
86
255
255
255
37
123
82
35
124
83
255
255
255
32
124
86
30
124
91
255
255
255
31
122
92
33
121
94
35
120
94
255
255
255
35
122
92
31
121
89
255
255
255
32
121
89
32
121
89
30
121
88
255
255
255
32
122
90
31
121
92
255
255
255
31
122
93
29
122
93
31
122
94
255
255
255
32
121
90
34
121
89
255
255
255
36
122
88
37
125
87
255
255
255
47
136
86
68
153
91
106
183
109
255
255
255
120
195
111
121
195
103
255
255
255
121
195
102
122
195
103
123
195
103
255
255
255
124
195
104
124
195
103
255
255
255
124
195
103
124
195
103
255
255
255
123
196
102
122
196
101
122
196
101
255
255
255
122
196
101
122
196
101
255
255
255
123
195
101
125
194
103
126
193
104
255
255
255
128
192
106
140
201
118
255
255
255
156
213
135
160
216
142
161
215
143
255
255
255
159
215
140
151
210
131
255
255
255
132
195
111
126
193
104
255
255
255
123
195
103
118
195
101
113
195
105
255
255
255
79
163
91
41
128
76
255
255
255
33
124
85
31
123
90
32
122
94
255
255
255
34
122
95
38
120
94
255
255
255
46
116
91
119
165
146
255
255
255
224
244
233
249
254
249
254
254
253
255
255
255
254
255
255
254
254
255
255
255
255
255
253
255
255
254
255
255
254
255
255
255
255
255
255
254
254
255
252
255
255
255
253
255
251
253
255
252
253
255
254
255
255
255
254
255
255
254
255
255
255
255
255
254
255
254
254
255
254
255
255
255
255
254
255
255
253
255
255
254
255
255
255
255
255
255
255
255
255
255
255
255
255
255
255
255
255
255
255
255
255
255
255
255
255
255
255
255
255
255
255
255
255
255
255
255
255
255
255
255
255
255
255
255
255
255
255
255
255
255
255
255
255
255
255
125
194
102
124
195
101
124
195
101
123
195
100
123
196
100
124
195
102
124
194
102
125
194
103
125
194
103
125
194
103
124
194
104
124
194
104
124
195
103
124
195
103
124
195
103
125
196
102
124
195
101
121
194
107
115
190
112
116
191
114
92
169
109
71
149
98
47
128
86
46
125
81
39
121
79
35
123
84
34
122
84
33
124
89
32
124
93
33
124
93
35
121
94
36
120
94
36
120
94
35
119
93
32
120
92
31
121
91
32
122
93
30
123
92
29
122
92
28
121
89
29
122
94
31
122
94
32
122
94
33
123
95
33
122
93
34
122
92
32
121
92
34
120
88
37
121
83
36
121
85
38
121
81
57
138
92
52
136
89
74
154
96
108
184
110
123
194
111
122
194
111
126
195
104
123
195
103
122
195
103
122
195
103
122
195
103
123
195
103
124
195
103
124
195
103
124
195
102
124
195
102
124
195
101
123
196
101
123
196
102
122
196
101
122
196
101
122
196
100
122
196
100
121
197
100
122
197
102
123
196
102
123
196
102
125
195
103
127
193
105
128
193
106
130
193
108
143
203
123
149
208
129
157
214
138
159
215
142
160
215
142
160
214
142
157
213
140
150
208
130
143
202
122
135
195
113
128
193
106
126
194
105
125
194
105
123
196
106
117
193
110
104
184
106
92
171
103
46
131
77
36
125
78
34
124
82
33
122
90
32
121
93
33
122
95
34
122
96
35
121
93
39
119
92
46
120
94
95
148
126
163
199
182
200
226
213
249
255
250
253
254
253
254
254
254
254
254
254
255
253
255
255
253
255
255
253
255
255
253
255
255
254
254
255
255
254
255
255
253
254
255
251
254
255
251
254
255
251
253
255
252
253
254
254
253
255
255
253
254
255
255
255
254
254
255
254
254
255
252
252
253
249
254
254
252
254
254
253
254
254
254
255
254
255
255
255
255
255
255
255
255
255
255
255
255
255
255
255
255
255
255
255
255
255
255
255
255
255
255
255
255
255
255
255
255
255
255
255
255
255
255
255
255
255
255
255
255
255
255
255
255
255
255
255
255
255
255
255
125
194
103
125
194
102
124
195
101
255
255
255
123
196
100
124
195
100
255
255
255
124
194
102
124
194
102
125
194
103
255
255
255
124
195
103
124
195
103
255
255
255
124
195
103
123
195
102
123
195
101
255
255
255
121
195
108
116
190
114
255
255
255
94
169
107
74
151
99
255
255
255
48
125
79
39
122
79
35
122
84
255
255
255
35
124
89
33
121
91
255
255
255
36
121
94
36
120
94
34
119
94
255
255
255
33
121
95
31
123
95
255
255
255
30
123
94
30
123
96
255
255
255
31
122
95
34
123
95
34
123
92
255
255
255
35
123
92
36
122
88
255
255
255
37
121
81
39
121
77
61
142
93
255
255
255
79
157
100
109
185
112
255
255
255
123
195
111
125
194
104
124
195
103
255
255
255
122
195
103
122
195
103
255
255
255
123
195
103
124
195
103
255
255
255
124
195
102
124
195
101
124
195
101
255
255
255
122
196
101
122
196
101
255
255
255
122
196
101
121
196
100
121
196
101
255
255
255
122
196
102
123
194
102
255
255
255
125
193
104
127
192
106
255
255
255
135
197
115
151
209
132
158
214
140
255
255
255
159
215
142
159
215
142
255
255
255
156
212
137
143
201
122
129
192
107
255
255
255
127
193
105
124
193
104
255
255
255
124
195
110
111
186
112
255
255
255
68
149
88
39
126
78
37
125
88
255
255
255
31
120
90
32
120
94
255
255
255
35
123
96
36
120
92
60
127
102
255
255
255
150
191
173
235
250
242
255
255
255
252
255
252
254
254
254
255
254
255
255
255
255
255
253
255
255
253
255
255
255
255
254
254
254
254
255
253
255
255
255
254
255
251
254
255
251
254
255
251
255
255
255
253
254
254
253
254
255
255
255
255
254
253
255
255
254
253
254
254
251
255
255
255
253
254
250
254
254
254
255
255
255
254
254
254
255
255
255
255
255
255
255
255
255
255
255
255
255
255
255
255
255
255
255
255
255
255
255
255
255
255
255
255
255
255
255
255
255
255
255
255
255
255
255
255
255
255
255
255
255
255
255
255
255
255
255
255
255
255
126
193
103
125
194
103
125
194
102
124
195
101
124
195
100
124
195
99
124
195
100
123
196
99
124
195
100
125
194
102
125
194
103
124
195
103
124
195
103
124
195
103
124
195
103
122
195
103
121
195
102
122
196
101
122
195
102
121
195
109
116
191
114
118
193
113
102
177
110
79
155
99
84
160
100
54
131
77
44
126
77
36
123
83
38
124
81
33
121
84
32
120
89
32
121
88
36
122
93
35
121
95
34
119
96
34
121
97
32
123
96
31
124
96
30
123
96
30
123
95
30
122
95
31
122
93
33
121
88
35
121
85
36
123
89
39
124
84
43
126
79
39
123
80
44
125
72
73
153
95
91
170
106
84
163
103
108
185
111
121
195
112
122
195
112
121
193
103
123
194
103
122
195
103
122
195
103
122
195
103
123
195
102
123
195
102
124
195
102
124
195
102
124
195
102
124
195
101
124
195
101
124
195
101
123
195
101
122
196
101
122
196
101
122
196
101
122
196
101
121
196
101
121
196
101
121
196
101
122
195
102
123
193
103
123
193
103
124
192
103
128
192
109
131
194
111
137
199
119
153
212
135
159
215
141
159
215
142
161
217
144
160
216
142
159
215
140
157
214
137
142
201
120
130
192
106
127
191
104
127
192
103
127
192
104
125
193
107
126
193
110
116
188
114
91
168
101
70
151
91
36
124
75
36
125
86
35
124
89
32
122
90
28
120
93
32
122
95
32
123
95
36
121
94
57
125
99
95
150
128
138
179
161
230
248
237
244
253
247
251
255
251
255
255
255
255
255
255
255
254
255
255
254
255
254
254
255
254
254
255
254
254
254
252
255
252
253
255
252
253
255
251
254
255
251
255
255
252
254
255
253
254
254
254
254
253
255
254
253
255
255
252
255
255
253
255
255
255
254
254
255
253
255
255
254
255
255
254
254
254
254
255
255
255
255
255
255
255
255
255
255
255
255
255
255
255
255
255
255
255
255
255
255
255
255
255
255
255
255
255
255
255
255
255
255
255
255
255
255
255
255
255
255
255
255
255
255
255
255
255
255
255
255
255
255
255
255
255
126
194
104
255
255
255
125
194
103
125
194
102
124
195
99
255
255
255
123
195
99
123
196
99
255
255
255
125
194
100
124
195
102
255
255
255
124
195
103
124
195
103
123
195
103
255
255
255
121
194
102
122
195
102
255
255
255
122
195
103
121
196
108
119
194
112
255
255
255
106
181
110
90
165
100
255
255
255
59
135
77
49
130
77
255
255
255
37
123
78
32
121
81
33
123
87
255
255
255
35
122
92
33
121
92
255
255
255
34
123
96
32
123
95
31
123
93
255
255
255
30
122
92
32
122
87
255
255
255
34
120
82
38
122
79
48
129
79
255
255
255
49
130
71
80
159
96
255
255
255
99
178
108
109
188
109
255
255
255
119
195
111
121
195
104
122
194
103
255
255
255
122
195
103
122
195
103
255
255
255
123
195
102
124
195
101
124
195
101
255
255
255
124
195
101
124
195
101
255
255
255
124
195
101
123
195
101
255
255
255
122
196
102
122
196
101
121
196
101
255
255
255
121
195
101
121
195
102
255
255
255
123
195
104
124
193
104
127
192
107
255
255
255
133
195
115
148
207
130
255
255
255
158
215
140
161
217
143
160
216
142
255
255
255
160
216
140
149
208
128
255
255
255
134
195
111
128
192
103
255
255
255
127
193
103
127
192
106
121
191
112
255
255
255
98
176
108
49
136
81
255
255
255
33
122
78
33
124
88
31
122
92
255
255
255
28
121
94
33
122
94
255
255
255
41
121
93
82
138
115
255
255
255
186
216
201
244
254
246
254
255
253
255
255
255
255
255
255
255
255
255
255
255
255
254
255
255
254
254
255
252
255
253
255
255
255
251
255
251
253
255
251
255
255
255
254
255
251
255
255
253
255
254
255
255
255
255
255
252
255
255
252
255
255
255
255
255
253
255
255
255
255
255
255
255
255
255
255
255
255
255
255
255
255
255
255
255
255
255
255
255
255
255
255
255
255
255
255
255
255
255
255
255
255
255
255
255
255
255
255
255
255
255
255
255
255
255
255
255
255
255
255
255
255
255
255
255
255
255
255
255
255
255
255
255
255
255
255
125
194
104
125
194
105
126
193
105
125
194
105
124
194
102
124
195
99
124
195
99
124
196
98
124
196
98
123
196
98
124
195
100
124
195
102
124
195
102
124
195
103
122
194
102
121
194
102
123
195
103
123
195
103
122
195
103
122
195
102
121
197
101
121
197
105
119
195
109
118
194
107
115
189
111
96
170
101
102
175
104
78
153
87
56
136
80
65
145
86
41
129
77
40
131
83
33
124
86
32
125
80
33
124
82
33
122
88
34
123
84
34
122
84
34
123
83
32
124
89
36
124
82
42
128
82
37
124
82
46
130
79
61
142
82
75
153
84
58
138
74
93
171
98
113
190
113
107
185
111
115
194
108
118
196
103
118
195
107
122
198
103
123
197
103
122
195
102
122
195
103
122
195
103
123
195
103
123
195
103
124
195
102
124
195
101
124
195
101
124
195
101
125
194
101
125
194
102
124
195
101
124
195
102
124
195
102
123
195
102
123
195
103
122
195
103
121
195
102
121
195
101
121
194
102
123
195
103
123
195
104
126
196
106
125
192
104
129
192
109
131
194
112
136
198
117
149
209
132
154
213
136
159
216
140
160
216
142
159
215
140
159
215
139
158
216
137
149
209
127
142
202
119
134
195
110
126
192
102
127
193
102
126
194
101
124
194
104
119
193
112
110
186
111
94
177
108
51
141
86
39
129
80
33
124
80
33
122
88
32
122
94
31
122
94
31
122
95
31
124
94
34
121
93
36
121
91
82
144
119
137
181
162
185
216
201
237
248
240
253
253
252
254
254
254
254
253
254
255
255
255
255
255
255
254
255
255
252
255
255
251
255
254
251
255
252
250
255
251
250
255
250
253
255
251
253
255
251
254
255
253
255
255
255
255
254
255
254
254
255
255
253
255
255
253
255
255
253
255
254
254
254
255
255
255
255
255
255
255
255
255
255
255
255
255
255
255
255
255
255
255
255
255
255
255
255
255
255
255
255
255
255
255
255
255
255
255
255
255
255
255
255
255
255
255
255
255
255
255
255
255
255
255
255
255
255
255
255
255
255
255
255
255
255
255
255
255
255
124
195
103
126
194
104
126
193
105
255
255
255
124
193
104
124
194
102
255
255
255
124
195
99
123
196
98
122
196
98
255
255
255
124
195
100
124
195
102
255
255
255
124
195
103
123
195
103
124
195
103
255
255
255
123
195
103
122
196
102
255
255
255
122
198
100
121
197
103
255
255
255
119
194
106
120
193
114
108
181
107
255
255
255
95
170
100
77
158
95
255
255
255
51
141
84
47
139
85
39
132
80
255
255
255
38
127
79
43
131
84
255
255
255
34
121
75
46
132
83
255
255
255
49
134
83
59
142
87
73
154
91
255
255
255
93
170
98
101
178
101
255
255
255
117
194
113
118
195
108
119
196
103
255
255
255
121
197
99
122
197
102
255
255
255
122
196
101
122
195
102
123
195
103
255
255
255
124
195
103
124
195
102
255
255
255
124
195
101
125
194
101
255
255
255
125
194
102
124
195
103
124
195
103
255
255
255
124
195
103
122
195
103
255
255
255
122
195
103
121
194
102
122
195
103
255
255
255
125
196
104
125
193
104
255
255
255
125
191
105
132
194
112
255
255
255
145
205
126
157
215
139
160
217
142
255
255
255
160
216
141
159
216
138
255
255
255
154
214
133
141
203
118
128
194
105
255
255
255
125
194
101
125
195
102
255
255
255
121
194
105
112
192
114
255
255
255
72
159
97
33
125
77
31
121
84
255
255
255
33
123
92
33
122
96
255
255
255
31
123
95
34
127
96
54
129
101
255
255
255
124
173
152
216
235
224
255
255
255
247
251
247
253
251
252
255
254
254
255
255
255
255
255
255
253
255
255
255
255
255
252
255
254
250
255
252
255
255
255
250
255
251
251
255
250
253
255
252
255
255
255
254
255
254
254
255
255
255
255
255
254
254
255
254
254
255
254
254
255
255
255
255
254
254
254
255
255
255
255
255
255
255
255
255
255
255
255
255
255
255
255
255
255
255
255
255
255
255
255
255
255
255
255
255
255
255
255
255
255
255
255
255
255
255
255
255
255
255
255
255
255
255
255
255
255
255
255
255
255
255
255
255
255
255
255
255
255
255
125
194
103
255
255
255
126
193
104
124
193
104
124
193
104
255
255
255
124
194
102
124
195
99
255
255
255
123
196
98
122
196
98
255
255
255
124
195
100
124
195
102
124
195
103
255
255
255
124
195
103
124
195
103
255
255
255
123
195
102
122
197
101
121
197
100
255
255
255
120
196
103
120
196
109
255
255
255
122
195
114
113
186
108
255
255
255
109
183
110
89
170
103
71
161
97
255
255
255
59
151
89
55
146
86
255
255
255
56
144
87
56
142
87
60
144
87
255
255
255
65
148
90
77
159
98
255
255
255
86
166
99
108
185
109
110
185
105
255
255
255
119
195
111
119
196
108
255
255
255
119
197
103
120
196
97
255
255
255
121
196
100
122
196
101
122
196
101
255
255
255
123
195
103
124
195
103
255
255
255
124
195
103
124
195
102
125
194
102
255
255
255
125
194
102
125
194
103
255
255
255
124
194
104
124
194
104
255
255
255
123
195
103
122
195
103
122
195
103
255
255
255
122
195
103
124
196
104
255
255
255
125
195
105
125
192
104
129
193
109
255
255
255
140
201
121
155
214
137
255
255
255
160
217
141
161
217
142
158
215
138
255
255
255
157
216
136
149
211
128
255
255
255
132
197
110
125
194
102
255
255
255
126
197
102
123
195
102
117
193
107
255
255
255
92
176
106
50
139
85
255
255
255
29
120
80
32
121
89
35
124
96
255
255
255
32
122
95
32
123
94
255
255
255
37
121
92
83
145
120
255
255
255
183
213
198
235
245
238
253
254
252
255
255
255
254
253
254
255
255
255
255
255
255
254
255
255
253
255
255
251
255
254
255
255
255
250
255
252
250
255
251
255
255
255
252
255
250
254
255
253
254
255
255
255
255
255
254
255
255
255
255
255
255
255
255
255
255
255
254
254
254
255
255
255
254
254
254
255
255
255
255
255
255
255
255
255
255
255
255
255
255
255
255
255
255
255
255
255
255
255
255
255
255
255
255
255
255
255
255
255
255
255
255
255
255
255
255
255
255
255
255
255
255
255
255
255
255
255
255
255
255
255
255
255
255
255
255
125
195
103
125
194
103
123
194
102
124
193
104
125
192
105
124
193
104
124
193
104
124
194
102
124
195
99
124
195
99
123
196
98
122
196
98
122
196
99
124
195
102
124
195
103
124
195
103
124
195
103
124
195
103
124
195
103
124
195
103
123
196
101
122
196
101
121
197
100
120
196
101
120
196
106
121
196
110
122
196
109
122
193
108
118
190
109
123
192
110
122
195
115
109
188
111
90
178
107
106
192
113
96
182
104
77
165
96
99
183
107
99
181
106
101
180
105
85
166
99
110
188
113
111
188
111
100
179
107
121
196
114
119
193
108
120
193
105
121
195
109
120
194
106
121
196
105
120
196
104
121
197
101
121
196
99
121
196
99
122
196
101
122
196
101
123
196
102
123
196
102
124
195
103
124
194
104
124
195
104
124
194
104
125
194
103
125
194
103
125
194
103
125
194
103
125
194
104
124
194
104
124
194
106
124
194
105
123
194
104
123
195
104
122
195
103
122
195
103
122
195
103
122
195
103
124
195
103
124
195
104
125
194
104
127
193
106
133
196
113
136
199
117
145
206
128
156
213
137
158
215
139
160
216
141
160
217
140
158
215
138
157
215
137
157
217
136
143
207
123
137
202
116
127
195
107
125
196
103
126
196
102
126
196
102
123
193
100
119
193
107
110
189
109
100
182
109
52
138
85
39
128
82
33
121
82
36
123
93
35
122
95
33
122
94
31
118
91
33
120
92
34
121
92
41
121
93
84
138
116
136
178
159
179
207
194
236
245
238
251
252
250
254
253
253
254
252
253
255
254
255
255
255
255
254
254
255
254
255
255
253
255
255
251
255
254
252
255
254
253
254
252
252
255
251
254
254
251
254
254
252
254
255
254
254
255
255
255
255
255
255
255
255
255
255
255
255
255
255
255
255
255
254
254
254
255
255
255
255
255
255
255
255
255
255
255
255
255
255
255
255
255
255
255
255
255
255
255
255
255
255
255
255
255
255
255
255
255
255
255
255
255
255
255
255
255
255
255
255
255
255
255
255
255
255
255
255
255
255
255
255
255
255
255
255
255
255
255
125
196
102
125
196
103
124
193
102
255
255
255
125
192
104
125
192
105
255
255
255
124
193
104
124
193
102
124
195
99
255
255
255
123
196
99
123
195
101
255
255
255
124
195
103
124
195
103
124
195
103
255
255
255
124
195
103
124
195
103
255
255
255
123
196
102
121
196
102
255
255
255
120
196
103
121
196
107
122
194
107
255
255
255
123
192
106
125
193
108
255
255
255
123
195
111
117
195
112
114
196
112
255
255
255
112
194
109
113
193
109
255
255
255
115
192
109
116
192
109
255
255
255
120
195
113
122
197
111
120
194
108
255
255
255
120
193
103
121
194
105
255
255
255
121
195
105
122
196
103
121
196
100
255
255
255
122
196
101
122
196
101
255
255
255
123
196
102
124
195
103
124
194
104
255
255
255
124
194
105
125
194
104
255
255
255
125
194
104
125
194
104
255
255
255
125
194
104
124
194
106
124
194
106
255
255
255
124
194
105
123
195
105
255
255
255
122
195
103
122
195
103
123
195
103
255
255
255
125
195
103
126
193
105
255
255
255
129
193
109
139
200
121
255
255
255
153
212
135
159
216
141
161
217
141
255
255
255
159
216
139
158
216
137
255
255
255
150
212
130
132
199
113
125
195
105
255
255
255
126
196
103
124
194
101
255
255
255
120
191
102
115
192
112
255
255
255
72
155
93
39
125
81
35
121
88
255
255
255
37
122
95
33
118
92
255
255
255
34
121
93
36
120
92
57
126
100
255
255
255
136
175
158
219
236
226
255
255
255
245
251
246
253
252
252
254
253
255
255
255
255
253
252
255
252
252
255
255
255
255
254
255
255
253
255
255
255
255
255
254
255
254
254
254
252
254
254
252
255
255
255
254
255
254
255
255
255
255
255
255
255
255
255
255
255
255
255
255
255
255
255
255
255
255
255
255
255
255
255
255
255
255
255
255
255
255
255
255
255
255
255
255
255
255
255
255
255
255
255
255
255
255
255
255
255
255
255
255
255
255
255
255
255
255
255
255
255
255
255
255
255
255
255
255
255
255
255
255
255
255
255
255
255
255
255
255
255
255
122
196
101
126
197
103
125
195
102
124
193
102
125
195
103
125
193
105
124
192
105
125
191
106
125
193
105
125
194
102
124
195
99
124
195
101
124
195
102
124
195
102
124
195
103
124
195
103
124
195
103
124
195
103
124
195
103
124
195
103
124
195
103
124
195
103
123
195
103
121
195
103
122
195
104
123
195
106
124
194
106
123
193
105
125
194
106
126
193
105
125
193
106
124
192
103
124
196
105
122
197
105
119
198
108
120
196
101
123
198
104
122
197
108
122
195
102
122
194
103
121
195
108
122
194
104
122
194
103
121
193
103
120
193
103
121
194
104
122
195
104
121
195
104
122
195
103
123
195
102
122
194
100
121
195
100
122
194
100
123
195
101
123
196
102
124
195
103
124
195
103
124
194
104
124
194
105
125
194
105
125
194
105
125
194
105
125
194
105
125
194
105
125
193
105
125
193
106
124
194
106
124
194
106
124
194
106
124
195
106
122
195
104
122
195
104
121
194
102
123
195
101
124
195
102
124
195
103
125
194
103
128
193
106
129
193
108
131
194
111
147
207
128
150
210
132
159
217
140
159
216
141
161
216
141
160
217
141
159
215
139
156
215
138
153
214
134
148
211
129
129
196
110
125
194
105
125
195
105
126
195
106
124
193
105
122
192
103
120
191
106
109
186
112
91
171
102
68
151
93
38
123
81
36
120
89
36
121
92
38
120
95
35
118
95
35
120
94
35
121
95
35
122
93
57
129
103
91
148
126
135
181
162
213
233
223
230
243
236
240
249
244
254
254
254
254
253
255
254
253
255
253
253
255
252
252
255
253
253
255
254
255
255
255
255
255
254
255
255
255
255
255
255
255
254
255
255
254
255
254
253
255
255
255
255
255
255
255
255
255
255
255
255
255
255
255
255
255
255
255
255
255
255
255
255
255
255
255
255
255
255
255
255
255
255
255
255
255
255
255
255
255
255
255
255
255
255
255
255
255
255
255
255
255
255
255
255
255
255
255
255
255
255
255
255
255
255
255
255
255
255
255
255
255
255
255
255
255
255
255
255
255
255
255
255
255
255
255
123
196
102
255
255
255
125
197
103
124
195
102
125
196
104
255
255
255
126
193
106
125
192
106
255
255
255
125
194
105
124
194
103
255
255
255
124
195
103
124
195
103
124
195
103
255
255
255
124
195
103
124
195
103
255
255
255
124
195
103
124
195
103
124
195
103
255
255
255
123
195
103
123
195
105
255
255
255
125
195
106
124
193
105
255
255
255
126
194
106
125
192
102
125
193
102
255
255
255
124
195
103
121
195
101
255
255
255
121
195
98
123
195
99
123
194
101
255
255
255
122
193
101
123
194
103
255
255
255
122
193
102
121
194
104
122
195
105
255
255
255
122
195
103
122
194
101
255
255
255
123
194
100
123
194
100
255
255
255
123
194
101
124
195
103
124
195
103
255
255
255
124
195
103
125
194
105
255
255
255
125
194
105
125
194
105
125
194
105
255
255
255
125
193
106
125
193
106
255
255
255
124
194
106
125
194
106
255
255
255
123
195
104
121
194
102
122
194
101
255
255
255
124
195
101
125
194
102
255
255
255
126
193
104
129
193
109
144
205
124
255
255
255
159
217
140
159
215
140
255
255
255
160
215
140
160
215
140
157
215
139
255
255
255
153
214
136
136
201
118
255
255
255
124
192
105
127
195
107
255
255
255
125
194
106
122
192
107
116
192
114
255
255
255
90
172
107
46
131
82
255
255
255
36
121
85
38
121
94
37
119
96
255
255
255
34
119
94
33
122
93
255
255
255
42
124
96
83
146
123
255
255
255
179
213
199
226
240
233
248
252
249
255
255
255
253
253
253
254
253
254
255
255
255
254
254
255
253
254
255
255
255
255
255
255
255
255
255
255
255
255
255
255
255
255
255
255
255
255
255
255
255
255
255
255
255
255
255
255
255
255
255
255
255
255
255
255
255
255
255
255
255
255
255
255
255
255
255
255
255
255
255
255
255
255
255
255
255
255
255
255
255
255
255
255
255
255
255
255
255
255
255
255
255
255
255
255
255
255
255
255
255
255
255
255
255
255
255
255
255
255
255
255
255
255
255
255
255
255
255
255
255
255
255
255
255
255
255
121
195
103
123
196
103
123
196
101
255
255
255
123
195
102
126
195
106
255
255
255
125
192
106
124
192
105
124
194
105
255
255
255
124
194
104
124
195
103
255
255
255
124
195
103
124
195
103
124
195
103
255
255
255
124
195
103
124
195
103
255
255
255
124
195
103
124
195
103
255
255
255
123
195
104
124
194
105
124
193
104
255
255
255
125
193
105
126
194
106
255
255
255
126
193
102
127
195
102
122
194
101
255
255
255
121
195
99
123
196
97
255
255
255
123
195
100
124
194
103
255
255
255
124
194
103
124
194
103
122
195
104
255
255
255
122
195
105
123
196
106
255
255
255
122
194
102
123
194
100
123
194
100
255
255
255
123
194
101
123
194
102
255
255
255
124
195
103
124
195
103
125
194
104
255
255
255
125
194
105
125
194
105
255
255
255
125
194
105
125
194
105
255
255
255
125
193
106
124
193
106
124
194
105
255
255
255
124
194
104
121
194
102
255
255
255
122
194
101
124
194
101
125
194
101
255
255
255
126
193
103
127
192
106
255
255
255
141
202
120
155
214
135
255
255
255
159
215
140
160
215
140
161
215
140
255
255
255
159
215
140
156
215
138
255
255
255
143
207
126
128
195
110
127
195
107
255
255
255
125
194
106
123
193
106
255
255
255
121
195
114
104
184
114
255
255
255
58
143
86
39
124
83
37
122
92
255
255
255
38
120
96
35
119
95
255
255
255
32
120
93
35
122
93
53
127
102
255
255
255
143
189
172
215
237
228
255
255
255
239
247
243
251
252
251
251
250
250
255
255
255
254
254
254
254
254
255
255
255
255
254
254
255
255
255
255
255
255
255
255
255
255
255
255
255
255
255
255
255
255
255
255
255
255
255
255
255
255
255
255
255
255
255
255
255
255
255
255
255
255
255
255
255
255
255
255
255
255
255
255
255
255
255
255
255
255
255
255
255
255
255
255
255
255
255
255
255
255
255
255
255
255
255
255
255
255
255
255
255
255
255
255
255
255
255
255
255
255
255
255
255
255
255
255
255
255
255
255
255
255
255
255
255
255
255
255
255
255
120
194
105
121
195
104
121
195
102
121
195
101
122
194
101
123
194
103
125
194
105
123
193
104
124
193
105
124
194
105
124
194
105
124
195
103
124
195
103
124
195
103
124
195
103
124
195
103
124
195
103
124
195
103
124
195
103
124
195
103
124
195
103
124
195
103
124
195
103
124
195
103
124
195
103
124
195
103
124
194
103
123
192
103
124
193
104
125
194
105
126
195
105
126
195
104
125
195
103
123
195
102
121
195
100
122
197
102
122
196
102
124
196
100
123
196
104
125
195
104
125
195
104
126
194
105
125
193
104
123
194
105
122
195
105
122
195
105
124
195
104
124
195
104
124
193
101
124
193
100
123
194
101
123
194
101
123
194
102
123
194
102
124
195
103
124
195
103
125
194
104
125
194
105
125
194
105
125
194
105
125
194
104
125
194
104
125
194
103
125
194
103
125
194
104
125
194
103
123
193
104
124
194
104
124
194
104
124
195
103
123
194
101
122
194
101
124
194
100
125
195
101
126
193
102
126
193
102
127
191
104
134
196
112
137
198
116
147
206
126
157
213
137
158
215
139
160
215
141
161
214
142
162
216
142
161
215
142
161
216
143
157
216
139
152
213
134
142
206
125
126
193
107
125
194
105
125
194
106
123
193
104
122
194
107
121
195
110
119
195
114
104
185
116
82
165
102
60
145
91
36
122
84
35
121
91
36
121
93
35
120
93
33
121
93
33
121
94
32
121
93
35
119
93
70
136
115
102
159
139
150
191
177
213
233
225
227
241
234
238
246
241
254
255
252
254
252
252
253
251
252
255
253
254
254
253
255
254
253
255
255
253
255
255
254
255
255
255
255
255
255
255
255
255
255
255
255
255
255
255
255
255
255
255
254
254
254
255
255
255
254
254
254
255
255
255
255
255
255
255
255
255
255
255
255
255
255
255
255
255
255
255
255
255
255
255
255
255
255
255
255
255
255
255
255
255
255
255
255
255
255
255
255
255
255
255
255
255
255
255
255
255
255
255
255
255
255
255
255
255
255
255
255
255
255
255
255
255
255
255
255
255
255
255
255
255
255
255
120
194
106
255
255
255
121
195
104
122
195
102
122
194
102
255
255
255
123
193
103
124
194
105
255
255
255
124
194
105
124
195
103
255
255
255
124
195
103
124
195
103
124
195
103
255
255
255
124
195
103
124
195
103
255
255
255
124
195
103
124
195
103
124
195
103
255
255
255
124
195
103
124
195
103
255
255
255
124
195
103
124
194
103
255
255
255
124
193
104
125
194
104
125
194
103
255
255
255
123
194
102
122
195
102
255
255
255
121
197
104
121
195
104
124
194
104
255
255
255
126
194
105
127
192
104
255
255
255
125
193
104
124
194
105
124
194
104
255
255
255
124
193
102
124
193
100
255
255
255
124
193
101
123
194
102
255
255
255
123
194
102
124
194
103
124
194
104
255
255
255
125
194
105
124
194
105
255
255
255
124
194
104
124
194
103
124
195
102
255
255
255
124
194
102
124
194
102
255
255
255
124
194
103
125
195
102
255
255
255
124
195
101
124
195
100
125
195
100
255
255
255
126
194
102
126
192
103
255
255
255
130
193
109
142
202
121
155
212
136
255
255
255
160
215
141
161
215
142
255
255
255
162
216
142
162
216
143
158
215
140
255
255
255
148
210
131
128
195
111
255
255
255
124
193
104
124
194
103
255
255
255
124
195
104
121
195
110
114
192
118
255
255
255
78
161
101
39
125
81
255
255
255
36
122
88
34
121
92
33
121
91
255
255
255
32
121
92
33
120
92
255
255
255
43
118
95
108
161
144
255
255
255
195
224
214
228
241
234
248
251
248
255
255
255
255
254
252
255
253
253
255
255
255
255
254
255
254
253
255
255
254
255
255
255
255
255
254
255
255
255
255
255
255
255
255
255
255
255
255
255
255
255
255
255
255
255
254
254
254
255
255
255
255
255
255
255
255
255
255
255
255
255
255
255
255
255
255
255
255
255
255
255
255
255
255
255
255
255
255
255
255
255
255
255
255
255
255
255
255
255
255
255
255
255
255
255
255
255
255
255
255
255
255
255
255
255
255
255
255
255
255
255
255
255
255
255
255
255
255
255
255
255
255
255
255
255
255
118
192
110
120
194
107
120
194
107
122
195
104
123
195
103
123
194
102
124
195
104
124
194
105
124
194
105
123
193
103
124
194
103
124
195
103
124
195
103
124
195
103
124
195
103
124
195
103
124
195
103
124
195
103
124
195
103
124
195
103
124
195
103
124
195
103
124
195
103
124
195
103
124
195
103
124
195
103
124
195
103
124
195
103
124
194
103
124
194
103
126
195
105
126
194
103
123
193
102
122
192
100
122
195
103
121
196
104
121
196
106
119
193
104
123
193
104
126
193
104
130
192
105
129
190
104
127
191
104
127
191
104
124
193
103
124
193
102
125
194
103
126
195
104
124
194
102
124
193
101
123
194
102
123
194
102
123
194
102
123
194
102
123
193
103
123
194
105
124
194
105
124
194
105
124
194
104
124
194
104
124
195
103
124
195
102
124
195
100
124
195
100
123
194
99
124
195
100
124
195
101
125
196
101
124
195
100
124
195
100
124
195
99
126
196
100
126
195
100
126
195
101
127
194
101
128
192
104
129
192
106
135
196
113
151
210
131
159
215
140
159
215
141
160
216
143
162
216
142
162
216
142
163
217
142
160
216
141
154
212
136
150
211
133
139
204
122
127
196
108
124
194
105
124
194
102
124
194
100
124
195
102
124
195
102
121
194
108
107
186
113
94
176
110
69
154
97
39
125
82
37
123
85
35
122
88
34
124
89
32
122
89
32
122
90
31
122
90
34
121
94
38
120
95
51
125
104
127
180
165
165
205
193
199
227
219
227
237
233
246
250
247
252
253
250
254
254
252
255
253
252
255
253
254
255
254
254
255
253
254
255
254
255
255
254
255
254
254
254
254
254
254
255
255
255
255
255
255
255
255
255
255
255
255
255
255
255
255
255
255
255
255
255
255
255
255
255
255
255
255
255
255
255
255
255
255
255
255
255
255
255
255
255
255
255
255
255
255
255
255
255
255
255
255
255
255
255
255
255
255
255
255
255
255
255
255
255
255
255
255
255
255
255
255
255
255
255
255
255
255
255
255
255
255
255
255
255
255
255
255
255
255
255
255
255
255
255
255
111
185
110
119
193
112
120
194
107
255
255
255
122
195
105
124
195
105
255
255
255
124
194
105
122
192
103
123
193
104
255
255
255
124
195
104
124
195
103
255
255
255
124
195
103
124
195
103
124
195
103
255
255
255
124
195
103
124
195
103
255
255
255
124
195
103
124
195
103
255
255
255
124
195
103
124
195
103
124
195
103
255
255
255
124
195
103
125
195
104
255
255
255
127
196
105
125
193
101
125
193
101
255
255
255
124
197
105
121
195
104
255
255
255
121
193
104
129
194
105
255
255
255
131
191
105
129
190
104
126
191
103
255
255
255
124
192
101
125
194
103
255
255
255
125
195
103
123
194
102
123
194
102
255
255
255
123
194
102
122
194
103
255
255
255
122
193
104
123
194
105
124
194
104
255
255
255
124
195
103
124
195
103
255
255
255
124
195
100
123
194
98
255
255
255
124
195
98
125
196
99
124
195
100
255
255
255
124
195
99
125
195
99
255
255
255
126
195
100
127
194
101
128
192
103
255
255
255
133
194
110
149
208
130
255
255
255
158
215
139
160
216
142
255
255
255
160
216
142
162
216
142
161
216
141
255
255
255
157
214
139
146
209
129
255
255
255
132
199
113
124
194
103
126
195
100
255
255
255
125
195
99
123
196
105
255
255
255
115
192
112
90
173
109
255
255
255
48
134
85
35
121
84
35
122
88
255
255
255
32
123
89
31
122
89
255
255
255
33
122
93
40
122
98
86
148
131
255
255
255
174
212
201
217
233
228
255
255
255
237
243
239
252
253
250
255
254
252
255
255
255
255
253
252
255
253
254
255
255
255
255
254
254
254
254
254
255
255
255
254
254
254
254
254
254
255
255
255
255
255
255
255
255
255
255
255
255
255
255
255
255
255
255
255
255
255
255
255
255
255
255
255
255
255
255
255
255
255
255
255
255
255
255
255
255
255
255
255
255
255
255
255
255
255
255
255
255
255
255
255
255
255
255
255
255
255
255
255
255
255
255
255
255
255
255
255
255
255
255
255
255
255
255
255
255
255
255
255
255
255
255
255
255
255
255
255
255
255
113
187
113
255
255
255
120
194
112
120
194
107
123
195
105
255
255
255
124
194
105
122
192
103
255
255
255
122
192
103
125
195
106
255
255
255
124
195
104
124
195
103
124
195
103
255
255
255
124
195
103
124
195
103
255
255
255
124
195
103
124
195
103
124
195
103
255
255
255
124
195
103
124
195
103
255
255
255
124
195
103
124
195
103
255
255
255
124
195
103
125
195
104
127
195
102
255
255
255
126
193
100
128
196
103
255
255
255
123
195
104
121
193
104
128
195
105
255
255
255
131
193
105
130
190
104
255
255
255
128
191
103
125
192
102
124
193
102
255
255
255
124
194
102
123
194
102
255
255
255
123
194
102
124
195
103
255
255
255
122
194
104
122
194
104
121
194
104
255
255
255
123
194
104
124
195
103
255
255
255
124
195
103
124
195
102
123
194
99
255
255
255
123
195
98
124
196
97
255
255
255
124
196
99
124
195
99
255
255
255
125
195
99
126
194
100
126
193
100
255
255
255
128
192
103
133
194
109
255
255
255
148
207
128
157
214
138
160
216
141
255
255
255
159
216
141
160
215
140
255
255
255
162
216
141
159
215
140
153
213
136
255
255
255
137
202
119
126
195
105
255
255
255
127
195
100
127
195
98
255
255
255
126
197
102
119
194
108
108
189
115
255
255
255
62
145
90
34
120
78
255
255
255
36
121
87
35
123
90
30
121
88
255
255
255
31
122
92
36
122
96
255
255
255
53
124
105
135
182
169
255
255
255
209
232
226
229
238
234
247
248
245
255
255
255
254
253
250
255
253
251
255
255
255
255
254
253
255
254
254
255
254
255
255
255
255
254
254
254
254
254
254
255
255
255
255
255
255
255
255
255
255
255
255
255
255
255
255
255
255
255
255
255
255
255
255
255
255
255
255
255
255
255
255
255
255
255
255
255
255
255
255
255
255
255
255
255
255
255
255
255
255
255
255
255
255
255
255
255
255
255
255
255
255
255
255
255
255
255
255
255
255
255
255
255
255
255
255
255
255
255
255
255
255
255
255
255
255
255
255
255
255
255
255
255
255
255
255
89
165
99
117
191
115
121
194
116
122
195
109
122
194
105
123
194
105
123
193
104
123
193
104
122
192
103
122
192
103
123
193
104
124
194
105
124
194
104
124
195
103
124
195
103
124
195
103
124
195
103
124
195
103
124
195
103
124
195
103
124
195
103
124
195
103
124
195
103
124
195
103
124
195
103
124
195
103
124
195
103
123
195
103
123
195
103
122
195
103
123
195
103
125
194
101
126
193
100
126
191
97
127
194
101
127
196
103
125
195
103
123
193
102
127
194
103
130
194
104
129
192
101
128
192
103
129
192
104
127
194
104
125
194
103
124
193
102
123
193
102
122
193
101
122
193
101
122
193
101
122
193
101
122
195
104
122
195
104
122
195
105
122
195
105
122
195
104
121
194
104
122
195
103
122
195
103
123
195
103
122
195
102
122
196
101
122
196
100
123
195
99
122
196
99
124
196
99
125
196
99
125
195
100
125
194
100
125
194
100
125
193
101
126
193
100
128
193
104
128
192
103
133
195
109
146
206
124
147
207
126
155
213
135
159
215
139
159
216
140
159
216
140
159
216
139
161
216
140
161
216
141
162
215
141
160
214
140
147
206
127
142
205
124
131
195
110
127
193
100
126
193
99
126
193
95
126
193
95
125
194
98
124
194
100
116
191
106
95
175
105
80
161
98
57
138
86
37
121
83
35
120
84
36
121
89
40
126
95
32
122
92
30
122
91
30
122
94
38
121
97
44
122
99
73
137
120
168
206
195
193
223
215
213
231
226
231
235
234
247
247
245
251
251
247
254
253
249
255
253
249
255
253
251
255
253
252
255
254
255
255
255
255
255
255
255
255
255
255
254
254
254
254
254
254
254
254
254
255
255
255
255
255
255
255
255
255
255
255
255
255
255
255
255
255
255
255
255
255
255
255
255
255
255
255
255
255
255
255
255
255
255
255
255
255
255
255
255
255
255
255
255
255
255
255
255
255
255
255
255
255
255
255
255
255
255
255
255
255
255
255
255
255
255
255
255
255
255
255
255
255
255
255
255
255
255
255
255
255
255
255
255
255
255
255
255
255
255
64
144
87
100
175
105
122
194
113
255
255
255
122
194
107
123
194
105
255
255
255
124
194
105
123
193
104
123
193
104
255
255
255
124
194
104
123
194
103
255
255
255
123
194
102
124
195
103
124
195
103
255
255
255
124
195
103
124
195
103
255
255
255
124
195
103
124
195
103
255
255
255
124
195
103
124
195
103
124
195
103
255
255
255
123
195
103
122
195
103
255
255
255
123
195
102
125
194
100
126
193
100
255
255
255
125
195
102
121
193
102
255
255
255
124
194
102
128
194
102
255
255
255
127
192
102
127
193
103
126
195
104
255
255
255
124
194
103
123
194
102
255
255
255
123
194
102
123
194
102
122
194
102
255
255
255
122
195
104
122
195
105
255
255
255
122
195
104
122
195
103
122
195
103
255
255
255
122
195
102
121
195
101
255
255
255
122
196
100
122
196
99
255
255
255
124
196
100
125
195
100
124
194
100
255
255
255
125
193
101
126
192
101
255
255
255
128
193
104
133
195
110
145
205
123
255
255
255
154
213
134
159
215
139
255
255
255
159
216
140
159
216
139
255
255
255
160
215
139
163
215
141
163
214
141
255
255
255
151
207
131
136
197
115
255
255
255
128
192
103
126
192
96
128
195
97
255
255
255
126
194
98
122
195
104
255
255
255
109
187
111
74
155
97
255
255
255
43
125
85
36
120
88
38
123
93
255
255
255
34
123
93
30
121
93
255
255
255
35
120
95
55
126
106
117
165
153
255
255
255
199
224
218
226
234
232
255
255
255
241
242
242
251
251
248
255
254
250
255
255
255
255
253
251
255
254
253
255
255
255
255
255
255
255
255
255
255
255
255
255
255
255
254
254
254
255
255
255
255
255
255
255
255
255
255
255
255
255
255
255
255
255
255
255
255
255
255
255
255
255
255
255
255
255
255
255
255
255
255
255
255
255
255
255
255
255
255
255
255
255
255
255
255
255
255
255
255
255
255
255
255
255
255
255
255
255
255
255
255
255
255
255
255
255
255
255
255
255
255
255
255
255
255
255
255
255
255
255
255
255
255
255
255
255
255
255
255
255
50
133
79
99
175
102
122
194
111
122
194
109
121
194
106
123
194
105
125
195
106
126
196
107
123
193
104
123
193
104
123
193
104
125
196
105
124
195
103
122
193
101
121
192
100
124
195
103
124
195
103
124
195
103
124
195
103
124
195
103
124
195
103
124
195
103
124
195
103
124
195
103
124
195
103
124
195
103
124
195
103
124
195
103
124
195
103
123
195
103
122
195
103
122
195
103
123
195
102
124
195
102
125
194
101
121
194
103
120
194
104
121
194
103
123
197
105
124
194
102
126
193
101
124
193
102
125
195
103
125
196
104
125
195
104
124
195
103
124
195
103
123
194
102
124
195
103
123
195
103
122
195
103
122
195
103
122
195
103
122
195
104
122
195
104
121
196
103
121
196
103
121
195
103
122
195
102
121
195
101
122
195
101
122
196
101
123
197
101
123
195
99
123
196
99
125
195
100
124
194
100
125
193
102
125
193
101
126
192
104
128
193
106
128
193
105
132
196
111
142
204
122
152
211
132
153
212
133
158
216
139
159
217
140
159
217
140
160
218
141
159
216
139
160
216
139
161
215
140
166
214
142
160
211
137
156
209
134
147
203
126
132
194
111
130
193
107
126
192
101
127
193
97
127
195
99
127
195
98
125
195
100
121
195
110
116
192
111
101
180
111
56
138
91
49
130
87
38
121
87
34
118
92
33
121
92
34
122
93
31
121
93
33
120
93
34
120
94
39
119
94
53
119
99
140
183
172
170
204
196
215
236
231
224
231
229
231
236
235
239
240
239
251
251
250
254
254
252
255
254
251
254
254
252
254
254
253
255
254
254
254
254
254
255
255
255
255
255
255
255
255
255
255
255
255
255
255
255
255
255
255
255
255
255
255
255
255
255
255
255
255
255
255
255
255
255
255
255
255
255
255
255
255
255
255
255
255
255
255
255
255
255
255
255
255
255
255
255
255
255
255
255
255
255
255
255
255
255
255
255
255
255
255
255
255
255
255
255
255
255
255
255
255
255
255
255
255
255
255
255
255
255
255
255
255
255
255
255
255
255
255
255
255
255
255
255
255
255
80
158
91
255
255
255
116
190
109
123
196
108
122
194
105
255
255
255
125
195
106
124
194
105
255
255
255
123
193
103
125
196
105
255
255
255
125
196
104
122
193
101
125
195
103
255
255
255
125
196
104
124
195
103
255
255
255
124
195
103
124
195
103
124
195
103
255
255
255
124
195
103
124
195
103
255
255
255
124
195
103
124
195
103
255
255
255
124
195
103
123
195
103
122
195
103
255
255
255
123
195
103
122
195
103
255
255
255
120
195
104
121
197
106
122
196
104
255
255
255
123
193
102
125
195
103
255
255
255
125
196
104
124
195
103
124
195
103
255
255
255
124
195
103
123
196
104
255
255
255
122
195
103
122
195
103
255
255
255
122
194
103
121
195
103
121
196
103
255
255
255
121
196
103
121
195
101
255
255
255
122
195
100
123
196
101
123
195
100
255
255
255
124
195
100
125
194
101
255
255
255
125
193
102
126
192
104
255
255
255
127
192
106
132
196
111
142
204
123
255
255
255
151
211
132
159
217
140
255
255
255
159
217
140
160
218
141
159
217
140
255
255
255
160
215
140
165
214
141
255
255
255
163
212
139
152
206
131
135
196
115
255
255
255
127
192
104
126
193
100
255
255
255
127
194
99
125
195
100
255
255
255
122
195
108
109
187
113
69
150
98
255
255
255
41
124
88
35
120
92
255
255
255
33
121
91
32
122
92
33
122
93
255
255
255
37
119
92
46
116
93
255
255
255
110
162
147
196
225
217
255
255
255
223
234
231
231
234
233
248
247
247
255
255
255
253
253
252
254
254
253
255
255
255
254
254
253
254
254
254
254
254
254
255
255
255
255
255
255
255
255
255
255
255
255
255
255
255
255
255
255
255
255
255
255
255
255
255
255
255
255
255
255
255
255
255
255
255
255
255
255
255
255
255
255
255
255
255
255
255
255
255
255
255
255
255
255
255
255
255
255
255
255
255
255
255
255
255
255
255
255
255
255
255
255
255
255
255
255
255
255
255
255
255
255
255
255
255
255
255
255
255
255
255
255
255
255
255
255
255
255
255
255
255
255
255
255
255
90
167
92
105
180
102
119
192
106
123
195
106
123
193
104
124
194
105
123
193
104
123
193
104
123
193
104
124
195
103
125
196
104
125
196
104
124
195
103
123
194
102
126
197
105
127
198
106
124
195
103
123
194
102
124
195
103
124
195
103
124
195
103
124
195
103
124
195
103
124
195
103
124
195
103
124
195
103
124
195
103
124
195
103
124
195
103
124
195
103
124
195
103
123
195
103
122
195
103
122
195
103
122
195
103
121
195
103
121
196
104
122
196
104
122
195
103
123
195
103
124
196
104
124
196
104
124
196
104
123
196
104
122
194
103
122
195
103
124
195
103
123
196
104
123
195
103
122
195
103
121
194
102
121
193
102
121
194
103
121
193
103
122
195
105
122
195
104
121
196
103
122
195
103
122
194
102
122
194
101
123
194
102
123
193
100
123
193
101
123
194
100
126
195
103
126
193
103
126
193
102
127
192
104
128
192
107
127
192
106
131
195
112
143
205
126
151
211
133
150
210
132
158
217
139
159
217
140
159
217
140
159
217
140
159
217
140
160
216
140
160
216
140
163
215
141
163
214
140
163
213
140
158
211
136
140
199
122
128
193
110
127
193
107
125
194
105
125
195
102
126
195
101
125
196
102
122
194
105
122
195
106
117
193
112
102
182
118
60
145
97
49
133
91
36
123
88
34
123
90
33
122
91
32
123
89
31
124
90
34
122
92
36
121
93
39
120
92
59
124
102
83
142
123
127
173
158
201
223
216
215
231
226
226
232
230
236
233
234
250
248
249
252
251
251
255
254
255
255
255
255
254
254
254
254
254
254
254
254
254
254
254
254
254
254
254
255
255
255
255
255
255
255
255
255
255
255
255
255
255
255
255
255
255
255
255
255
255
255
255
255
255
255
255
255
255
255
255
255
255
255
255
255
255
255
255
255
255
255
255
255
255
255
255
255
255
255
255
255
255
255
255
255
255
255
255
255
255
255
255
255
255
255
255
255
255
255
255
255
255
255
255
255
255
255
255
255
255
255
255
255
255
255
255
255
255
255
255
255
255
255
255
255
255
255
255
255
255
75
154
83
114
188
105
123
196
106
255
255
255
122
193
103
124
194
105
255
255
255
123
193
104
123
194
103
124
195
103
255
255
255
124
195
103
123
194
101
255
255
255
125
196
103
124
195
103
123
194
101
255
255
255
124
195
102
124
195
103
255
255
255
124
195
103
124
195
103
255
255
255
124
195
103
124
195
103
124
195
103
255
255
255
124
195
103
124
195
103
255
255
255
124
195
103
122
195
103
122
195
103
255
255
255
121
196
103
122
196
103
255
255
255
122
195
102
123
195
102
255
255
255
124
196
104
123
196
104
122
195
103
255
255
255
121
194
102
122
195
103
255
255
255
123
196
104
122
194
103
121
193
102
255
255
255
121
193
103
122
194
104
255
255
255
122
195
105
123
195
104
122
194
103
255
255
255
123
194
102
123
193
102
255
255
255
123
192
101
126
194
104
255
255
255
127
194
104
127
191
104
129
193
108
255
255
255
132
196
112
145
207
127
255
255
255
152
212
134
158
216
139
159
217
140
255
255
255
158
216
139
158
216
139
255
255
255
159
216
140
162
215
141
255
255
255
162
215
141
159
212
139
142
201
125
255
255
255
129
194
113
124
194
107
255
255
255
124
195
103
125
196
102
122
195
104
255
255
255
119
194
109
110
190
119
255
255
255
75
160
105
37
125
84
255
255
255
33
122
86
31
123
87
30
123
88
255
255
255
31
123
90
35
121
92
255
255
255
49
119
95
89
143
124
183
213
202
255
255
255
221
231
228
231
229
230
255
255
255
245
241
243
255
253
254
255
254
255
255
255
255
255
255
255
254
254
254
255
255
255
254
254
254
255
255
255
255
255
255
255
255
255
255
255
255
255
255
255
255
255
255
255
255
255
255
255
255
255
255
255
255
255
255
255
255
255
255
255
255
255
255
255
255
255
255
255
255
255
255
255
255
255
255
255
255
255
255
255
255
255
255
255
255
255
255
255
255
255
255
255
255
255
255
255
255
255
255
255
255
255
255
255
255
255
255
255
255
255
255
255
255
255
255
255
255
255
255
255
255
255
255
255
255
255
255
255
255
255
108
182
104
255
255
255
122
195
108
121
194
104
123
194
105
255
255
255
124
194
105
122
193
102
255
255
255
124
195
103
125
196
104
255
255
255
123
194
101
123
194
101
125
196
104
255
255
255
124
195
102
124
195
101
255
255
255
124
195
102
124
195
103
124
195
103
255
255
255
124
195
103
124
195
103
255
255
255
124
195
103
124
195
103
255
255
255
124
195
103
124
195
103
122
195
103
255
255
255
122
195
103
122
195
103
255
255
255
123
195
102
123
195
101
122
194
100
255
255
255
123
194
101
122
195
103
255
255
255
122
195
103
121
194
102
122
195
103
255
255
255
122
195
103
122
195
103
255
255
255
122
193
103
122
192
103
255
255
255
123
194
104
123
194
105
124
194
105
255
255
255
123
194
104
122
192
103
255
255
255
124
193
103
124
192
103
127
193
105
255
255
255
127
193
106
126
190
104
255
255
255
131
194
110
135
197
115
255
255
255
147
209
129
153
213
136
157
216
139
255
255
255
158
216
140
158
216
139
255
255
255
158
216
139
159
216
140
160
216
142
255
255
255
161
215
142
160
214
141
255
255
255
145
203
129
131
195
117
123
194
109
255
255
255
123
195
104
123
197
102
255
255
255
122
196
103
120
196
107
255
255
255
115
195
116
85
170
107
41
129
82
255
255
255
33
123
83
30
122
85
255
255
255
29
122
86
30
123
89
31
121
89
255
255
255
41
118
91
69
128
106
255
255
255
162
199
185
215
232
225
255
255
255
228
229
229
240
235
237
255
250
252
255
255
255
255
254
255
255
254
255
255
255
255
255
255
255
254
254
254
255
255
255
255
255
255
255
255
255
255
255
255
255
255
255
255
255
255
255
255
255
255
255
255
255
255
255
255
255
255
255
255
255
255
255
255
255
255
255
255
255
255
255
255
255
255
255
255
255
255
255
255
255
255
255
255
255
255
255
255
255
255
255
255
255
255
255
255
255
255
255
255
255
255
255
255
255
255
255
255
255
255
255
255
255
255
255
255
255
255
255
255
255
255
255
255
255
255
255
255
255
255
255
255
255
255
255
255
119
193
114
121
194
110
123
196
107
122
194
105
123
195
105
124
195
105
124
195
104
124
195
103
123
194
102
125
196
104
124
195
102
124
195
102
123
194
100
124
195
101
125
196
102
125
196
103
124
195
101
124
195
101
124
195
101
124
195
101
124
195
103
124
195
103
124
195
103
124
195
103
124
195
103
124
195
103
124
195
103
124
195
103
124
195
103
124
195
103
123
195
103
122
195
104
122
195
104
122
195
105
123
195
105
124
195
102
125
196
102
124
194
99
123
194
99
122
193
99
120
194
99
122
195
102
122
195
103
122
195
103
122
195
103
122
195
103
122
195
103
123
196
104
123
195
104
122
194
103
123
193
104
124
194
105
123
193
104
124
194
105
124
193
104
124
193
105
124
194
105
124
194
105
126
193
105
125
193
104
127
193
105
127
193
105
130
194
108
128
193
107
129
191
108
136
198
115
133
195
112
141
202
122
152
211
133
150
210
131
157
216
139
158
216
140
159
216
141
159
216
140
159
217
141
160
217
141
159
216
140
161
216
142
160
216
144
160
216
144
160
216
143
158
216
142
149
207
133
147
205
131
136
198
122
126
194
112
122
195
105
122
195
105
121
196
101
121
196
100
122
196
102
121
196
103
119
198
108
117
196
112
102
185
108
66
154
92
39
130
83
34
125
82
31
123
83
29
124
86
29
123
86
29
123
88
32
126
92
35
122
91
37
121
90
47
122
94
98
150
130
129
174
157
178
209
196
219
232
225
224
230
227
228
229
228
237
232
234
252
248
249
255
252
253
255
254
254
254
254
254
255
254
255
254
255
254
255
255
255
255
255
255
255
255
255
255
255
255
255
255
255
255
255
255
255
255
255
255
255
255
255
255
255
255
255
255
255
255
255
255
255
255
255
255
255
255
255
255
255
255
255
255
255
255
255
255
255
255
255
255
255
255
255
255
255
255
255
255
255
255
255
255
255
255
255
255
255
255
255
255
255
255
255
255
255
255
255
255
255
255
255
255
255
255
255
255
255
255
255
255
255
255
255
255
255
255
255
255
255
255
255
255
255
255
255
255
255
118
193
117
122
194
109
122
194
105
255
255
255
122
194
104
124
196
105
255
255
255
124
195
103
124
195
103
125
196
103
255
255
255
124
195
101
124
195
101
255
255
255
124
195
101
124
195
101
124
195
101
255
255
255
124
195
101
124
195
102
255
255
255
124
195
103
124
195
103
255
255
255
124
195
103
124
195
103
124
195
103
255
255
255
124
195
103
124
195
103
255
255
255
122
195
104
122
195
105
123
195
107
255
255
255
124
195
105
124
195
101
255
255
255
124
195
99
123
195
100
255
255
255
122
195
102
123
195
103
123
195
103
255
255
255
123
195
103
123
195
103
255
255
255
123
195
104
124
194
105
125
194
105
255
255
255
125
194
105
125
192
105
255
255
255
124
193
105
125
193
106
126
194
106
255
255
255
128
194
107
128
193
106
255
255
255
131
195
110
133
195
112
255
255
255
140
200
119
145
205
126
154
212
134
255
255
255
159
216
140
158
217
140
255
255
255
159
216
141
160
216
141
160
216
141
255
255
255
161
216
143
162
215
144
255
255
255
160
216
145
159
216
143
255
255
255
150
210
134
139
201
123
127
195
113
255
255
255
122
195
105
120
197
100
255
255
255
120
197
98
120
196
99
120
198
105
255
255
255
109
190
108
80
166
99
255
255
255
46
136
86
31
123
83
255
255
255
30
124
86
29
124
88
30
124
91
255
255
255
33
123
92
41
121
92
255
255
255
67
130
106
147
187
171
214
233
224
255
255
255
225
230
227
233
229
230
255
255
255
246
242
243
254
252
253
254
255
254
255
255
255
253
255
254
255
255
255
255
255
255
255
255
255
255
255
255
255
255
255
255
255
255
255
255
255
255
255
255
255
255
255
255
255
255
255
255
255
255
255
255
255
255
255
255
255
255
255
255
255
255
255
255
255
255
255
255
255
255
255
255
255
255
255
255
255
255
255
255
255
255
255
255
255
255
255
255
255
255
255
255
255
255
255
255
255
255
255
255
255
255
255
255
255
255
255
255
255
255
255
255
255
255
255
255
255
255
255
255
255
255
255
255
255
255
255
255
255
255
121
193
110
123
194
107
124
193
104
122
192
103
124
194
103
123
195
103
123
196
104
122
194
102
123
195
102
124
195
101
125
196
102
124
195
101
124
195
101
124
195
101
124
195
101
124
195
101
124
195
101
124
195
101
124
195
102
124
195
103
124
195
103
124
195
103
124
195
103
124
195
103
124
195
103
124
195
103
124
195
103
124
195
103
124
195
103
124
195
103
124
195
104
124
194
105
122
194
107
122
194
109
123
195
109
122
195
107
123
194
102
124
195
100
123
194
100
125
196
101
124
196
102
125
196
103
124
195
103
124
194
103
123
194
102
122
193
101
124
193
103
123
194
103
123
192
104
126
193
105
127
193
106
126
194
106
127
192
105
128
192
106
126
192
105
127
192
106
127
192
107
129
193
109
128
194
107
129
193
109
135
198
114
133
195
111
140
200
119
148
207
127
144
204
123
153
212
133
156
214
136
159
216
141
159
217
141
160
216
142
159
216
142
159
216
142
160
216
142
161
215
142
161
215
142
161
215
142
163
214
144
163
214
145
162
215
145
161
215
144
153
212
137
152
211
135
143
205
125
131
196
111
124
195
105
123
195
106
121
197
99
120
197
97
120
197
97
119
197
96
119
195
97
118
196
106
115
195
108
107
189
112
62
149
92
53
142
89
34
124
83
30
122
88
30
123
87
32
123
91
33
124
93
32
123
93
32
123
92
35
122
93
44
119
92
53
123
97
94
150
129
187
222
208
220
235
229
225
234
230
230
231
230
236
233
234
241
237
238
248
245
246
254
254
254
252
255
254
252
255
254
255
255
255
255
255
255
255
255
255
255
255
255
255
255
255
255
255
255
255
255
255
255
255
255
255
255
255
255
255
255
255
255
255
255
255
255
255
255
255
255
255
255
255
255
255
255
255
255
255
255
255
255
255
255
255
255
255
255
255
255
255
255
255
255
255
255
255
255
255
255
255
255
255
255
255
255
255
255
255
255
255
255
255
255
255
255
255
255
255
255
255
255
255
255
255
255
255
255
255
255
255
255
255
255
255
255
255
255
255
255
255
255
255
255
255
255
255
123
194
106
255
255
255
125
194
104
124
194
103
124
195
103
255
255
255
122
194
102
122
194
101
255
255
255
123
194
100
124
195
101
255
255
255
124
195
101
124
195
101
124
195
101
255
255
255
124
195
101
124
195
101
255
255
255
124
195
103
124
195
103
124
195
103
255
255
255
124
195
103
124
195
103
255
255
255
124
195
103
124
195
103
255
255
255
124
195
103
124
194
104
123
193
105
255
255
255
122
193
108
123
195
110
255
255
255
121
194
105
122
194
101
124
195
101
255
255
255
125
196
102
124
194
102
255
255
255
124
194
103
123
193
102
125
193
103
255
255
255
125
193
104
125
192
104
255
255
255
128
193
106
128
192
106
255
255
255
129
192
107
130
193
108
131
194
110
255
255
255
132
195
112
136
199
117
255
255
255
139
201
118
147
206
126
151
210
131
255
255
255
157
215
136
158
215
137
255
255
255
159
216
140
160
216
143
255
255
255
159
216
143
160
215
143
160
214
142
255
255
255
162
214
142
164
214
144
255
255
255
163
214
144
162
215
144
154
213
137
255
255
255
144
206
126
131
196
110
255
255
255
125
195
104
121
197
99
121
198
97
255
255
255
120
197
96
120
196
98
255
255
255
120
196
104
116
195
114
255
255
255
71
155
95
37
126
83
32
122
89
255
255
255
32
122
92
34
125
94
255
255
255
32
123
92
34
123
93
39
119
91
255
255
255
76
140
116
160
203
186
255
255
255
211
232
224
228
231
230
255
255
255
234
232
232
243
240
241
252
253
253
255
255
255
253
255
255
255
255
255
255
255
255
255
255
255
255
255
255
255
255
255
255
255
255
255
255
255
255
255
255
255
255
255
255
255
255
255
255
255
255
255
255
255
255
255
255
255
255
255
255
255
255
255
255
255
255
255
255
255
255
255
255
255
255
255
255
255
255
255
255
255
255
255
255
255
255
255
255
255
255
255
255
255
255
255
255
255
255
255
255
255
255
255
255
255
255
255
255
255
255
255
255
255
255
255
255
255
255
255
255
255
255
255
255
255
255
255
255
255
255
255
255
255
255
255
255
123
194
104
125
194
103
125
194
103
255
255
255
124
194
103
123
194
102
255
255
255
122
194
101
122
193
99
123
194
100
255
255
255
124
194
100
124
195
101
255
255
255
124
195
101
124
195
101
124
195
101
255
255
255
124
195
102
124
195
103
255
255
255
124
195
103
124
195
103
255
255
255
124
195
103
124
195
103
124
195
103
255
255
255
124
195
103
124
195
103
255
255
255
124
193
104
122
193
106
124
195
110
255
255
255
123
195
108
120
193
102
255
255
255
122
194
100
124
195
101
255
255
255
124
193
101
124
193
102
124
193
102
255
255
255
127
195
105
128
194
106
255
255
255
127
194
106
129
194
108
130
193
108
255
255
255
133
195
111
132
194
111
255
255
255
137
199
116
138
200
117
144
205
124
255
255
255
145
206
126
154
213
133
255
255
255
155
213
135
160
217
140
255
255
255
159
216
139
160
216
141
160
216
143
255
255
255
159
215
143
159
215
144
255
255
255
160
214
142
161
213
142
164
214
143
255
255
255
163
214
143
162
215
143
255
255
255
155
213
138
145
207
127
255
255
255
131
196
111
125
194
103
122
196
99
255
255
255
121
197
97
122
198
97
255
255
255
122
196
99
121
196
104
121
198
115
255
255
255
80
162
98
42
129
83
255
255
255
35
123
89
33
122
92
255
255
255
36
125
95
33
123
92
32
122
91
255
255
255
36
119
90
60
130
104
255
255
255
130
181
162
196
223
213
223
230
228
255
255
255
231
230
230
238
236
236
255
255
255
250
251
250
253
255
255
255
255
255
255
255
255
255
255
255
255
255
255
255
255
255
255
255
255
255
255
255
255
255
255
255
255
255
255
255
255
255
255
255
255
255
255
255
255
255
255
255
255
255
255
255
255
255
255
255
255
255
255
255
255
255
255
255
255
255
255
255
255
255
255
255
255
255
255
255
255
255
255
255
255
255
255
255
255
255
255
255
255
255
255
255
255
255
255
255
255
255
255
255
255
255
255
255
255
255
255
255
255
255
255
255
255
255
255
255
255
255
255
255
255
255
255
255
255
255
255
255
255
255
124
195
99
126
194
101
126
193
103
125
194
103
125
194
103
124
194
103
123
194
102
123
194
102
124
195
102
124
195
101
123
194
100
124
195
101
124
195
101
124
195
101
124
195
101
124
195
101
124
195
101
124
195
101
124
195
101
124
195
102
124
195
103
124
195
103
124
195
103
124
195
103
124
195
103
124
195
103
124
195
103
124
195
103
125
194
103
125
194
103
125
194
104
125
194
105
125
195
106
124
195
107
124
196
109
122
195
105
121
195
102
121
194
101
121
195
100
124
194
100
124
194
100
125
193
102
125
192
103
134
199
112
130
196
107
137
201
114
139
202
116
132
197
110
139
202
117
142
204
120
145
205
123
138
198
115
147
206
124
151
210
129
145
205
124
155
214
134
156
215
135
158
216
137
152
211
133
158
215
138
160
216
139
159
217
139
162
219
142
161
216
141
162
217
141
162
216
142
162
215
143
160
215
143
159
215
143
159
215
144
160
214
144
160
214
143
161
214
142
163
214
142
163
214
142
163
214
143
162
215
142
157
214
138
156
214
138
145
208
128
131
197
114
131
197
113
124
195
106
121
195
100
121
196
99
121
197
98
122
197
98
125
197
102
125
198
101
123
195
105
121
194
111
98
175
106
90
169
102
61
143
90
41
126
86
37
125
88
35
122
91
36
123
93
36
124
94
34
121
92
31
120
90
33
121
92
34
120
91
40
119
92
70
134
111
97
155
133
158
196
182
223
237
232
227
230
229
229
229
229
232
229
230
238
238
238
244
244
244
248
249
249
255
255
255
255
255
255
255
255
255
255
255
255
255
255
255
255
255
255
255
255
255
255
255
255
255
255
255
255
255
255
255
255
255
255
255
255
255
255
255
255
255
255
255
255
255
255
255
255
255
255
255
255
255
255
255
255
255
255
255
255
255
255
255
255
255
255
255
255
255
255
255
255
255
255
255
255
255
255
255
255
255
255
255
255
255
255
255
255
255
255
255
255
255
255
255
255
255
255
255
255
255
255
255
255
255
255
255
255
255
255
255
255
255
255
255
255
255
255
255
255
255
255
255
255
255
255
125
195
99
255
255
255
126
194
101
125
194
103
124
193
103
255
255
255
123
194
103
125
196
104
255
255
255
125
196
102
124
195
101
255
255
255
124
195
101
124
195
101
124
195
101
255
255
255
124
195
101
124
195
101
255
255
255
124
195
102
124
195
103
124
195
103
255
255
255
124
195
103
124
195
103
255
255
255
124
195
103
125
194
103
255
255
255
126
193
103
126
194
104
126
195
106
255
255
255
124
195
106
122
194
105
255
255
255
122
195
103
122
196
101
123
195
101
255
255
255
125
194
102
127
193
105
255
255
255
137
201
115
146
208
123
145
208
123
255
255
255
146
208
124
150
210
127
255
255
255
152
211
130
156
213
133
255
255
255
156
214
134
159
217
138
158
216
138
255
255
255
160
217
139
159
216
139
255
255
255
160
215
140
162
217
142
160
215
139
255
255
255
161
215
141
162
215
143
255
255
255
160
215
143
159
215
144
255
255
255
160
214
144
161
214
142
163
215
141
255
255
255
163
214
141
162
214
141
255
255
255
158
214
138
147
208
129
130
197
113
255
255
255
124
195
107
120
195
101
255
255
255
121
196
100
121
196
98
124
196
100
255
255
255
124
195
105
120
192
108
255
255
255
106
181
110
74
153
97
255
255
255
44
128
85
36
122
88
35
121
92
255
255
255
34
120
92
32
119
90
255
255
255
33
122
93
37
120
92
51
119
96
255
255
255
137
181
165
217
236
230
255
255
255
226
231
230
230
229
229
255
255
255
233
232
232
244
245
245
255
255
255
255
255
255
255
255
255
255
255
255
255
255
255
255
255
255
255
255
255
255
255
255
255
255
255
255
255
255
255
255
255
255
255
255
255
255
255
255
255
255
255
255
255
255
255
255
255
255
255
255
255
255
255
255
255
255
255
255
255
255
255
255
255
255
255
255
255
255
255
255
255
255
255
255
255
255
255
255
255
255
255
255
255
255
255
255
255
255
255
255
255
255
255
255
255
255
255
255
255
255
255
255
255
255
255
255
255
255
255
255
255
255
255
255
255
255
255
255
255
255
255
255
255
255
255
255
255
125
195
99
125
195
99
124
195
99
123
194
102
123
193
104
123
193
104
122
194
105
124
195
105
125
196
104
124
195
103
124
195
101
124
195
101
124
195
101
124
195
101
124
195
101
124
195
101
124
195
101
124
195
102
124
195
102
124
195
103
124
195
103
124
195
103
124
195
103
124
195
103
124
195
103
124
195
103
124
195
103
125
193
102
126
193
103
126
193
102
128
194
103
126
194
103
125
194
104
122
193
101
122
194
102
122
195
103
122
195
103
123
195
101
124
195
101
125
195
102
126
195
104
137
203
117
138
203
117
151
213
130
155
215
134
156
215
134
153
214
130
159
217
137
159
216
137
158
216
135
163
220
142
161
216
139
159
215
137
162
216
140
160
215
138
160
215
139
160
216
140
162
216
141
160
215
140
160
215
139
160
214
139
162
215
142
161
215
142
160
213
139
161
214
142
160
214
143
160
215
143
159
215
144
160
216
145
160
216
145
161
215
143
162
214
140
162
214
139
163
214
140
161
214
139
157
213
136
158
213
138
148
208
129
131
197
113
124
194
107
123
194
107
120
195
104
121
196
102
121
196
101
122
196
101
120
192
98
123
194
104
123
195
104
122
194
110
116
190
115
112
186
113
96
172
109
52
133
82
48
130
83
36
121
81
35
122
90
34
121
92
34
120
92
33
119
92
33
122
94
33
122
93
36
122
95
41
117
91
100
154
136
118
167
150
191
220
210
218
230
226
223
231
229
227
229
228
229
229
229
230
230
230
236
237
237
255
255
255
255
255
255
255
255
255
255
255
255
255
255
255
255
255
255
255
255
255
255
255
255
255
255
255
255
255
255
255
255
255
255
255
255
255
255
255
255
255
255
255
255
255
255
255
255
255
255
255
255
255
255
255
255
255
255
255
255
255
255
255
255
255
255
255
255
255
255
255
255
255
255
255
255
255
255
255
255
255
255
255
255
255
255
255
255
255
255
255
255
255
255
255
255
255
255
255
255
255
255
255
255
255
255
255
255
255
255
255
255
255
255
255
255
255
255
255
255
255
255
255
255
255
255
255
255
255
255
255
255
125
195
99
124
195
99
122
195
99
255
255
255
122
194
103
122
194
105
255
255
255
123
195
105
124
194
104
124
195
102
255
255
255
124
195
101
124
195
101
255
255
255
124
195
101
124
195
101
124
195
102
255
255
255
124
195
103
124
195
103
255
255
255
124
195
103
124
195
103
255
255
255
124
195
103
124
195
103
124
194
101
255
255
255
126
193
101
127
194
102
255
255
255
127
194
102
123
193
99
122
194
101
255
255
255
122
195
102
122
195
103
255
255
255
124
194
102
125
194
103
255
255
255
136
202
116
150
212
130
157
215
136
255
255
255
159
216
138
159
215
138
255
255
255
160
216
138
162
217
140
161
217
139
255
255
255
161
215
139
162
216
140
255
255
255
160
214
139
162
216
141
162
216
141
255
255
255
160
214
140
161
215
142
255
255
255
163
216
144
163
216
143
255
255
255
160
214
143
159
215
144
161
217
146
255
255
255
161
217
144
161
215
140
255
255
255
161
214
138
161
214
137
156
212
134
255
255
255
147
207
128
131
196
113
255
255
255
124
194
106
121
195
103
255
255
255
121
196
103
122
196
102
122
194
99
255
255
255
122
194
103
124
196
111
255
255
255
120
192
116
103
178
112
57
136
82
255
255
255
37
120
78
35
121
88
255
255
255
34
122
92
33
120
93
255
255
255
34
122
94
36
122
95
40
118
93
255
255
255
84
142
123
165
200
188
255
255
255
212
228
223
226
230
229
229
229
229
255
255
255
233
233
233
255
255
255
255
255
255
255
255
255
255
255
255
255
255
255
255
255
255
255
255
255
255
255
255
255
255
255
255
255
255
255
255
255
255
255
255
255
255
255
255
255
255
255
255
255
255
255
255
255
255
255
255
255
255
255
255
255
255
255
255
255
255
255
255
255
255
255
255
255
255
255
255
255
255
255
255
255
255
255
255
255
255
255
255
255
255
255
255
255
255
255
255
255
255
255
255
255
255
255
255
255
255
255
255
255
255
255
255
255
255
255
255
255
255
255
255
255
255
255
255
255
255
255
255
255
255
255
255
255
255
255
255
255
255
255
124
195
99
122
195
99
121
195
100
121
195
100
122
195
102
123
195
104
123
195
105
124
194
105
124
194
104
124
195
102
124
195
101
124
195
102
124
195
102
124
195
101
124
195
101
124
195
102
124
195
103
124
195
103
124
195
103
124
195
103
124
195
103
124
195
103
123
195
103
123
195
103
123
195
103
123
196
102
124
195
101
125
193
100
126
196
101
127
195
101
127
195
101
125
195
99
124
194
98
123
195
100
122
196
101
123
197
102
122
195
103
122
194
103
122
192
103
130
197
110
133
200
113
143
207
126
156
216
139
161
217
143
160
217
140
163
216
143
162
214
141
161
215
139
162
214
140
163
215
141
163
215
140
161
215
139
164
216
142
163
216
143
162
216
141
162
215
142
163
216
143
163
216
143
162
216
141
162
215
142
162
215
143
162
215
143
162
215
143
162
215
144
161
215
144
160
215
144
160
216
143
160
216
143
161
217
144
159
215
139
160
215
137
161
215
137
160
215
135
152
209
128
144
205
123
146
206
126
130
194
111
126
193
106
125
194
106
123
195
103
121
196
102
121
196
102
122
196
101
123
195
101
123
194
102
123
194
102
123
196
108
122
195
116
121
194
116
108
182
112
65
142
83
40
122
75
38
121
76
34
120
84
34
122
91
34
122
92
33
123
95
33
122
94
33
122
94
35
121
94
39
119
94
60
124
104
71
133
113
112
156
141
189
215
206
201
222
215
224
234
230
229
232
231
229
229
229
230
230
230
255
255
255
255
255
255
255
255
255
255
255
255
255
255
255
255
255
255
255
255
255
255
255
255
255
255
255
255
255
255
255
255
255
255
255
255
255
255
255
255
255
255
255
255
255
255
255
255
255
255
255
255
255
255
255
255
255
255
255
255
255
255
255
255
255
255
255
255
255
255
255
255
255
255
255
255
255
255
255
255
255
255
255
255
255
255
255
255
255
255
255
255
255
255
255
255
255
255
255
255
255
255
255
255
255
255
255
255
255
255
255
255
255
255
255
255
255
255
255
255
255
255
255
255
255
255
255
255
255
255
255
255
255
255
255
255
255
255
122
195
99
255
255
255
121
195
100
121
195
101
123
195
103
255
255
255
124
194
104
124
194
105
255
255
255
124
195
103
124
195
104
255
255
255
124
195
103
124
195
102
124
195
102
255
255
255
124
195
103
124
195
103
255
255
255
124
195
103
124
195
103
123
195
103
255
255
255
122
195
103
121
194
102
255
255
255
122
196
102
124
196
101
255
255
255
125
196
100
125
195
100
125
195
99
255
255
255
124
195
99
123
196
100
255
255
255
123
197
103
122
194
103
126
195
108
255
255
255
137
203
121
152
213
135
255
255
255
161
218
145
163
216
145
164
215
144
255
255
255
164
214
142
165
215
142
255
255
255
164
216
142
163
214
141
255
255
255
164
216
143
162
215
143
162
215
143
255
255
255
164
217
145
163
216
143
255
255
255
162
215
143
162
215
143
162
215
143
255
255
255
161
214
143
160
215
143
255
255
255
159
215
141
158
215
139
255
255
255
159
215
137
159
215
134
150
207
125
255
255
255
142
202
119
130
194
110
255
255
255
125
193
105
124
195
103
122
196
101
255
255
255
122
196
101
124
196
101
255
255
255
123
195
102
122
195
105
122
195
114
255
255
255
109
183
112
67
145
84
255
255
255
42
124
75
34
121
83
255
255
255
32
122
91
33
124
96
33
123
95
255
255
255
34
121
94
39
118
94
255
255
255
50
117
96
90
138
122
177
207
197
255
255
255
221
235
230
227
232
230
255
255
255
229
230
230
255
255
255
255
255
255
255
255
255
255
255
255
255
255
255
255
255
255
255
255
255
255
255
255
255
255
255
255
255
255
255
255
255
255
255
255
255
255
255
255
255
255
255
255
255
255
255
255
255
255
255
255
255
255
255
255
255
255
255
255
255
255
255
255
255
255
255
255
255
255
255
255
255
255
255
255
255
255
255
255
255
255
255
255
255
255
255
255
255
255
255
255
255
255
255
255
255
255
255
255
255
255
255
255
255
255
255
255
255
255
255
255
255
255
255
255
255
255
255
255
255
255
255
255
255
255
255
255
255
255
255
255
255
255
255
255
255
255
255
255
255
122
195
100
121
195
100
121
196
101
255
255
255
122
196
102
124
195
103
255
255
255
124
194
104
124
194
105
125
194
104
255
255
255
125
194
104
124
195
103
255
255
255
124
195
102
124
195
103
124
195
103
255
255
255
124
195
103
124
195
103
255
255
255
123
195
103
122
195
103
255
255
255
120
194
103
120
195
102
122
196
101
255
255
255
124
195
100
123
193
99
255
255
255
125
196
100
124
195
99
122
195
99
255
255
255
123
197
101
123
196
104
255
255
255
124
194
105
131
198
114
255
255
255
146
209
129
157
216
141
162
216
147
255
255
255
164
215
146
164
214
144
255
255
255
166
214
143
166
215
144
162
212
139
255
255
255
163
214
141
163
215
143
255
255
255
162
215
143
162
215
143
163
216
144
255
255
255
162
215
143
161
214
142
255
255
255
161
214
142
161
214
142
255
255
255
160
215
142
159
215
141
157
214
138
255
255
255
158
215
136
158
215
134
255
255
255
148
206
123
140
200
116
129
194
108
255
255
255
125
193
105
124
195
103
255
255
255
123
195
100
122
196
100
255
255
255
124
196
102
123
195
103
121
194
104
255
255
255
121
195
112
111
185
112
255
255
255
70
149
86
45
128
76
35
122
81
255
255
255
32
122
89
32
124
95
255
255
255
33
123
95
34
122
94
255
255
255
37
118
93
46
115
93
71
125
107
255
255
255
164
199
187
217
235
229
255
255
255
225
231
229
228
230
230
255
255
255
255
255
255
255
255
255
255
255
255
255
255
255
255
255
255
255
255
255
255
255
255
255
255
255
255
255
255
255
255
255
255
255
255
255
255
255
255
255
255
255
255
255
255
255
255
255
255
255
255
255
255
255
255
255
255
255
255
255
255
255
255
255
255
255
255
255
255
255
255
255
255
255
255
255
255
255
255
255
255
255
255
255
255
255
255
255
255
255
255
255
255
255
255
255
255
255
255
255
255
255
255
255
255
255
255
255
255
255
255
255
255
255
255
255
255
255
255
255
255
255
255
255
255
255
255
255
255
255
255
255
255
255
255
255
255
255
255
255
255
255
255
121
194
102
120
195
102
121
195
102
121
196
101
122
196
101
123
195
102
124
195
103
124
195
103
124
194
104
125
194
104
125
194
104
125
194
103
124
195
103
124
195
103
124
195
103
124
195
103
124
195
103
124
195
103
124
195
103
124
195
103
123
195
103
122
195
103
121
196
104
121
195
104
120
196
104
122
197
104
123
197
102
122
195
100
123
195
99
124
195
100
124
195
101
126
197
103
123
195
100
121
195
98
122
196
99
123
198
101
122
196
101
123
194
104
122
192
103
132
199
114
138
204
121
145
209
129
155
214
140
159
214
145
163
215
147
163
214
147
164
213
143
164
213
143
164
211
141
165
213
142
163
212
141
162
212
140
163
215
143
162
214
142
161
214
142
160
213
141
161
214
142
162
215
142
162
216
143
162
215
143
162
215
142
161
214
143
162
215
143
160
215
141
160
215
142
159
216
141
158
216
139
155
214
133
157
215
136
156
215
133
143
204
119
145
205
121
135
197
111
129
193
106
126
192
104
126
193
104
125
194
103
124
194
100
123
195
100
123
194
98
124
194
100
124
195
101
124
194
103
121
194
105
120
194
112
121
194
112
111
186
112
76
155
90
74
153
88
51
134
80
38
126
82
32
124
87
31
123
87
29
124
92
30
123
92
31
123
93
31
122
92
34
120
91
36
119
92
41
118
92
57
120
99
136
180
166
150
190
176
203
229
220
222
232
229
224
231
229
228
231
230
255
255
255
255
255
255
255
255
255
255
255
255
255
255
255
255
255
255
255
255
255
255
255
255
255
255
255
255
255
255
255
255
255
255
255
255
255
255
255
255
255
255
255
255
255
255
255
255
255
255
255
255
255
255
255
255
255
255
255
255
255
255
255
255
255
255
255
255
255
255
255
255
255
255
255
255
255
255
255
255
255
255
255
255
255
255
255
255
255
255
255
255
255
255
255
255
255
255
255
255
255
255
255
255
255
255
255
255
255
255
255
255
255
255
255
255
255
255
255
255
255
255
255
255
255
255
255
255
255
255
255
255
255
255
255
255
255
255
255
255
255
255
255
255
255
255
255
120
195
102
255
255
255
121
195
102
122
196
101
123
196
101
255
255
255
124
195
102
124
195
103
255
255
255
124
194
104
124
195
103
255
255
255
124
194
103
124
195
103
124
195
103
255
255
255
124
195
103
124
195
103
255
255
255
124
195
103
123
195
103
122
196
103
255
255
255
121
196
104
120
197
104
255
255
255
122
197
103
122
195
99
255
255
255
123
195
99
124
195
101
126
197
104
255
255
255
122
195
99
123
197
100
255
255
255
122
197
100
121
193
101
125
194
106
255
255
255
137
203
119
152
215
137
255
255
255
157
215
142
160
215
145
163
215
144
255
255
255
163
213
141
162
211
139
255
255
255
163
212
141
162
212
141
255
255
255
162
215
143
161
214
142
159
212
140
255
255
255
161
214
141
162
216
142
255
255
255
162
216
142
162
216
142
161
216
142
255
255
255
159
216
140
158
217
140
255
255
255
151
212
131
150
211
127
255
255
255
141
203
116
133
196
108
129
193
104
255
255
255
127
192
103
126
193
103
255
255
255
124
194
100
124
194
98
124
194
98
255
255
255
124
194
102
122
193
105
255
255
255
120
194
112
111
186
112
76
156
91
255
255
255
53
136
81
38
125
82
255
255
255
33
124
87
29
124
91
255
255
255
28
123
90
30
123
91
32
121
91
255
255
255
39
119
92
53
122
98
255
255
255
121
171
154
190
220
210
220
233
228
255
255
255
227
231
230
255
255
255
255
255
255
255
255
255
255
255
255
255
255
255
255
255
255
255
255
255
255
255
255
255
255
255
255
255
255
255
255
255
255
255
255
255
255
255
255
255
255
255
255
255
255
255
255
255
255
255
255
255
255
255
255
255
255
255
255
255
255
255
255
255
255
255
255
255
255
255
255
255
255
255
255
255
255
255
255
255
255
255
255
255
255
255
255
255
255
255
255
255
255
255
255
255
255
255
255
255
255
255
255
255
255
255
255
255
255
255
255
255
255
255
255
255
255
255
255
255
255
255
255
255
255
255
255
255
255
255
255
255
255
255
255
255
255
255
255
255
255
255
255
255
255
255
255
255
255
120
195
103
121
195
102
122
195
103
122
196
102
123
196
101
124
195
101
124
195
102
124
195
103
124
195
103
124
195
103
124
195
102
124
195
102
124
195
101
124
195
103
124
195
103
124
195
103
124
195
103
124
195
103
124
195
103
125
194
103
124
194
103
122
195
103
122
196
103
119
194
101
120
195
101
121
197
102
121
197
99
122
196
97
123
195
98
124
195
98
122
192
99
123
194
102
124
195
103
122
193
100
123
196
101
122
196
100
121
195
100
121
194
101
124
194
105
127
195
108
128
194
107
145
209
126
156
217
140
159
219
141
159
216
140
161
216
141
163
216
143
164
217
142
162
215
140
162
212
140
163
214
141
161
214
141
161
213
142
161
214
143
159
214
142
159
214
140
159
213
140
159
215
140
161
216
140
162
216
141
162
216
140
159
215
139
155
213
135
157
215
138
152
213
133
144
207
124
148
209
128
136
200
114
134
198
110
137
200
113
129
194
104
127
192
102
127
192
103
127
192
103
127
193
105
125
193
102
125
193
101
124
194
99
124
194
98
124
194
101
124
194
101
123
193
105
121
195
113
121
194
112
111
188
113
78
158
92
53
137
83
53
137
82
37
125
81
33
123
86
33
123
86
30
123
89
29
124
90
29
124
90
29
124
90
30
124
90
34
120
91
36
120
91
44
121
95
90
151
130
105
161
142
156
197
183
211
230
224
226
233
231
227
233
231
255
255
255
255
255
255
255
255
255
255
255
255
255
255
255
255
255
255
255
255
255
255
255
255
255
255
255
255
255
255
255
255
255
255
255
255
255
255
255
255
255
255
255
255
255
255
255
255
255
255
255
255
255
255
255
255
255
255
255
255
255
255
255
255
255
255
255
255
255
255
255
255
255
255
255
255
255
255
255
255
255
255
255
255
255
255
255
255
255
255
255
255
255
255
255
255
255
255
255
255
255
255
255
255
255
255
255
255
255
255
255
255
255
255
255
255
255
255
255
255
255
255
255
255
255
255
255
255
255
255
255
255
255
255
255
255
255
255
255
255
255
255
255
255
255
255
255
255
255
255
255
255
255
120
195
104
121
194
103
122
195
103
255
255
255
122
196
102
123
195
102
255
255
255
124
195
103
124
195
103
124
195
102
255
255
255
124
195
101
124
195
101
255
255
255
124
195
103
124
194
103
124
195
104
255
255
255
125
194
104
127
194
105
255
255
255
125
194
103
122
195
103
255
255
255
120
194
101
122
196
101
122
196
97
255
255
255
124
196
97
125
195
100
255
255
255
122
192
101
124
194
103
124
195
103
255
255
255
123
196
102
122
196
103
255
255
255
122
194
103
125
194
106
255
255
255
129
195
108
147
210
127
156
216
135
255
255
255
157
215
137
159
216
137
255
255
255
162
218
140
162
216
139
162
217
141
255
255
255
161
215
142
159
215
143
255
255
255
158
215
141
159
215
140
159
214
139
255
255
255
160
215
138
156
214
135
255
255
255
152
211
131
146
208
127
255
255
255
140
204
121
132
196
110
131
196
108
255
255
255
128
194
103
127
192
101
255
255
255
126
192
103
127
193
105
125
193
103
255
255
255
124
193
100
124
194
99
255
255
255
124
194
101
123
193
105
255
255
255
121
194
113
111
188
113
79
159
93
255
255
255
54
138
84
37
125
82
255
255
255
33
123
87
31
122
90
30
123
90
255
255
255
30
124
90
30
124
90
255
255
255
32
121
90
40
120
93
255
255
255
78
143
121
139
185
169
206
228
221
255
255
255
224
233
230
255
255
255
255
255
255
255
255
255
255
255
255
255
255
255
255
255
255
255
255
255
255
255
255
255
255
255
255
255
255
255
255
255
255
255
255
255
255
255
255
255
255
255
255
255
255
255
255
255
255
255
255
255
255
255
255
255
255
255
255
255
255
255
255
255
255
255
255
255
255
255
255
255
255
255
255
255
255
255
255
255
255
255
255
255
255
255
255
255
255
255
255
255
255
255
255
255
255
255
255
255
255
255
255
255
255
255
255
255
255
255
255
255
255
255
255
255
255
255
255
255
255
255
255
255
255
255
255
255
255
255
255
255
255
255
255
255
255
255
255
255
255
255
255
255
255
255
255
255
255
255
255
255
255
255
255
121
194
104
255
255
255
122
194
103
122
195
103
123
195
103
255
255
255
124
195
103
124
195
103
255
255
255
123
195
102
124
195
101
255
255
255
124
195
101
124
195
102
125
194
103
255
255
255
125
194
104
125
194
105
255
255
255
126
194
105
128
195
106
124
195
104
255
255
255
122
195
102
123
196
103
255
255
255
122
195
99
123
195
96
255
255
255
126
196
99
125
194
101
125
194
105
255
255
255
125
195
105
127
198
106
255
255
255
124
196
103
123
196
104
123
194
104
255
255
255
125
194
106
129
195
108
255
255
255
144
207
122
151
212
129
153
213
131
255
255
255
156
214
133
160
218
137
255
255
255
159
216
136
160
217
141
255
255
255
158
215
142
157
215
141
159
216
141
255
255
255
157
213
136
158
212
135
255
255
255
153
210
131
147
208
127
140
203
120
255
255
255
136
201
116
128
194
107
255
255
255
129
195
106
127
194
103
255
255
255
126
193
101
127
193
103
127
193
105
255
255
255
125
193
103
124
194
101
255
255
255
125
195
99
124
194
101
123
193
105
255
255
255
120
194
113
110
187
114
255
255
255
79
159
94
55
139
84
37
125
83
255
255
255
33
123
87
32
123
92
255
255
255
31
122
91
31
123
91
255
255
255
30
124
90
31
122
90
36
120
92
255
255
255
68
136
113
127
176
159
255
255
255
201
226
218
223
233
230
255
255
255
255
255
255
255
255
255
255
255
255
255
255
255
255
255
255
255
255
255
255
255
255
255
255
255
255
255
255
255
255
255
255
255
255
255
255
255
255
255
255
255
255
255
255
255
255
255
255
255
255
255
255
255
255
255
255
255
255
255
255
255
255
255
255
255
255
255
255
255
255
255
255
255
255
255
255
255
255
255
255
255
255
255
255
255
255
255
255
255
255
255
255
255
255
255
255
255
255
255
255
255
255
255
255
255
255
255
255
255
255
255
255
255
255
255
255
255
255
255
255
255
255
255
255
255
255
255
255
255
255
255
255
255
255
255
255
255
255
255
255
255
255
255
255
255
255
255
255
255
255
255
255
255
255
255
255
255
123
194
104
122
194
103
123
194
102
123
194
102
124
195
103
124
195
103
124
195
102
123
195
102
123
195
102
122
196
101
123
196
101
124
195
101
124
195
102
125
194
104
125
194
105
125
194
104
125
194
105
126
194
105
126
193
104
126
192
104
127
192
104
125
193
101
123
194
102
122
193
100
122
195
102
122
195
102
121
194
100
124
195
100
125
196
99
127
196
101
126
193
101
125
191
104
126
194
106
127
194
108
125
194
104
125
196
104
123
195
103
122
194
102
122
194
102
123
193
104
122
192
103
125
193
104
127
193
106
126
192
103
134
199
111
138
202
115
148
210
125
143
206
119
144
206
120
153
213
129
145
208
121
146
208
126
154
213
137
146
207
130
147
208
131
145
205
126
154
211
133
146
204
125
141
200
119
147
205
125
138
199
116
131
195
111
129
195
110
132
198
112
125
193
106
126
195
106
127
195
106
127
195
104
125
194
101
126
194
101
126
194
103
128
194
107
125
193
105
125
192
104
123
193
103
125
195
101
125
195
100
124
195
102
121
194
105
118
192
113
119
193
113
107
184
113
74
155
93
77
157
94
54
137
85
37
125
84
33
123
88
33
123
88
32
123
92
32
122
91
32
122
91
32
121
91
33
123
92
32
123
92
34
123
92
35
122
93
54
128
103
60
131
107
108
163
144
194
224
214
198
225
216
222
235
230
255
255
255
255
255
255
255
255
255
255
255
255
255
255
255
255
255
255
255
255
255
255
255
255
255
255
255
255
255
255
255
255
255
255
255
255
255
255
255
255
255
255
255
255
255
255
255
255
255
255
255
255
255
255
255
255
255
255
255
255
255
255
255
255
255
255
255
255
255
255
255
255
255
255
255
255
255
255
255
255
255
255
255
255
255
255
255
255
255
255
255
255
255
255
255
255
255
255
255
255
255
255
255
255
255
255
255
255
255
255
255
255
255
255
255
255
255
255
255
255
255
255
255
255
255
255
255
255
255
255
255
255
255
255
255
255
255
255
255
255
255
255
255
255
255
255
255
255
255
255
255
255
255
255
255
255
255
255
255
255
255
255
124
194
104
124
194
104
123
194
102
255
255
255
123
194
102
124
195
101
255
255
255
123
195
102
122
196
101
122
196
101
255
255
255
123
195
102
125
194
104
255
255
255
125
194
105
125
194
105
125
194
105
255
255
255
126
194
105
125
191
103
255
255
255
126
193
102
123
193
98
255
255
255
123
195
102
123
196
103
123
195
101
255
255
255
126
196
101
129
196
103
255
255
255
126
192
103
126
191
107
126
192
105
255
255
255
124
193
103
122
193
101
255
255
255
122
194
102
123
193
102
255
255
255
124
193
103
126
193
103
124
190
100
255
255
255
130
196
107
133
198
109
255
255
255
135
200
111
136
201
112
136
202
114
255
255
255
138
202
119
137
199
121
255
255
255
138
200
120
136
197
115
135
196
113
255
255
255
132
195
111
129
194
108
255
255
255
127
194
108
125
194
107
255
255
255
125
194
106
125
195
104
125
194
102
255
255
255
125
194
103
126
195
106
255
255
255
126
194
107
124
193
104
124
194
101
255
255
255
123
195
104
120
194
106
255
255
255
116
191
114
104
182
113
255
255
255
70
152
91
51
135
84
37
125
85
255
255
255
32
123
89
31
123
93
255
255
255
32
122
91
32
121
91
33
122
92
255
255
255
34
122
92
37
122
93
255
255
255
50
125
99
101
158
138
255
255
255
191
222
211
221
235
230
255
255
255
255
255
255
255
255
255
255
255
255
255
255
255
255
255
255
255
255
255
255
255
255
255
255
255
255
255
255
255
255
255
255
255
255
255
255
255
255
255
255
255
255
255
255
255
255
255
255
255
255
255
255
255
255
255
255
255
255
255
255
255
255
255
255
255
255
255
255
255
255
255
255
255
255
255
255
255
255
255
255
255
255
255
255
255
255
255
255
255
255
255
255
255
255
255
255
255
255
255
255
255
255
255
255
255
255
255
255
255
255
255
255
255
255
255
255
255
255
255
255
255
255
255
255
255
255
255
255
255
255
255
255
255
255
255
255
255
255
255
255
255
255
255
255
255
255
255
255
255
255
255
255
255
255
255
255
255
255
255
255
255
255
255
124
193
102
124
194
103
124
195
102
123
194
102
123
194
100
123
195
100
123
195
101
122
196
101
122
196
101
122
196
101
122
196
101
124
195
103
124
194
104
125
194
105
125
194
105
124
194
105
124
194
105
125
195
106
124
194
105
125
194
104
126
194
103
128
198
103
124
195
99
124
195
100
125
196
101
122
196
103
123
195
103
124
195
101
124
196
102
125
194
103
128
195
105
127
192
106
128
192
109
129
193
110
126
192
105
127
195
107
125
195
104
124
195
103
126
197
105
124
195
103
124
194
103
124
195
103
127
196
105
126
194
103
123
190
100
123
192
101
126
194
103
129
196
106
125
194
103
124
194
101
125
195
104
129
197
108
124
193
104
128
194
110
132
196
114
128
193
109
128
193
107
127
193
106
127
191
107
124
192
105
126
194
106
127
194
107
126
196
108
123
195
107
124
195
106
122
195
105
122
193
102
124
194
101
125
194
102
125
194
103
125
195
107
126
195
107
124
195
108
122
194
105
121
195
107
123
195
106
121
196
113
110
187
114
114
191
115
99
178
114
61
143
87
65
147
89
43
129
81
34
123
86
32
123
90
32
123
90
30
123
93
31
122
90
31
122
91
32
122
90
33
122
90
33
121
91
33
121
91
35
119
91
48
120
96
49
122
97
92
148
129
182
215
204
186
219
208
216
232
227
255
255
255
255
255
255
255
255
255
255
255
255
255
255
255
255
255
255
255
255
255
255
255
255
255
255
255
255
255
255
255
255
255
255
255
255
255
255
255
255
255
255
255
255
255
255
255
255
255
255
255
255
255
255
255
255
255
255
255
255
255
255
255
255
255
255
255
255
255
255
255
255
255
255
255
255
255
255
255
255
255
255
255
255
255
255
255
255
255
255
255
255
255
255
255
255
255
255
255
255
255
255
255
255
255
255
255
255
255
255
255
255
255
255
255
255
255
255
255
255
255
255
255
255
255
255
255
255
255
255
255
255
255
255
255
255
255
255
255
255
255
255
255
255
255
255
255
255
255
255
255
255
255
255
255
255
255
255
255
255
255
255
255
255
255
255
255
255
124
193
102
255
255
255
124
194
102
124
195
101
122
194
100
255
255
255
121
195
100
122
196
101
255
255
255
122
196
101
124
195
103
255
255
255
124
195
104
124
194
105
124
193
104
255
255
255
124
194
105
124
194
105
255
255
255
124
194
104
126
196
103
124
195
100
255
255
255
123
194
100
120
194
100
255
255
255
121
194
103
121
194
102
255
255
255
122
193
101
123
192
102
125
191
107
255
255
255
128
192
111
128
193
108
255
255
255
126
194
105
124
194
103
125
196
103
255
255
255
124
195
102
125
194
103
255
255
255
127
196
105
125
194
103
124
194
103
255
255
255
124
194
103
122
193
102
255
255
255
122
194
101
124
195
104
255
255
255
124
194
106
126
194
108
126
193
106
255
255
255
126
193
105
124
192
104
255
255
255
125
194
106
126
196
107
123
194
107
255
255
255
122
194
106
122
194
104
255
255
255
122
194
101
124
194
101
255
255
255
124
194
106
124
195
109
122
195
108
255
255
255
119
194
109
119
195
113
255
255
255
104
182
112
92
172
111
56
140
86
255
255
255
39
126
80
33
123
85
255
255
255
31
123
90
30
123
93
31
122
90
255
255
255
32
122
89
33
122
90
255
255
255
33
121
90
35
119
91
255
255
255
49
121
96
91
146
128
179
212
201
255
255
255
214
230
224
255
255
255
255
255
255
255
255
255
255
255
255
255
255
255
255
255
255
255
255
255
255
255
255
255
255
255
255
255
255
255
255
255
255
255
255
255
255
255
255
255
255
255
255
255
255
255
255
255
255
255
255
255
255
255
255
255
255
255
255
255
255
255
255
255
255
255
255
255
255
255
255
255
255
255
255
255
255
255
255
255
255
255
255
255
255
255
255
255
255
255
255
255
255
255
255
255
255
255
255
255
255
255
255
255
255
255
255
255
255
255
255
255
255
255
255
255
255
255
255
255
255
255
255
255
255
255
255
255
255
255
255
255
255
255
255
255
255
255
255
255
255
255
255
255
255
255
255
255
255
255
255
255
255
255
255
255
255
255
255
255
255
255
255
255
255
255
255
255
255
255
124
193
102
124
193
101
123
194
101
255
255
255
123
195
101
121
195
100
255
255
255
121
195
100
122
196
101
124
195
103
255
255
255
124
195
104
124
194
105
255
255
255
124
194
105
123
193
104
124
194
105
255
255
255
124
194
104
125
194
103
255
255
255
124
195
103
120
192
99
255
255
255
121
195
103
119
193
103
120
193
105
255
255
255
121
194
104
120
191
100
255
255
255
125
193
107
125
191
108
127
193
109
255
255
255
125
193
106
123
192
101
255
255
255
124
195
102
124
195
101
255
255
255
124
193
101
124
193
102
126
195
104
255
255
255
125
195
103
125
196
104
255
255
255
122
194
104
121
193
103
123
196
104
255
255
255
122
194
105
124
194
108
255
255
255
124
192
105
124
193
104
124
192
103
255
255
255
124
194
104
126
196
107
255
255
255
122
194
106
121
194
106
255
255
255
121
195
105
123
194
102
123
194
100
255
255
255
123
194
104
123
194
109
255
255
255
122
196
110
119
194
111
117
194
114
255
255
255
98
176
109
82
163
107
255
255
255
53
137
86
36
123
79
255
255
255
33
122
85
31
123
90
30
123
94
255
255
255
31
123
91
31
122
89
255
255
255
32
122
90
34
121
91
35
119
91
255
255
255
49
121
97
92
147
129
255
255
255
177
209
198
212
229
223
255
255
255
255
255
255
255
255
255
255
255
255
255
255
255
255
255
255
255
255
255
255
255
255
255
255
255
255
255
255
255
255
255
255
255
255
255
255
255
255
255
255
255
255
255
255
255
255
255
255
255
255
255
255
255
255
255
255
255
255
255
255
255
255
255
255
255
255
255
255
255
255
255
255
255
255
255
255
255
255
255
255
255
255
255
255
255
255
255
255
255
255
255
255
255
255
255
255
255
255
255
255
255
255
255
255
255
255
255
255
255
255
255
255
255
255
255
255
255
255
255
255
255
255
255
255
255
255
255
255
255
255
255
255
255
255
255
255
255
255
255
255
255
255
255
255
255
255
255
255
255
255
255
255
255
255
255
255
255
255
255
255
255
255
255
255
255
255
255
255
255
255
255
255
124
193
102
124
193
101
122
193
99
123
194
100
123
194
100
122
195
101
121
195
100
121
195
100
123
195
102
124
195
103
124
195
103
124
194
104
124
194
104
124
194
105
124
194
105
125
195
106
125
195
106
125
194
105
125
194
104
123
194
106
124
195
105
121
195
108
118
195
110
122
197
108
117
195
111
114
192
110
117
194
114
120
194
108
119
194
112
120
194
110
125
196
107
125
197
111
123
193
111
125
193
110
125
192
107
123
192
105
123
194
101
123
193
101
123
195
100
123
195
101
123
194
100
123
194
101
123
193
101
123
193
102
125
194
103
124
194
103
123
194
104
123
196
105
123
196
106
122
195
105
122
195
105
122
195
104
121
193
104
123
194
105
122
192
103
122
192
101
125
194
102
125
195
103
124
194
103
125
196
103
123
195
103
122
194
105
121
194
104
121
196
105
121
195
105
122
196
102
124
196
99
122
195
103
122
194
103
120
194
108
120
194
114
122
196
112
114
191
114
110
188
116
82
163
102
91
170
106
66
147
97
48
132
88
49
133
86
34
121
82
32
123
87
32
122
86
31
123
91
30
123
94
31
123
91
31
123
91
32
123
89
32
123
89
32
123
90
34
123
92
37
122
94
49
121
97
49
122
97
92
148
129
175
207
196
176
208
197
211
227
222
255
255
255
255
255
255
255
255
255
255
255
255
255
255
255
255
255
255
255
255
255
255
255
255
255
255
255
255
255
255
255
255
255
255
255
255
255
255
255
255
255
255
255
255
255
255
255
255
255
255
255
255
255
255
255
255
255
255
255
255
255
255
255
255
255
255
255
255
255
255
255
255
255
255
255
255
255
255
255
255
255
255
255
255
255
255
255
255
255
255
255
255
255
255
255
255
255
255
255
255
255
255
255
255
255
255
255
255
255
255
255
255
255
255
255
255
255
255
255
255
255
255
255
255
255
255
255
255
255
255
255
255
255
255
255
255
255
255
255
255
255
255
255
255
255
255
255
255
255
255
255
255
255
255
255
255
255
255
255
255
255
255
255
255
255
255
255
255
255
255
255
255
255
255
255
255
255
255
255
255
255
255
255
123
194
101
122
193
99
123
195
100
255
255
255
122
195
101
123
194
102
255
255
255
123
194
102
124
195
103
255
255
255
124
194
103
124
193
103
125
194
105
255
255
255
125
194
105
125
194
105
255
255
255
122
194
107
118
193
108
112
191
110
255
255
255
104
184
106
105
185
108
255
255
255
100
179
105
110
189
115
255
255
255
108
185
107
116
192
112
119
192
111
255
255
255
122
193
113
123
192
110
255
255
255
123
194
105
123
195
101
123
196
102
255
255
255
122
195
102
125
196
104
255
255
255
123
194
102
124
194
103
124
194
104
255
255
255
123
194
105
123
196
106
255
255
255
123
196
106
123
195
106
255
255
255
125
195
106
125
195
104
126
196
101
255
255
255
125
196
101
125
197
103
255
255
255
122
195
101
121
195
103
121
196
105
255
255
255
122
196
103
123
197
98
255
255
255
122
196
103
120
194
108
255
255
255
117
193
115
107
185
112
103
182
115
255
255
255
74
156
98
54
138
90
255
255
255
46
131
89
35
122
84
33
124
88
255
255
255
31
123
91
30
123
94
255
255
255
32
123
91
32
123
89
32
123
88
255
255
255
33
123
91
36
123
94
255
255
255
48
121
96
92
147
128
255
255
255
175
207
196
210
227
221
255
255
255
255
255
255
255
255
255
255
255
255
255
255
255
255
255
255
255
255
255
255
255
255
255
255
255
255
255
255
255
255
255
255
255
255
255
255
255
255
255
255
255
255
255
255
255
255
255
255
255
255
255
255
255
255
255
255
255
255
255
255
255
255
255
255
255
255
255
255
255
255
255
255
255
255
255
255
255
255
255
255
255
255
255
255
255
255
255
255
255
255
255
255
255
255
255
255
255
255
255
255
255
255
255
255
255
255
255
255
255
255
255
255
255
255
255
255
255
255
255
255
255
255
255
255
255
255
255
255
255
255
255
255
255
255
255
255
255
255
255
255
255
255
255
255
255
255
255
255
255
255
255
255
255
255
255
255
255
255
255
255
255
255
255
255
255
255
255
255
255
255
255
255
255
255
255
255
255
255
255
255
255
255
255
255
123
194
100
123
194
100
122
193
100
122
195
101
123
194
102
124
195
103
123
194
102
123
194
102
123
194
102
124
194
102
124
193
102
125
192
102
126
192
103
126
194
105
126
192
104
123
193
109
122
193
109
115
189
110
96
177
103
81
165
96
92
174
101
58
143
78
59
142
83
78
159
92
49
130
74
63
145
88
85
165
99
66
147
87
87
168
102
96
174
106
116
191
115
114
191
120
115
189
116
123
194
111
122
195
113
121
196
107
120
196
105
122
196
103
120
195
105
122
196
106
124
196
104
124
196
105
124
195
105
124
195
106
123
193
104
123
193
104
123
194
105
123
196
106
124
197
107
123
195
106
124
195
106
125
194
105
125
194
101
125
195
99
126
197
100
125
197
99
121
195
101
121
194
99
119
194
100
120
195
104
119
196
105
121
196
104
120
196
102
120
195
104
122
196
102
115
191
105
109
186
113
116
192
117
93
172
107
75
156
97
60
144
92
67
150
95
39
125
82
39
126
88
42
128
89
34
123
88
31
122
87
31
123
90
31
123
91
30
123
92
32
123
91
32
124
92
33
123
89
32
122
87
33
122
89
32
122
90
35
122
93
47
122
96
46
121
96
89
146
127
177
209
198
175
207
196
211
227
222
255
255
255
255
255
255
255
255
255
255
255
255
255
255
255
255
255
255
255
255
255
255
255
255
255
255
255
255
255
255
255
255
255
255
255
255
255
255
255
255
255
255
255
255
255
255
255
255
255
255
255
255
255
255
255
255
255
255
255
255
255
255
255
255
255
255
255
255
255
255
255
255
255
255
255
255
255
255
255
255
255
255
255
255
255
255
255
255
255
255
255
255
255
255
255
255
255
255
255
255
255
255
255
255
255
255
255
255
255
255
255
255
255
255
255
255
255
255
255
255
255
255
255
255
255
255
255
255
255
255
255
255
255
255
255
255
255
255
255
255
255
255
255
255
255
255
255
255
255
255
255
255
255
255
255
255
255
255
255
255
255
255
255
255
255
255
255
255
255
255
255
255
255
255
255
255
255
255
255
255
255
255
255
255
255
255
255
255
255
255
255
255
255
255
255
123
194
101
123
192
101
255
255
255
124
194
102
124
195
103
123
195
103
255
255
255
123
194
102
125
192
102
255
255
255
127
192
102
127
191
102
124
192
110
255
255
255
116
189
112
88
169
99
255
255
255
72
157
92
50
136
77
255
255
255
46
129
78
44
125
79
41
125
78
255
255
255
48
132
82
54
137
83
255
255
255
72
154
95
82
161
99
102
180
116
255
255
255
107
183
113
121
196
116
255
255
255
117
194
109
118
195
109
255
255
255
120
195
109
122
196
108
122
195
104
255
255
255
123
195
106
122
194
105
255
255
255
122
193
104
122
194
105
122
195
106
255
255
255
123
194
106
123
192
102
255
255
255
124
194
101
123
195
100
122
196
103
255
255
255
119
194
104
120
196
107
255
255
255
117
195
108
117
196
106
255
255
255
116
193
106
109
186
104
99
177
106
255
255
255
84
164
101
60
143
87
255
255
255
53
137
89
37
124
83
35
123
88
255
255
255
33
123
89
29
122
88
255
255
255
30
122
89
30
123
91
255
255
255
31
122
90
33
122
89
33
121
87
255
255
255
34
121
89
36
122
93
255
255
255
50
123
98
92
148
129
179
211
200
255
255
255
212
228
223
255
255
255
255
255
255
255
255
255
255
255
255
255
255
255
255
255
255
255
255
255
255
255
255
255
255
255
255
255
255
255
255
255
255
255
255
255
255
255
255
255
255
255
255
255
255
255
255
255
255
255
255
255
255
255
255
255
255
255
255
255
255
255
255
255
255
255
255
255
255
255
255
255
255
255
255
255
255
255
255
255
255
255
255
255
255
255
255
255
255
255
255
255
255
255
255
255
255
255
255
255
255
255
255
255
255
255
255
255
255
255
255
255
255
255
255
255
255
255
255
255
255
255
255
255
255
255
255
255
255
255
255
255
255
255
255
255
255
255
255
255
255
255
255
255
255
255
255
255
255
255
255
255
255
255
255
255
255
255
255
255
255
255
255
255
255
255
255
255
255
255
255
255
255
255
255
255
255
255
255
255
255
255
255
255
255
255
255
255
255
255
255
255
255
255
255
255
255
124
193
102
124
193
103
123
193
101
122
193
101
123
195
102
122
196
102
122
195
102
120
194
100
124
194
101
127
193
103
129
194
104
126
192
109
119
189
114
117
189
113
86
164
102
61
145
90
62
148
88
38
127
76
36
123
79
40
126
79
37
120
86
37
121
88
35
122
87
36
122
82
33
122
85
36
124
83
45
130
81
38
124
80
45
129
83
57
139
92
88
167
110
71
151
99
86
165
104
112
191
115
100
181
110
104
183
109
117
194
113
113
190
114
115
190
112
116
191
110
121
194
106
119
194
110
118
193
110
121
193
107
121
193
110
119
192
109
119
193
111
122
194
108
123
194
113
121
192
111
123
193
106
122
194
111
118
194
110
116
193
111
120
196
108
119
195
116
108
187
110
116
195
112
110
192
116
92
174
99
105
185
103
87
167
97
69
148
86
61
142
87
73
154
94
42
125
75
40
126
82
45
131
85
34
123
85
33
123
90
32
123
91
32
122
91
30
123
92
29
122
90
29
122
89
29
122
91
32
124
91
32
123
91
34
122
90
34
120
87
37
120
90
36
120
89
43
122
95
66
135
112
57
129
105
105
159
141
185
217
206
216
231
226
214
229
224
255
255
255
255
255
255
255
255
255
255
255
255
255
255
255
255
255
255
255
255
255
255
255
255
255
255
255
255
255
255
255
255
255
255
255
255
255
255
255
255
255
255
255
255
255
255
255
255
255
255
255
255
255
255
255
255
255
255
255
255
255
255
255
255
255
255
255
255
255
255
255
255
255
255
255
255
255
255
255
255
255
255
255
255
255
255
255
255
255
255
255
255
255
255
255
255
255
255
255
255
255
255
255
255
255
255
255
255
255
255
255
255
255
255
255
255
255
255
255
255
255
255
255
255
255
255
255
255
255
255
255
255
255
255
255
255
255
255
255
255
255
255
255
255
255
255
255
255
255
255
255
255
255
255
255
255
255
255
255
255
255
255
255
255
255
255
255
255
255
255
255
255
255
255
255
255
255
255
255
255
255
255
255
255
255
255
255
255
255
255
255
255
255
255
255
255
255
255
255
255
255
255
255
255
255
255
255
123
193
103
123
194
101
255
255
255
123
196
101
120
194
99
255
255
255
122
195
100
127
195
103
126
192
109
255
255
255
119
188
114
89
164
105
255
255
255
61
143
92
39
126
80
33
122
80
255
255
255
34
121
87
35
121
92
255
255
255
34
122
92
32
123
90
255
255
255
32
123
90
33
123
86
35
123
83
255
255
255
38
124
83
50
134
90
255
255
255
57
138
92
72
154
98
82
162
98
255
255
255
94
173
106
100
178
110
255
255
255
108
184
111
111
188
111
114
191
113
255
255
255
114
190
112
118
193
116
255
255
255
113
190
113
117
194
119
255
255
255
118
191
116
117
190
114
112
189
113
255
255
255
108
187
111
107
186
112
255
255
255
97
176
106
91
173
106
76
159
93
255
255
255
70
153
89
56
138
83
255
255
255
49
130
80
38
122
77
255
255
255
36
123
81
33
122
86
32
123
90
255
255
255
31
123
92
30
123
92
255
255
255
29
122
91
29
122
91
32
122
91
255
255
255
35
123
91
37
120
89
255
255
255
39
119
90
46
122
97
75
142
119
255
255
255
114
167
149
189
219
209
255
255
255
218
233
228
255
255
255
255
255
255
255
255
255
255
255
255
255
255
255
255
255
255
255
255
255
255
255
255
255
255
255
255
255
255
255
255
255
255
255
255
255
255
255
255
255
255
255
255
255
255
255
255
255
255
255
255
255
255
255
255
255
255
255
255
255
255
255
255
255
255
255
255
255
255
255
255
255
255
255
255
255
255
255
255
255
255
255
255
255
255
255
255
255
255
255
255
255
255
255
255
255
255
255
255
255
255
255
255
255
255
255
255
255
255
255
255
255
255
255
255
255
255
255
255
255
255
255
255
255
255
255
255
255
255
255
255
255
255
255
255
255
255
255
255
255
255
255
255
255
255
255
255
255
255
255
255
255
255
255
255
255
255
255
255
255
255
255
255
255
255
255
255
255
255
255
255
255
255
255
255
255
255
255
255
255
255
255
255
255
255
255
255
255
255
255
255
255
255
255
255
255
255
255
255
255
255
255
255
255
255
255
255
255
255
255
255
255
123
193
101
123
194
100
121
194
100
255
255
255
121
194
100
125
197
103
255
255
255
124
194
108
119
188
114
92
166
108
255
255
255
62
143
96
39
126
83
255
255
255
33
123
82
32
122
86
255
255
255
34
122
92
33
122
95
31
124
93
255
255
255
30
124
91
32
125
94
255
255
255
32
123
88
34
123
86
37
124
86
255
255
255
44
129
89
45
128
87
255
255
255
59
142
90
64
144
87
255
255
255
77
158
100
83
162
101
97
177
108
255
255
255
93
174
102
104
185
112
255
255
255
102
181
110
103
182
112
105
186
117
255
255
255
100
178
111
109
185
117
255
255
255
96
175
107
93
174
107
89
170
104
255
255
255
81
161
99
68
149
91
255
255
255
61
145
87
50
135
78
255
255
255
46
130
81
42
125
81
36
121
80
255
255
255
34
122
83
32
122
87
255
255
255
32
123
91
30
123
92
30
123
92
255
255
255
30
123
92
29
122
91
255
255
255
32
122
90
35
121
90
255
255
255
38
119
90
41
118
90
49
122
98
255
255
255
85
149
127
124
174
157
255
255
255
193
222
212
219
233
228
255
255
255
255
255
255
255
255
255
255
255
255
255
255
255
255
255
255
255
255
255
255
255
255
255
255
255
255
255
255
255
255
255
255
255
255
255
255
255
255
255
255
255
255
255
255
255
255
255
255
255
255
255
255
255
255
255
255
255
255
255
255
255
255
255
255
255
255
255
255
255
255
255
255
255
255
255
255
255
255
255
255
255
255
255
255
255
255
255
255
255
255
255
255
255
255
255
255
255
255
255
255
255
255
255
255
255
255
255
255
255
255
255
255
255
255
255
255
255
255
255
255
255
255
255
255
255
255
255
255
255
255
255
255
255
255
255
255
255
255
255
255
255
255
255
255
255
255
255
255
255
255
255
255
255
255
255
255
255
255
255
255
255
255
255
255
255
255
255
255
255
255
255
255
255
255
255
255
255
255
255
255
255
255
255
255
255
255
255
255
255
255
255
255
255
255
255
255
255
255
255
255
255
255
255
255
255
255
255
255
255
255
255
255
255
255
123
192
100
125
195
101
124
195
101
122
195
100
123
196
101
120
195
106
122
195
107
116
191
112
99
176
115
69
149
103
65
146
99
41
126
87
35
123
86
34
124
85
33
125
88
32
123
89
33
123
91
32
123
93
30
123
93
29
124
94
29
124
93
27
123
92
30
122
93
31
124
93
31
124
92
32
124
89
33
124
89
36
123
89
34
122
90
35
122
88
40
125
85
36
123
84
40
125
82
49
131
82
40
125
81
43
128
81
49
136
83
71
155
91
46
134
76
54
142
83
76
159
94
53
140
83
53
141
85
54
142
89
79
163
103
51
137
85
56
139
89
75
157
97
50
135
83
47
131
81
48
132
84
65
147
92
39
122
78
41
126
83
48
132
82
33
121
79
34
124
83
39
126
81
34
123
86
35
123
91
31
121
90
33
122
86
31
123
91
31
124
92
31
123
91
30
123
92
28
121
90
31
123
92
31
123
92
33
123
92
34
123
92
32
122
90
36
121
90
40
118
90
38
119
89
46
116
91
56
120
99
110
165
146
96
156
136
146
191
175
199
225
216
196
224
214
221
233
229
255
255
255
255
255
255
255
255
255
255
255
255
255
255
255
255
255
255
255
255
255
255
255
255
255
255
255
255
255
255
255
255
255
255
255
255
255
255
255
255
255
255
255
255
255
255
255
255
255
255
255
255
255
255
255
255
255
255
255
255
255
255
255
255
255
255
255
255
255
255
255
255
255
255
255
255
255
255
255
255
255
255
255
255
255
255
255
255
255
255
255
255
255
255
255
255
255
255
255
255
255
255
255
255
255
255
255
255
255
255
255
255
255
255
255
255
255
255
255
255
255
255
255
255
255
255
255
255
255
255
255
255
255
255
255
255
255
255
255
255
255
255
255
255
255
255
255
255
255
255
255
255
255
255
255
255
255
255
255
255
255
255
255
255
255
255
255
255
255
255
255
255
255
255
255
255
255
255
255
255
255
255
255
255
255
255
255
255
255
255
255
255
255
255
255
255
255
255
255
255
255
255
255
255
255
255
255
255
255
255
255
255
255
255
255
255
255
255
255
255
255
255
255
255
255
125
195
101
125
196
100
255
255
255
120
194
104
116
192
111
104
183
118
255
255
255
75
156
107
41
126
87
255
255
255
35
122
86
34
124
88
32
123
88
255
255
255
31
122
90
30
122
91
255
255
255
30
122
93
29
123
94
255
255
255
30
121
93
31
121
92
30
123
90
255
255
255
32
123
89
32
122
89
255
255
255
32
121
90
32
120
87
35
123
85
255
255
255
35
122
83
36
124
84
255
255
255
36
126
82
38
129
80
36
127
76
255
255
255
40
131
80
37
128
78
255
255
255
40
130
83
38
128
83
255
255
255
40
126
83
41
127
83
37
123
79
255
255
255
39
125
83
40
125
86
255
255
255
37
122
84
34
122
84
30
123
85
255
255
255
32
123
88
33
122
93
255
255
255
30
122
93
28
121
93
255
255
255
30
124
94
30
123
93
27
120
91
255
255
255
31
123
93
34
124
93
255
255
255
35
123
93
38
121
92
42
118
91
255
255
255
53
119
96
63
121
101
255
255
255
124
175
158
162
202
188
201
226
218
255
255
255
222
233
229
255
255
255
255
255
255
255
255
255
255
255
255
255
255
255
255
255
255
255
255
255
255
255
255
255
255
255
255
255
255
255
255
255
255
255
255
255
255
255
255
255
255
255
255
255
255
255
255
255
255
255
255
255
255
255
255
255
255
255
255
255
255
255
255
255
255
255
255
255
255
255
255
255
255
255
255
255
255
255
255
255
255
255
255
255
255
255
255
255
255
255
255
255
255
255
255
255
255
255
255
255
255
255
255
255
255
255
255
255
255
255
255
255
255
255
255
255
255
255
255
255
255
255
255
255
255
255
255
255
255
255
255
255
255
255
255
255
255
255
255
255
255
255
255
255
255
255
255
255
255
255
255
255
255
255
255
255
255
255
255
255
255
255
255
255
255
255
255
255
255
255
255
255
255
255
255
255
255
255
255
255
255
255
255
255
255
255
255
255
255
255
255
255
255
255
255
255
255
255
255
255
255
255
255
255
255
255
255
255
255
255
255
255
255
255
255
255
255
255
255
255
255
255
255
255
255
255
255
125
194
99
123
193
102
121
193
102
116
191
106
111
193
120
85
170
112
80
163
110
45
131
86
35
122
84
35
122
85
35
122
87
33
122
87
32
121
87
31
121
88
32
121
88
39
124
94
32
121
91
36
119
91
44
121
97
36
122
95
41
120
96
36
119
93
33
122
92
30
123
89
32
123
90
33
123
90
33
123
90
34
125
92
32
122
90
32
122
87
34
123
86
32
122
87
32
123
89
32
123
86
29
123
89
30
125
87
30
124
85
31
124
80
30
124
86
31
123
86
33
125
83
33
124
89
34
122
89
36
124
86
35
121
89
36
121
90
37
122
89
35
121
84
37
122
93
35
121
91
36
122
88
33
120
89
30
122
88
29
123
89
29
124
89
30
125
93
30
123
93
31
123
95
30
123
96
28
122
96
28
122
95
30
123
95
30
122
93
32
122
94
31
122
93
34
123
95
34
121
91
35
122
92
39
118
91
44
115
91
76
135
115
63
125
103
92
139
124
154
194
181
140
185
170
194
226
215
212
232
225
223
233
230
222
233
229
255
255
255
255
255
255
255
255
255
255
255
255
255
255
255
255
255
255
255
255
255
255
255
255
255
255
255
255
255
255
255
255
255
255
255
255
255
255
255
255
255
255
255
255
255
255
255
255
255
255
255
255
255
255
255
255
255
255
255
255
255
255
255
255
255
255
255
255
255
255
255
255
255
255
255
255
255
255
255
255
255
255
255
255
255
255
255
255
255
255
255
255
255
255
255
255
255
255
255
255
255
255
255
255
255
255
255
255
255
255
255
255
255
255
255
255
255
255
255
255
255
255
255
255
255
255
255
255
255
255
255
255
255
255
255
255
255
255
255
255
255
255
255
255
255
255
255
255
255
255
255
255
255
255
255
255
255
255
255
255
255
255
255
255
255
255
255
255
255
255
255
255
255
255
255
255
255
255
255
255
255
255
255
255
255
255
255
255
255
255
255
255
255
255
255
255
255
255
255
255
255
255
255
255
255
255
255
255
255
255
255
255
255
255
255
255
255
255
255
255
255
255
255
255
255
255
255
255
255
255
255
255
255
255
255
255
255
120
193
106
113
194
118
255
255
255
90
175
112
47
134
85
36
123
82
255
255
255
35
122
85
35
122
87
255
255
255
34
121
87
35
121
88
255
255
255
47
128
98
51
128
101
53
120
99
255
255
255
57
125
104
43
117
94
255
255
255
38
120
93
35
122
92
33
122
90
255
255
255
34
124
92
35
126
95
255
255
255
32
123
90
31
122
88
255
255
255
32
123
90
31
123
91
29
124
91
255
255
255
30
124
89
30
122
87
255
255
255
30
123
89
31
122
90
34
121
91
255
255
255
34
120
91
35
119
91
255
255
255
37
121
92
38
122
94
35
121
93
255
255
255
33
120
91
32
121
89
255
255
255
29
123
89
30
125
92
255
255
255
30
123
90
30
123
93
30
124
97
255
255
255
31
123
95
33
123
94
255
255
255
33
122
94
35
122
95
33
119
91
255
255
255
41
120
93
45
114
90
255
255
255
90
146
127
118
161
146
255
255
255
167
202
190
205
233
223
216
233
228
255
255
255
225
234
230
255
255
255
255
255
255
255
255
255
255
255
255
255
255
255
255
255
255
255
255
255
255
255
255
255
255
255
255
255
255
255
255
255
255
255
255
255
255
255
255
255
255
255
255
255
255
255
255
255
255
255
255
255
255
255
255
255
255
255
255
255
255
255
255
255
255
255
255
255
255
255
255
255
255
255
255
255
255
255
255
255
255
255
255
255
255
255
255
255
255
255
255
255
255
255
255
255
255
255
255
255
255
255
255
255
255
255
255
255
255
255
255
255
255
255
255
255
255
255
255
255
255
255
255
255
255
255
255
255
255
255
255
255
255
255
255
255
255
255
255
255
255
255
255
255
255
255
255
255
255
255
255
255
255
255
255
255
255
255
255
255
255
255
255
255
255
255
255
255
255
255
255
255
255
255
255
255
255
255
255
255
255
255
255
255
255
255
255
255
255
255
255
255
255
255
255
255
255
255
255
255
255
255
255
255
255
255
255
255
255
255
255
255
255
255
255
255
255
255
255
255
255
255
255
255
255
255
255
255
255
255
255
255
255
255
255
255
255
255
255
255
255
255
116
195
116
93
178
110
50
138
84
255
255
255
36
124
80
34
122
84
255
255
255
35
122
87
36
121
87
37
121
88
255
255
255
60
137
108
69
140
114
255
255
255
100
159
139
78
131
115
255
255
255
75
135
117
46
116
94
40
121
93
255
255
255
36
121
91
33
121
90
255
255
255
35
124
93
35
125
94
32
122
90
255
255
255
31
121
90
32
123
93
255
255
255
30
122
91
30
124
92
31
122
90
255
255
255
32
123
90
30
122
91
255
255
255
34
123
94
34
120
92
255
255
255
33
118
92
35
120
92
38
122
93
255
255
255
35
120
92
34
121
93
255
255
255
33
122
90
31
123
89
30
125
91
255
255
255
30
123
89
31
121
88
255
255
255
32
123
93
32
122
94
255
255
255
34
123
93
36
121
92
37
121
94
255
255
255
37
119
92
45
124
97
255
255
255
54
121
98
105
156
139
145
184
171
255
255
255
178
208
198
213
236
229
255
255
255
220
234
229
226
232
230
255
255
255
255
255
255
255
255
255
255
255
255
255
255
255
255
255
255
255
255
255
255
255
255
255
255
255
255
255
255
255
255
255
255
255
255
255
255
255
255
255
255
255
255
255
255
255
255
255
255
255
255
255
255
255
255
255
255
255
255
255
255
255
255
255
255
255
255
255
255
255
255
255
255
255
255
255
255
255
255
255
255
255
255
255
255
255
255
255
255
255
255
255
255
255
255
255
255
255
255
255
255
255
255
255
255
255
255
255
255
255
255
255
255
255
255
255
255
255
255
255
255
255
255
255
255
255
255
255
255
255
255
255
255
255
255
255
255
255
255
255
255
255
255
255
255
255
255
255
255
255
255
255
255
255
255
255
255
255
255
255
255
255
255
255
255
255
255
255
255
255
255
255
255
255
255
255
255
255
255
255
255
255
255
255
255
255
255
255
255
255
255
255
255
255
255
255
255
255
255
255
255
255
255
255
255
255
255
255
255
255
255
255
255
255
255
255
255
255
255
255
255
255
255
255
255
255
255
255
255
255
255
255
255
255
255
255
255
255
255
255
255
255
255
255
255
97
181
111
62
150
88
37
128
78
37
126
79
31
120
81
35
121
86
36
122
86
38
122
88
40
120
87
70
142
113
67
141
112
108
170
146
160
204
188
140
190
172
194
225
215
173
203
195
119
162
149
155
190
179
107
157
141
65
129
106
46
123
95
52
126
98
40
119
91
34
120
90
37
119
91
36
120
92
35
123
94
31
121
91
32
120
92
35
122
94
31
121
92
32
120
92
34
122
94
35
122
95
34
123
92
36
123
95
33
122
94
35
123
95
37
123
96
34
120
93
32
118
91
34
122
93
36
123
93
36
121
92
35
120
92
33
120
90
32
123
91
35
123
92
32
122
89
30
123
88
30
125
88
29
124
89
30
123
87
34
121
88
33
121
89
36
120
89
36
119
89
34
120
89
40
117
89
46
119
92
51
120
95
42
119
93
73
139
117
99
159
139
71
136
114
139
185
169
194
223
213
202
222
215
190
215
207
219
233
228
224
233
230
222
234
230
227
231
230
255
255
255
255
255
255
255
255
255
255
255
255
255
255
255
255
255
255
255
255
255
255
255
255
255
255
255
255
255
255
255
255
255
255
255
255
255
255
255
255
255
255
255
255
255
255
255
255
255
255
255
255
255
255
255
255
255
255
255
255
255
255
255
255
255
255
255
255
255
255
255
255
255
255
255
255
255
255
255
255
255
255
255
255
255
255
255
255
255
255
255
255
255
255
255
255
255
255
255
255
255
255
255
255
255
255
255
255
255
255
255
255
255
255
255
255
255
255
255
255
255
255
255
255
255
255
255
255
255
255
255
255
255
255
255
255
255
255
255
255
255
255
255
255
255
255
255
255
255
255
255
255
255
255
255
255
255
255
255
255
255
255
255
255
255
255
255
255
255
255
255
255
255
255
255
255
255
255
255
255
255
255
255
255
255
255
255
255
255
255
255
255
255
255
255
255
255
255
255
255
255
255
255
255
255
255
255
255
255
255
255
255
255
255
255
255
255
255
255
255
255
255
255
255
255
255
255
255
255
255
255
255
255
255
255
255
255
255
255
255
255
255
255
255
255
255
255
255
255
255
255
255
255
255
255
43
134
83
28
119
79
34
122
86
255
255
255
37
121
88
41
119
87
255
255
255
69
138
110
114
172
148
255
255
255
171
211
196
208
233
225
213
232
227
255
255
255
193
215
209
187
218
208
255
255
255
125
171
154
82
143
120
60
130
104
255
255
255
46
120
94
40
118
92
255
255
255
39
120
93
37
123
96
255
255
255
37
121
95
38
121
96
36
120
94
255
255
255
36
120
94
37
121
95
255
255
255
33
121
92
33
122
94
35
121
94
255
255
255
34
122
93
37
127
96
255
255
255
35
122
92
34
122
92
30
123
90
255
255
255
32
123
90
28
119
84
255
255
255
29
123
87
30
124
88
255
255
255
35
121
88
39
119
89
40
119
90
255
255
255
47
120
93
54
121
96
255
255
255
69
130
107
92
149
128
129
183
165
255
255
255
158
199
185
209
235
226
255
255
255
212
228
222
221
232
228
255
255
255
225
231
230
228
230
230
255
255
255
255
255
255
255
255
255
255
255
255
255
255
255
255
255
255
255
255
255
255
255
255
255
255
255
255
255
255
255
255
255
255
255
255
255
255
255
255
255
255
255
255
255
255
255
255
255
255
255
255
255
255
255
255
255
255
255
255
255
255
255
255
255
255
255
255
255
255
255
255
255
255
255
255
255
255
255
255
255
255
255
255
255
255
255
255
255
255
255
255
255
255
255
255
255
255
255
255
255
255
255
255
255
255
255
255
255
255
255
255
255
255
255
255
255
255
255
255
255
255
255
255
255
255
255
255
255
255
255
255
255
255
255
255
255
255
255
255
255
255
255
255
255
255
255
255
255
255
255
255
255
255
255
255
255
255
255
255
255
255
255
255
255
255
255
255
255
255
255
255
255
255
255
255
255
255
255
255
255
255
255
255
255
255
255
255
255
255
255
255
255
255
255
255
255
255
255
255
255
255
255
255
255
255
255
255
255
255
255
255
255
255
255
255
255
255
255
255
255
255
255
255
255
255
255
255
255
255
255
255
255
255
255
255
255
255
255
255
255
255
255
255
255
255
255
255
255
255
255
255
255
255
255
255
255
255
31
123
82
31
123
88
36
123
91
36
121
89
37
119
87
61
130
101
67
135
106
102
157
134
174
209
194
176
212
197
220
237
230
224
231
229
227
231
230
221
231
229
222
227
226
216
229
224
203
228
219
215
236
227
159
198
183
133
184
164
74
138
114
93
147
126
83
139
120
45
117
94
53
118
98
52
123
101
38
120
94
42
116
93
45
117
95
43
117
95
38
118
94
40
117
93
38
118
92
33
119
91
33
117
89
35
121
92
34
121
92
33
121
92
32
122
92
35
123
93
33
123
93
32
120
91
32
122
91
32
122
90
31
124
91
34
124
92
35
120
89
29
120
86
33
121
89
39
122
92
36
123
91
51
125
99
55
119
96
79
138
116
56
124
99
84
140
119
128
174
157
98
151
131
147
187
172
188
223
209
197
226
215
177
212
200
218
235
230
223
233
230
219
232
228
226
231
229
229
231
230
227
232
230
230
231
230
255
255
255
255
255
255
255
255
255
255
255
255
255
255
255
255
255
255
255
255
255
255
255
255
255
255
255
255
255
255
255
255
255
255
255
255
255
255
255
255
255
255
255
255
255
255
255
255
255
255
255
255
255
255
255
255
255
255
255
255
255
255
255
255
255
255
255
255
255
255
255
255
255
255
255
255
255
255
255
255
255
255
255
255
255
255
255
255
255
255
255
255
255
255
255
255
255
255
255
255
255
255
255
255
255
255
255
255
255
255
255
255
255
255
255
255
255
255
255
255
255
255
255
255
255
255
255
255
255
255
255
255
255
255
255
255
255
255
255
255
255
255
255
255
255
255
255
255
255
255
255
255
255
255
255
255
255
255
255
255
255
255
255
255
255
255
255
255
255
255
255
255
255
255
255
255
255
255
255
255
255
255
255
255
255
255
255
255
255
255
255
255
255
255
255
255
255
255
255
255
255
255
255
255
255
255
255
255
255
255
255
255
255
255
255
255
255
255
255
255
255
255
255
255
255
255
255
255
255
255
255
255
255
255
255
255
255
255
255
255
255
255
255
255
255
255
255
255
255
255
255
255
255
255
255
255
255
255
255
255
255
255
255
255
255
255
255
32
123
91
35
120
87
255
255
255
54
126
97
91
147
124
171
205
190
255
255
255
220
236
229
226
231
229
255
255
255
229
229
229
231
231
231
255
255
255
227
229
228
224
233
229
221
239
231
255
255
255
181
214
200
170
212
194
255
255
255
130
170
155
114
158
144
74
130
113
255
255
255
70
133
114
47
112
93
255
255
255
56
122
102
47
116
95
45
119
96
255
255
255
42
119
93
35
117
89
255
255
255
38
121
93
33
119
90
255
255
255
37
122
93
38
121
93
35
120
93
255
255
255
37
122
93
35
120
91
255
255
255
43
122
95
45
123
96
43
120
93
255
255
255
68
135
112
72
128
111
255
255
255
105
155
138
119
166
150
255
255
255
158
196
184
176
208
197
200
228
218
255
255
255
211
234
225
220
234
229
255
255
255
225
233
230
228
231
230
229
230
230
255
255
255
230
230
230
255
255
255
255
255
255
255
255
255
255
255
255
255
255
255
255
255
255
255
255
255
255
255
255
255
255
255
255
255
255
255
255
255
255
255
255
255
255
255
255
255
255
255
255
255
255
255
255
255
255
255
255
255
255
255
255
255
255
255
255
255
255
255
255
255
255
255
255
255
255
255
255
255
255
255
255
255
255
255
255
255
255
255
255
255
255
255
255
255
255
255
255
255
255
255
255
255
255
255
255
255
255
255
255
255
255
255
255
255
255
255
255
255
255
255
255
255
255
255
255
255
255
255
255
255
255
255
255
255
255
255
255
255
255
255
255
255
255
255
255
255
255
255
255
255
255
255
255
255
255
255
255
255
255
255
255
255
255
255
255
255
255
255
255
255
255
255
255
255
255
255
255
255
255
255
255
255
255
255
255
255
255
255
255
255
255
255
255
255
255
255
255
255
255
255
255
255
255
255
255
255
255
255
255
255
255
255
255
255
255
255
255
255
255
255
255
255
255
255
255
255
255
255
255
255
255
255
255
255
255
255
255
255
255
255
255
255
255
255
255
255
255
255
255
255
255
255
255
255
255
255
255
255
255
255
255
255
255
255
255
255
255
255
255
255
255
255
255
255
255
34
121
89
44
120
91
48
122
93
68
129
104
158
193
180
218
233
228
219
235
228
226
231
229
229
228
228
229
227
228
229
224
225
233
229
230
232
230
231
232
230
230
229
229
228
227
233
228
223
238
230
221
233
225
216
234
226
191
219
208
208
223
218
200
219
213
175
204
195
109
158
143
160
201
188
131
175
161
79
134
117
118
164
149
99
151
135
90
147
129
55
124
102
75
135
115
80
143
122
45
121
95
59
128
105
68
137
114
43
121
95
67
134
111
66
130
110
77
141
122
46
122
98
61
125
106
91
149
131
59
129
106
94
149
132
115
168
152
127
175
161
88
147
129
158
196
188
167
198
191
137
177
165
196
223
215
198
221
215
179
210
201
214
232
228
220
234
231
222
235
231
218
235
229
225
234
231
226
229
228
225
230
229
228
229
229
228
229
229
230
229
229
230
230
230
255
255
255
255
255
255
255
255
255
255
255
255
255
255
255
255
255
255
255
255
255
255
255
255
255
255
255
255
255
255
255
255
255
255
255
255
255
255
255
255
255
255
255
255
255
255
255
255
255
255
255
255
255
255
255
255
255
255
255
255
255
255
255
255
255
255
255
255
255
255
255
255
255
255
255
255
255
255
255
255
255
255
255
255
255
255
255
255
255
255
255
255
255
255
255
255
255
255
255
255
255
255
255
255
255
255
255
255
255
255
255
255
255
255
255
255
255
255
255
255
255
255
255
255
255
255
255
255
255
255
255
255
255
255
255
255
255
255
255
255
255
255
255
255
255
255
255
255
255
255
255
255
255
255
255
255
255
255
255
255
255
255
255
255
255
255
255
255
255
255
255
255
255
255
255
255
255
255
255
255
255
255
255
255
255
255
255
255
255
255
255
255
255
255
255
255
255
255
255
255
255
255
255
255
255
255
255
255
255
255
255
255
255
255
255
255
255
255
255
255
255
255
255
255
255
255
255
255
255
255
255
255
255
255
255
255
255
255
255
255
255
255
255
255
255
255
255
255
255
255
255
255
255
255
255
255
255
255
255
255
255
255
255
255
255
255
255
255
255
255
255
255
255
255
255
255
255
255
255
58
121
97
149
187
172
255
255
255
214
230
225
226
230
229
255
255
255
230
229
229
230
226
228
231
226
227
255
255
255
233
229
230
231
229
228
255
255
255
229
229
227
226
230
226
225
233
228
255
255
255
224
232
230
222
229
227
255
255
255
219
233
228
199
223
215
255
255
255
190
223
212
166
201
189
160
198
186
255
255
255
135
179
165
136
184
168
255
255
255
122
170
154
118
170
152
112
169
150
255
255
255
105
161
142
119
168
152
255
255
255
114
165
150
122
173
158
133
177
164
255
255
255
139
180
168
157
198
186
255
255
255
164
201
192
189
217
212
255
255
255
196
219
215
214
233
229
212
228
224
255
255
255
221
234
231
223
232
231
255
255
255
225
233
232
227
233
231
227
230
229
255
255
255
228
228
228
229
229
229
255
255
255
229
229
229
255
255
255
255
255
255
255
255
255
255
255
255
255
255
255
255
255
255
255
255
255
255
255
255
255
255
255
255
255
255
255
255
255
255
255
255
255
255
255
255
255
255
255
255
255
255
255
255
255
255
255
255
255
255
255
255
255
255
255
255
255
255
255
255
255
255
255
255
255
255
255
255
255
255
255
255
255
255
255
255
255
255
255
255
255
255
255
255
255
255
255
255
255
255
255
255
255
255
255
255
255
255
255
255
255
255
255
255
255
255
255
255
255
255
255
255
255
255
255
255
255
255
255
255
255
255
255
255
255
255
255
255
255
255
255
255
255
255
255
255
255
255
255
255
255
255
255
255
255
255
255
255
255
255
255
255
255
255
255
255
255
255
255
255
255
255
255
255
255
255
255
255
255
255
255
255
255
255
255
255
255
255
255
255
255
255
255
255
255
255
255
255
255
255
255
255
255
255
255
255
255
255
255
255
255
255
255
255
255
255
255
255
255
255
255
255
255
255
255
255
255
255
255
255
255
255
255
255
255
255
255
255
255
255
255
255
255
255
255
255
255
255
255
255
255
255
255
255
255
255
255
255
255
255
255
255
255
255
255
255
255
255
255
255
255
255
255
255
255
255
255
255
255
255
255
255
255
255
255
255
255
255
255
255
255
141
181
166
208
227
221
225
230
229
255
255
255
230
230
230
231
229
230
255
255
255
231
228
229
232
228
229
255
255
255
231
230
228
230
229
227
230
229
227
255
255
255
228
230
228
229
233
232
255
255
255
229
231
230
227
231
230
224
234
231
255
255
255
211
230
223
213
238
229
255
255
255
194
222
212
192
222
212
182
217
205
255
255
255
172
208
195
178
214
202
255
255
255
159
201
186
160
203
188
255
255
255
163
200
187
162
198
187
178
216
205
255
255
255
172
204
195
194
219
212
255
255
255
189
217
209
196
223
216
212
231
229
255
255
255
211
227
225
223
234
234
255
255
255
221
232
229
223
231
229
255
255
255
226
231
231
226
231
230
228
232
231
255
255
255
228
230
230
229
229
229
255
255
255
230
230
230
230
230
230
255
255
255
255
255
255
255
255
255
255
255
255
255
255
255
255
255
255
255
255
255
255
255
255
255
255
255
255
255
255
255
255
255
255
255
255
255
255
255
255
255
255
255
255
255
255
255
255
255
255
255
255
255
255
255
255
255
255
255
255
255
255
255
255
255
255
255
255
255
255
255
255
255
255
255
255
255
255
255
255
255
255
255
255
255
255
255
255
255
255
255
255
255
255
255
255
255
255
255
255
255
255
255
255
255
255
255
255
255
255
255
255
255
255
255
255
255
255
255
255
255
255
255
255
255
255
255
255
255
255
255
255
255
255
255
255
255
255
255
255
255
255
255
255
255
255
255
255
255
255
255
255
255
255
255
255
255
255
255
255
255
255
255
255
255
255
255
255
255
255
255
255
255
255
255
255
255
255
255
255
255
255
255
255
255
255
255
255
255
255
255
255
255
255
255
255
255
255
255
255
255
255
255
255
255
255
255
255
255
255
255
255
255
255
255
255
255
255
255
255
255
255
255
255
255
255
255
255
255
255
255
255
255
255
255
255
255
255
255
255
255
255
255
255
255
255
255
255
255
255
255
255
255
255
255
255
255
255
255
255
255
255
255
255
255
255
255
255
255
255
255
255
255
255
255
255
255
255
255
255
255
255
255
255
255
255
255
255
203
223
216
222
229
228
230
230
232
230
230
231
232
231
232
230
230
230
231
231
231
231
232
231
230
231
229
231
230
229
229
230
228
229
230
228
231
231
230
230
229
228
230
230
230
229
230
230
229
230
230
230
230
230
228
228
228
226
228
227
224
232
230
224
230
228
223
233
229
219
236
228
223
234
228
219
233
226
217
233
226
205
231
221
218
234
226
214
231
223
202
228
218
218
236
228
213
232
222
199
226
216
218
233
226
218
230
225
218
230
226
205
226
220
225
232
229
224
230
227
215
229
225
224
233
229
222
230
228
226
231
231
223
233
232
227
230
231
226
232
230
227
234
233
229
232
231
229
229
228
228
230
230
229
229
229
227
229
228
229
230
230
229
231
230
230
230
230
231
231
231
231
231
231
231
231
231
255
255
255
255
255
255
255
255
255
255
255
255
255
255
255
255
255
255
255
255
255
255
255
255
255
255
255
255
255
255
255
255
255
255
255
255
255
255
255
255
255
255
255
255
255
255
255
255
255
255
255
255
255
255
255
255
255
255
255
255
255
255
255
255
255
255
255
255
255
255
255
255
255
255
255
255
255
255
255
255
255
255
255
255
255
255
255
255
255
255
255
255
255
255
255
255
255
255
255
255
255
255
255
255
255
255
255
255
255
255
255
255
255
255
255
255
255
255
255
255
255
255
255
255
255
255
255
255
255
255
255
255
255
255
255
255
255
255
255
255
255
255
255
255
255
255
255
255
255
255
255
255
255
255
255
255
255
255
255
255
255
255
255
255
255
255
255
255
255
255
255
255
255
255
255
255
255
255
255
255
255
255
255
255
255
255
255
255
255
255
255
255
255
255
255
255
255
255
255
255
255
255
255
255
255
255
255
255
255
255
255
255
255
255
255
255
255
255
255
255
255
255
255
255
255
255
255
255
255
255
255
255
255
255
255
255
255
255
255
255
255
255
255
255
255
255
255
255
255
255
255
255
255
255
255
255
255
255
255
255
255
255
255
255
255
255
255
255
255
255
255
255
255
255
255
255
255
255
255
255
255
255
255
255
255
255
255
255
255
255
255
255
255
255
255
255
255
229
230
232
231
229
232
255
255
255
230
229
230
229
230
229
228
232
229
255
255
255
228
231
228
227
228
225
255
255
255
230
230
229
231
231
231
230
230
230
255
255
255
230
230
230
232
232
232
255
255
255
229
229
229
227
229
228
255
255
255
227
231
230
226
232
229
225
231
226
255
255
255
223
232
227
223
233
228
255
255
255
223
232
227
223
232
227
221
232
224
255
255
255
224
234
227
226
230
227
255
255
255
226
230
228
230
232
231
230
229
228
255
255
255
229
231
228
225
230
226
255
255
255
227
231
229
230
231
231
255
255
255
226
230
227
227
231
228
228
229
227
255
255
255
229
229
229
228
228
228
255
255
255
230
230
230
230
230
230
230
230
230
255
255
255
230
230
230
255
255
255
255
255
255
255
255
255
255
255
255
255
255
255
255
255
255
255
255
255
255
255
255
255
255
255
255
255
255
255
255
255
255
255
255
255
255
255
255
255
255
255
255
255
255
255
255
255
255
255
255
255
255
255
255
255
255
255
255
255
255
255
255
255
255
255
255
255
255
255
255
255
255
255
255
255
255
255
255
255
255
255
255
255
255
255
255
255
255
255
255
255
255
255
255
255
255
255
255
255
255
255
255
255
255
255
255
255
255
255
255
255
255
255
255
255
255
255
255
255
255
255
255
255
255
255
255
255
255
255
255
255
255
255
255
255
255
255
255
255
255
255
255
255
255
255
255
255
255
255
255
255
255
255
255
255
255
255
255
255
255
255
255
255
255
255
255
255
255
255
255
255
255
255
255
255
255
255
255
255
255
255
255
255
255
255
255
255
255
255
255
255
255
255
255
255
255
255
255
255
255
255
255
255
255
255
255
255
255
255
255
255
255
255
255
255
255
255
255
255
255
255
255
255
255
255
255
255
255
255
255
255
255
255
255
255
255
255
255
255
255
255
255
255
255
255
255
255
255
255
255
255
255
255
255
255
255
255
255
255
255
255
255
255
255
255
255
255
255
255
255
255
255
255
255
255
255
255
255
255
255
255
255
255
255
255
255
255
255
255
255
255
255
255
255
255
255
255
255
231
229
232
231
229
231
231
229
231
231
229
229
228
230
228
227
232
228
227
232
228
227
233
229
228
230
228
227
228
226
228
228
228
230
230
230
229
229
229
230
230
230
231
231
231
230
230
230
232
232
232
233
233
233
230
230
230
229
230
229
229
230
230
226
228
227
227
229
228
226
230
226
228
230
227
228
231
228
227
233
229
229
232
229
228
230
226
228
231
226
226
232
225
232
234
229
230
229
227
229
229
227
231
227
227
233
230
229
233
229
227
232
230
228
232
232
228
229
231
226
227
231
226
229
231
227
228
232
228
227
230
228
226
231
226
227
232
226
229
230
227
229
229
228
230
230
230
230
230
230
230
230
230
230
230
230
228
228
228
229
229
229
229
229
229
255
255
255
255
255
255
255
255
255
255
255
255
255
255
255
255
255
255
255
255
255
255
255
255
255
255
255
255
255
255
255
255
255
255
255
255
255
255
255
255
255
255
255
255
255
255
255
255
255
255
255
255
255
255
255
255
255
255
255
255
255
255
255
255
255
255
255
255
255
255
255
255
255
255
255
255
255
255
255
255
255
255
255
255
255
255
255
255
255
255
255
255
255
255
255
255
255
255
255
255
255
255
255
255
255
255
255
255
255
255
255
255
255
255
255
255
255
255
255
255
255
255
255
255
255
255
255
255
255
255
255
255
255
255
255
255
255
255
255
255
255
255
255
255
255
255
255
255
255
255
255
255
255
255
255
255
255
255
255
255
255
255
255
255
255
255
255
255
255
255
255
255
255
255
255
255
255
255
255
255
255
255
255
255
255
255
255
255
255
255
255
255
255
255
255
255
255
255
255
255
255
255
255
255
255
255
255
255
255
255
255
255
255
255
255
255
255
255
255
255
255
255
255
255
255
255
255
255
255
255
255
255
255
255
255
255
255
255
255
255
255
255
255
255
255
255
255
255
255
255
255
255
255
255
255
255
255
255
255
255
255
255
255
255
255
255
255
255
255
255
255
255
255
255
255
255
255
255
255
255
255
255
255
255
255
255
255
255
255
255
255
255
255
255
255
255
255
255
255
255
255
255
255
255
255
255
255
255
255
231
229
231
230
229
228
255
255
255
229
232
229
228
233
229
255
255
255
230
234
232
230
231
230
230
230
230
255
255
255
230
230
230
229
229
229
255
255
255
229
229
229
229
229
229
232
232
232
255
255
255
230
230
230
229
230
229
255
255
255
229
230
229
230
231
230
229
229
227
255
255
255
230
231
228
228
229
226
255
255
255
229
230
227
231
231
228
255
255
255
231
230
228
230
227
227
232
227
226
255
255
255
233
228
227
230
227
224
255
255
255
230
231
227
228
231
226
230
234
229
255
255
255
227
232
227
228
233
227
255
255
255
228
231
227
230
230
229
255
255
255
230
230
230
230
230
230
228
228
228
255
255
255
229
229
229
255
255
255
255
255
255
255
255
255
255
255
255
255
255
255
255
255
255
255
255
255
255
255
255
255
255
255
255
255
255
255
255
255
255
255
255
255
255
255
255
255
255
255
255
255
255
255
255
255
255
255
255
255
255
255
255
255
255
255
255
255
255
255
255
255
255
255
255
255
255
255
255
255
255
255
255
255
255
255
255
255
255
255
255
255
255
255
255
255
255
255
255
255
255
255
255
255
255
255
255
255
255
255
255
255
255
255
255
255
255
255
255
255
255
255
255
255
255
255
255
255
255
255
255
255
255
255
255
255
255
255
255
255
255
255
255
255
255
255
255
255
255
255
255
255
255
255
255
255
255
255
255
255
255
255
255
255
255
255
255
255
255
255
255
255
255
255
255
255
255
255
255
255
255
255
255
255
255
255
255
255
255
255
255
255
255
255
255
255
255
255
255
255
255
255
255
255
255
255
255
255
255
255
255
255
255
255
255
255
255
255
255
255
255
255
255
255
255
255
255
255
255
255
255
255
255
255
255
255
255
255
255
255
255
255
255
255
255
255
255
255
255
255
255
255
255
255
255
255
255
255
255
255
255
255
255
255
255
255
255
255
255
255
255
255
255
255
255
255
255
255
255
255
255
255
255
255
255
255
255
255
255
255
255
255
255
255
255
255
255
255
255
255
255
255
255
255
255
255
255
255
255
255
255
255
255
255
255
255
255
255
255
255
255
255
231
229
229
231
231
229
230
233
230
255
255
255
237
241
238
235
236
236
255
255
255
237
237
237
231
231
231
229
229
229
255
255
255
229
229
229
227
227
227
255
255
255
229
229
229
230
230
230
255
255
255
229
229
229
231
231
231
232
232
232
255
255
255
230
230
229
229
229
228
255
255
255
229
229
227
229
228
227
230
230
229
255
255
255
230
229
228
230
227
229
255
255
255
232
227
229
233
228
228
231
227
224
255
255
255
230
229
225
228
230
225
255
255
255
228
231
227
228
233
229
255
255
255
227
232
227
229
232
228
230
230
228
255
255
255
230
230
229
230
230
230
255
255
255
229
229
229
229
229
229
255
255
255
255
255
255
255
255
255
255
255
255
255
255
255
255
255
255
255
255
255
255
255
255
255
255
255
255
255
255
255
255
255
255
255
255
255
255
255
255
255
255
255
255
255
255
255
255
255
255
255
255
255
255
255
255
255
255
255
255
255
255
255
255
255
255
255
255
255
255
255
255
255
255
255
255
255
255
255
255
255
255
255
255
255
255
255
255
255
255
255
255
255
255
255
255
255
255
255
255
255
255
255
255
255
255
255
255
255
255
255
255
255
255
255
255
255
255
255
255
255
255
255
255
255
255
255
255
255
255
255
255
255
255
255
255
255
255
255
255
255
255
255
255
255
255
255
255
255
255
255
255
255
255
255
255
255
255
255
255
255
255
255
255
255
255
255
255
255
255
255
255
255
255
255
255
255
255
255
255
255
255
255
255
255
255
255
255
255
255
255
255
255
255
255
255
255
255
255
255
255
255
255
255
255
255
255
255
255
255
255
255
255
255
255
255
255
255
255
255
255
255
255
255
255
255
255
255
255
255
255
255
255
255
255
255
255
255
255
255
255
255
255
255
255
255
255
255
255
255
255
255
255
255
255
255
255
255
255
255
255
255
255
255
255
255
255
255
255
255
255
255
255
255
255
255
255
255
255
255
255
255
255
255
255
255
255
255
255
255
255
255
255
255
255
255
255
255
255
255
255
255
255
255
255
255
255
255
255
255
255
255
255
255
255
255
255
255
232
231
230
235
234
232
244
245
244
242
244
242
253
254
253
249
250
249
244
245
245
250
250
250
242
242
242
234
234
234
231
231
231
232
232
232
229
229
229
228
228
228
229
229
229
230
230
230
228
228
228
227
227
227
231
231
231
231
231
231
230
230
230
230
230
230
232
231
231
231
229
229
231
229
230
232
230
231
232
230
232
230
229
229
230
228
230
230
227
231
232
228
232
233
228
232
234
229
231
234
230
228
231
228
226
232
230
227
231
231
228
228
230
226
228
230
228
227
231
228
225
230
226
227
231
228
230
231
229
230
231
230
229
230
229
229
229
229
230
230
230
230
230
230
229
229
229
255
255
255
255
255
255
255
255
255
255
255
255
255
255
255
255
255
255
255
255
255
255
255
255
255
255
255
255
255
255
255
255
255
255
255
255
255
255
255
255
255
255
255
255
255
255
255
255
255
255
255
255
255
255
255
255
255
255
255
255
255
255
255
255
255
255
255
255
255
255
255
255
255
255
255
255
255
255
255
255
255
255
255
255
255
255
255
255
255
255
255
255
255
255
255
255
255
255
255
255
255
255
255
255
255
255
255
255
255
255
255
255
255
255
255
255
255
255
255
255
255
255
255
255
255
255
255
255
255
255
255
255
255
255
255
255
255
255
255
255
255
255
255
255
255
255
255
255
255
255
255
255
255
255
255
255
255
255
255
255
255
255
255
255
255
255
255
255
255
255
255
255
255
255
255
255
255
255
255
255
255
255
255
255
255
255
255
255
255
255
255
255
255
255
255
255
255
255
255
255
255
255
255
255
255
255
255
255
255
255
255
255
255
255
255
255
255
255
255
255
255
255
255
255
255
255
255
255
255
255
255
255
255
255
255
255
255
255
255
255
255
255
255
255
255
255
255
255
255
255
255
255
255
255
255
255
255
255
255
255
255
255
255
255
255
255
255
255
255
255
255
255
255
255
255
255
255
255
255
255
255
255
255
255
255
255
255
255
255
255
255
255
255
255
255
255
255
255
255
255
255
255
255
255
255
255
255
255
255
255
255
255
255
255
255
255
255
255
255
255
255
255
255
255
255
255
255
245
245
244
254
254
254
255
255
255
252
253
252
252
252
252
252
252
252
255
255
255
244
244
244
238
238
238
255
255
255
235
235
235
230
230
230
232
232
232
255
255
255
229
229
229
226
226
226
255
255
255
230
230
230
229
229
229
231
231
231
255
255
255
231
230
231
232
230
231
255
255
255
230
229
231
232
230
233
255
255
255
229
227
232
230
227
232
232
227
231
255
255
255
233
228
230
232
228
227
255
255
255
233
231
229
231
231
229
230
231
230
255
255
255
228
230
229
230
232
231
255
255
255
229
230
229
230
230
230
255
255
255
230
230
230
230
230
230
255
255
255
255
255
255
255
255
255
255
255
255
255
255
255
255
255
255
255
255
255
255
255
255
255
255
255
255
255
255
255
255
255
255
255
255
255
255
255
255
255
255
255
255
255
255
255
255
255
255
255
255
255
255
255
255
255
255
255
255
255
255
255
255
255
255
255
255
255
255
255
255
255
255
255
255
255
255
255
255
255
255
255
255
255
255
255
255
255
255
255
255
255
255
255
255
255
255
255
255
255
255
255
255
255
255
255
255
255
255
255
255
255
255
255
255
255
255
255
255
255
255
255
255
255
255
255
255
255
255
255
255
255
255
255
255
255
255
255
255
255
255
255
255
255
255
255
255
255
255
255
255
255
255
255
255
255
255
255
255
255
255
255
255
255
255
255
255
255
255
255
255
255
255
255
255
255
255
255
255
255
255
255
255
255
255
255
255
255
255
255
255
255
255
255
255
255
255
255
255
255
255
255
255
255
255
255
255
255
255
255
255
255
255
255
255
255
255
255
255
255
255
255
255
255
255
255
255
255
255
255
255
255
255
255
255
255
255
255
255
255
255
255
255
255
255
255
255
255
255
255
255
255
255
255
255
255
255
255
255
255
255
255
255
255
255
255
255
255
255
255
255
255
255
255
255
255
255
255
255
255
255
255
255
255
255
255
255
255
255
255
255
255
255
255
255
255
255
255
255
255
255
255
255
255
255
255
255
255
255
255
255
255
255
255
255
255
255
255
255
255
255
255
255
255
255
255
255
255
255
254
254
254
254
254
254
254
254
254
254
254
254
254
254
254
254
254
254
252
252
252
253
253
253
250
250
250
245
245
245
249
249
249
240
240
240
237
237
237
233
233
233
233
233
233
231
231
231
228
228
228
231
231
231
229
229
229
228
228
228
230
230
230
229
229
229
228
227
228
229
228
229
227
227
229
231
230
233
231
229
234
230
229
234
229
227
232
231
228
233
231
227
231
231
227
230
231
228
228
233
229
228
232
229
227
230
229
227
229
229
228
229
229
229
227
227
227
228
229
229
227
228
227
228
228
228
230
230
230
229
229
229
232
232
232
255
255
255
255
255
255
255
255
255
255
255
255
255
255
255
255
255
255
255
255
255
255
255
255
255
255
255
255
255
255
255
255
255
255
255
255
255
255
255
255
255
255
255
255
255
255
255
255
255
255
255
255
255
255
255
255
255
255
255
255
255
255
255
255
255
255
255
255
255
255
255
255
255
255
255
255
255
255
255
255
255
255
255
255
255
255
255
255
255
255
255
255
255
255
255
255
255
255
255
255
255
255
255
255
255
255
255
255
255
255
255
255
255
255
255
255
255
255
255
255
255
255
255
255
255
255
255
255
255
255
255
255
255
255
255
255
255
255
255
255
255
255
255
255
255
255
255
255
255
255
255
255
255
255
255
255
255
255
255
255
255
255
255
255
255
255
255
255
255
255
255
255
255
255
255
255
255
255
255
255
255
255
255
255
255
255
255
255
255
255
255
255
255
255
255
255
255
255
255
255
255
255
255
255
255
255
255
255
255
255
255
255
255
255
255
255
255
255
255
255
255
255
255
255
255
255
255
255
255
255
255
255
255
255
255
255
255
255
255
255
255
255
255
255
255
255
255
255
255
255
255
255
255
255
255
255
255
255
255
255
255
255
255
255
255
255
255
255
255
255
255
255
255
255
255
255
255
255
255
255
255
255
255
255
255
255
255
255
255
255
255
255
255
255
255
255
255
255
255
255
255
255
255
255
255
255
255
255
255
255
255
255
255
255
255
255
255
255
255
255
255
255
255
255
255
255
255
255
255
255
255
255
255
255
255
255
255
255
255
254
254
254
253
253
253
255
255
255
255
255
255
254
254
254
254
254
254
255
255
255
253
253
253
251
251
251
255
255
255
244
244
244
242
242
242
255
255
255
237
237
237
235
235
235
233
233
233
255
255
255
232
232
232
230
230
230
255
255
255
229
229
229
228
228
229
230
230
232
255
255
255
231
230
234
230
229
234
255
255
255
231
229
234
231
229
233
230
228
228
255
255
255
231
229
228
229
227
225
255
255
255
230
230
229
228
228
228
255
255
255
230
230
230
231
231
231
233
233
233
255
255
255
236
236
236
255
255
255
255
255
255
255
255
255
255
255
255
255
255
255
255
255
255
255
255
255
255
255
255
255
255
255
255
255
255
255
255
255
255
255
255
255
255
255
255
255
255
255
255
255
255
255
255
255
255
255
255
255
255
255
255
255
255
255
255
255
255
255
255
255
255
255
255
255
255
255
255
255
255
255
255
255
255
255
255
255
255
255
255
255
255
255
255
255
255
255
255
255
255
255
255
255
255
255
255
255
255
255
255
255
255
255
255
255
255
255
255
255
255
255
255
255
255
255
255
255
255
255
255
255
255
255
255
255
255
255
255
255
255
255
255
255
255
255
255
255
255
255
255
255
255
255
255
255
255
255
255
255
255
255
255
255
255
255
255
255
255
255
255
255
255
255
255
255
255
255
255
255
255
255
255
255
255
255
255
255
255
255
255
255
255
255
255
255
255
255
255
255
255
255
255
255
255
255
255
255
255
255
255
255
255
255
255
255
255
255
255
255
255
255
255
255
255
255
255
255
255
255
255
255
255
255
255
255
255
255
255
255
255
255
255
255
255
255
255
255
255
255
255
255
255
255
255
255
255
255
255
255
255
255
255
255
255
255
255
255
255
255
255
255
255
255
255
255
255
255
255
255
255
255
255
255
255
255
255
255
255
255
255
255
255
255
255
255
255
255
255
255
255
255
255
255
255
255
255
255
255
255
255
255
255
255
255
255
255
255
255
255
255
255
255
255
255
255
255
255
255
255
255
255
255
255
255
255
255
255
255
255
255
255
255
255
255
255
255
255
255
255
255
255
254
254
254
254
254
254
255
255
255
255
255
255
254
254
254
255
255
255
255
255
255
253
253
253
252
252
252
249
249
249
255
255
255
247
247
247
241
241
241
255
255
255
241
241
241
237
237
237
235
235
235
255
255
255
234
234
234
231
231
231
255
255
255
232
232
233
231
232
234
255
255
255
230
230
235
230
230
235
232
231
235
255
255
255
230
228
229
231
231
229
255
255
255
231
230
228
232
232
231
232
232
232
255
255
255
234
234
234
236
236
236
255
255
255
238
238
238
241
241
241
255
255
255
255
255
255
255
255
255
255
255
255
255
255
255
255
255
255
255
255
255
255
255
255
255
255
255
255
255
255
255
255
255
255
255
255
255
255
255
255
255
255
255
255
255
255
255
255
255
255
255
255
255
255
255
255
255
255
255
255
255
255
255
255
255
255
255
255
255
255
255
255
255
255
255
255
255
255
255
255
255
255
255
255
255
255
255
255
255
255
255
255
255
255
255
255
255
255
255
255
255
255
255
255
255
255
255
255
255
255
255
255
255
255
255
255
255
255
255
255
255
255
255
255
255
255
255
255
255
255
255
255
255
255
255
255
255
255
255
255
255
255
255
255
255
255
255
255
255
255
255
255
255
255
255
255
255
255
255
255
255
255
255
255
255
255
255
255
255
255
255
255
255
255
255
255
255
255
255
255
255
255
255
255
255
255
255
255
255
255
255
255
255
255
255
255
255
255
255
255
255
255
255
255
255
255
255
255
255
255
255
255
255
255
255
255
255
255
255
255
255
255
255
255
255
255
255
255
255
255
255
255
255
255
255
255
255
255
255
255
255
255
255
255
255
255
255
255
255
255
255
255
255
255
255
255
255
255
255
255
255
