P2
445 449
255
96
0
88
0
107
0
98
0
62
0
54
0
77
0
85
0
69
0
69
0
62
0
47
0
39
0
55
0
79
0
78
0
61
0
59
0
28
0
38
0
43
0
44
0
36
0
15
0
28
0
70
0
84
0
72
0
38
0
31
0
55
0
69
0
61
0
59
0
58
0
63
0
64
0
69
0
52
0
29
0
46
0
90
0
86
0
70
0
30
0
23
0
55
0
70
0
59
0
71
0
63
0
53
0
55
0
55
0
38
0
32
0
46
0
27
0
45
0
60
0
75
0
97
0
98
0
73
0
57
0
47
0
74
0
106
0
125
0
140
0
156
0
158
0
151
0
164
0
156
0
135
0
97
0
33
0
82
0
142
0
161
0
154
0
163
0
158
0
157
0
165
0
161
0
155
0
164
0
72
0
47
0
89
0
156
0
162
0
148
0
155
0
159
0
158
0
151
0
164
0
151
0
148
0
158
0
144
0
147
0
125
0
41
0
101
0
163
0
140
0
140
0
146
0
144
0
108
0
44
0
1
0
1
0
6
0
3
0
1
0
7
0
11
0
62
0
82
0
42
0
3
0
2
0
5
0
1
0
1
0
0
0
2
0
2
0
1
0
0
0
20
0
43
0
21
0
3
0
4
0
2
0
1
0
9
0
8
0
2
0
6
0
1
0
0
0
0
0
7
0
9
0
1
0
1
0
0
0
0
0
0
0
0
0
0
0
0
0
0
0
0
0
0
0
0
0
0
0
0
0
0
0
0
0
0
0
0
0
0
0
0
0
0
0
0
0
0
0
0
0
0
0
0
0
1
0
6
0
1
0
1
0
5
0
8
0
2
0
1
0
23
0
77
0
123
0
116
0
94
0
93
0
74
0
32
0
59
0
118
0
129
0
114
0
74
0
116
0
120
0
123
0
120
0
128
0
124
0
120
0
70
0
95
0
129
0
116
0
121
0
122
0
123
0
123
0
122
0
121
0
119
0
118
0
113
0
83
0
100
0
132
0
127
0
119
0
0
0
0
0
0
0
0
0
0
0
0
0
0
0
0
0
0
0
0
0
0
0
0
0
0
0
0
0
0
0
0
0
0
0
0
0
0
0
0
0
0
0
0
0
0
0
0
0
0
0
0
0
0
0
0
0
0
0
0
0
0
0
0
0
0
0
0
0
0
0
0
0
0
0
0
0
0
0
0
0
0
0
0
0
0
0
0
0
0
0
0
0
0
0
0
0
0
0
0
0
0
0
0
0
0
0
0
0
0
0
0
0
0
0
0
0
0
0
0
0
0
0
0
0
0
0
0
0
0
0
0
0
0
0
0
0
0
0
0
0
0
0
0
0
0
0
0
0
0
0
0
0
0
0
0
0
0
0
0
0
0
0
0
0
0
0
0
0
0
0
0
0
0
0
0
0
0
0
0
0
0
0
0
0
0
0
0
0
0
0
0
0
0
0
0
0
0
0
0
0
0
0
0
0
0
0
0
0
0
0
0
0
0
0
0
0
0
0
0
0
0
0
0
0
0
0
0
0
0
0
0
0
0
0
0
0
0
0
0
0
0
0
0
0
0
0
0
0
0
0
0
0
0
0
0
0
0
0
0
0
0
0
0
0
0
0
0
0
0
0
0
0
0
0
0
0
0
0
0
0
0
0
0
0
0
0
0
0
0
0
0
0
0
0
0
0
0
0
0
0
0
0
0
0
0
0
0
0
0
0
0
0
0
0
0
0
0
0
0
0
0
0
0
0
0
0
0
0
0
0
0
0
0
0
0
0
0
0
0
0
0
0
0
0
0
0
0
0
0
0
0
0
0
0
0
0
0
0
0
0
0
0
0
0
0
0
0
0
0
0
0
0
0
0
0
0
0
0
0
0
0
0
0
0
0
0
0
0
0
0
0
0
0
0
0
0
0
0
0
0
0
0
0
0
0
0
0
0
0
0
0
0
0
0
0
0
0
0
0
0
0
0
0
0
0
0
0
0
0
0
0
0
0
0
0
0
0
0
0
0
0
0
0
0
110
0
109
0
93
0
87
0
95
0
84
0
63
0
60
0
74
0
77
0
64
0
50
0
46
0
54
0
65
0
72
0
76
0
43
0
35
0
47
0
54
0
58
0
52
0
38
0
41
0
22
0
51
0
78
0
72
0
49
0
39
0
55
0
76
0
71
0
68
0
71
0
67
0
69
0
58
0
45
0
72
0
90
0
55
0
21
0
15
0
34
0
55
0
66
0
69
0
47
0
52
0
56
0
59
0
52
0
31
0
20
0
25
0
51
0
59
0
59
0
70
0
95
0
97
0
58
0
19
0
23
0
78
0
132
0
150
0
145
0
146
0
156
0
165
0
140
0
119
0
68
0
102
0
160
0
107
0
63
0
139
0
164
0
160
0
164
0
157
0
153
0
165
0
149
0
91
0
93
0
104
0
93
0
105
0
152
0
168
0
157
0
161
0
162
0
147
0
156
0
154
0
153
0
152
0
135
0
143
0
91
0
31
0
85
0
150
0
135
0
142
0
145
0
132
0
121
0
59
0
3
0
0
0
6
0
2
0
1
0
7
0
32
0
71
0
83
0
42
0
3
0
1
0
3
0
0
0
0
0
0
0
2
0
3
0
1
0
3
0
21
0
41
0
78
0
61
0
36
0
10
0
0
0
0
0
0
0
11
0
8
0
7
0
3
0
0
0
0
0
0
0
0
0
5
0
0
0
0
0
0
0
0
0
0
0
0
0
0
0
0
0
0
0
0
0
0
0
0
0
0
0
0
0
0
0
0
0
0
0
0
0
0
0
0
0
0
0
0
0
0
0
0
0
1
0
5
0
1
0
0
0
6
0
6
0
1
0
3
0
31
0
83
0
117
0
93
0
71
0
82
0
69
0
25
0
51
0
110
0
125
0
110
0
69
0
111
0
116
0
121
0
113
0
121
0
119
0
115
0
68
0
89
0
122
0
112
0
118
0
118
0
119
0
120
0
119
0
117
0
116
0
115
0
115
0
85
0
100
0
129
0
125
0
117
0
0
0
0
0
0
0
0
0
0
0
0
0
0
0
0
0
0
0
0
0
0
0
0
0
0
0
0
0
0
0
0
0
0
0
0
0
0
0
0
0
0
0
0
0
0
0
0
0
0
0
0
0
0
0
0
0
0
0
0
0
0
0
0
0
0
0
0
0
0
0
0
0
0
0
0
0
0
0
0
0
0
0
0
0
0
0
0
0
0
0
0
0
0
0
0
0
0
0
0
0
0
0
0
0
0
0
0
0
0
0
0
0
0
0
0
0
0
0
0
0
0
0
0
0
0
0
0
0
0
0
0
0
0
0
0
0
0
0
0
0
0
0
0
0
0
0
0
0
0
0
0
0
0
0
0
0
0
0
0
0
0
0
0
0
0
0
0
0
0
0
0
0
0
0
0
0
0
0
0
0
0
0
0
0
0
0
0
0
0
0
0
0
0
0
0
0
0
0
0
0
0
0
0
0
0
0
0
0
0
0
0
0
0
0
0
0
0
0
0
0
0
0
0
0
0
0
0
0
0
0
0
0
0
0
0
0
0
0
0
0
0
0
0
0
0
0
0
0
0
0
0
0
0
0
0
0
0
0
0
0
0
0
0
0
0
0
0
0
0
0
0
0
0
0
0
0
0
0
0
0
0
0
0
0
0
0
0
0
0
0
0
0
0
0
0
0
0
0
0
0
0
0
0
0
0
0
0
0
0
0
0
0
0
0
0
0
0
0
0
0
0
0
0
0
0
0
0
0
0
0
0
0
0
0
0
0
0
0
0
0
0
0
0
0
0
0
0
0
0
0
0
0
0
0
0
0
0
0
0
0
0
0
0
0
0
0
0
0
0
0
0
0
0
0
0
0
0
0
0
0
0
0
0
0
0
0
0
0
0
0
0
0
0
0
0
0
0
0
0
0
0
0
0
0
0
0
0
0
0
0
0
0
0
0
0
0
0
0
0
0
0
0
0
0
0
0
0
0
0
0
0
0
0
0
0
0
0
0
0
0
0
0
0
0
107
0
106
0
101
0
102
0
105
0
97
0
80
0
68
0
64
0
72
0
56
0
52
0
66
0
71
0
66
0
65
0
69
0
26
0
47
0
55
0
64
0
64
0
60
0
58
0
45
0
14
0
19
0
43
0
69
0
68
0
55
0
71
0
106
0
86
0
88
0
100
0
98
0
94
0
78
0
62
0
79
0
42
0
24
0
19
0
29
0
30
0
23
0
25
0
36
0
49
0
47
0
41
0
37
0
35
0
35
0
35
0
37
0
53
0
55
0
61
0
74
0
82
0
68
0
56
0
62
0
50
0
103
0
145
0
147
0
147
0
157
0
148
0
124
0
103
0
84
0
119
0
142
0
144
0
155
0
144
0
67
0
121
0
164
0
165
0
152
0
164
0
148
0
103
0
82
0
137
0
158
0
123
0
88
0
118
0
157
0
158
0
153
0
158
0
150
0
156
0
152
0
155
0
151
0
123
0
110
0
84
0
42
0
79
0
144
0
134
0
146
0
150
0
130
0
137
0
78
0
16
0
0
0
7
0
1
0
0
0
12
0
60
0
82
0
82
0
44
0
5
0
1
0
2
0
2
0
0
0
0
0
1
0
2
0
2
0
4
0
15
0
26
0
59
0
83
0
79
0
65
0
62
0
37
0
6
0
1
0
1
0
0
0
3
0
1
0
1
0
1
0
1
0
1
0
0
0
0
0
0
0
0
0
0
0
0
0
0
0
0
0
0
0
0
0
0
0
0
0
0
0
0
0
0
0
0
0
0
0
0
0
0
0
0
0
0
0
0
0
0
0
0
0
1
0
5
0
1
0
0
0
5
0
2
0
0
0
10
0
50
0
87
0
102
0
69
0
51
0
71
0
67
0
25
0
41
0
105
0
123
0
106
0
66
0
103
0
111
0
116
0
111
0
116
0
116
0
114
0
73
0
86
0
120
0
113
0
118
0
119
0
119
0
119
0
118
0
117
0
116
0
115
0
102
0
73
0
84
0
114
0
115
0
108
0
0
0
0
0
0
0
0
0
0
0
0
0
0
0
0
0
0
0
0
0
0
0
0
0
0
0
0
0
0
0
0
0
0
0
0
0
0
0
0
0
0
0
0
0
0
0
0
0
0
0
0
0
0
0
0
0
0
0
0
0
0
0
0
0
0
0
0
0
0
0
0
0
0
0
0
0
0
0
0
0
0
0
0
0
0
0
0
0
0
0
0
0
0
0
0
0
0
0
0
0
0
0
0
0
0
0
0
0
0
0
0
0
0
0
0
0
0
0
0
0
0
0
0
0
0
0
0
0
0
0
0
0
0
0
0
0
0
0
0
0
0
0
0
0
0
0
0
0
0
0
0
0
0
0
0
0
0
0
0
0
0
0
0
0
0
0
0
0
0
0
0
0
0
0
0
0
0
0
0
0
0
0
0
0
0
0
0
0
0
0
0
0
0
0
0
0
0
0
0
0
0
0
0
0
0
0
0
0
0
0
0
0
0
0
0
0
0
0
0
0
0
0
0
0
0
0
0
0
0
0
0
0
0
0
0
0
0
0
0
0
0
0
0
0
0
0
0
0
0
0
0
0
0
0
0
0
0
0
0
0
0
0
0
0
0
0
0
0
0
0
0
0
0
0
0
0
0
0
0
0
0
0
0
0
0
0
0
0
0
0
0
0
0
0
0
0
0
0
0
0
0
0
0
0
0
0
0
0
0
0
0
0
0
0
0
0
0
0
0
0
0
0
0
0
0
0
0
0
0
0
0
0
0
0
0
0
0
0
0
0
0
0
0
0
0
0
0
0
0
0
0
0
0
0
0
0
0
0
0
0
0
0
0
0
0
0
0
0
0
0
0
0
0
0
0
0
0
0
0
0
0
0
0
0
0
0
0
0
0
0
0
0
0
0
0
0
0
0
0
0
0
0
0
0
0
0
0
0
0
0
0
0
0
0
0
0
0
0
0
0
0
0
0
0
0
0
0
0
0
0
0
0
0
0
0
0
0
0
0
0
0
0
0
0
103
0
97
0
113
0
114
0
102
0
100
0
107
0
92
0
68
0
55
0
41
0
41
0
63
0
79
0
76
0
67
0
65
0
26
0
60
0
62
0
65
0
61
0
56
0
62
0
37
0
52
0
32
0
28
0
42
0
45
0
36
0
39
0
54
0
50
0
49
0
66
0
66
0
56
0
39
0
15
0
24
0
5
0
43
0
71
0
66
0
42
0
22
0
12
0
7
0
22
0
22
0
30
0
40
0
50
0
59
0
49
0
28
0
34
0
52
0
63
0
64
0
62
0
65
0
89
0
125
0
99
0
104
0
123
0
149
0
158
0
140
0
106
0
84
0
103
0
119
0
154
0
146
0
158
0
161
0
162
0
118
0
78
0
128
0
158
0
165
0
154
0
101
0
89
0
135
0
165
0
159
0
156
0
125
0
91
0
116
0
155
0
152
0
149
0
155
0
160
0
151
0
150
0
147
0
109
0
73
0
111
0
72
0
74
0
142
0
136
0
141
0
150
0
139
0
144
0
94
0
26
0
0
0
4
0
1
0
1
0
24
0
79
0
88
0
80
0
45
0
8
0
0
0
0
0
4
0
3
0
0
0
1
0
1
0
1
0
1
0
3
0
5
0
15
0
62
0
88
0
93
0
86
0
72
0
60
0
38
0
9
0
3
0
0
0
0
0
6
0
8
0
2
0
1
0
1
0
1
0
1
0
1
0
1
0
1
0
1
0
1
0
0
0
0
0
0
0
0
0
0
0
0
0
0
0
0
0
0
0
0
0
0
0
0
0
0
0
0
0
0
0
0
0
1
0
4
0
2
0
2
0
5
0
1
0
3
0
20
0
75
0
82
0
78
0
56
0
49
0
67
0
65
0
34
0
37
0
101
0
124
0
106
0
68
0
95
0
106
0
113
0
112
0
116
0
115
0
110
0
79
0
83
0
117
0
117
0
117
0
117
0
116
0
116
0
115
0
115
0
114
0
114
0
109
0
80
0
84
0
111
0
117
0
111
0
0
0
0
0
0
0
0
0
0
0
0
0
0
0
0
0
0
0
0
0
0
0
0
0
0
0
0
0
0
0
0
0
0
0
0
0
0
0
0
0
0
0
0
0
0
0
0
0
0
0
0
0
0
0
0
0
0
0
0
0
0
0
0
0
0
0
0
0
0
0
0
0
0
0
0
0
0
0
0
0
0
0
0
0
0
0
0
0
0
0
0
0
0
0
0
0
0
0
0
0
0
0
0
0
0
0
0
0
0
0
0
0
0
0
0
0
0
0
0
0
0
0
0
0
0
0
0
0
0
0
0
0
0
0
0
0
0
0
0
0
0
0
0
0
0
0
0
0
0
0
0
0
0
0
0
0
0
0
0
0
0
0
0
0
0
0
0
0
0
0
0
0
0
0
0
0
0
0
0
0
0
0
0
0
0
0
0
0
0
0
0
0
0
0
0
0
0
0
0
0
0
0
0
0
0
0
0
0
0
0
0
0
0
0
0
0
0
0
0
0
0
0
0
0
0
0
0
0
0
0
0
0
0
0
0
0
0
0
0
0
0
0
0
0
0
0
0
0
0
0
0
0
0
0
0
0
0
0
0
0
0
0
0
0
0
0
0
0
0
0
0
0
0
0
0
0
0
0
0
0
0
0
0
0
0
0
0
0
0
0
0
0
0
0
0
0
0
0
0
0
0
0
0
0
0
0
0
0
0
0
0
0
0
0
0
0
0
0
0
0
0
0
0
0
0
0
0
0
0
0
0
0
0
0
0
0
0
0
0
0
0
0
0
0
0
0
0
0
0
0
0
0
0
0
0
0
0
0
0
0
0
0
0
0
0
0
0
0
0
0
0
0
0
0
0
0
0
0
0
0
0
0
0
0
0
0
0
0
0
0
0
0
0
0
0
0
0
0
0
0
0
0
0
0
0
0
0
0
0
0
0
0
0
0
0
0
0
0
0
0
0
0
0
0
0
0
0
0
0
0
0
0
0
0
0
0
0
0
0
0
0
0
0
0
113
0
113
0
104
0
104
0
113
0
115
0
106
0
96
0
94
0
44
0
42
0
38
0
43
0
55
0
69
0
73
0
69
0
33
0
69
0
68
0
68
0
61
0
56
0
61
0
35
0
53
0
64
0
66
0
52
0
36
0
28
0
29
0
31
0
36
0
22
0
29
0
27
0
21
0
17
0
2
0
8
0
20
0
49
0
69
0
66
0
60
0
58
0
43
0
16
0
3
0
8
0
28
0
39
0
43
0
53
0
51
0
29
0
27
0
50
0
54
0
51
0
72
0
105
0
121
0
126
0
127
0
92
0
105
0
154
0
149
0
91
0
74
0
108
0
134
0
146
0
138
0
130
0
174
0
156
0
144
0
167
0
109
0
81
0
139
0
172
0
102
0
85
0
141
0
160
0
162
0
145
0
159
0
162
0
115
0
94
0
126
0
154
0
154
0
156
0
155
0
156
0
147
0
124
0
97
0
75
0
130
0
92
0
56
0
139
0
140
0
131
0
140
0
141
0
139
0
102
0
32
0
0
0
3
0
3
0
11
0
44
0
84
0
89
0
79
0
46
0
11
0
1
0
1
0
3
0
3
0
1
0
1
0
1
0
1
0
2
0
0
0
0
0
0
0
18
0
55
0
98
0
89
0
78
0
95
0
74
0
59
0
39
0
15
0
1
0
1
0
2
0
3
0
1
0
1
0
1
0
1
0
1
0
1
0
1
0
1
0
1
0
0
0
0
0
0
0
0
0
0
0
0
0
0
0
0
0
0
0
0
0
0
0
0
0
0
0
0
0
0
0
0
0
1
0
2
0
1
0
2
0
5
0
1
0
8
0
36
0
95
0
67
0
50
0
50
0
51
0
57
0
52
0
34
0
30
0
89
0
118
0
105
0
72
0
88
0
103
0
115
0
112
0
113
0
113
0
106
0
84
0
77
0
111
0
119
0
112
0
112
0
111
0
111
0
110
0
110
0
109
0
109
0
114
0
85
0
81
0
106
0
116
0
108
0
0
0
0
0
0
0
0
0
0
0
0
0
0
0
0
0
0
0
0
0
0
0
0
0
0
0
0
0
0
0
0
0
0
0
0
0
0
0
0
0
0
0
0
0
0
0
0
0
0
0
0
0
0
0
0
0
0
0
0
0
0
0
0
0
0
0
0
0
0
0
0
0
0
0
0
0
0
0
0
0
0
0
0
0
0
0
0
0
0
0
0
0
0
0
0
0
0
0
0
0
0
0
0
0
0
0
0
0
0
0
0
0
0
0
0
0
0
0
0
0
0
0
0
0
0
0
0
0
0
0
0
0
0
0
0
0
0
0
0
0
0
0
0
0
0
0
0
0
0
0
0
0
0
0
0
0
0
0
0
0
0
0
0
0
0
0
0
0
0
0
0
0
0
0
0
0
0
0
0
0
0
0
0
0
0
0
0
0
0
0
0
0
0
0
0
0
0
0
0
0
0
0
0
0
0
0
0
0
0
0
0
0
0
0
0
0
0
0
0
0
0
0
0
0
0
0
0
0
0
0
0
0
0
0
0
0
0
0
0
0
0
0
0
0
0
0
0
0
0
0
0
0
0
0
0
0
0
0
0
0
0
0
0
0
0
0
0
0
0
0
0
0
0
0
0
0
0
0
0
0
0
0
0
0
0
0
0
0
0
0
0
0
0
0
0
0
0
0
0
0
0
0
0
0
0
0
0
0
0
0
0
0
0
0
0
0
0
0
0
0
0
0
0
0
0
0
0
0
0
0
0
0
0
0
0
0
0
0
0
0
0
0
0
0
0
0
0
0
0
0
0
0
0
0
0
0
0
0
0
0
0
0
0
0
0
0
0
0
0
0
0
0
0
0
0
0
0
0
0
0
0
0
0
0
0
0
0
0
0
0
0
0
0
0
0
0
0
0
0
0
0
0
0
0
0
0
0
0
0
0
0
0
0
0
0
0
0
0
0
0
0
0
0
0
0
0
0
0
0
0
0
0
0
0
0
0
0
0
0
0
0
0
0
0
111
0
114
0
102
0
103
0
115
0
117
0
104
0
96
0
99
0
53
0
69
0
69
0
52
0
45
0
48
0
48
0
39
0
46
0
67
0
71
0
69
0
65
0
63
0
61
0
43
0
42
0
68
0
79
0
63
0
54
0
64
0
73
0
71
0
46
0
34
0
49
0
55
0
54
0
57
0
48
0
44
0
21
0
20
0
29
0
48
0
65
0
72
0
64
0
53
0
18
0
22
0
39
0
36
0
21
0
29
0
49
0
46
0
33
0
27
0
38
0
76
0
111
0
117
0
118
0
133
0
150
0
127
0
107
0
99
0
95
0
92
0
111
0
140
0
146
0
134
0
151
0
151
0
142
0
155
0
167
0
150
0
156
0
102
0
95
0
101
0
89
0
124
0
165
0
152
0
161
0
156
0
149
0
164
0
160
0
106
0
87
0
132
0
162
0
149
0
144
0
159
0
139
0
95
0
94
0
111
0
127
0
99
0
36
0
136
0
149
0
133
0
138
0
139
0
132
0
110
0
42
0
0
0
2
0
5
0
19
0
63
0
83
0
90
0
79
0
45
0
10
0
1
0
0
0
2
0
0
0
1
0
0
0
0
0
3
0
8
0
5
0
0
0
44
0
13
0
2
0
60
0
89
0
86
0
101
0
75
0
87
0
80
0
63
0
41
0
18
0
3
0
1
0
1
0
2
0
2
0
2
0
2
0
2
0
2
0
2
0
2
0
0
0
0
0
0
0
0
0
0
0
0
0
0
0
0
0
0
0
0
0
0
0
0
0
0
0
0
0
0
0
0
0
1
0
0
0
1
0
4
0
5
0
1
0
16
0
54
0
92
0
45
0
24
0
37
0
42
0
35
0
27
0
21
0
18
0
66
0
102
0
97
0
72
0
75
0
93
0
112
0
109
0
108
0
111
0
106
0
91
0
72
0
103
0
117
0
111
0
111
0
110
0
108
0
108
0
108
0
108
0
108
0
104
0
77
0
69
0
93
0
112
0
107
0
0
0
0
0
0
0
0
0
0
0
0
0
0
0
0
0
0
0
0
0
0
0
0
0
0
0
0
0
0
0
0
0
0
0
0
0
0
0
0
0
0
0
0
0
0
0
0
0
0
0
0
0
0
0
0
0
0
0
0
0
0
0
0
0
0
0
0
0
0
0
0
0
0
0
0
0
0
0
0
0
0
0
0
0
0
0
0
0
0
0
0
0
0
0
0
0
0
0
0
0
0
0
0
0
0
0
0
0
0
0
0
0
0
0
0
0
0
0
0
0
0
0
0
0
0
0
0
0
0
0
0
0
0
0
0
0
0
0
0
0
0
0
0
0
0
0
0
0
0
0
0
0
0
0
0
0
0
0
0
0
0
0
0
0
0
0
0
0
0
0
0
0
0
0
0
0
0
0
0
0
0
0
0
0
0
0
0
0
0
0
0
0
0
0
0
0
0
0
0
0
0
0
0
0
0
0
0
0
0
0
0
0
0
0
0
0
0
0
0
0
0
0
0
0
0
0
0
0
0
0
0
0
0
0
0
0
0
0
0
0
0
0
0
0
0
0
0
0
0
0
0
0
0
0
0
0
0
0
0
0
0
0
0
0
0
0
0
0
0
0
0
0
0
0
0
0
0
0
0
0
0
0
0
0
0
0
0
0
0
0
0
0
0
0
0
0
0
0
0
0
0
0
0
0
0
0
0
0
0
0
0
0
0
0
0
0
0
0
0
0
0
0
0
0
0
0
0
0
0
0
0
0
0
0
0
0
0
0
0
0
0
0
0
0
0
0
0
0
0
0
0
0
0
0
0
0
0
0
0
0
0
0
0
0
0
0
0
0
0
0
0
0
0
0
0
0
0
0
0
0
0
0
0
0
0
0
0
0
0
0
0
0
0
0
0
0
0
0
0
0
0
0
0
0
0
0
0
0
0
0
0
0
0
0
0
0
0
0
0
0
0
0
0
0
0
0
0
0
0
0
0
0
0
0
0
0
0
0
0
0
0
0
0
0
86
0
93
0
106
0
113
0
108
0
108
0
110
0
97
0
77
0
83
0
95
0
93
0
75
0
60
0
51
0
32
0
9
0
47
0
48
0
60
0
62
0
65
0
65
0
50
0
45
0
62
0
66
0
66
0
60
0
61
0
69
0
73
0
70
0
37
0
29
0
56
0
69
0
65
0
72
0
63
0
56
0
34
0
19
0
18
0
36
0
57
0
68
0
71
0
74
0
24
0
25
0
51
0
56
0
30
0
31
0
45
0
38
0
45
0
28
0
41
0
95
0
124
0
112
0
117
0
156
0
151
0
145
0
98
0
45
0
59
0
120
0
152
0
140
0
141
0
137
0
140
0
165
0
162
0
148
0
145
0
165
0
158
0
142
0
72
0
40
0
107
0
158
0
154
0
151
0
157
0
162
0
153
0
156
0
167
0
135
0
96
0
98
0
136
0
145
0
145
0
154
0
123
0
84
0
107
0
135
0
126
0
112
0
29
0
124
0
150
0
141
0
142
0
132
0
128
0
119
0
53
0
1
0
1
0
5
0
23
0
76
0
81
0
94
0
83
0
41
0
7
0
2
0
1
0
2
0
1
0
1
0
1
0
0
0
2
0
8
0
6
0
1
0
115
0
118
0
29
0
3
0
39
0
64
0
96
0
92
0
85
0
90
0
93
0
83
0
62
0
38
0
17
0
8
0
2
0
2
0
2
0
2
0
2
0
2
0
2
0
2
0
0
0
0
0
0
0
0
0
0
0
0
0
0
0
0
0
0
0
0
0
0
0
0
0
0
0
0
0
0
0
0
0
1
0
0
0
1
0
3
0
5
0
1
0
24
0
71
0
65
0
24
0
6
0
17
0
18
0
12
0
9
0
7
0
6
0
43
0
80
0
83
0
63
0
54
0
71
0
97
0
95
0
95
0
103
0
100
0
93
0
61
0
88
0
102
0
107
0
105
0
104
0
102
0
102
0
102
0
103
0
103
0
103
0
76
0
63
0
84
0
106
0
100
0
0
0
0
0
0
0
0
0
0
0
0
0
0
0
0
0
0
0
0
0
0
0
0
0
0
0
0
0
0
0
0
0
0
0
0
0
0
0
0
0
0
0
0
0
0
0
0
0
0
0
0
0
0
0
0
0
0
0
0
0
0
0
0
0
0
0
0
0
0
0
0
0
0
0
0
0
0
0
0
0
0
0
0
0
0
0
0
0
0
0
0
0
0
0
0
0
0
0
0
0
0
0
0
0
0
0
0
0
0
0
0
0
0
0
0
0
0
0
0
0
0
0
0
0
0
0
0
0
0
0
0
0
0
0
0
0
0
0
0
0
0
0
0
0
0
0
0
0
0
0
0
0
0
0
0
0
0
0
0
0
0
0
0
0
0
0
0
0
0
0
0
0
0
0
0
0
0
0
0
0
0
0
0
0
0
0
0
0
0
0
0
0
0
0
0
0
0
0
0
0
0
0
0
0
0
0
0
0
0
0
0
0
0
0
0
0
0
0
0
0
0
0
0
0
0
0
0
0
0
0
0
0
0
0
0
0
0
0
0
0
0
0
0
0
0
0
0
0
0
0
0
0
0
0
0
0
0
0
0
0
0
0
0
0
0
0
0
0
0
0
0
0
0
0
0
0
0
0
0
0
0
0
0
0
0
0
0
0
0
0
0
0
0
0
0
0
0
0
0
0
0
0
0
0
0
0
0
0
0
0
0
0
0
0
0
0
0
0
0
0
0
0
0
0
0
0
0
0
0
0
0
0
0
0
0
0
0
0
0
0
0
0
0
0
0
0
0
0
0
0
0
0
0
0
0
0
0
0
0
0
0
0
0
0
0
0
0
0
0
0
0
0
0
0
0
0
0
0
0
0
0
0
0
0
0
0
0
0
0
0
0
0
0
0
0
0
0
0
0
0
0
0
0
0
0
0
0
0
0
0
0
0
0
0
0
0
0
0
0
0
0
0
0
0
0
0
0
0
0
0
0
0
0
0
0
0
0
0
0
0
0
0
0
0
66
0
80
0
98
0
110
0
111
0
110
0
106
0
88
0
67
0
115
0
104
0
86
0
76
0
75
0
72
0
49
0
21
0
40
0
26
0
46
0
51
0
58
0
60
0
35
0
39
0
69
0
65
0
70
0
81
0
77
0
65
0
63
0
71
0
51
0
40
0
62
0
67
0
61
0
72
0
75
0
75
0
70
0
37
0
9
0
5
0
27
0
53
0
61
0
58
0
52
0
29
0
31
0
35
0
21
0
35
0
56
0
50
0
60
0
64
0
63
0
71
0
102
0
128
0
139
0
151
0
109
0
104
0
78
0
60
0
74
0
121
0
141
0
137
0
137
0
141
0
132
0
154
0
155
0
167
0
153
0
155
0
145
0
128
0
75
0
53
0
107
0
157
0
157
0
152
0
141
0
146
0
159
0
156
0
145
0
160
0
144
0
85
0
94
0
144
0
151
0
143
0
107
0
89
0
122
0
136
0
129
0
125
0
25
0
109
0
138
0
140
0
142
0
122
0
129
0
126
0
62
0
2
0
1
0
4
0
25
0
81
0
82
0
97
0
85
0
38
0
3
0
2
0
2
0
1
0
1
0
2
0
2
0
0
0
0
0
3
0
2
0
1
0
101
0
234
0
153
0
25
0
10
0
28
0
65
0
79
0
87
0
85
0
85
0
89
0
89
0
77
0
55
0
37
0
2
0
2
0
2
0
2
0
2
0
2
0
2
0
2
0
0
0
0
0
0
0
0
0
0
0
0
0
0
0
0
0
0
0
0
0
0
0
0
0
0
0
0
0
0
0
0
0
1
0
0
0
2
0
3
0
5
0
1
0
28
0
80
0
38
0
10
0
1
0
2
0
1
0
2
0
5
0
3
0
5
0
30
0
67
0
73
0
54
0
36
0
52
0
80
0
76
0
79
0
90
0
90
0
85
0
46
0
68
0
82
0
96
0
95
0
93
0
92
0
91
0
92
0
91
0
92
0
98
0
69
0
47
0
61
0
76
0
63
0
0
0
0
0
0
0
0
0
0
0
0
0
0
0
0
0
0
0
0
0
0
0
0
0
0
0
0
0
0
0
0
0
0
0
0
0
0
0
0
0
0
0
0
0
0
0
0
0
0
0
0
0
0
0
0
0
0
0
0
0
0
0
0
0
0
0
0
0
0
0
0
0
0
0
0
0
0
0
0
0
0
0
0
0
0
0
0
0
0
0
0
0
0
0
0
0
0
0
0
0
0
0
0
0
0
0
0
0
0
0
0
0
0
0
0
0
0
0
0
0
0
0
0
0
0
0
0
0
0
0
0
0
0
0
0
0
0
0
0
0
0
0
0
0
0
0
0
0
0
0
0
0
0
0
0
0
0
0
0
0
0
0
0
0
0
0
0
0
0
0
0
0
0
0
0
0
0
0
0
0
0
0
0
0
0
0
0
0
0
0
0
0
0
0
0
0
0
0
0
0
0
0
0
0
0
0
0
0
0
0
0
0
0
0
0
0
0
0
0
0
0
0
0
0
0
0
0
0
0
0
0
0
0
0
0
0
0
0
0
0
0
0
0
0
0
0
0
0
0
0
0
0
0
0
0
0
0
0
0
0
0
0
0
0
0
0
0
0
0
0
0
0
0
0
0
0
0
0
0
0
0
0
0
0
0
0
0
0
0
0
0
0
0
0
0
0
0
0
0
0
0
0
0
0
0
0
0
0
0
0
0
0
0
0
0
0
0
0
0
0
0
0
0
0
0
0
0
0
0
0
0
0
0
0
0
0
0
0
0
0
0
0
0
0
0
0
0
0
0
0
0
0
0
0
0
0
0
0
0
0
0
0
0
0
0
0
0
0
0
0
0
0
0
0
0
0
0
0
0
0
0
0
0
0
0
0
0
0
0
0
0
0
0
0
0
0
0
0
0
0
0
0
0
0
0
0
0
0
0
0
0
0
0
0
0
0
0
0
0
0
0
0
0
0
0
0
0
0
0
0
0
0
0
0
0
0
0
0
0
0
0
0
0
0
111
0
60
0
72
0
84
0
113
0
120
0
117
0
76
0
88
0
124
0
109
0
108
0
91
0
75
0
71
0
52
0
42
0
78
0
65
0
60
0
53
0
48
0
34
0
14
0
27
0
46
0
44
0
43
0
46
0
52
0
58
0
62
0
64
0
39
0
54
0
67
0
69
0
64
0
62
0
64
0
65
0
60
0
53
0
22
0
19
0
5
0
29
0
54
0
42
0
61
0
24
0
28
0
36
0
61
0
58
0
72
0
66
0
65
0
77
0
82
0
67
0
73
0
120
0
133
0
98
0
83
0
101
0
133
0
125
0
87
0
94
0
132
0
142
0
139
0
132
0
149
0
161
0
153
0
155
0
162
0
150
0
78
0
95
0
130
0
144
0
90
0
123
0
158
0
156
0
148
0
146
0
149
0
157
0
158
0
150
0
145
0
145
0
78
0
101
0
149
0
146
0
67
0
110
0
150
0
119
0
116
0
117
0
65
0
79
0
160
0
129
0
136
0
132
0
124
0
124
0
78
0
3
0
2
0
1
0
33
0
79
0
91
0
84
0
85
0
45
0
4
0
2
0
0
0
3
0
0
0
0
0
0
0
1
0
1
0
1
0
2
0
2
0
23
0
243
0
240
0
170
0
43
0
1
0
18
0
43
0
60
0
84
0
97
0
90
0
90
0
100
0
91
0
69
0
59
0
36
0
11
0
1
0
1
0
2
0
2
0
2
0
0
0
0
0
0
0
0
0
0
0
0
0
0
0
0
0
3
0
3
0
3
0
2
0
1
0
0
0
0
0
0
0
0
0
1
0
2
0
0
0
0
0
6
0
19
0
29
0
1
0
1
0
1
0
1
0
1
0
1
0
1
0
1
0
1
0
27
0
53
0
65
0
62
0
50
0
51
0
69
0
60
0
60
0
63
0
63
0
55
0
40
0
31
0
29
0
51
0
48
0
45
0
46
0
44
0
40
0
43
0
50
0
49
0
57
0
44
0
38
0
60
0
74
0
0
0
0
0
0
0
0
0
0
0
0
0
0
0
0
0
0
0
0
0
0
0
0
0
0
0
0
0
0
0
0
0
0
0
0
0
0
0
0
0
0
0
0
0
0
0
0
0
0
0
0
0
0
0
0
0
0
0
0
0
0
0
0
0
0
0
0
0
0
0
0
0
0
0
0
0
0
0
0
0
0
0
0
0
0
0
0
0
0
0
0
0
0
0
0
0
0
0
0
0
0
0
0
0
0
0
0
0
0
0
0
0
0
0
0
0
0
0
0
0
0
0
0
0
0
0
0
0
0
0
0
0
0
0
0
0
0
0
0
0
0
0
0
0
0
0
0
0
0
0
0
0
0
0
0
0
0
0
0
0
0
0
0
0
0
0
0
0
0
0
0
0
0
0
0
0
0
0
0
0
0
0
0
0
0
0
0
0
0
0
0
0
0
0
0
0
0
0
0
0
0
0
0
0
0
0
0
0
0
0
0
0
0
0
0
0
0
0
0
0
0
0
0
0
0
0
0
0
0
0
0
0
0
0
0
0
0
0
0
0
0
0
0
0
0
0
0
0
0
0
0
0
0
0
0
0
0
0
0
0
0
0
0
0
0
0
0
0
0
0
0
0
0
0
0
0
0
0
0
0
0
0
0
0
0
0
0
0
0
0
0
0
0
0
0
0
0
0
0
0
0
0
0
0
0
0
0
0
0
0
0
0
0
0
0
0
0
0
0
0
0
0
0
0
0
0
0
0
0
0
0
0
0
0
0
0
0
0
0
0
0
0
0
0
0
0
0
0
0
0
0
0
0
0
0
0
0
0
0
0
0
0
0
0
0
0
0
0
0
0
0
0
0
0
0
0
0
0
0
0
0
0
0
0
0
0
0
0
0
0
0
0
0
0
0
0
0
0
0
0
0
0
0
0
0
0
0
0
0
0
0
0
0
0
0
0
0
0
0
0
0
0
0
0
0
0
0
0
0
0
0
0
0
0
0
0
0
0
0
0
0
0
0
0
115
0
113
0
84
0
74
0
74
0
98
0
103
0
89
0
92
0
99
0
103
0
116
0
103
0
89
0
76
0
54
0
54
0
77
0
69
0
73
0
71
0
69
0
56
0
31
0
40
0
48
0
45
0
42
0
40
0
40
0
41
0
40
0
40
0
16
0
31
0
45
0
46
0
42
0
40
0
44
0
45
0
42
0
35
0
20
0
33
0
3
0
8
0
32
0
43
0
59
0
21
0
15
0
57
0
87
0
72
0
64
0
92
0
70
0
81
0
97
0
98
0
77
0
69
0
81
0
91
0
148
0
151
0
145
0
126
0
101
0
87
0
100
0
127
0
146
0
130
0
143
0
153
0
147
0
158
0
134
0
60
0
112
0
139
0
152
0
153
0
108
0
106
0
124
0
163
0
157
0
160
0
155
0
146
0
147
0
155
0
155
0
148
0
111
0
82
0
128
0
88
0
81
0
134
0
123
0
126
0
120
0
118
0
73
0
58
0
148
0
132
0
133
0
134
0
127
0
125
0
79
0
3
0
2
0
1
0
33
0
79
0
91
0
84
0
86
0
45
0
5
0
2
0
0
0
3
0
0
0
0
0
0
0
1
0
1
0
1
0
2
0
2
0
10
0
217
0
248
0
253
0
176
0
86
0
13
0
0
0
18
0
28
0
44
0
62
0
79
0
89
0
91
0
90
0
87
0
66
0
39
0
16
0
2
0
1
0
2
0
10
0
2
0
2
0
1
0
1
0
0
0
0
0
0
0
0
0
0
0
0
0
0
0
1
0
4
0
4
0
2
0
1
0
0
0
1
0
3
0
2
0
1
0
3
0
10
0
16
0
1
0
1
0
1
0
1
0
1
0
1
0
1
0
1
0
3
0
19
0
41
0
52
0
50
0
36
0
29
0
35
0
41
0
42
0
45
0
46
0
42
0
33
0
22
0
13
0
53
0
52
0
55
0
62
0
62
0
58
0
56
0
60
0
58
0
65
0
55
0
46
0
58
0
74
0
0
0
0
0
0
0
0
0
0
0
0
0
0
0
0
0
0
0
0
0
0
0
0
0
0
0
0
0
0
0
0
0
0
0
0
0
0
0
0
0
0
0
0
0
0
0
0
0
0
0
0
0
0
0
0
0
0
0
0
0
0
0
0
0
0
0
0
0
0
0
0
0
0
0
0
0
0
0
0
0
0
0
0
0
0
0
0
0
0
0
0
0
0
0
0
0
0
0
0
0
0
0
0
0
0
0
0
0
0
0
0
0
0
0
0
0
0
0
0
0
0
0
0
0
0
0
0
0
0
0
0
0
0
0
0
0
0
0
0
0
0
0
0
0
0
0
0
0
0
0
0
0
0
0
0
0
0
0
0
0
0
0
0
0
0
0
0
0
0
0
0
0
0
0
0
0
0
0
0
0
0
0
0
0
0
0
0
0
0
0
0
0
0
0
0
0
0
0
0
0
0
0
0
0
0
0
0
0
0
0
0
0
0
0
0
0
0
0
0
0
0
0
0
0
0
0
0
0
0
0
0
0
0
0
0
0
0
0
0
0
0
0
0
0
0
0
0
0
0
0
0
0
0
0
0
0
0
0
0
0
0
0
0
0
0
0
0
0
0
0
0
0
0
0
0
0
0
0
0
0
0
0
0
0
0
0
0
0
0
0
0
0
0
0
0
0
0
0
0
0
0
0
0
0
0
0
0
0
0
0
0
0
0
0
0
0
0
0
0
0
0
0
0
0
0
0
0
0
0
0
0
0
0
0
0
0
0
0
0
0
0
0
0
0
0
0
0
0
0
0
0
0
0
0
0
0
0
0
0
0
0
0
0
0
0
0
0
0
0
0
0
0
0
0
0
0
0
0
0
0
0
0
0
0
0
0
0
0
0
0
0
0
0
0
0
0
0
0
0
0
0
0
0
0
0
0
0
0
0
0
0
0
0
0
0
0
0
0
0
0
0
0
0
0
0
0
0
0
0
0
0
0
0
0
0
0
0
0
0
0
0
0
0
0
116
0
133
0
102
0
100
0
64
0
64
0
63
0
94
0
116
0
119
0
114
0
107
0
97
0
105
0
94
0
54
0
52
0
79
0
71
0
78
0
80
0
81
0
66
0
40
0
50
0
76
0
73
0
68
0
63
0
60
0
56
0
51
0
48
0
17
0
35
0
52
0
57
0
56
0
57
0
62
0
65
0
83
0
53
0
22
0
34
0
2
0
1
0
21
0
61
0
90
0
72
0
29
0
57
0
87
0
79
0
51
0
79
0
85
0
71
0
68
0
75
0
59
0
40
0
77
0
150
0
146
0
149
0
126
0
115
0
123
0
104
0
95
0
124
0
140
0
143
0
142
0
151
0
146
0
96
0
78
0
119
0
137
0
166
0
157
0
156
0
142
0
109
0
96
0
151
0
154
0
156
0
153
0
148
0
149
0
154
0
150
0
143
0
152
0
111
0
71
0
50
0
113
0
135
0
132
0
114
0
125
0
121
0
93
0
39
0
135
0
140
0
132
0
139
0
130
0
126
0
79
0
4
0
2
0
1
0
32
0
78
0
92
0
85
0
86
0
46
0
5
0
2
0
0
0
3
0
0
0
0
0
0
0
1
0
1
0
1
0
2
0
2
0
2
0
220
0
254
0
255
0
251
0
215
0
134
0
76
0
2
0
2
0
3
0
24
0
37
0
40
0
54
0
77
0
90
0
88
0
84
0
70
0
46
0
19
0
6
0
5
0
0
0
0
0
0
0
1
0
2
0
3
0
4
0
4
0
17
0
11
0
3
0
0
0
0
0
0
0
0
0
1
0
0
0
1
0
5
0
5
0
1
0
0
0
0
0
3
0
1
0
1
0
1
0
1
0
1
0
1
0
1
0
1
0
5
0
8
0
31
0
51
0
56
0
45
0
33
0
27
0
55
0
60
0
62
0
61
0
63
0
62
0
49
0
32
0
59
0
57
0
59
0
65
0
68
0
66
0
64
0
64
0
63
0
65
0
62
0
49
0
45
0
65
0
0
0
0
0
0
0
0
0
0
0
0
0
0
0
0
0
0
0
0
0
0
0
0
0
0
0
0
0
0
0
0
0
0
0
0
0
0
0
0
0
0
0
0
0
0
0
0
0
0
0
0
0
0
0
0
0
0
0
0
0
0
0
0
0
0
0
0
0
0
0
0
0
0
0
0
0
0
0
0
0
0
0
0
0
0
0
0
0
0
0
0
0
0
0
0
0
0
0
0
0
0
0
0
0
0
0
0
0
0
0
0
0
0
0
0
0
0
0
0
0
0
0
0
0
0
0
0
0
0
0
0
0
0
0
0
0
0
0
0
0
0
0
0
0
0
0
0
0
0
0
0
0
0
0
0
0
0
0
0
0
0
0
0
0
0
0
0
0
0
0
0
0
0
0
0
0
0
0
0
0
0
0
0
0
0
0
0
0
0
0
0
0
0
0
0
0
0
0
0
0
0
0
0
0
0
0
0
0
0
0
0
0
0
0
0
0
0
0
0
0
0
0
0
0
0
0
0
0
0
0
0
0
0
0
0
0
0
0
0
0
0
0
0
0
0
0
0
0
0
0
0
0
0
0
0
0
0
0
0
0
0
0
0
0
0
0
0
0
0
0
0
0
0
0
0
0
0
0
0
0
0
0
0
0
0
0
0
0
0
0
0
0
0
0
0
0
0
0
0
0
0
0
0
0
0
0
0
0
0
0
0
0
0
0
0
0
0
0
0
0
0
0
0
0
0
0
0
0
0
0
0
0
0
0
0
0
0
0
0
0
0
0
0
0
0
0
0
0
0
0
0
0
0
0
0
0
0
0
0
0
0
0
0
0
0
0
0
0
0
0
0
0
0
0
0
0
0
0
0
0
0
0
0
0
0
0
0
0
0
0
0
0
0
0
0
0
0
0
0
0
0
0
0
0
0
0
0
0
0
0
0
0
0
0
0
0
0
0
0
0
0
0
0
0
0
0
0
0
0
0
0
0
0
0
0
0
0
0
0
0
0
0
0
0
117
0
123
0
115
0
130
0
87
0
44
0
36
0
74
0
108
0
119
0
123
0
118
0
108
0
113
0
92
0
46
0
53
0
85
0
73
0
76
0
78
0
78
0
63
0
42
0
57
0
81
0
79
0
76
0
75
0
73
0
70
0
65
0
61
0
29
0
47
0
64
0
68
0
67
0
66
0
70
0
73
0
73
0
62
0
45
0
70
0
53
0
29
0
15
0
8
0
39
0
75
0
39
0
24
0
70
0
92
0
62
0
68
0
49
0
44
0
52
0
86
0
104
0
83
0
94
0
147
0
142
0
138
0
124
0
128
0
143
0
126
0
93
0
83
0
136
0
138
0
148
0
123
0
78
0
90
0
141
0
158
0
151
0
160
0
147
0
154
0
164
0
128
0
89
0
107
0
153
0
147
0
146
0
151
0
153
0
149
0
147
0
150
0
157
0
121
0
43
0
46
0
120
0
138
0
145
0
111
0
123
0
121
0
111
0
30
0
118
0
145
0
130
0
133
0
131
0
125
0
77
0
4
0
3
0
1
0
32
0
79
0
92
0
85
0
86
0
46
0
5
0
3
0
0
0
3
0
0
0
0
0
0
0
1
0
1
0
1
0
2
0
2
0
3
0
222
0
254
0
236
0
251
0
255
0
249
0
227
0
160
0
84
0
10
0
1
0
8
0
18
0
21
0
24
0
30
0
41
0
59
0
68
0
58
0
32
0
7
0
4
0
0
0
0
0
0
0
0
0
0
0
1
0
2
0
3
0
0
0
0
0
7
0
14
0
16
0
13
0
7
0
2
0
0
0
2
0
5
0
4
0
1
0
0
0
0
0
0
0
1
0
1
0
1
0
1
0
1
0
1
0
1
0
1
0
7
0
6
0
35
0
62
0
71
0
65
0
54
0
44
0
64
0
71
0
70
0
67
0
71
0
74
0
58
0
36
0
69
0
64
0
61
0
60
0
63
0
63
0
65
0
65
0
62
0
63
0
64
0
51
0
39
0
57
0
0
0
0
0
0
0
0
0
0
0
0
0
0
0
0
0
0
0
0
0
0
0
0
0
0
0
0
0
0
0
0
0
0
0
0
0
0
0
0
0
0
0
0
0
0
0
0
0
0
0
0
0
0
0
0
0
0
0
0
0
0
0
0
0
0
0
0
0
0
0
0
0
0
0
0
0
0
0
0
0
0
0
0
0
0
0
0
0
0
0
0
0
0
0
0
0
0
0
0
0
0
0
0
0
0
0
0
0
0
0
0
0
0
0
0
0
0
0
0
0
0
0
0
0
0
0
0
0
0
0
0
0
0
0
0
0
0
0
0
0
0
0
0
0
0
0
0
0
0
0
0
0
0
0
0
0
0
0
0
0
0
0
0
0
0
0
0
0
0
0
0
0
0
0
0
0
0
0
0
0
0
0
0
0
0
0
0
0
0
0
0
0
0
0
0
0
0
0
0
0
0
0
0
0
0
0
0
0
0
0
0
0
0
0
0
0
0
0
0
0
0
0
0
0
0
0
0
0
0
0
0
0
0
0
0
0
0
0
0
0
0
0
0
0
0
0
0
0
0
0
0
0
0
0
0
0
0
0
0
0
0
0
0
0
0
0
0
0
0
0
0
0
0
0
0
0
0
0
0
0
0
0
0
0
0
0
0
0
0
0
0
0
0
0
0
0
0
0
0
0
0
0
0
0
0
0
0
0
0
0
0
0
0
0
0
0
0
0
0
0
0
0
0
0
0
0
0
0
0
0
0
0
0
0
0
0
0
0
0
0
0
0
0
0
0
0
0
0
0
0
0
0
0
0
0
0
0
0
0
0
0
0
0
0
0
0
0
0
0
0
0
0
0
0
0
0
0
0
0
0
0
0
0
0
0
0
0
0
0
0
0
0
0
0
0
0
0
0
0
0
0
0
0
0
0
0
0
0
0
0
0
0
0
0
0
0
0
0
0
0
0
0
0
0
0
0
0
0
0
0
0
0
0
0
0
0
0
0
0
0
0
0
0
0
122
0
123
0
119
0
123
0
104
0
57
0
61
0
62
0
75
0
72
0
101
0
126
0
124
0
121
0
92
0
51
0
65
0
89
0
74
0
77
0
80
0
81
0
64
0
44
0
60
0
72
0
71
0
71
0
73
0
75
0
74
0
72
0
69
0
26
0
41
0
55
0
55
0
49
0
44
0
44
0
44
0
39
0
44
0
30
0
54
0
64
0
70
0
47
0
24
0
15
0
66
0
61
0
32
0
74
0
78
0
51
0
42
0
35
0
58
0
80
0
117
0
143
0
132
0
102
0
96
0
152
0
134
0
128
0
130
0
136
0
144
0
128
0
86
0
110
0
122
0
86
0
70
0
120
0
147
0
143
0
158
0
159
0
152
0
150
0
153
0
159
0
140
0
107
0
80
0
143
0
149
0
147
0
142
0
144
0
153
0
156
0
150
0
113
0
85
0
78
0
70
0
85
0
141
0
130
0
136
0
115
0
115
0
121
0
38
0
95
0
143
0
128
0
122
0
131
0
123
0
73
0
4
0
3
0
1
0
32
0
79
0
93
0
86
0
87
0
47
0
6
0
3
0
0
0
3
0
0
0
0
0
0
0
1
0
1
0
1
0
2
0
2
0
1
0
196
0
255
0
255
0
255
0
249
0
242
0
255
0
249
0
233
0
192
0
125
0
51
0
3
0
0
0
3
0
7
0
2
0
1
0
3
0
12
0
11
0
6
0
4
0
7
0
5
0
3
0
0
0
0
0
0
0
0
0
0
0
0
0
0
0
0
0
0
0
0
0
0
0
0
0
0
0
2
0
3
0
3
0
2
0
0
0
0
0
0
0
0
0
1
0
1
0
1
0
1
0
1
0
1
0
1
0
1
0
7
0
9
0
40
0
69
0
72
0
68
0
58
0
43
0
56
0
63
0
63
0
61
0
65
0
67
0
54
0
35
0
68
0
67
0
65
0
64
0
65
0
66
0
66
0
65
0
66
0
64
0
70
0
58
0
44
0
57
0
0
0
0
0
0
0
0
0
0
0
0
0
0
0
0
0
0
0
0
0
0
0
0
0
0
0
0
0
0
0
0
0
0
0
0
0
0
0
0
0
0
0
0
0
0
0
0
0
0
0
0
0
0
0
0
0
0
0
0
0
0
0
0
0
0
0
0
0
0
0
0
0
0
0
0
0
0
0
0
0
0
0
0
0
0
0
0
0
0
0
0
0
0
0
0
0
0
0
0
0
0
0
0
0
0
0
0
0
0
0
0
0
0
0
0
0
0
0
0
0
0
0
0
0
0
0
0
0
0
0
0
0
0
0
0
0
0
0
0
0
0
0
0
0
0
0
0
0
0
0
0
0
0
0
0
0
0
0
0
0
0
0
0
0
0
0
0
0
0
0
0
0
0
0
0
0
0
0
0
0
0
0
0
0
0
0
0
0
0
0
0
0
0
0
0
0
0
0
0
0
0
0
0
0
0
0
0
0
0
0
0
0
0
0
0
0
0
0
0
0
0
0
0
0
0
0
0
0
0
0
0
0
0
0
0
0
0
0
0
0
0
0
0
0
0
0
0
0
0
0
0
0
0
0
0
0
0
0
0
0
0
0
0
0
0
0
0
0
0
0
0
0
0
0
0
0
0
0
0
0
0
0
0
0
0
0
0
0
0
0
0
0
0
0
0
0
0
0
0
0
0
0
0
0
0
0
0
0
0
0
0
0
0
0
0
0
0
0
0
0
0
0
0
0
0
0
0
0
0
0
0
0
0
0
0
0
0
0
0
0
0
0
0
0
0
0
0
0
0
0
0
0
0
0
0
0
0
0
0
0
0
0
0
0
0
0
0
0
0
0
0
0
0
0
0
0
0
0
0
0
0
0
0
0
0
0
0
0
0
0
0
0
0
0
0
0
0
0
0
0
0
0
0
0
0
0
0
0
0
0
0
0
0
0
0
0
0
0
0
0
0
0
0
0
0
0
0
0
0
0
0
0
0
0
0
0
0
0
0
0
0
0
0
0
121
0
118
0
115
0
110
0
107
0
84
0
106
0
89
0
91
0
75
0
70
0
74
0
89
0
119
0
116
0
83
0
79
0
85
0
72
0
77
0
84
0
85
0
65
0
43
0
59
0
75
0
75
0
76
0
78
0
81
0
82
0
81
0
79
0
33
0
49
0
65
0
67
0
61
0
58
0
58
0
59
0
58
0
61
0
21
0
31
0
33
0
57
0
64
0
57
0
18
0
47
0
54
0
34
0
63
0
40
0
40
0
43
0
67
0
98
0
116
0
123
0
135
0
139
0
115
0
82
0
127
0
118
0
126
0
127
0
123
0
149
0
150
0
115
0
62
0
44
0
81
0
139
0
148
0
150
0
156
0
145
0
155
0
145
0
158
0
150
0
145
0
145
0
143
0
105
0
100
0
137
0
156
0
143
0
141
0
153
0
141
0
111
0
79
0
103
0
116
0
120
0
73
0
95
0
122
0
139
0
113
0
114
0
125
0
57
0
70
0
137
0
135
0
120
0
128
0
118
0
68
0
3
0
3
0
1
0
33
0
82
0
93
0
86
0
87
0
47
0
6
0
3
0
0
0
3
0
0
0
0
0
0
0
1
0
1
0
1
0
2
0
2
0
0
0
182
0
255
0
255
0
252
0
247
0
242
0
245
0
245
0
251
0
253
0
252
0
249
0
233
0
194
0
156
0
71
0
43
0
12
0
1
0
1
0
1
0
1
0
1
0
0
0
0
0
0
0
0
0
1
0
3
0
6
0
8
0
6
0
6
0
5
0
4
0
4
0
4
0
5
0
5
0
4
0
3
0
1
0
0
0
0
0
0
0
2
0
3
0
1
0
1
0
1
0
1
0
1
0
1
0
1
0
1
0
2
0
3
0
34
0
65
0
68
0
67
0
63
0
46
0
55
0
62
0
67
0
67
0
69
0
71
0
64
0
52
0
47
0
56
0
66
0
68
0
70
0
70
0
66
0
62
0
66
0
66
0
68
0
63
0
53
0
54
0
0
0
0
0
0
0
0
0
0
0
0
0
0
0
0
0
0
0
0
0
0
0
0
0
0
0
0
0
0
0
0
0
0
0
0
0
0
0
0
0
0
0
0
0
0
0
0
0
0
0
0
0
0
0
0
0
0
0
0
0
0
0
0
0
0
0
0
0
0
0
0
0
0
0
0
0
0
0
0
0
0
0
0
0
0
0
0
0
0
0
0
0
0
0
0
0
0
0
0
0
0
0
0
0
0
0
0
0
0
0
0
0
0
0
0
0
0
0
0
0
0
0
0
0
0
0
0
0
0
0
0
0
0
0
0
0
0
0
0
0
0
0
0
0
0
0
0
0
0
0
0
0
0
0
0
0
0
0
0
0
0
0
0
0
0
0
0
0
0
0
0
0
0
0
0
0
0
0
0
0
0
0
0
0
0
0
0
0
0
0
0
0
0
0
0
0
0
0
0
0
0
0
0
0
0
0
0
0
0
0
0
0
0
0
0
0
0
0
0
0
0
0
0
0
0
0
0
0
0
0
0
0
0
0
0
0
0
0
0
0
0
0
0
0
0
0
0
0
0
0
0
0
0
0
0
0
0
0
0
0
0
0
0
0
0
0
0
0
0
0
0
0
0
0
0
0
0
0
0
0
0
0
0
0
0
0
0
0
0
0
0
0
0
0
0
0
0
0
0
0
0
0
0
0
0
0
0
0
0
0
0
0
0
0
0
0
0
0
0
0
0
0
0
0
0
0
0
0
0
0
0
0
0
0
0
0
0
0
0
0
0
0
0
0
0
0
0
0
0
0
0
0
0
0
0
0
0
0
0
0
0
0
0
0
0
0
0
0
0
0
0
0
0
0
0
0
0
0
0
0
0
0
0
0
0
0
0
0
0
0
0
0
0
0
0
0
0
0
0
0
0
0
0
0
0
0
0
0
0
0
0
0
0
0
0
0
0
0
0
0
0
0
0
0
0
0
0
0
0
0
0
0
0
0
0
0
0
0
0
0
0
0
0
0
117
0
115
0
112
0
105
0
92
0
100
0
124
0
119
0
125
0
117
0
78
0
62
0
63
0
87
0
105
0
91
0
89
0
94
0
77
0
78
0
83
0
83
0
62
0
41
0
60
0
76
0
75
0
75
0
75
0
77
0
77
0
76
0
74
0
48
0
65
0
82
0
87
0
84
0
82
0
84
0
85
0
80
0
78
0
46
0
60
0
58
0
39
0
12
0
23
0
2
0
14
0
20
0
15
0
28
0
45
0
67
0
86
0
77
0
106
0
127
0
125
0
126
0
142
0
130
0
93
0
85
0
110
0
137
0
139
0
126
0
117
0
107
0
91
0
32
0
72
0
117
0
142
0
150
0
151
0
151
0
154
0
148
0
143
0
156
0
141
0
147
0
148
0
161
0
140
0
77
0
114
0
146
0
150
0
142
0
129
0
104
0
80
0
97
0
145
0
133
0
147
0
102
0
61
0
116
0
121
0
115
0
113
0
119
0
70
0
39
0
124
0
144
0
124
0
124
0
112
0
63
0
3
0
4
0
1
0
34
0
85
0
93
0
86
0
88
0
47
0
7
0
4
0
0
0
4
0
0
0
0
0
0
0
1
0
1
0
1
0
2
0
2
0
0
0
167
0
255
0
242
0
239
0
255
0
255
0
254
0
252
0
254
0
254
0
250
0
253
0
255
0
255
0
251
0
254
0
250
0
228
0
212
0
199
0
188
0
183
0
183
0
181
0
182
0
183
0
186
0
191
0
197
0
203
0
206
0
229
0
181
0
107
0
36
0
0
0
0
0
0
0
9
0
4
0
2
0
1
0
0
0
0
0
0
0
0
0
0
0
1
0
1
0
1
0
1
0
1
0
1
0
1
0
1
0
1
0
1
0
27
0
59
0
63
0
70
0
72
0
52
0
48
0
56
0
64
0
67
0
68
0
65
0
64
0
64
0
33
0
48
0
62
0
67
0
67
0
67
0
65
0
61
0
64
0
64
0
63
0
64
0
60
0
50
0
0
0
0
0
0
0
0
0
0
0
0
0
0
0
0
0
0
0
0
0
0
0
0
0
0
0
0
0
0
0
0
0
0
0
0
0
0
0
0
0
0
0
0
0
0
0
0
0
0
0
0
0
0
0
0
0
0
0
0
0
0
0
0
0
0
0
0
0
0
0
0
0
0
0
0
0
0
0
0
0
0
0
0
0
0
0
0
0
0
0
0
0
0
0
0
0
0
0
0
0
0
0
0
0
0
0
0
0
0
0
0
0
0
0
0
0
0
0
0
0
0
0
0
0
0
0
0
0
0
0
0
0
0
0
0
0
0
0
0
0
0
0
0
0
0
0
0
0
0
0
0
0
0
0
0
0
0
0
0
0
0
0
0
0
0
0
0
0
0
0
0
0
0
0
0
0
0
0
0
0
0
0
0
0
0
0
0
0
0
0
0
0
0
0
0
0
0
0
0
0
0
0
0
0
0
0
0
0
0
0
0
0
0
0
0
0
0
0
0
0
0
0
0
0
0
0
0
0
0
0
0
0
0
0
0
0
0
0
0
0
0
0
0
0
0
0
0
0
0
0
0
0
0
0
0
0
0
0
0
0
0
0
0
0
0
0
0
0
0
0
0
0
0
0
0
0
0
0
0
0
0
0
0
0
0
0
0
0
0
0
0
0
0
0
0
0
0
0
0
0
0
0
0
0
0
0
0
0
0
0
0
0
0
0
0
0
0
0
0
0
0
0
0
0
0
0
0
0
0
0
0
0
0
0
0
0
0
0
0
0
0
0
0
0
0
0
0
0
0
0
0
0
0
0
0
0
0
0
0
0
0
0
0
0
0
0
0
0
0
0
0
0
0
0
0
0
0
0
0
0
0
0
0
0
0
0
0
0
0
0
0
0
0
0
0
0
0
0
0
0
0
0
0
0
0
0
0
0
0
0
0
0
0
0
0
0
0
0
0
0
0
0
0
0
0
0
0
0
0
0
0
0
0
0
0
0
0
0
0
0
0
0
0
0
120
0
130
0
112
0
96
0
66
0
107
0
124
0
122
0
118
0
120
0
116
0
123
0
92
0
46
0
37
0
64
0
108
0
113
0
90
0
83
0
81
0
78
0
60
0
45
0
67
0
82
0
81
0
78
0
78
0
78
0
78
0
77
0
75
0
42
0
59
0
74
0
77
0
71
0
67
0
67
0
68
0
80
0
59
0
20
0
56
0
68
0
42
0
12
0
20
0
42
0
72
0
68
0
43
0
19
0
71
0
87
0
69
0
90
0
99
0
110
0
107
0
110
0
140
0
145
0
125
0
62
0
106
0
126
0
118
0
106
0
82
0
78
0
106
0
145
0
73
0
77
0
141
0
151
0
143
0
149
0
151
0
154
0
150
0
150
0
134
0
156
0
149
0
151
0
141
0
102
0
102
0
123
0
148
0
134
0
94
0
80
0
96
0
135
0
139
0
139
0
134
0
128
0
82
0
86
0
116
0
112
0
107
0
106
0
70
0
9
0
105
0
143
0
120
0
122
0
108
0
60
0
3
0
4
0
1
0
35
0
86
0
94
0
87
0
88
0
48
0
7
0
4
0
0
0
4
0
0
0
0
0
0
0
1
0
1
0
1
0
2
0
2
0
0
0
133
0
245
0
255
0
255
0
247
0
255
0
254
0
255
0
253
0
251
0
252
0
254
0
254
0
254
0
255
0
252
0
252
0
255
0
254
0
250
0
247
0
253
0
254
0
255
0
254
0
252
0
252
0
252
0
255
0
255
0
255
0
255
0
250
0
226
0
187
0
135
0
78
0
27
0
0
0
2
0
1
0
1
0
1
0
1
0
0
0
0
0
0
0
1
0
1
0
1
0
1
0
1
0
1
0
1
0
1
0
10
0
2
0
26
0
56
0
59
0
69
0
70
0
47
0
47
0
54
0
63
0
69
0
66
0
60
0
63
0
71
0
34
0
50
0
62
0
63
0
62
0
64
0
68
0
68
0
65
0
67
0
62
0
67
0
68
0
48
0
0
0
0
0
0
0
0
0
0
0
0
0
0
0
0
0
0
0
0
0
0
0
0
0
0
0
0
0
0
0
0
0
0
0
0
0
0
0
0
0
0
0
0
0
0
0
0
0
0
0
0
0
0
0
0
0
0
0
0
0
0
0
0
0
0
0
0
0
0
0
0
0
0
0
0
0
0
0
0
0
0
0
0
0
0
0
0
0
0
0
0
0
0
0
0
0
0
0
0
0
0
0
0
0
0
0
0
0
0
0
0
0
0
0
0
0
0
0
0
0
0
0
0
0
0
0
0
0
0
0
0
0
0
0
0
0
0
0
0
0
0
0
0
0
0
0
0
0
0
0
0
0
0
0
0
0
0
0
0
0
0
0
0
0
0
0
0
0
0
0
0
0
0
0
0
0
0
0
0
0
0
0
0
0
0
0
0
0
0
0
0
0
0
0
0
0
0
0
0
0
0
0
0
0
0
0
0
0
0
0
0
0
0
0
0
0
0
0
0
0
0
0
0
0
0
0
0
0
0
0
0
0
0
0
0
0
0
0
0
0
0
0
0
0
0
0
0
0
0
0
0
0
0
0
0
0
0
0
0
0
0
0
0
0
0
0
0
0
0
0
0
0
0
0
0
0
0
0
0
0
0
0
0
0
0
0
0
0
0
0
0
0
0
0
0
0
0
0
0
0
0
0
0
0
0
0
0
0
0
0
0
0
0
0
0
0
0
0
0
0
0
0
0
0
0
0
0
0
0
0
0
0
0
0
0
0
0
0
0
0
0
0
0
0
0
0
0
0
0
0
0
0
0
0
0
0
0
0
0
0
0
0
0
0
0
0
0
0
0
0
0
0
0
0
0
0
0
0
0
0
0
0
0
0
0
0
0
0
0
0
0
0
0
0
0
0
0
0
0
0
0
0
0
0
0
0
0
0
0
0
0
0
0
0
0
0
0
0
0
0
0
0
0
0
0
0
0
0
0
0
0
0
0
0
0
0
0
0
0
0
0
0
0
0
123
0
121
0
119
0
82
0
94
0
125
0
125
0
124
0
118
0
116
0
115
0
122
0
134
0
115
0
64
0
36
0
73
0
52
0
54
0
67
0
67
0
86
0
76
0
42
0
70
0
78
0
79
0
80
0
81
0
81
0
81
0
80
0
80
0
46
0
50
0
74
0
75
0
74
0
84
0
80
0
77
0
83
0
72
0
21
0
24
0
42
0
46
0
63
0
82
0
86
0
60
0
77
0
78
0
25
0
59
0
82
0
84
0
96
0
106
0
120
0
128
0
128
0
128
0
138
0
149
0
96
0
97
0
113
0
75
0
63
0
117
0
139
0
142
0
142
0
119
0
50
0
110
0
143
0
155
0
138
0
143
0
146
0
146
0
146
0
143
0
140
0
140
0
146
0
150
0
131
0
97
0
94
0
119
0
76
0
85
0
118
0
144
0
129
0
125
0
131
0
141
0
131
0
105
0
87
0
85
0
129
0
113
0
56
0
96
0
26
0
105
0
131
0
128
0
128
0
109
0
49
0
7
0
3
0
3
0
32
0
92
0
86
0
90
0
86
0
50
0
6
0
1
0
5
0
0
0
0
0
0
0
2
0
3
0
3
0
2
0
0
0
0
0
0
0
117
0
253
0
255
0
251
0
254
0
251
0
247
0
250
0
250
0
250
0
250
0
250
0
250
0
250
0
250
0
255
0
255
0
255
0
255
0
255
0
255
0
255
0
255
0
255
0
255
0
255
0
255
0
255
0
255
0
255
0
255
0
243
0
251
0
255
0
252
0
241
0
228
0
181
0
119
0
29
0
1
0
0
0
0
0
0
0
0
0
2
0
2
0
4
0
2
0
0
0
5
0
3
0
1
0
3
0
6
0
18
0
10
0
9
0
41
0
71
0
66
0
58
0
65
0
33
0
45
0
62
0
72
0
70
0
64
0
61
0
62
0
54
0
34
0
40
0
68
0
79
0
63
0
56
0
66
0
63
0
65
0
65
0
63
0
63
0
62
0
0
0
0
0
0
0
0
0
0
0
0
0
0
0
0
0
0
0
0
0
0
0
0
0
0
0
0
0
0
0
0
0
0
0
0
0
0
0
0
0
0
0
0
0
0
0
0
0
0
0
0
0
0
0
0
0
0
0
0
0
0
0
0
0
0
0
0
0
0
0
0
0
0
0
0
0
0
0
0
0
0
0
0
0
0
0
0
0
0
0
0
0
0
0
0
0
0
0
0
0
0
0
0
0
0
0
0
0
0
0
0
0
0
0
0
0
0
0
0
0
0
0
0
0
0
0
0
0
0
0
0
0
0
0
0
0
0
0
0
0
0
0
0
0
0
0
0
0
0
0
0
0
0
0
0
0
0
0
0
0
0
0
0
0
0
0
0
0
0
0
0
0
0
0
0
0
0
0
0
0
0
0
0
0
0
0
0
0
0
0
0
0
0
0
0
0
0
0
0
0
0
0
0
0
0
0
0
0
0
0
0
0
0
0
0
0
0
0
0
0
0
0
0
0
0
0
0
0
0
0
0
0
0
0
0
0
0
0
0
0
0
0
0
0
0
0
0
0
0
0
0
0
0
0
0
0
0
0
0
0
0
0
0
0
0
0
0
0
0
0
0
0
0
0
0
0
0
0
0
0
0
0
0
0
0
0
0
0
0
0
0
0
0
0
0
0
0
0
0
0
0
0
0
0
0
0
0
0
0
0
0
0
0
0
0
0
0
0
0
0
0
0
0
0
0
0
0
0
0
0
0
0
0
0
0
0
0
0
0
0
0
0
0
0
0
0
0
0
0
0
0
0
0
0
0
0
0
0
0
0
0
0
0
0
0
0
0
0
0
0
0
0
0
0
0
0
0
0
0
0
0
0
0
0
0
0
0
0
0
0
0
0
0
0
0
0
0
0
0
0
0
0
0
0
0
0
0
0
0
0
0
0
0
0
0
0
0
0
0
0
0
0
0
0
0
0
0
0
0
0
0
0
0
0
0
0
0
0
0
0
0
0
0
0
108
0
130
0
119
0
83
0
92
0
118
0
113
0
115
0
113
0
114
0
110
0
115
0
128
0
117
0
77
0
66
0
112
0
116
0
90
0
65
0
38
0
53
0
58
0
46
0
89
0
96
0
90
0
82
0
76
0
74
0
75
0
80
0
83
0
59
0
57
0
71
0
60
0
43
0
43
0
30
0
23
0
28
0
35
0
15
0
32
0
69
0
65
0
76
0
83
0
83
0
67
0
89
0
75
0
43
0
48
0
74
0
87
0
118
0
114
0
108
0
108
0
119
0
134
0
141
0
138
0
108
0
60
0
40
0
71
0
105
0
119
0
132
0
137
0
145
0
126
0
127
0
45
0
127
0
135
0
149
0
149
0
142
0
146
0
148
0
146
0
140
0
137
0
139
0
143
0
139
0
123
0
83
0
53
0
86
0
131
0
143
0
127
0
131
0
133
0
125
0
119
0
129
0
134
0
102
0
61
0
113
0
89
0
64
0
109
0
40
0
73
0
122
0
140
0
125
0
111
0
52
0
6
0
3
0
4
0
29
0
85
0
86
0
90
0
86
0
49
0
6
0
1
0
5
0
0
0
1
0
1
0
1
0
0
0
0
0
0
0
0
0
0
0
0
0
108
0
251
0
255
0
252
0
255
0
254
0
251
0
253
0
253
0
253
0
253
0
253
0
253
0
253
0
253
0
255
0
255
0
255
0
255
0
255
0
255
0
255
0
255
0
255
0
255
0
255
0
255
0
255
0
255
0
255
0
255
0
255
0
255
0
255
0
254
0
251
0
255
0
255
0
228
0
182
0
113
0
43
0
6
0
0
0
3
0
9
0
2
0
8
0
5
0
3
0
1
0
3
0
4
0
11
0
20
0
4
0
4
0
12
0
38
0
63
0
64
0
66
0
78
0
44
0
45
0
54
0
67
0
69
0
61
0
58
0
64
0
70
0
54
0
45
0
51
0
61
0
67
0
71
0
74
0
63
0
67
0
69
0
68
0
66
0
64
0
0
0
0
0
0
0
0
0
0
0
0
0
0
0
0
0
0
0
0
0
0
0
0
0
0
0
0
0
0
0
0
0
0
0
0
0
0
0
0
0
0
0
0
0
0
0
0
0
0
0
0
0
0
0
0
0
0
0
0
0
0
0
0
0
0
0
0
0
0
0
0
0
0
0
0
0
0
0
0
0
0
0
0
0
0
0
0
0
0
0
0
0
0
0
0
0
0
0
0
0
0
0
0
0
0
0
0
0
0
0
0
0
0
0
0
0
0
0
0
0
0
0
0
0
0
0
0
0
0
0
0
0
0
0
0
0
0
0
0
0
0
0
0
0
0
0
0
0
0
0
0
0
0
0
0
0
0
0
0
0
0
0
0
0
0
0
0
0
0
0
0
0
0
0
0
0
0
0
0
0
0
0
0
0
0
0
0
0
0
0
0
0
0
0
0
0
0
0
0
0
0
0
0
0
0
0
0
0
0
0
0
0
0
0
0
0
0
0
0
0
0
0
0
0
0
0
0
0
0
0
0
0
0
0
0
0
0
0
0
0
0
0
0
0
0
0
0
0
0
0
0
0
0
0
0
0
0
0
0
0
0
0
0
0
0
0
0
0
0
0
0
0
0
0
0
0
0
0
0
0
0
0
0
0
0
0
0
0
0
0
0
0
0
0
0
0
0
0
0
0
0
0
0
0
0
0
0
0
0
0
0
0
0
0
0
0
0
0
0
0
0
0
0
0
0
0
0
0
0
0
0
0
0
0
0
0
0
0
0
0
0
0
0
0
0
0
0
0
0
0
0
0
0
0
0
0
0
0
0
0
0
0
0
0
0
0
0
0
0
0
0
0
0
0
0
0
0
0
0
0
0
0
0
0
0
0
0
0
0
0
0
0
0
0
0
0
0
0
0
0
0
0
0
0
0
0
0
0
0
0
0
0
0
0
0
0
0
0
0
0
0
0
0
0
0
0
0
0
0
0
0
0
0
0
0
0
0
0
0
0
0
0
0
0
109
0
122
0
104
0
78
0
95
0
119
0
116
0
121
0
128
0
118
0
114
0
114
0
124
0
118
0
79
0
84
0
132
0
114
0
117
0
121
0
93
0
74
0
44
0
18
0
69
0
58
0
55
0
51
0
47
0
44
0
42
0
41
0
41
0
15
0
15
0
42
0
47
0
48
0
62
0
60
0
60
0
66
0
66
0
55
0
49
0
86
0
68
0
74
0
73
0
78
0
74
0
91
0
64
0
57
0
39
0
62
0
99
0
110
0
116
0
121
0
124
0
127
0
122
0
95
0
68
0
71
0
41
0
26
0
105
0
150
0
130
0
131
0
132
0
120
0
148
0
134
0
94
0
63
0
143
0
134
0
150
0
140
0
142
0
144
0
143
0
142
0
141
0
141
0
142
0
134
0
106
0
56
0
33
0
118
0
137
0
133
0
131
0
129
0
128
0
127
0
127
0
129
0
124
0
108
0
93
0
71
0
60
0
84
0
119
0
61
0
46
0
124
0
138
0
120
0
112
0
56
0
8
0
4
0
3
0
25
0
72
0
85
0
89
0
85
0
49
0
6
0
1
0
5
0
0
0
2
0
1
0
0
0
0
0
0
0
1
0
4
0
4
0
0
0
95
0
249
0
255
0
254
0
255
0
255
0
255
0
255
0
255
0
255
0
255
0
255
0
255
0
255
0
255
0
255
0
255
0
255
0
255
0
255
0
255
0
255
0
255
0
255
0
255
0
255
0
255
0
255
0
255
0
255
0
255
0
251
0
248
0
253
0
253
0
248
0
255
0
255
0
255
0
255
0
246
0
213
0
146
0
63
0
14
0
0
0
0
0
12
0
8
0
9
0
12
0
8
0
2
0
6
0
14
0
2
0
1
0
7
0
30
0
58
0
66
0
62
0
62
0
53
0
41
0
40
0
53
0
61
0
57
0
56
0
61
0
58
0
56
0
45
0
37
0
47
0
64
0
68
0
60
0
62
0
65
0
63
0
57
0
52
0
50
0
0
0
0
0
0
0
0
0
0
0
0
0
0
0
0
0
0
0
0
0
0
0
0
0
0
0
0
0
0
0
0
0
0
0
0
0
0
0
0
0
0
0
0
0
0
0
0
0
0
0
0
0
0
0
0
0
0
0
0
0
0
0
0
0
0
0
0
0
0
0
0
0
0
0
0
0
0
0
0
0
0
0
0
0
0
0
0
0
0
0
0
0
0
0
0
0
0
0
0
0
0
0
0
0
0
0
0
0
0
0
0
0
0
0
0
0
0
0
0
0
0
0
0
0
0
0
0
0
0
0
0
0
0
0
0
0
0
0
0
0
0
0
0
0
0
0
0
0
0
0
0
0
0
0
0
0
0
0
0
0
0
0
0
0
0
0
0
0
0
0
0
0
0
0
0
0
0
0
0
0
0
0
0
0
0
0
0
0
0
0
0
0
0
0
0
0
0
0
0
0
0
0
0
0
0
0
0
0
0
0
0
0
0
0
0
0
0
0
0
0
0
0
0
0
0
0
0
0
0
0
0
0
0
0
0
0
0
0
0
0
0
0
0
0
0
0
0
0
0
0
0
0
0
0
0
0
0
0
0
0
0
0
0
0
0
0
0
0
0
0
0
0
0
0
0
0
0
0
0
0
0
0
0
0
0
0
0
0
0
0
0
0
0
0
0
0
0
0
0
0
0
0
0
0
0
0
0
0
0
0
0
0
0
0
0
0
0
0
0
0
0
0
0
0
0
0
0
0
0
0
0
0
0
0
0
0
0
0
0
0
0
0
0
0
0
0
0
0
0
0
0
0
0
0
0
0
0
0
0
0
0
0
0
0
0
0
0
0
0
0
0
0
0
0
0
0
0
0
0
0
0
0
0
0
0
0
0
0
0
0
0
0
0
0
0
0
0
0
0
0
0
0
0
0
0
0
0
0
0
0
0
0
0
0
0
0
0
0
0
0
0
0
0
0
0
0
0
0
0
0
0
0
0
0
0
0
0
0
0
0
0
0
0
0
106
0
107
0
92
0
88
0
114
0
131
0
118
0
110
0
113
0
120
0
118
0
117
0
124
0
121
0
72
0
85
0
127
0
132
0
123
0
125
0
113
0
116
0
84
0
32
0
53
0
59
0
58
0
55
0
52
0
49
0
47
0
46
0
46
0
34
0
35
0
61
0
68
0
70
0
82
0
81
0
83
0
84
0
76
0
67
0
40
0
81
0
66
0
76
0
76
0
79
0
84
0
84
0
61
0
68
0
50
0
59
0
111
0
123
0
118
0
106
0
94
0
86
0
84
0
88
0
90
0
104
0
106
0
80
0
96
0
126
0
126
0
127
0
128
0
123
0
135
0
134
0
138
0
79
0
84
0
140
0
140
0
144
0
138
0
134
0
137
0
144
0
145
0
142
0
137
0
100
0
88
0
72
0
71
0
119
0
122
0
123
0
134
0
123
0
127
0
135
0
135
0
126
0
115
0
118
0
128
0
30
0
43
0
102
0
118
0
79
0
38
0
131
0
125
0
118
0
114
0
58
0
7
0
4
0
1
0
18
0
58
0
84
0
88
0
85
0
48
0
5
0
1
0
5
0
0
0
1
0
1
0
1
0
1
0
3
0
4
0
5
0
6
0
0
0
81
0
249
0
254
0
255
0
255
0
255
0
255
0
255
0
255
0
255
0
255
0
255
0
255
0
255
0
255
0
255
0
255
0
255
0
255
0
255
0
255
0
255
0
255
0
255
0
255
0
255
0
255
0
255
0
255
0
255
0
255
0
254
0
249
0
255
0
255
0
253
0
248
0
250
0
246
0
255
0
255
0
255
0
248
0
208
0
162
0
100
0
40
0
1
0
2
0
9
0
32
0
52
0
54
0
34
0
16
0
12
0
9
0
2
0
7
0
46
0
74
0
78
0
78
0
73
0
61
0
51
0
54
0
66
0
74
0
74
0
73
0
61
0
64
0
57
0
41
0
41
0
55
0
57
0
50
0
48
0
48
0
45
0
36
0
34
0
41
0
0
0
0
0
0
0
0
0
0
0
0
0
0
0
0
0
0
0
0
0
0
0
0
0
0
0
0
0
0
0
0
0
0
0
0
0
0
0
0
0
0
0
0
0
0
0
0
0
0
0
0
0
0
0
0
0
0
0
0
0
0
0
0
0
0
0
0
0
0
0
0
0
0
0
0
0
0
0
0
0
0
0
0
0
0
0
0
0
0
0
0
0
0
0
0
0
0
0
0
0
0
0
0
0
0
0
0
0
0
0
0
0
0
0
0
0
0
0
0
0
0
0
0
0
0
0
0
0
0
0
0
0
0
0
0
0
0
0
0
0
0
0
0
0
0
0
0
0
0
0
0
0
0
0
0
0
0
0
0
0
0
0
0
0
0
0
0
0
0
0
0
0
0
0
0
0
0
0
0
0
0
0
0
0
0
0
0
0
0
0
0
0
0
0
0
0
0
0
0
0
0
0
0
0
0
0
0
0
0
0
0
0
0
0
0
0
0
0
0
0
0
0
0
0
0
0
0
0
0
0
0
0
0
0
0
0
0
0
0
0
0
0
0
0
0
0
0
0
0
0
0
0
0
0
0
0
0
0
0
0
0
0
0
0
0
0
0
0
0
0
0
0
0
0
0
0
0
0
0
0
0
0
0
0
0
0
0
0
0
0
0
0
0
0
0
0
0
0
0
0
0
0
0
0
0
0
0
0
0
0
0
0
0
0
0
0
0
0
0
0
0
0
0
0
0
0
0
0
0
0
0
0
0
0
0
0
0
0
0
0
0
0
0
0
0
0
0
0
0
0
0
0
0
0
0
0
0
0
0
0
0
0
0
0
0
0
0
0
0
0
0
0
0
0
0
0
0
0
0
0
0
0
0
0
0
0
0
0
0
0
0
0
0
0
0
0
0
0
0
0
0
0
0
0
0
0
0
0
0
0
0
0
0
0
0
0
0
0
0
0
0
0
0
0
0
0
0
0
0
0
0
0
0
0
0
0
0
0
0
0
0
0
0
0
77
0
70
0
58
0
77
0
110
0
125
0
119
0
109
0
113
0
122
0
122
0
120
0
123
0
123
0
65
0
87
0
126
0
111
0
121
0
137
0
124
0
116
0
86
0
61
0
111
0
115
0
107
0
94
0
83
0
79
0
81
0
87
0
92
0
76
0
72
0
90
0
90
0
81
0
83
0
76
0
76
0
69
0
68
0
68
0
41
0
83
0
74
0
79
0
79
0
81
0
91
0
77
0
76
0
80
0
74
0
54
0
103
0
113
0
91
0
71
0
69
0
73
0
87
0
119
0
148
0
131
0
133
0
109
0
67
0
94
0
142
0
132
0
119
0
141
0
123
0
135
0
130
0
119
0
54
0
117
0
139
0
144
0
140
0
134
0
137
0
143
0
138
0
121
0
104
0
77
0
109
0
125
0
108
0
77
0
120
0
142
0
120
0
124
0
134
0
131
0
117
0
119
0
133
0
122
0
96
0
38
0
42
0
95
0
109
0
95
0
30
0
122
0
122
0
120
0
109
0
53
0
5
0
4
0
1
0
12
0
49
0
83
0
87
0
84
0
48
0
5
0
1
0
5
0
0
0
0
0
1
0
1
0
2
0
2
0
1
0
1
0
1
0
0
0
69
0
251
0
253
0
255
0
255
0
255
0
254
0
255
0
255
0
255
0
255
0
255
0
255
0
255
0
255
0
255
0
255
0
255
0
255
0
255
0
255
0
255
0
255
0
255
0
255
0
255
0
255
0
255
0
255
0
255
0
255
0
255
0
252
0
253
0
255
0
249
0
249
0
255
0
255
0
255
0
248
0
245
0
251
0
255
0
255
0
227
0
168
0
100
0
55
0
6
0
5
0
29
0
64
0
78
0
78
0
70
0
54
0
25
0
13
0
26
0
45
0
56
0
64
0
62
0
57
0
46
0
38
0
46
0
65
0
68
0
59
0
64
0
61
0
49
0
33
0
22
0
24
0
35
0
41
0
42
0
46
0
47
0
47
0
51
0
65
0
0
0
0
0
0
0
0
0
0
0
0
0
0
0
0
0
0
0
0
0
0
0
0
0
0
0
0
0
0
0
0
0
0
0
0
0
0
0
0
0
0
0
0
0
0
0
0
0
0
0
0
0
0
0
0
0
0
0
0
0
0
0
0
0
0
0
0
0
0
0
0
0
0
0
0
0
0
0
0
0
0
0
0
0
0
0
0
0
0
0
0
0
0
0
0
0
0
0
0
0
0
0
0
0
0
0
0
0
0
0
0
0
0
0
0
0
0
0
0
0
0
0
0
0
0
0
0
0
0
0
0
0
0
0
0
0
0
0
0
0
0
0
0
0
0
0
0
0
0
0
0
0
0
0
0
0
0
0
0
0
0
0
0
0
0
0
0
0
0
0
0
0
0
0
0
0
0
0
0
0
0
0
0
0
0
0
0
0
0
0
0
0
0
0
0
0
0
0
0
0
0
0
0
0
0
0
0
0
0
0
0
0
0
0
0
0
0
0
0
0
0
0
0
0
0
0
0
0
0
0
0
0
0
0
0
0
0
0
0
0
0
0
0
0
0
0
0
0
0
0
0
0
0
0
0
0
0
0
0
0
0
0
0
0
0
0
0
0
0
0
0
0
0
0
0
0
0
0
0
0
0
0
0
0
0
0
0
0
0
0
0
0
0
0
0
0
0
0
0
0
0
0
0
0
0
0
0
0
0
0
0
0
0
0
0
0
0
0
0
0
0
0
0
0
0
0
0
0
0
0
0
0
0
0
0
0
0
0
0
0
0
0
0
0
0
0
0
0
0
0
0
0
0
0
0
0
0
0
0
0
0
0
0
0
0
0
0
0
0
0
0
0
0
0
0
0
0
0
0
0
0
0
0
0
0
0
0
0
0
0
0
0
0
0
0
0
0
0
0
0
0
0
0
0
0
0
0
0
0
0
0
0
0
0
0
0
0
0
0
0
0
0
0
0
0
0
0
0
0
0
0
0
0
0
0
0
0
0
0
0
0
0
0
0
125
0
73
0
51
0
60
0
75
0
85
0
99
0
110
0
126
0
127
0
129
0
123
0
123
0
123
0
57
0
89
0
126
0
129
0
113
0
112
0
112
0
131
0
113
0
75
0
110
0
130
0
124
0
114
0
103
0
95
0
91
0
90
0
90
0
52
0
49
0
72
0
81
0
81
0
89
0
88
0
93
0
87
0
84
0
82
0
46
0
77
0
78
0
75
0
78
0
77
0
83
0
73
0
86
0
86
0
85
0
47
0
70
0
70
0
63
0
70
0
96
0
118
0
122
0
113
0
108
0
120
0
126
0
123
0
79
0
88
0
135
0
126
0
125
0
129
0
138
0
128
0
133
0
124
0
110
0
59
0
119
0
138
0
139
0
140
0
140
0
132
0
114
0
92
0
75
0
113
0
117
0
133
0
133
0
69
0
95
0
128
0
130
0
130
0
127
0
122
0
119
0
119
0
111
0
92
0
75
0
85
0
60
0
72
0
99
0
105
0
31
0
94
0
134
0
120
0
101
0
41
0
3
0
5
0
2
0
10
0
49
0
82
0
86
0
83
0
47
0
5
0
1
0
5
0
0
0
1
0
1
0
0
0
0
0
0
0
0
0
0
0
0
0
1
0
57
0
252
0
252
0
255
0
254
0
255
0
254
0
254
0
254
0
254
0
254
0
254
0
254
0
254
0
254
0
255
0
255
0
255
0
255
0
255
0
255
0
255
0
255
0
255
0
255
0
255
0
255
0
255
0
255
0
255
0
255
0
255
0
244
0
245
0
249
0
245
0
249
0
255
0
254
0
252
0
255
0
255
0
255
0
239
0
247
0
255
0
252
0
226
0
190
0
124
0
51
0
2
0
7
0
32
0
56
0
74
0
80
0
74
0
64
0
61
0
51
0
38
0
36
0
39
0
39
0
31
0
16
0
19
0
33
0
38
0
34
0
41
0
39
0
40
0
37
0
29
0
23
0
28
0
38
0
67
0
74
0
82
0
86
0
91
0
96
0
0
0
0
0
0
0
0
0
0
0
0
0
0
0
0
0
0
0
0
0
0
0
0
0
0
0
0
0
0
0
0
0
0
0
0
0
0
0
0
0
0
0
0
0
0
0
0
0
0
0
0
0
0
0
0
0
0
0
0
0
0
0
0
0
0
0
0
0
0
0
0
0
0
0
0
0
0
0
0
0
0
0
0
0
0
0
0
0
0
0
0
0
0
0
0
0
0
0
0
0
0
0
0
0
0
0
0
0
0
0
0
0
0
0
0
0
0
0
0
0
0
0
0
0
0
0
0
0
0
0
0
0
0
0
0
0
0
0
0
0
0
0
0
0
0
0
0
0
0
0
0
0
0
0
0
0
0
0
0
0
0
0
0
0
0
0
0
0
0
0
0
0
0
0
0
0
0
0
0
0
0
0
0
0
0
0
0
0
0
0
0
0
0
0
0
0
0
0
0
0
0
0
0
0
0
0
0
0
0
0
0
0
0
0
0
0
0
0
0
0
0
0
0
0
0
0
0
0
0
0
0
0
0
0
0
0
0
0
0
0
0
0
0
0
0
0
0
0
0
0
0
0
0
0
0
0
0
0
0
0
0
0
0
0
0
0
0
0
0
0
0
0
0
0
0
0
0
0
0
0
0
0
0
0
0
0
0
0
0
0
0
0
0
0
0
0
0
0
0
0
0
0
0
0
0
0
0
0
0
0
0
0
0
0
0
0
0
0
0
0
0
0
0
0
0
0
0
0
0
0
0
0
0
0
0
0
0
0
0
0
0
0
0
0
0
0
0
0
0
0
0
0
0
0
0
0
0
0
0
0
0
0
0
0
0
0
0
0
0
0
0
0
0
0
0
0
0
0
0
0
0
0
0
0
0
0
0
0
0
0
0
0
0
0
0
0
0
0
0
0
0
0
0
0
0
0
0
0
0
0
0
0
0
0
0
0
0
0
0
0
0
0
0
0
0
0
0
0
0
0
0
0
0
0
0
0
0
0
0
0
0
0
0
0
115
0
110
0
81
0
86
0
79
0
69
0
78
0
82
0
92
0
107
0
116
0
117
0
121
0
126
0
55
0
91
0
123
0
128
0
123
0
127
0
114
0
113
0
91
0
70
0
126
0
120
0
123
0
124
0
122
0
115
0
103
0
91
0
84
0
60
0
54
0
74
0
81
0
76
0
79
0
75
0
80
0
87
0
86
0
73
0
38
0
62
0
81
0
77
0
90
0
77
0
68
0
74
0
81
0
85
0
82
0
54
0
46
0
89
0
87
0
86
0
99
0
122
0
130
0
108
0
78
0
121
0
130
0
132
0
101
0
71
0
83
0
113
0
136
0
120
0
124
0
139
0
124
0
134
0
133
0
82
0
71
0
106
0
125
0
140
0
133
0
109
0
92
0
90
0
98
0
142
0
116
0
116
0
135
0
105
0
77
0
94
0
139
0
130
0
117
0
119
0
128
0
109
0
77
0
73
0
93
0
118
0
87
0
56
0
91
0
109
0
51
0
72
0
135
0
120
0
89
0
25
0
2
0
8
0
3
0
12
0
56
0
81
0
86
0
82
0
47
0
5
0
1
0
6
0
0
0
3
0
0
0
0
0
0
0
1
0
7
0
14
0
19
0
1
0
46
0
252
0
251
0
255
0
254
0
255
0
255
0
254
0
254
0
254
0
254
0
254
0
254
0
254
0
254
0
255
0
255
0
255
0
255
0
255
0
255
0
255
0
255
0
255
0
255
0
255
0
255
0
255
0
255
0
255
0
255
0
253
0
252
0
255
0
255
0
254
0
255
0
255
0
248
0
245
0
246
0
255
0
255
0
253
0
255
0
255
0
250
0
247
0
253
0
251
0
200
0
122
0
56
0
18
0
5
0
23
0
40
0
60
0
82
0
98
0
93
0
80
0
82
0
66
0
63
0
60
0
55
0
46
0
40
0
47
0
57
0
54
0
60
0
71
0
76
0
75
0
69
0
63
0
60
0
73
0
80
0
88
0
91
0
92
0
87
0
0
0
0
0
0
0
0
0
0
0
0
0
0
0
0
0
0
0
0
0
0
0
0
0
0
0
0
0
0
0
0
0
0
0
0
0
0
0
0
0
0
0
0
0
0
0
0
0
0
0
0
0
0
0
0
0
0
0
0
0
0
0
0
0
0
0
0
0
0
0
0
0
0
0
0
0
0
0
0
0
0
0
0
0
0
0
0
0
0
0
0
0
0
0
0
0
0
0
0
0
0
0
0
0
0
0
0
0
0
0
0
0
0
0
0
0
0
0
0
0
0
0
0
0
0
0
0
0
0
0
0
0
0
0
0
0
0
0
0
0
0
0
0
0
0
0
0
0
0
0
0
0
0
0
0
0
0
0
0
0
0
0
0
0
0
0
0
0
0
0
0
0
0
0
0
0
0
0
0
0
0
0
0
0
0
0
0
0
0
0
0
0
0
0
0
0
0
0
0
0
0
0
0
0
0
0
0
0
0
0
0
0
0
0
0
0
0
0
0
0
0
0
0
0
0
0
0
0
0
0
0
0
0
0
0
0
0
0
0
0
0
0
0
0
0
0
0
0
0
0
0
0
0
0
0
0
0
0
0
0
0
0
0
0
0
0
0
0
0
0
0
0
0
0
0
0
0
0
0
0
0
0
0
0
0
0
0
0
0
0
0
0
0
0
0
0
0
0
0
0
0
0
0
0
0
0
0
0
0
0
0
0
0
0
0
0
0
0
0
0
0
0
0
0
0
0
0
0
0
0
0
0
0
0
0
0
0
0
0
0
0
0
0
0
0
0
0
0
0
0
0
0
0
0
0
0
0
0
0
0
0
0
0
0
0
0
0
0
0
0
0
0
0
0
0
0
0
0
0
0
0
0
0
0
0
0
0
0
0
0
0
0
0
0
0
0
0
0
0
0
0
0
0
0
0
0
0
0
0
0
0
0
0
0
0
0
0
0
0
0
0
0
0
0
0
0
0
0
0
0
0
0
0
0
0
0
0
0
0
0
0
0
0
0
119
0
86
0
78
0
115
0
121
0
106
0
103
0
78
0
66
0
69
0
87
0
102
0
119
0
134
0
61
0
97
0
126
0
110
0
109
0
128
0
132
0
139
0
107
0
68
0
104
0
126
0
127
0
128
0
127
0
123
0
117
0
111
0
107
0
69
0
62
0
82
0
88
0
82
0
84
0
80
0
86
0
91
0
93
0
82
0
53
0
67
0
93
0
77
0
91
0
86
0
62
0
82
0
74
0
87
0
79
0
70
0
47
0
116
0
116
0
100
0
83
0
100
0
131
0
123
0
93
0
68
0
98
0
118
0
130
0
96
0
80
0
123
0
129
0
129
0
114
0
121
0
132
0
109
0
128
0
146
0
44
0
79
0
108
0
132
0
121
0
91
0
83
0
111
0
143
0
120
0
137
0
134
0
112
0
128
0
98
0
93
0
121
0
125
0
126
0
122
0
110
0
90
0
81
0
91
0
108
0
126
0
110
0
54
0
85
0
109
0
72
0
67
0
123
0
119
0
79
0
14
0
2
0
10
0
4
0
15
0
63
0
80
0
85
0
82
0
46
0
4
0
1
0
6
0
0
0
2
0
1
0
0
0
0
0
7
0
20
0
35
0
44
0
0
0
39
0
251
0
250
0
255
0
255
0
255
0
255
0
255
0
255
0
255
0
255
0
255
0
255
0
255
0
255
0
255
0
255
0
255
0
255
0
255
0
255
0
255
0
255
0
255
0
255
0
255
0
255
0
255
0
255
0
255
0
255
0
252
0
254
0
255
0
253
0
242
0
250
0
255
0
254
0
255
0
252
0
253
0
255
0
252
0
255
0
254
0
241
0
255
0
252
0
248
0
246
0
242
0
213
0
157
0
106
0
33
0
16
0
2
0
7
0
46
0
70
0
81
0
91
0
107
0
98
0
99
0
102
0
86
0
65
0
70
0
94
0
95
0
98
0
97
0
91
0
90
0
90
0
84
0
73
0
48
0
52
0
57
0
59
0
60
0
56
0
0
0
0
0
0
0
0
0
0
0
0
0
0
0
0
0
0
0
0
0
0
0
0
0
0
0
0
0
0
0
0
0
0
0
0
0
0
0
0
0
0
0
0
0
0
0
0
0
0
0
0
0
0
0
0
0
0
0
0
0
0
0
0
0
0
0
0
0
0
0
0
0
0
0
0
0
0
0
0
0
0
0
0
0
0
0
0
0
0
0
0
0
0
0
0
0
0
0
0
0
0
0
0
0
0
0
0
0
0
0
0
0
0
0
0
0
0
0
0
0
0
0
0
0
0
0
0
0
0
0
0
0
0
0
0
0
0
0
0
0
0
0
0
0
0
0
0
0
0
0
0
0
0
0
0
0
0
0
0
0
0
0
0
0
0
0
0
0
0
0
0
0
0
0
0
0
0
0
0
0
0
0
0
0
0
0
0
0
0
0
0
0
0
0
0
0
0
0
0
0
0
0
0
0
0
0
0
0
0
0
0
0
0
0
0
0
0
0
0
0
0
0
0
0
0
0
0
0
0
0
0
0
0
0
0
0
0
0
0
0
0
0
0
0
0
0
0
0
0
0
0
0
0
0
0
0
0
0
0
0
0
0
0
0
0
0
0
0
0
0
0
0
0
0
0
0
0
0
0
0
0
0
0
0
0
0
0
0
0
0
0
0
0
0
0
0
0
0
0
0
0
0
0
0
0
0
0
0
0
0
0
0
0
0
0
0
0
0
0
0
0
0
0
0
0
0
0
0
0
0
0
0
0
0
0
0
0
0
0
0
0
0
0
0
0
0
0
0
0
0
0
0
0
0
0
0
0
0
0
0
0
0
0
0
0
0
0
0
0
0
0
0
0
0
0
0
0
0
0
0
0
0
0
0
0
0
0
0
0
0
0
0
0
0
0
0
0
0
0
0
0
0
0
0
0
0
0
0
0
0
0
0
0
0
0
0
0
0
0
0
0
0
0
0
0
0
0
0
0
0
0
0
0
0
0
0
0
0
0
0
0
0
0
0
115
0
74
0
94
0
112
0
116
0
115
0
117
0
117
0
115
0
88
0
65
0
72
0
93
0
122
0
74
0
93
0
116
0
111
0
124
0
108
0
111
0
120
0
103
0
69
0
119
0
128
0
127
0
128
0
133
0
133
0
130
0
131
0
133
0
103
0
42
0
94
0
99
0
84
0
84
0
92
0
90
0
92
0
92
0
106
0
50
0
78
0
80
0
72
0
66
0
52
0
76
0
94
0
134
0
146
0
137
0
123
0
56
0
78
0
118
0
128
0
102
0
77
0
105
0
140
0
112
0
70
0
38
0
119
0
133
0
119
0
66
0
93
0
134
0
120
0
111
0
130
0
138
0
116
0
115
0
129
0
124
0
63
0
90
0
128
0
84
0
72
0
116
0
120
0
139
0
125
0
123
0
132
0
136
0
119
0
92
0
89
0
105
0
124
0
123
0
101
0
75
0
82
0
100
0
114
0
120
0
109
0
101
0
97
0
46
0
88
0
70
0
64
0
127
0
122
0
40
0
57
0
7
0
1
0
15
0
37
0
70
0
76
0
91
0
82
0
39
0
3
0
0
0
5
0
7
0
6
0
0
0
0
0
7
0
1
0
33
0
76
0
55
0
0
0
52
0
242
0
255
0
254
0
253
0
251
0
255
0
255
0
255
0
255
0
255
0
255
0
255
0
255
0
255
0
255
0
255
0
255
0
255
0
255
0
255
0
255
0
255
0
255
0
255
0
255
0
255
0
255
0
255
0
255
0
255
0
255
0
255
0
255
0
255
0
255
0
255
0
255
0
255
0
255
0
255
0
255
0
255
0
255
0
255
0
255
0
255
0
255
0
254
0
253
0
255
0
255
0
255
0
245
0
237
0
176
0
121
0
57
0
16
0
1
0
2
0
14
0
28
0
54
0
58
0
65
0
73
0
73
0
63
0
46
0
33
0
71
0
71
0
72
0
68
0
61
0
51
0
42
0
36
0
28
0
14
0
0
0
0
0
0
0
0
0
0
0
0
0
0
0
0
0
0
0
0
0
0
0
0
0
0
0
0
0
0
0
0
0
0
0
0
0
0
0
0
0
0
0
0
0
0
0
0
0
0
0
0
0
0
0
0
0
0
0
0
0
0
0
0
0
0
0
0
0
0
0
0
0
0
0
0
0
0
0
0
0
0
0
0
0
0
0
0
0
0
0
0
0
0
0
0
0
0
0
0
0
0
0
0
0
0
0
0
0
0
0
0
0
0
0
0
0
0
0
0
0
0
0
0
0
0
0
0
0
0
0
0
0
0
0
0
0
0
0
0
0
0
0
0
0
0
0
0
0
0
0
0
0
0
0
0
0
0
0
0
0
0
0
0
0
0
0
0
0
0
0
0
0
0
0
0
0
0
0
0
0
0
0
0
0
0
0
0
0
0
0
0
0
0
0
0
0
0
0
0
0
0
0
0
0
0
0
0
0
0
0
0
0
0
0
0
0
0
0
0
0
0
0
0
0
0
0
0
0
0
0
0
0
0
0
0
0
0
0
0
0
0
0
0
0
0
0
0
0
0
0
0
0
0
0
0
0
0
0
0
0
0
0
0
0
0
0
0
0
0
0
0
0
0
0
0
0
0
0
0
0
0
0
0
0
0
0
0
0
0
0
0
0
0
0
0
0
0
0
0
0
0
0
0
0
0
0
0
0
0
0
0
0
0
0
0
0
0
0
0
0
0
0
0
0
0
0
0
0
0
0
0
0
0
0
0
0
0
0
0
0
0
0
0
0
0
0
0
0
0
0
0
0
0
0
0
0
0
0
0
0
0
0
0
0
0
0
0
0
0
0
0
0
0
0
0
0
0
0
0
0
0
0
0
0
0
0
0
0
0
0
0
0
0
0
0
0
0
0
0
0
0
0
0
0
0
0
0
0
0
0
0
0
0
0
0
0
0
0
0
0
0
0
0
0
0
0
0
0
0
0
0
0
0
0
0
0
0
0
0
0
0
0
0
0
0
0
0
0
0
0
0
0
116
0
73
0
94
0
113
0
116
0
114
0
115
0
117
0
116
0
124
0
100
0
84
0
69
0
73
0
41
0
94
0
140
0
124
0
134
0
129
0
129
0
134
0
110
0
66
0
107
0
126
0
127
0
132
0
139
0
141
0
136
0
134
0
134
0
118
0
68
0
121
0
132
0
115
0
106
0
103
0
95
0
97
0
87
0
98
0
71
0
65
0
53
0
61
0
91
0
115
0
141
0
162
0
153
0
131
0
151
0
132
0
83
0
66
0
118
0
107
0
109
0
90
0
63
0
107
0
126
0
88
0
41
0
65
0
136
0
120
0
93
0
63
0
117
0
121
0
117
0
126
0
130
0
119
0
123
0
132
0
127
0
104
0
89
0
63
0
76
0
107
0
122
0
129
0
126
0
123
0
128
0
133
0
131
0
120
0
104
0
91
0
85
0
117
0
112
0
82
0
80
0
114
0
113
0
100
0
116
0
105
0
110
0
82
0
79
0
63
0
63
0
42
0
115
0
101
0
30
0
27
0
28
0
10
0
3
0
33
0
69
0
77
0
90
0
79
0
36
0
2
0
0
0
3
0
4
0
3
0
4
0
0
0
1
0
12
0
68
0
104
0
59
0
0
0
47
0
236
0
254
0
255
0
255
0
252
0
255
0
255
0
255
0
255
0
255
0
255
0
255
0
255
0
255
0
255
0
255
0
255
0
255
0
255
0
255
0
255
0
255
0
255
0
255
0
255
0
255
0
255
0
255
0
255
0
255
0
255
0
255
0
255
0
255
0
255
0
255
0
255
0
255
0
255
0
255
0
255
0
255
0
255
0
255
0
255
0
255
0
255
0
254
0
252
0
254
0
255
0
255
0
251
0
245
0
245
0
227
0
195
0
150
0
95
0
43
0
12
0
2
0
13
0
11
0
11
0
15
0
20
0
20
0
15
0
9
0
31
0
26
0
16
0
5
0
3
0
2
0
2
0
6
0
0
0
0
0
6
0
23
0
45
0
69
0
0
0
0
0
0
0
0
0
0
0
0
0
0
0
0
0
0
0
0
0
0
0
0
0
0
0
0
0
0
0
0
0
0
0
0
0
0
0
0
0
0
0
0
0
0
0
0
0
0
0
0
0
0
0
0
0
0
0
0
0
0
0
0
0
0
0
0
0
0
0
0
0
0
0
0
0
0
0
0
0
0
0
0
0
0
0
0
0
0
0
0
0
0
0
0
0
0
0
0
0
0
0
0
0
0
0
0
0
0
0
0
0
0
0
0
0
0
0
0
0
0
0
0
0
0
0
0
0
0
0
0
0
0
0
0
0
0
0
0
0
0
0
0
0
0
0
0
0
0
0
0
0
0
0
0
0
0
0
0
0
0
0
0
0
0
0
0
0
0
0
0
0
0
0
0
0
0
0
0
0
0
0
0
0
0
0
0
0
0
0
0
0
0
0
0
0
0
0
0
0
0
0
0
0
0
0
0
0
0
0
0
0
0
0
0
0
0
0
0
0
0
0
0
0
0
0
0
0
0
0
0
0
0
0
0
0
0
0
0
0
0
0
0
0
0
0
0
0
0
0
0
0
0
0
0
0
0
0
0
0
0
0
0
0
0
0
0
0
0
0
0
0
0
0
0
0
0
0
0
0
0
0
0
0
0
0
0
0
0
0
0
0
0
0
0
0
0
0
0
0
0
0
0
0
0
0
0
0
0
0
0
0
0
0
0
0
0
0
0
0
0
0
0
0
0
0
0
0
0
0
0
0
0
0
0
0
0
0
0
0
0
0
0
0
0
0
0
0
0
0
0
0
0
0
0
0
0
0
0
0
0
0
0
0
0
0
0
0
0
0
0
0
0
0
0
0
0
0
0
0
0
0
0
0
0
0
0
0
0
0
0
0
0
0
0
0
0
0
0
0
0
0
0
0
0
0
0
0
0
0
0
0
0
0
0
0
0
0
0
0
0
0
0
0
0
0
0
0
0
0
0
0
0
0
0
0
0
0
0
0
0
0
0
0
114
0
71
0
94
0
115
0
117
0
113
0
113
0
116
0
116
0
124
0
119
0
113
0
87
0
76
0
26
0
61
0
93
0
108
0
125
0
117
0
123
0
129
0
113
0
72
0
106
0
134
0
132
0
133
0
139
0
140
0
138
0
137
0
139
0
116
0
71
0
119
0
140
0
132
0
130
0
128
0
126
0
98
0
82
0
84
0
80
0
48
0
70
0
104
0
151
0
148
0
156
0
173
0
146
0
106
0
152
0
132
0
107
0
64
0
104
0
109
0
116
0
110
0
51
0
52
0
123
0
111
0
55
0
14
0
107
0
126
0
107
0
56
0
85
0
120
0
126
0
129
0
122
0
118
0
124
0
130
0
130
0
122
0
84
0
18
0
72
0
137
0
125
0
132
0
115
0
123
0
129
0
127
0
120
0
122
0
123
0
104
0
76
0
95
0
80
0
78
0
104
0
125
0
114
0
100
0
106
0
94
0
108
0
94
0
112
0
60
0
31
0
24
0
114
0
76
0
54
0
25
0
31
0
11
0
27
0
66
0
67
0
78
0
89
0
75
0
32
0
1
0
0
0
2
0
1
0
3
0
1
0
1
0
19
0
51
0
99
0
117
0
64
0
0
0
37
0
227
0
252
0
255
0
255
0
253
0
255
0
255
0
255
0
255
0
255
0
255
0
255
0
255
0
255
0
255
0
255
0
255
0
255
0
255
0
255
0
255
0
255
0
255
0
255
0
255
0
255
0
255
0
255
0
255
0
255
0
255
0
255
0
255
0
255
0
255
0
255
0
255
0
255
0
255
0
255
0
255
0
255
0
255
0
255
0
255
0
255
0
255
0
255
0
252
0
252
0
255
0
255
0
255
0
252
0
254
0
254
0
255
0
253
0
234
0
200
0
157
0
125
0
54
0
40
0
21
0
6
0
2
0
3
0
5
0
6
0
10
0
8
0
8
0
16
0
32
0
56
0
80
0
94
0
117
0
131
0
152
0
171
0
188
0
207
0
0
0
0
0
0
0
0
0
0
0
0
0
0
0
0
0
0
0
0
0
0
0
0
0
0
0
0
0
0
0
0
0
0
0
0
0
0
0
0
0
0
0
0
0
0
0
0
0
0
0
0
0
0
0
0
0
0
0
0
0
0
0
0
0
0
0
0
0
0
0
0
0
0
0
0
0
0
0
0
0
0
0
0
0
0
0
0
0
0
0
0
0
0
0
0
0
0
0
0
0
0
0
0
0
0
0
0
0
0
0
0
0
0
0
0
0
0
0
0
0
0
0
0
0
0
0
0
0
0
0
0
0
0
0
0
0
0
0
0
0
0
0
0
0
0
0
0
0
0
0
0
0
0
0
0
0
0
0
0
0
0
0
0
0
0
0
0
0
0
0
0
0
0
0
0
0
0
0
0
0
0
0
0
0
0
0
0
0
0
0
0
0
0
0
0
0
0
0
0
0
0
0
0
0
0
0
0
0
0
0
0
0
0
0
0
0
0
0
0
0
0
0
0
0
0
0
0
0
0
0
0
0
0
0
0
0
0
0
0
0
0
0
0
0
0
0
0
0
0
0
0
0
0
0
0
0
0
0
0
0
0
0
0
0
0
0
0
0
0
0
0
0
0
0
0
0
0
0
0
0
0
0
0
0
0
0
0
0
0
0
0
0
0
0
0
0
0
0
0
0
0
0
0
0
0
0
0
0
0
0
0
0
0
0
0
0
0
0
0
0
0
0
0
0
0
0
0
0
0
0
0
0
0
0
0
0
0
0
0
0
0
0
0
0
0
0
0
0
0
0
0
0
0
0
0
0
0
0
0
0
0
0
0
0
0
0
0
0
0
0
0
0
0
0
0
0
0
0
0
0
0
0
0
0
0
0
0
0
0
0
0
0
0
0
0
0
0
0
0
0
0
0
0
0
0
0
0
0
0
0
0
0
0
0
0
0
0
0
0
0
0
0
0
0
0
0
0
0
0
0
0
0
0
0
0
0
0
0
0
0
0
0
0
0
107
0
69
0
94
0
117
0
119
0
113
0
112
0
116
0
117
0
110
0
112
0
125
0
122
0
120
0
47
0
47
0
57
0
66
0
76
0
72
0
85
0
101
0
105
0
78
0
113
0
129
0
124
0
122
0
124
0
124
0
125
0
130
0
135
0
132
0
80
0
96
0
106
0
88
0
81
0
81
0
83
0
107
0
106
0
102
0
102
0
62
0
125
0
161
0
163
0
156
0
148
0
154
0
148
0
110
0
152
0
146
0
127
0
74
0
75
0
128
0
115
0
116
0
89
0
17
0
79
0
116
0
100
0
20
0
46
0
119
0
104
0
97
0
56
0
116
0
124
0
122
0
116
0
126
0
132
0
120
0
108
0
101
0
84
0
43
0
74
0
126
0
125
0
125
0
118
0
124
0
123
0
116
0
114
0
127
0
135
0
115
0
83
0
58
0
66
0
96
0
118
0
112
0
103
0
103
0
101
0
100
0
94
0
112
0
115
0
92
0
18
0
23
0
101
0
73
0
64
0
24
0
19
0
4
0
51
0
81
0
75
0
81
0
89
0
71
0
29
0
1
0
0
0
2
0
0
0
2
0
0
0
13
0
68
0
100
0
109
0
105
0
71
0
1
0
27
0
216
0
250
0
255
0
255
0
255
0
253
0
255
0
255
0
255
0
255
0
255
0
255
0
255
0
255
0
255
0
255
0
255
0
255
0
255
0
255
0
255
0
255
0
255
0
255
0
255
0
255
0
255
0
255
0
255
0
255
0
255
0
255
0
255
0
255
0
255
0
255
0
255
0
255
0
255
0
255
0
255
0
255
0
255
0
255
0
255
0
255
0
255
0
255
0
253
0
253
0
255
0
255
0
254
0
252
0
248
0
250
0
250
0
253
0
254
0
254
0
254
0
232
0
217
0
200
0
178
0
158
0
145
0
140
0
140
0
140
0
159
0
161
0
165
0
173
0
186
0
203
0
218
0
227
0
239
0
247
0
255
0
255
0
255
0
255
0
0
0
0
0
0
0
0
0
0
0
0
0
0
0
0
0
0
0
0
0
0
0
0
0
0
0
0
0
0
0
0
0
0
0
0
0
0
0
0
0
0
0
0
0
0
0
0
0
0
0
0
0
0
0
0
0
0
0
0
0
0
0
0
0
0
0
0
0
0
0
0
0
0
0
0
0
0
0
0
0
0
0
0
0
0
0
0
0
0
0
0
0
0
0
0
0
0
0
0
0
0
0
0
0
0
0
0
0
0
0
0
0
0
0
0
0
0
0
0
0
0
0
0
0
0
0
0
0
0
0
0
0
0
0
0
0
0
0
0
0
0
0
0
0
0
0
0
0
0
0
0
0
0
0
0
0
0
0
0
0
0
0
0
0
0
0
0
0
0
0
0
0
0
0
0
0
0
0
0
0
0
0
0
0
0
0
0
0
0
0
0
0
0
0
0
0
0
0
0
0
0
0
0
0
0
0
0
0
0
0
0
0
0
0
0
0
0
0
0
0
0
0
0
0
0
0
0
0
0
0
0
0
0
0
0
0
0
0
0
0
0
0
0
0
0
0
0
0
0
0
0
0
0
0
0
0
0
0
0
0
0
0
0
0
0
0
0
0
0
0
0
0
0
0
0
0
0
0
0
0
0
0
0
0
0
0
0
0
0
0
0
0
0
0
0
0
0
0
0
0
0
0
0
0
0
0
0
0
0
0
0
0
0
0
0
0
0
0
0
0
0
0
0
0
0
0
0
0
0
0
0
0
0
0
0
0
0
0
0
0
0
0
0
0
0
0
0
0
0
0
0
0
0
0
0
0
0
0
0
0
0
0
0
0
0
0
0
0
0
0
0
0
0
0
0
0
0
0
0
0
0
0
0
0
0
0
0
0
0
0
0
0
0
0
0
0
0
0
0
0
0
0
0
0
0
0
0
0
0
0
0
0
0
0
0
0
0
0
0
0
0
0
0
0
0
0
0
0
0
0
0
0
0
0
0
0
0
0
0
0
0
0
0
0
106
0
68
0
94
0
116
0
119
0
113
0
112
0
114
0
116
0
121
0
106
0
112
0
120
0
126
0
63
0
78
0
101
0
82
0
89
0
77
0
77
0
80
0
80
0
49
0
69
0
69
0
69
0
70
0
76
0
80
0
81
0
83
0
88
0
79
0
39
0
52
0
90
0
98
0
113
0
124
0
137
0
133
0
145
0
148
0
147
0
94
0
141
0
162
0
131
0
134
0
145
0
149
0
157
0
115
0
135
0
157
0
124
0
84
0
69
0
125
0
112
0
120
0
132
0
47
0
27
0
86
0
130
0
61
0
7
0
84
0
112
0
137
0
54
0
89
0
108
0
118
0
122
0
130
0
125
0
98
0
75
0
83
0
96
0
106
0
76
0
89
0
124
0
115
0
124
0
126
0
117
0
111
0
117
0
128
0
126
0
104
0
82
0
30
0
78
0
108
0
108
0
106
0
105
0
100
0
101
0
112
0
90
0
101
0
111
0
104
0
48
0
21
0
77
0
87
0
44
0
12
0
19
0
16
0
50
0
58
0
86
0
85
0
89
0
68
0
26
0
1
0
1
0
5
0
0
0
0
0
18
0
49
0
99
0
119
0
109
0
100
0
76
0
4
0
17
0
209
0
251
0
255
0
255
0
255
0
251
0
255
0
255
0
255
0
255
0
255
0
255
0
255
0
255
0
255
0
255
0
255
0
255
0
255
0
255
0
255
0
255
0
255
0
255
0
255
0
255
0
255
0
255
0
255
0
255
0
255
0
255
0
255
0
255
0
255
0
255
0
255
0
255
0
255
0
255
0
255
0
255
0
255
0
255
0
255
0
255
0
255
0
255
0
255
0
255
0
255
0
254
0
250
0
247
0
254
0
255
0
255
0
246
0
237
0
243
0
253
0
254
0
253
0
251
0
245
0
240
0
237
0
237
0
237
0
237
0
250
0
249
0
249
0
248
0
247
0
247
0
246
0
246
0
252
0
253
0
254
0
253
0
251
0
249
0
0
0
0
0
0
0
0
0
0
0
0
0
0
0
0
0
0
0
0
0
0
0
0
0
0
0
0
0
0
0
0
0
0
0
0
0
0
0
0
0
0
0
0
0
0
0
0
0
0
0
0
0
0
0
0
0
0
0
0
0
0
0
0
0
0
0
0
0
0
0
0
0
0
0
0
0
0
0
0
0
0
0
0
0
0
0
0
0
0
0
0
0
0
0
0
0
0
0
0
0
0
0
0
0
0
0
0
0
0
0
0
0
0
0
0
0
0
0
0
0
0
0
0
0
0
0
0
0
0
0
0
0
0
0
0
0
0
0
0
0
0
0
0
0
0
0
0
0
0
0
0
0
0
0
0
0
0
0
0
0
0
0
0
0
0
0
0
0
0
0
0
0
0
0
0
0
0
0
0
0
0
0
0
0
0
0
0
0
0
0
0
0
0
0
0
0
0
0
0
0
0
0
0
0
0
0
0
0
0
0
0
0
0
0
0
0
0
0
0
0
0
0
0
0
0
0
0
0
0
0
0
0
0
0
0
0
0
0
0
0
0
0
0
0
0
0
0
0
0
0
0
0
0
0
0
0
0
0
0
0
0
0
0
0
0
0
0
0
0
0
0
0
0
0
0
0
0
0
0
0
0
0
0
0
0
0
0
0
0
0
0
0
0
0
0
0
0
0
0
0
0
0
0
0
0
0
0
0
0
0
0
0
0
0
0
0
0
0
0
0
0
0
0
0
0
0
0
0
0
0
0
0
0
0
0
0
0
0
0
0
0
0
0
0
0
0
0
0
0
0
0
0
0
0
0
0
0
0
0
0
0
0
0
0
0
0
0
0
0
0
0
0
0
0
0
0
0
0
0
0
0
0
0
0
0
0
0
0
0
0
0
0
0
0
0
0
0
0
0
0
0
0
0
0
0
0
0
0
0
0
0
0
0
0
0
0
0
0
0
0
0
0
0
0
0
0
0
0
0
0
0
0
0
0
0
0
0
0
0
0
0
0
0
0
110
0
68
0
93
0
115
0
118
0
113
0
113
0
114
0
114
0
124
0
105
0
110
0
116
0
119
0
60
0
94
0
136
0
129
0
133
0
117
0
108
0
98
0
88
0
42
0
45
0
85
0
89
0
99
0
113
0
118
0
116
0
114
0
114
0
106
0
72
0
77
0
131
0
144
0
152
0
149
0
155
0
153
0
155
0
160
0
160
0
104
0
113
0
152
0
149
0
95
0
126
0
156
0
162
0
113
0
108
0
158
0
123
0
99
0
87
0
87
0
97
0
108
0
130
0
107
0
24
0
44
0
114
0
98
0
23
0
40
0
122
0
135
0
81
0
49
0
90
0
134
0
136
0
107
0
87
0
83
0
83
0
100
0
113
0
140
0
84
0
65
0
114
0
111
0
124
0
123
0
115
0
113
0
119
0
117
0
101
0
84
0
76
0
52
0
79
0
102
0
103
0
100
0
111
0
110
0
91
0
99
0
104
0
91
0
118
0
69
0
67
0
5
0
79
0
85
0
54
0
36
0
28
0
34
0
63
0
63
0
86
0
87
0
87
0
63
0
24
0
1
0
4
0
7
0
0
0
1
0
55
0
88
0
102
0
108
0
112
0
112
0
84
0
7
0
11
0
205
0
253
0
254
0
255
0
255
0
250
0
255
0
255
0
255
0
255
0
255
0
255
0
255
0
255
0
255
0
255
0
255
0
255
0
255
0
255
0
255
0
255
0
255
0
255
0
255
0
255
0
255
0
255
0
255
0
255
0
255
0
255
0
255
0
255
0
255
0
255
0
255
0
255
0
255
0
255
0
255
0
255
0
255
0
255
0
255
0
255
0
254
0
255
0
255
0
255
0
255
0
252
0
249
0
247
0
253
0
255
0
255
0
255
0
255
0
255
0
255
0
255
0
247
0
250
0
253
0
254
0
254
0
254
0
254
0
254
0
254
0
254
0
254
0
254
0
254
0
254
0
254
0
254
0
255
0
253
0
251
0
252
0
255
0
255
0
0
0
0
0
0
0
0
0
0
0
0
0
0
0
0
0
0
0
0
0
0
0
0
0
0
0
0
0
0
0
0
0
0
0
0
0
0
0
0
0
0
0
0
0
0
0
0
0
0
0
0
0
0
0
0
0
0
0
0
0
0
0
0
0
0
0
0
0
0
0
0
0
0
0
0
0
0
0
0
0
0
0
0
0
0
0
0
0
0
0
0
0
0
0
0
0
0
0
0
0
0
0
0
0
0
0
0
0
0
0
0
0
0
0
0
0
0
0
0
0
0
0
0
0
0
0
0
0
0
0
0
0
0
0
0
0
0
0
0
0
0
0
0
0
0
0
0
0
0
0
0
0
0
0
0
0
0
0
0
0
0
0
0
0
0
0
0
0
0
0
0
0
0
0
0
0
0
0
0
0
0
0
0
0
0
0
0
0
0
0
0
0
0
0
0
0
0
0
0
0
0
0
0
0
0
0
0
0
0
0
0
0
0
0
0
0
0
0
0
0
0
0
0
0
0
0
0
0
0
0
0
0
0
0
0
0
0
0
0
0
0
0
0
0
0
0
0
0
0
0
0
0
0
0
0
0
0
0
0
0
0
0
0
0
0
0
0
0
0
0
0
0
0
0
0
0
0
0
0
0
0
0
0
0
0
0
0
0
0
0
0
0
0
0
0
0
0
0
0
0
0
0
0
0
0
0
0
0
0
0
0
0
0
0
0
0
0
0
0
0
0
0
0
0
0
0
0
0
0
0
0
0
0
0
0
0
0
0
0
0
0
0
0
0
0
0
0
0
0
0
0
0
0
0
0
0
0
0
0
0
0
0
0
0
0
0
0
0
0
0
0
0
0
0
0
0
0
0
0
0
0
0
0
0
0
0
0
0
0
0
0
0
0
0
0
0
0
0
0
0
0
0
0
0
0
0
0
0
0
0
0
0
0
0
0
0
0
0
0
0
0
0
0
0
0
0
0
0
0
0
0
0
0
0
0
0
0
0
0
0
0
0
0
0
110
0
70
0
92
0
114
0
117
0
115
0
116
0
115
0
112
0
112
0
106
0
117
0
118
0
120
0
61
0
87
0
119
0
118
0
126
0
122
0
125
0
124
0
125
0
84
0
82
0
114
0
118
0
128
0
139
0
144
0
141
0
138
0
139
0
137
0
99
0
86
0
141
0
151
0
152
0
143
0
143
0
155
0
146
0
152
0
147
0
110
0
90
0
153
0
168
0
100
0
88
0
156
0
165
0
135
0
97
0
148
0
151
0
114
0
85
0
37
0
52
0
59
0
74
0
113
0
69
0
26
0
75
0
109
0
55
0
17
0
89
0
111
0
119
0
54
0
80
0
118
0
117
0
81
0
70
0
95
0
111
0
120
0
119
0
133
0
108
0
72
0
86
0
111
0
119
0
120
0
117
0
113
0
106
0
93
0
80
0
82
0
90
0
90
0
68
0
86
0
109
0
101
0
104
0
110
0
89
0
90
0
105
0
96
0
91
0
51
0
83
0
3
0
89
0
72
0
78
0
55
0
33
0
44
0
55
0
83
0
81
0
87
0
84
0
58
0
19
0
1
0
5
0
7
0
0
0
15
0
83
0
109
0
107
0
107
0
110
0
112
0
87
0
9
0
7
0
204
0
255
0
254
0
253
0
255
0
251
0
255
0
255
0
255
0
255
0
255
0
255
0
255
0
255
0
255
0
255
0
255
0
255
0
255
0
255
0
255
0
255
0
255
0
255
0
255
0
255
0
255
0
255
0
255
0
255
0
255
0
255
0
255
0
255
0
255
0
255
0
255
0
255
0
255
0
255
0
255
0
255
0
255
0
255
0
255
0
255
0
255
0
255
0
255
0
255
0
254
0
253
0
254
0
254
0
255
0
249
0
247
0
255
0
254
0
254
0
250
0
242
0
253
0
253
0
253
0
253
0
253
0
252
0
250
0
249
0
254
0
253
0
252
0
250
0
250
0
252
0
252
0
252
0
254
0
251
0
249
0
249
0
251
0
253
0
0
0
0
0
0
0
0
0
0
0
0
0
0
0
0
0
0
0
0
0
0
0
0
0
0
0
0
0
0
0
0
0
0
0
0
0
0
0
0
0
0
0
0
0
0
0
0
0
0
0
0
0
0
0
0
0
0
0
0
0
0
0
0
0
0
0
0
0
0
0
0
0
0
0
0
0
0
0
0
0
0
0
0
0
0
0
0
0
0
0
0
0
0
0
0
0
0
0
0
0
0
0
0
0
0
0
0
0
0
0
0
0
0
0
0
0
0
0
0
0
0
0
0
0
0
0
0
0
0
0
0
0
0
0
0
0
0
0
0
0
0
0
0
0
0
0
0
0
0
0
0
0
0
0
0
0
0
0
0
0
0
0
0
0
0
0
0
0
0
0
0
0
0
0
0
0
0
0
0
0
0
0
0
0
0
0
0
0
0
0
0
0
0
0
0
0
0
0
0
0
0
0
0
0
0
0
0
0
0
0
0
0
0
0
0
0
0
0
0
0
0
0
0
0
0
0
0
0
0
0
0
0
0
0
0
0
0
0
0
0
0
0
0
0
0
0
0
0
0
0
0
0
0
0
0
0
0
0
0
0
0
0
0
0
0
0
0
0
0
0
0
0
0
0
0
0
0
0
0
0
0
0
0
0
0
0
0
0
0
0
0
0
0
0
0
0
0
0
0
0
0
0
0
0
0
0
0
0
0
0
0
0
0
0
0
0
0
0
0
0
0
0
0
0
0
0
0
0
0
0
0
0
0
0
0
0
0
0
0
0
0
0
0
0
0
0
0
0
0
0
0
0
0
0
0
0
0
0
0
0
0
0
0
0
0
0
0
0
0
0
0
0
0
0
0
0
0
0
0
0
0
0
0
0
0
0
0
0
0
0
0
0
0
0
0
0
0
0
0
0
0
0
0
0
0
0
0
0
0
0
0
0
0
0
0
0
0
0
0
0
0
0
0
0
0
0
0
0
0
0
0
0
0
0
0
0
0
0
0
0
0
0
0
0
106
0
70
0
92
0
112
0
117
0
117
0
117
0
115
0
110
0
116
0
110
0
113
0
108
0
116
0
71
0
94
0
112
0
118
0
124
0
119
0
121
0
120
0
124
0
84
0
79
0
127
0
126
0
128
0
133
0
134
0
133
0
134
0
138
0
148
0
111
0
79
0
128
0
141
0
149
0
144
0
152
0
152
0
147
0
155
0
148
0
127
0
89
0
143
0
144
0
127
0
44
0
133
0
160
0
152
0
78
0
114
0
157
0
121
0
58
0
13
0
3
0
6
0
20
0
76
0
112
0
35
0
45
0
101
0
76
0
18
0
39
0
95
0
138
0
108
0
74
0
69
0
76
0
78
0
101
0
124
0
118
0
124
0
115
0
110
0
136
0
92
0
57
0
111
0
114
0
117
0
120
0
111
0
88
0
68
0
71
0
94
0
116
0
106
0
71
0
71
0
107
0
113
0
91
0
88
0
102
0
107
0
89
0
89
0
42
0
74
0
105
0
26
0
77
0
70
0
70
0
30
0
38
0
51
0
10
0
71
0
89
0
85
0
81
0
55
0
15
0
1
0
5
0
7
0
0
0
39
0
92
0
113
0
121
0
119
0
104
0
100
0
87
0
10
0
5
0
204
0
255
0
253
0
252
0
255
0
251
0
255
0
255
0
255
0
255
0
255
0
255
0
255
0
255
0
255
0
255
0
255
0
255
0
255
0
255
0
255
0
255
0
255
0
255
0
255
0
255
0
255
0
255
0
255
0
255
0
255
0
255
0
255
0
255
0
255
0
255
0
255
0
255
0
255
0
255
0
255
0
255
0
255
0
255
0
255
0
255
0
255
0
255
0
255
0
254
0
253
0
255
0
255
0
255
0
255
0
255
0
255
0
254
0
251
0
244
0
253
0
254
0
252
0
253
0
254
0
253
0
253
0
254
0
253
0
252
0
250
0
251
0
251
0
252
0
253
0
254
0
254
0
254
0
254
0
255
0
255
0
255
0
255
0
255
0
0
0
0
0
0
0
0
0
0
0
0
0
0
0
0
0
0
0
0
0
0
0
0
0
0
0
0
0
0
0
0
0
0
0
0
0
0
0
0
0
0
0
0
0
0
0
0
0
0
0
0
0
0
0
0
0
0
0
0
0
0
0
0
0
0
0
0
0
0
0
0
0
0
0
0
0
0
0
0
0
0
0
0
0
0
0
0
0
0
0
0
0
0
0
0
0
0
0
0
0
0
0
0
0
0
0
0
0
0
0
0
0
0
0
0
0
0
0
0
0
0
0
0
0
0
0
0
0
0
0
0
0
0
0
0
0
0
0
0
0
0
0
0
0
0
0
0
0
0
0
0
0
0
0
0
0
0
0
0
0
0
0
0
0
0
0
0
0
0
0
0
0
0
0
0
0
0
0
0
0
0
0
0
0
0
0
0
0
0
0
0
0
0
0
0
0
0
0
0
0
0
0
0
0
0
0
0
0
0
0
0
0
0
0
0
0
0
0
0
0
0
0
0
0
0
0
0
0
0
0
0
0
0
0
0
0
0
0
0
0
0
0
0
0
0
0
0
0
0
0
0
0
0
0
0
0
0
0
0
0
0
0
0
0
0
0
0
0
0
0
0
0
0
0
0
0
0
0
0
0
0
0
0
0
0
0
0
0
0
0
0
0
0
0
0
0
0
0
0
0
0
0
0
0
0
0
0
0
0
0
0
0
0
0
0
0
0
0
0
0
0
0
0
0
0
0
0
0
0
0
0
0
0
0
0
0
0
0
0
0
0
0
0
0
0
0
0
0
0
0
0
0
0
0
0
0
0
0
0
0
0
0
0
0
0
0
0
0
0
0
0
0
0
0
0
0
0
0
0
0
0
0
0
0
0
0
0
0
0
0
0
0
0
0
0
0
0
0
0
0
0
0
0
0
0
0
0
0
0
0
0
0
0
0
0
0
0
0
0
0
0
0
0
0
0
0
0
0
0
0
0
0
0
0
0
0
0
0
0
0
0
0
0
0
103
0
76
0
87
0
102
0
112
0
112
0
109
0
111
0
114
0
109
0
114
0
113
0
112
0
117
0
84
0
67
0
126
0
111
0
110
0
114
0
117
0
117
0
118
0
98
0
68
0
105
0
123
0
118
0
132
0
134
0
126
0
139
0
131
0
143
0
137
0
74
0
117
0
136
0
138
0
151
0
142
0
149
0
148
0
147
0
151
0
140
0
61
0
148
0
135
0
151
0
47
0
107
0
153
0
151
0
90
0
93
0
146
0
129
0
50
0
2
0
5
0
7
0
3
0
34
0
95
0
34
0
55
0
110
0
104
0
22
0
30
0
108
0
129
0
105
0
52
0
21
0
98
0
109
0
115
0
118
0
115
0
116
0
111
0
111
0
126
0
121
0
82
0
73
0
111
0
121
0
113
0
81
0
66
0
90
0
108
0
104
0
104
0
112
0
100
0
50
0
84
0
104
0
102
0
93
0
97
0
115
0
75
0
65
0
74
0
88
0
91
0
23
0
79
0
83
0
64
0
46
0
52
0
40
0
40
0
80
0
104
0
84
0
82
0
56
0
7
0
1
0
4
0
0
0
7
0
47
0
108
0
116
0
111
0
120
0
116
0
104
0
82
0
4
0
14
0
205
0
252
0
255
0
253
0
250
0
255
0
255
0
255
0
255
0
255
0
255
0
255
0
255
0
255
0
255
0
255
0
255
0
255
0
255
0
255
0
255
0
255
0
255
0
255
0
255
0
255
0
255
0
255
0
255
0
255
0
255
0
255
0
255
0
255
0
255
0
255
0
255
0
255
0
255
0
255
0
255
0
255
0
255
0
255
0
255
0
255
0
255
0
255
0
255
0
255
0
255
0
255
0
255
0
255
0
255
0
255
0
255
0
255
0
255
0
255
0
255
0
255
0
255
0
255
0
255
0
255
0
255
0
255
0
255
0
255
0
255
0
255
0
255
0
255
0
255
0
255
0
255
0
255
0
255
0
255
0
255
0
255
0
255
0
255
0
0
0
0
0
0
0
0
0
0
0
0
0
0
0
0
0
0
0
0
0
0
0
0
0
0
0
0
0
0
0
0
0
0
0
0
0
0
0
0
0
0
0
0
0
0
0
0
0
0
0
0
0
0
0
0
0
0
0
0
0
0
0
0
0
0
0
0
0
0
0
0
0
0
0
0
0
0
0
0
0
0
0
0
0
0
0
0
0
0
0
0
0
0
0
0
0
0
0
0
0
0
0
0
0
0
0
0
0
0
0
0
0
0
0
0
0
0
0
0
0
0
0
0
0
0
0
0
0
0
0
0
0
0
0
0
0
0
0
0
0
0
0
0
0
0
0
0
0
0
0
0
0
0
0
0
0
0
0
0
0
0
0
0
0
0
0
0
0
0
0
0
0
0
0
0
0
0
0
0
0
0
0
0
0
0
0
0
0
0
0
0
0
0
0
0
0
0
0
0
0
0
0
0
0
0
0
0
0
0
0
0
0
0
0
0
0
0
0
0
0
0
0
0
0
0
0
0
0
0
0
0
0
0
0
0
0
0
0
0
0
0
0
0
0
0
0
0
0
0
0
0
0
0
0
0
0
0
0
0
0
0
0
0
0
0
0
0
0
0
0
0
0
0
0
0
0
0
0
0
0
0
0
0
0
0
0
0
0
0
0
0
0
0
0
0
0
0
0
0
0
0
0
0
0
0
0
0
0
0
0
0
0
0
0
0
0
0
0
0
0
0
0
0
0
0
0
0
0
0
0
0
0
0
0
0
0
0
0
0
0
0
0
0
0
0
0
0
0
0
0
0
0
0
0
0
0
0
0
0
0
0
0
0
0
0
0
0
0
0
0
0
0
0
0
0
0
0
0
0
0
0
0
0
0
0
0
0
0
0
0
0
0
0
0
0
0
0
0
0
0
0
0
0
0
0
0
0
0
0
0
0
0
0
0
0
0
0
0
0
0
0
0
0
0
0
0
0
0
0
0
0
0
0
0
0
0
0
0
0
0
0
0
0
0
104
0
66
0
79
0
100
0
114
0
117
0
114
0
112
0
113
0
111
0
119
0
118
0
113
0
113
0
81
0
67
0
127
0
122
0
121
0
124
0
124
0
123
0
124
0
109
0
83
0
95
0
122
0
121
0
129
0
133
0
127
0
136
0
132
0
143
0
136
0
83
0
105
0
135
0
141
0
147
0
143
0
145
0
146
0
149
0
148
0
145
0
85
0
131
0
147
0
144
0
91
0
51
0
165
0
146
0
118
0
82
0
153
0
127
0
55
0
7
0
13
0
18
0
11
0
21
0
63
0
69
0
88
0
114
0
82
0
26
0
50
0
96
0
95
0
100
0
79
0
16
0
89
0
124
0
119
0
109
0
123
0
118
0
115
0
111
0
113
0
117
0
102
0
79
0
68
0
115
0
92
0
72
0
87
0
112
0
108
0
100
0
114
0
111
0
98
0
69
0
69
0
99
0
101
0
102
0
101
0
90
0
67
0
73
0
82
0
94
0
95
0
29
0
79
0
77
0
56
0
52
0
59
0
39
0
74
0
77
0
110
0
87
0
81
0
53
0
6
0
2
0
7
0
0
0
6
0
55
0
109
0
113
0
106
0
114
0
113
0
104
0
81
0
5
0
15
0
205
0
252
0
255
0
255
0
252
0
255
0
255
0
255
0
255
0
255
0
255
0
255
0
255
0
255
0
255
0
255
0
255
0
255
0
255
0
255
0
255
0
255
0
255
0
255
0
255
0
255
0
255
0
255
0
255
0
255
0
255
0
255
0
255
0
255
0
255
0
255
0
255
0
255
0
255
0
255
0
255
0
255
0
255
0
255
0
255
0
255
0
255
0
255
0
255
0
255
0
255
0
255
0
255
0
255
0
255
0
255
0
255
0
255
0
255
0
255
0
255
0
255
0
255
0
255
0
255
0
255
0
255
0
255
0
255
0
255
0
255
0
255
0
255
0
255
0
255
0
255
0
255
0
255
0
255
0
255
0
255
0
255
0
255
0
255
0
0
0
0
0
0
0
0
0
0
0
0
0
0
0
0
0
0
0
0
0
0
0
0
0
0
0
0
0
0
0
0
0
0
0
0
0
0
0
0
0
0
0
0
0
0
0
0
0
0
0
0
0
0
0
0
0
0
0
0
0
0
0
0
0
0
0
0
0
0
0
0
0
0
0
0
0
0
0
0
0
0
0
0
0
0
0
0
0
0
0
0
0
0
0
0
0
0
0
0
0
0
0
0
0
0
0
0
0
0
0
0
0
0
0
0
0
0
0
0
0
0
0
0
0
0
0
0
0
0
0
0
0
0
0
0
0
0
0
0
0
0
0
0
0
0
0
0
0
0
0
0
0
0
0
0
0
0
0
0
0
0
0
0
0
0
0
0
0
0
0
0
0
0
0
0
0
0
0
0
0
0
0
0
0
0
0
0
0
0
0
0
0
0
0
0
0
0
0
0
0
0
0
0
0
0
0
0
0
0
0
0
0
0
0
0
0
0
0
0
0
0
0
0
0
0
0
0
0
0
0
0
0
0
0
0
0
0
0
0
0
0
0
0
0
0
0
0
0
0
0
0
0
0
0
0
0
0
0
0
0
0
0
0
0
0
0
0
0
0
0
0
0
0
0
0
0
0
0
0
0
0
0
0
0
0
0
0
0
0
0
0
0
0
0
0
0
0
0
0
0
0
0
0
0
0
0
0
0
0
0
0
0
0
0
0
0
0
0
0
0
0
0
0
0
0
0
0
0
0
0
0
0
0
0
0
0
0
0
0
0
0
0
0
0
0
0
0
0
0
0
0
0
0
0
0
0
0
0
0
0
0
0
0
0
0
0
0
0
0
0
0
0
0
0
0
0
0
0
0
0
0
0
0
0
0
0
0
0
0
0
0
0
0
0
0
0
0
0
0
0
0
0
0
0
0
0
0
0
0
0
0
0
0
0
0
0
0
0
0
0
0
0
0
0
0
0
0
0
0
0
0
0
0
0
0
0
0
0
0
0
0
0
0
0
120
0
66
0
78
0
95
0
108
0
111
0
108
0
112
0
117
0
102
0
117
0
123
0
121
0
123
0
85
0
62
0
116
0
118
0
117
0
120
0
120
0
116
0
118
0
111
0
92
0
80
0
120
0
124
0
125
0
131
0
126
0
131
0
135
0
142
0
134
0
100
0
88
0
133
0
143
0
140
0
144
0
142
0
145
0
151
0
141
0
145
0
118
0
90
0
154
0
149
0
132
0
4
0
131
0
152
0
145
0
73
0
136
0
150
0
75
0
10
0
3
0
7
0
7
0
9
0
31
0
65
0
86
0
94
0
82
0
85
0
108
0
94
0
58
0
78
0
114
0
76
0
70
0
116
0
110
0
109
0
115
0
110
0
118
0
120
0
110
0
110
0
119
0
96
0
55
0
85
0
75
0
75
0
103
0
124
0
111
0
101
0
114
0
107
0
97
0
89
0
53
0
86
0
102
0
107
0
96
0
64
0
64
0
84
0
90
0
99
0
97
0
30
0
79
0
97
0
66
0
59
0
43
0
13
0
83
0
68
0
107
0
91
0
82
0
52
0
7
0
4
0
8
0
0
0
9
0
73
0
113
0
112
0
104
0
111
0
113
0
107
0
80
0
6
0
16
0
205
0
251
0
255
0
255
0
254
0
255
0
255
0
255
0
255
0
255
0
255
0
255
0
255
0
255
0
255
0
255
0
255
0
255
0
255
0
255
0
255
0
255
0
255
0
255
0
255
0
255
0
255
0
255
0
255
0
255
0
255
0
255
0
255
0
255
0
255
0
255
0
255
0
255
0
255
0
255
0
255
0
255
0
255
0
255
0
255
0
255
0
255
0
255
0
255
0
255
0
255
0
255
0
255
0
255
0
255
0
255
0
255
0
255
0
255
0
255
0
255
0
255
0
255
0
255
0
255
0
255
0
255
0
255
0
255
0
255
0
255
0
255
0
255
0
255
0
255
0
255
0
255
0
255
0
255
0
255
0
255
0
255
0
255
0
255
0
0
0
0
0
0
0
0
0
0
0
0
0
0
0
0
0
0
0
0
0
0
0
0
0
0
0
0
0
0
0
0
0
0
0
0
0
0
0
0
0
0
0
0
0
0
0
0
0
0
0
0
0
0
0
0
0
0
0
0
0
0
0
0
0
0
0
0
0
0
0
0
0
0
0
0
0
0
0
0
0
0
0
0
0
0
0
0
0
0
0
0
0
0
0
0
0
0
0
0
0
0
0
0
0
0
0
0
0
0
0
0
0
0
0
0
0
0
0
0
0
0
0
0
0
0
0
0
0
0
0
0
0
0
0
0
0
0
0
0
0
0
0
0
0
0
0
0
0
0
0
0
0
0
0
0
0
0
0
0
0
0
0
0
0
0
0
0
0
0
0
0
0
0
0
0
0
0
0
0
0
0
0
0
0
0
0
0
0
0
0
0
0
0
0
0
0
0
0
0
0
0
0
0
0
0
0
0
0
0
0
0
0
0
0
0
0
0
0
0
0
0
0
0
0
0
0
0
0
0
0
0
0
0
0
0
0
0
0
0
0
0
0
0
0
0
0
0
0
0
0
0
0
0
0
0
0
0
0
0
0
0
0
0
0
0
0
0
0
0
0
0
0
0
0
0
0
0
0
0
0
0
0
0
0
0
0
0
0
0
0
0
0
0
0
0
0
0
0
0
0
0
0
0
0
0
0
0
0
0
0
0
0
0
0
0
0
0
0
0
0
0
0
0
0
0
0
0
0
0
0
0
0
0
0
0
0
0
0
0
0
0
0
0
0
0
0
0
0
0
0
0
0
0
0
0
0
0
0
0
0
0
0
0
0
0
0
0
0
0
0
0
0
0
0
0
0
0
0
0
0
0
0
0
0
0
0
0
0
0
0
0
0
0
0
0
0
0
0
0
0
0
0
0
0
0
0
0
0
0
0
0
0
0
0
0
0
0
0
0
0
0
0
0
0
0
0
0
0
0
0
0
0
0
0
0
0
0
0
0
0
0
0
0
0
70
0
76
0
82
0
95
0
103
0
102
0
100
0
110
0
124
0
119
0
124
0
117
0
109
0
115
0
86
0
67
0
123
0
115
0
114
0
120
0
120
0
114
0
117
0
116
0
103
0
69
0
113
0
126
0
123
0
129
0
127
0
126
0
135
0
141
0
131
0
116
0
78
0
125
0
143
0
134
0
143
0
140
0
144
0
150
0
134
0
142
0
143
0
55
0
145
0
156
0
140
0
28
0
70
0
158
0
155
0
66
0
53
0
82
0
39
0
4
0
1
0
4
0
9
0
14
0
29
0
43
0
73
0
94
0
109
0
128
0
106
0
51
0
19
0
35
0
99
0
126
0
50
0
82
0
109
0
122
0
104
0
111
0
112
0
117
0
113
0
111
0
126
0
114
0
74
0
40
0
71
0
98
0
107
0
110
0
110
0
106
0
104
0
103
0
99
0
99
0
54
0
70
0
103
0
94
0
78
0
62
0
74
0
93
0
92
0
98
0
93
0
24
0
82
0
103
0
81
0
69
0
32
0
13
0
72
0
76
0
96
0
91
0
84
0
57
0
11
0
4
0
6
0
0
0
21
0
91
0
119
0
115
0
110
0
114
0
116
0
109
0
77
0
5
0
17
0
206
0
250
0
255
0
255
0
254
0
253
0
255
0
255
0
255
0
255
0
255
0
255
0
255
0
255
0
255
0
255
0
255
0
255
0
255
0
255
0
255
0
255
0
255
0
255
0
255
0
255
0
255
0
255
0
255
0
255
0
255
0
255
0
255
0
255
0
255
0
255
0
255
0
255
0
255
0
255
0
255
0
255
0
255
0
255
0
255
0
255
0
255
0
255
0
255
0
255
0
255
0
255
0
255
0
255
0
255
0
255
0
255
0
255
0
255
0
255
0
255
0
255
0
255
0
255
0
255
0
255
0
255
0
255
0
255
0
255
0
255
0
255
0
255
0
255
0
255
0
255
0
255
0
255
0
255
0
255
0
255
0
255
0
255
0
255
0
0
0
0
0
0
0
0
0
0
0
0
0
0
0
0
0
0
0
0
0
0
0
0
0
0
0
0
0
0
0
0
0
0
0
0
0
0
0
0
0
0
0
0
0
0
0
0
0
0
0
0
0
0
0
0
0
0
0
0
0
0
0
0
0
0
0
0
0
0
0
0
0
0
0
0
0
0
0
0
0
0
0
0
0
0
0
0
0
0
0
0
0
0
0
0
0
0
0
0
0
0
0
0
0
0
0
0
0
0
0
0
0
0
0
0
0
0
0
0
0
0
0
0
0
0
0
0
0
0
0
0
0
0
0
0
0
0
0
0
0
0
0
0
0
0
0
0
0
0
0
0
0
0
0
0
0
0
0
0
0
0
0
0
0
0
0
0
0
0
0
0
0
0
0
0
0
0
0
0
0
0
0
0
0
0
0
0
0
0
0
0
0
0
0
0
0
0
0
0
0
0
0
0
0
0
0
0
0
0
0
0
0
0
0
0
0
0
0
0
0
0
0
0
0
0
0
0
0
0
0
0
0
0
0
0
0
0
0
0
0
0
0
0
0
0
0
0
0
0
0
0
0
0
0
0
0
0
0
0
0
0
0
0
0
0
0
0
0
0
0
0
0
0
0
0
0
0
0
0
0
0
0
0
0
0
0
0
0
0
0
0
0
0
0
0
0
0
0
0
0
0
0
0
0
0
0
0
0
0
0
0
0
0
0
0
0
0
0
0
0
0
0
0
0
0
0
0
0
0
0
0
0
0
0
0
0
0
0
0
0
0
0
0
0
0
0
0
0
0
0
0
0
0
0
0
0
0
0
0
0
0
0
0
0
0
0
0
0
0
0
0
0
0
0
0
0
0
0
0
0
0
0
0
0
0
0
0
0
0
0
0
0
0
0
0
0
0
0
0
0
0
0
0
0
0
0
0
0
0
0
0
0
0
0
0
0
0
0
0
0
0
0
0
0
0
0
0
0
0
0
0
0
0
0
0
0
0
0
0
0
0
0
0
0
33
0
41
0
52
0
70
0
86
0
83
0
75
0
80
0
92
0
99
0
108
0
109
0
112
0
128
0
100
0
68
0
108
0
114
0
113
0
120
0
121
0
114
0
115
0
117
0
109
0
65
0
102
0
126
0
124
0
126
0
127
0
123
0
132
0
138
0
131
0
126
0
79
0
113
0
138
0
131
0
142
0
139
0
141
0
148
0
132
0
142
0
150
0
50
0
131
0
156
0
139
0
89
0
36
0
131
0
157
0
102
0
32
0
42
0
37
0
39
0
33
0
11
0
1
0
1
0
10
0
27
0
89
0
122
0
114
0
93
0
44
0
15
0
16
0
9
0
31
0
101
0
76
0
58
0
116
0
121
0
112
0
120
0
103
0
109
0
121
0
114
0
113
0
106
0
86
0
21
0
71
0
114
0
112
0
97
0
100
0
106
0
102
0
101
0
104
0
101
0
71
0
60
0
99
0
78
0
63
0
78
0
88
0
97
0
87
0
92
0
84
0
12
0
86
0
77
0
80
0
79
0
42
0
48
0
70
0
104
0
85
0
88
0
87
0
65
0
19
0
3
0
2
0
0
0
35
0
101
0
120
0
116
0
116
0
115
0
116
0
110
0
70
0
2
0
19
0
209
0
250
0
255
0
255
0
253
0
252
0
255
0
255
0
255
0
255
0
255
0
255
0
255
0
255
0
255
0
255
0
255
0
255
0
255
0
255
0
255
0
255
0
255
0
255
0
255
0
255
0
255
0
255
0
255
0
255
0
255
0
255
0
255
0
255
0
255
0
255
0
255
0
255
0
255
0
255
0
255
0
255
0
255
0
255
0
255
0
255
0
255
0
255
0
255
0
255
0
255
0
255
0
255
0
255
0
255
0
255
0
255
0
255
0
255
0
255
0
255
0
255
0
255
0
255
0
255
0
255
0
255
0
255
0
255
0
255
0
255
0
255
0
255
0
255
0
255
0
255
0
255
0
255
0
255
0
255
0
255
0
255
0
255
0
255
0
0
0
0
0
0
0
0
0
0
0
0
0
0
0
0
0
0
0
0
0
0
0
0
0
0
0
0
0
0
0
0
0
0
0
0
0
0
0
0
0
0
0
0
0
0
0
0
0
0
0
0
0
0
0
0
0
0
0
0
0
0
0
0
0
0
0
0
0
0
0
0
0
0
0
0
0
0
0
0
0
0
0
0
0
0
0
0
0
0
0
0
0
0
0
0
0
0
0
0
0
0
0
0
0
0
0
0
0
0
0
0
0
0
0
0
0
0
0
0
0
0
0
0
0
0
0
0
0
0
0
0
0
0
0
0
0
0
0
0
0
0
0
0
0
0
0
0
0
0
0
0
0
0
0
0
0
0
0
0
0
0
0
0
0
0
0
0
0
0
0
0
0
0
0
0
0
0
0
0
0
0
0
0
0
0
0
0
0
0
0
0
0
0
0
0
0
0
0
0
0
0
0
0
0
0
0
0
0
0
0
0
0
0
0
0
0
0
0
0
0
0
0
0
0
0
0
0
0
0
0
0
0
0
0
0
0
0
0
0
0
0
0
0
0
0
0
0
0
0
0
0
0
0
0
0
0
0
0
0
0
0
0
0
0
0
0
0
0
0
0
0
0
0
0
0
0
0
0
0
0
0
0
0
0
0
0
0
0
0
0
0
0
0
0
0
0
0
0
0
0
0
0
0
0
0
0
0
0
0
0
0
0
0
0
0
0
0
0
0
0
0
0
0
0
0
0
0
0
0
0
0
0
0
0
0
0
0
0
0
0
0
0
0
0
0
0
0
0
0
0
0
0
0
0
0
0
0
0
0
0
0
0
0
0
0
0
0
0
0
0
0
0
0
0
0
0
0
0
0
0
0
0
0
0
0
0
0
0
0
0
0
0
0
0
0
0
0
0
0
0
0
0
0
0
0
0
0
0
0
0
0
0
0
0
0
0
0
0
0
0
0
0
0
0
0
0
0
0
0
0
0
0
0
0
0
0
0
0
0
0
0
0
0
0
94
0
12
0
21
0
47
0
75
0
84
0
72
0
62
0
64
0
64
0
74
0
82
0
95
0
124
0
102
0
65
0
99
0
120
0
117
0
122
0
125
0
119
0
121
0
126
0
121
0
72
0
89
0
122
0
128
0
123
0
126
0
122
0
127
0
135
0
130
0
130
0
92
0
100
0
128
0
131
0
140
0
137
0
138
0
144
0
136
0
144
0
155
0
76
0
111
0
156
0
140
0
126
0
37
0
60
0
143
0
151
0
113
0
129
0
116
0
102
0
86
0
56
0
21
0
9
0
11
0
26
0
79
0
103
0
79
0
57
0
50
0
64
0
84
0
33
0
6
0
36
0
106
0
60
0
108
0
99
0
116
0
108
0
107
0
120
0
123
0
96
0
72
0
77
0
96
0
44
0
67
0
104
0
116
0
98
0
91
0
99
0
104
0
102
0
105
0
101
0
92
0
58
0
78
0
65
0
63
0
92
0
99
0
96
0
83
0
90
0
77
0
5
0
88
0
76
0
80
0
77
0
37
0
59
0
65
0
115
0
81
0
85
0
87
0
68
0
22
0
3
0
1
0
3
0
46
0
106
0
118
0
117
0
118
0
112
0
111
0
106
0
65
0
2
0
24
0
216
0
253
0
253
0
253
0
253
0
253
0
255
0
255
0
255
0
255
0
255
0
255
0
255
0
255
0
255
0
255
0
255
0
255
0
255
0
255
0
255
0
255
0
255
0
255
0
255
0
255
0
255
0
255
0
255
0
255
0
255
0
255
0
255
0
255
0
255
0
255
0
255
0
255
0
255
0
255
0
255
0
255
0
255
0
255
0
255
0
255
0
255
0
255
0
255
0
255
0
255
0
255
0
255
0
255
0
255
0
255
0
255
0
255
0
255
0
255
0
255
0
255
0
255
0
255
0
255
0
255
0
255
0
255
0
255
0
255
0
255
0
255
0
255
0
255
0
255
0
255
0
255
0
255
0
255
0
255
0
255
0
255
0
255
0
255
0
0
0
0
0
0
0
0
0
0
0
0
0
0
0
0
0
0
0
0
0
0
0
0
0
0
0
0
0
0
0
0
0
0
0
0
0
0
0
0
0
0
0
0
0
0
0
0
0
0
0
0
0
0
0
0
0
0
0
0
0
0
0
0
0
0
0
0
0
0
0
0
0
0
0
0
0
0
0
0
0
0
0
0
0
0
0
0
0
0
0
0
0
0
0
0
0
0
0
0
0
0
0
0
0
0
0
0
0
0
0
0
0
0
0
0
0
0
0
0
0
0
0
0
0
0
0
0
0
0
0
0
0
0
0
0
0
0
0
0
0
0
0
0
0
0
0
0
0
0
0
0
0
0
0
0
0
0
0
0
0
0
0
0
0
0
0
0
0
0
0
0
0
0
0
0
0
0
0
0
0
0
0
0
0
0
0
0
0
0
0
0
0
0
0
0
0
0
0
0
0
0
0
0
0
0
0
0
0
0
0
0
0
0
0
0
0
0
0
0
0
0
0
0
0
0
0
0
0
0
0
0
0
0
0
0
0
0
0
0
0
0
0
0
0
0
0
0
0
0
0
0
0
0
0
0
0
0
0
0
0
0
0
0
0
0
0
0
0
0
0
0
0
0
0
0
0
0
0
0
0
0
0
0
0
0
0
0
0
0
0
0
0
0
0
0
0
0
0
0
0
0
0
0
0
0
0
0
0
0
0
0
0
0
0
0
0
0
0
0
0
0
0
0
0
0
0
0
0
0
0
0
0
0
0
0
0
0
0
0
0
0
0
0
0
0
0
0
0
0
0
0
0
0
0
0
0
0
0
0
0
0
0
0
0
0
0
0
0
0
0
0
0
0
0
0
0
0
0
0
0
0
0
0
0
0
0
0
0
0
0
0
0
0
0
0
0
0
0
0
0
0
0
0
0
0
0
0
0
0
0
0
0
0
0
0
0
0
0
0
0
0
0
0
0
0
0
0
0
0
0
0
0
0
0
0
0
0
0
0
0
0
0
0
0
114
0
73
0
49
0
50
0
81
0
103
0
101
0
90
0
86
0
86
0
83
0
65
0
59
0
82
0
70
0
54
0
98
0
109
0
102
0
106
0
112
0
111
0
119
0
128
0
128
0
83
0
77
0
118
0
132
0
122
0
126
0
123
0
120
0
132
0
130
0
128
0
109
0
88
0
117
0
133
0
138
0
139
0
137
0
139
0
140
0
144
0
144
0
110
0
84
0
149
0
148
0
136
0
76
0
23
0
84
0
140
0
149
0
111
0
91
0
71
0
61
0
39
0
10
0
13
0
12
0
23
0
32
0
57
0
69
0
73
0
93
0
111
0
115
0
84
0
39
0
15
0
66
0
69
0
69
0
100
0
110
0
102
0
113
0
111
0
95
0
76
0
65
0
77
0
102
0
80
0
65
0
80
0
104
0
103
0
97
0
98
0
96
0
98
0
97
0
99
0
100
0
60
0
43
0
64
0
77
0
93
0
98
0
93
0
83
0
93
0
76
0
4
0
87
0
98
0
79
0
74
0
29
0
48
0
77
0
100
0
77
0
84
0
83
0
64
0
20
0
3
0
1
0
4
0
49
0
110
0
118
0
117
0
120
0
108
0
106
0
107
0
64
0
3
0
30
0
225
0
255
0
252
0
251
0
254
0
255
0
255
0
255
0
255
0
255
0
255
0
255
0
255
0
255
0
255
0
255
0
255
0
255
0
255
0
255
0
255
0
255
0
255
0
255
0
255
0
255
0
255
0
255
0
255
0
255
0
255
0
255
0
255
0
255
0
255
0
255
0
255
0
255
0
255
0
255
0
255
0
255
0
255
0
255
0
255
0
255
0
255
0
255
0
255
0
255
0
255
0
255
0
255
0
255
0
255
0
255
0
255
0
255
0
255
0
255
0
255
0
255
0
255
0
255
0
255
0
255
0
255
0
255
0
255
0
255
0
255
0
255
0
255
0
255
0
255
0
255
0
255
0
255
0
255
0
255
0
255
0
255
0
255
0
255
0
0
0
0
0
0
0
0
0
0
0
0
0
0
0
0
0
0
0
0
0
0
0
0
0
0
0
0
0
0
0
0
0
0
0
0
0
0
0
0
0
0
0
0
0
0
0
0
0
0
0
0
0
0
0
0
0
0
0
0
0
0
0
0
0
0
0
0
0
0
0
0
0
0
0
0
0
0
0
0
0
0
0
0
0
0
0
0
0
0
0
0
0
0
0
0
0
0
0
0
0
0
0
0
0
0
0
0
0
0
0
0
0
0
0
0
0
0
0
0
0
0
0
0
0
0
0
0
0
0
0
0
0
0
0
0
0
0
0
0
0
0
0
0
0
0
0
0
0
0
0
0
0
0
0
0
0
0
0
0
0
0
0
0
0
0
0
0
0
0
0
0
0
0
0
0
0
0
0
0
0
0
0
0
0
0
0
0
0
0
0
0
0
0
0
0
0
0
0
0
0
0
0
0
0
0
0
0
0
0
0
0
0
0
0
0
0
0
0
0
0
0
0
0
0
0
0
0
0
0
0
0
0
0
0
0
0
0
0
0
0
0
0
0
0
0
0
0
0
0
0
0
0
0
0
0
0
0
0
0
0
0
0
0
0
0
0
0
0
0
0
0
0
0
0
0
0
0
0
0
0
0
0
0
0
0
0
0
0
0
0
0
0
0
0
0
0
0
0
0
0
0
0
0
0
0
0
0
0
0
0
0
0
0
0
0
0
0
0
0
0
0
0
0
0
0
0
0
0
0
0
0
0
0
0
0
0
0
0
0
0
0
0
0
0
0
0
0
0
0
0
0
0
0
0
0
0
0
0
0
0
0
0
0
0
0
0
0
0
0
0
0
0
0
0
0
0
0
0
0
0
0
0
0
0
0
0
0
0
0
0
0
0
0
0
0
0
0
0
0
0
0
0
0
0
0
0
0
0
0
0
0
0
0
0
0
0
0
0
0
0
0
0
0
0
0
0
0
0
0
0
0
0
0
0
0
0
0
0
0
0
0
0
0
0
105
0
132
0
77
0
38
0
63
0
95
0
107
0
106
0
106
0
106
0
109
0
97
0
82
0
87
0
53
0
12
0
45
0
60
0
51
0
55
0
64
0
68
0
82
0
98
0
102
0
92
0
70
0
115
0
135
0
120
0
126
0
123
0
117
0
130
0
130
0
126
0
121
0
81
0
110
0
136
0
136
0
142
0
136
0
135
0
142
0
140
0
130
0
130
0
61
0
130
0
145
0
145
0
128
0
38
0
13
0
53
0
75
0
94
0
105
0
117
0
109
0
67
0
14
0
1
0
12
0
5
0
5
0
44
0
96
0
97
0
87
0
81
0
68
0
110
0
103
0
34
0
18
0
73
0
31
0
131
0
105
0
120
0
111
0
72
0
49
0
76
0
104
0
103
0
99
0
102
0
66
0
63
0
87
0
102
0
111
0
104
0
84
0
96
0
87
0
97
0
97
0
62
0
12
0
68
0
90
0
87
0
92
0
91
0
85
0
97
0
76
0
9
0
87
0
100
0
69
0
78
0
43
0
56
0
109
0
86
0
73
0
83
0
79
0
58
0
16
0
3
0
2
0
5
0
48
0
116
0
121
0
120
0
121
0
106
0
106
0
110
0
69
0
4
0
35
0
231
0
255
0
253
0
251
0
255
0
255
0
255
0
255
0
255
0
255
0
255
0
255
0
255
0
255
0
255
0
255
0
255
0
255
0
255
0
255
0
255
0
255
0
255
0
255
0
255
0
255
0
255
0
255
0
255
0
255
0
255
0
255
0
255
0
255
0
255
0
255
0
255
0
255
0
255
0
255
0
255
0
255
0
255
0
255
0
255
0
255
0
255
0
255
0
255
0
255
0
255
0
255
0
255
0
255
0
255
0
255
0
255
0
255
0
255
0
255
0
255
0
255
0
255
0
255
0
255
0
255
0
255
0
255
0
255
0
255
0
255
0
255
0
255
0
255
0
255
0
255
0
255
0
255
0
255
0
255
0
255
0
255
0
255
0
255
0
0
0
0
0
0
0
0
0
0
0
0
0
0
0
0
0
0
0
0
0
0
0
0
0
0
0
0
0
0
0
0
0
0
0
0
0
0
0
0
0
0
0
0
0
0
0
0
0
0
0
0
0
0
0
0
0
0
0
0
0
0
0
0
0
0
0
0
0
0
0
0
0
0
0
0
0
0
0
0
0
0
0
0
0
0
0
0
0
0
0
0
0
0
0
0
0
0
0
0
0
0
0
0
0
0
0
0
0
0
0
0
0
0
0
0
0
0
0
0
0
0
0
0
0
0
0
0
0
0
0
0
0
0
0
0
0
0
0
0
0
0
0
0
0
0
0
0
0
0
0
0
0
0
0
0
0
0
0
0
0
0
0
0
0
0
0
0
0
0
0
0
0
0
0
0
0
0
0
0
0
0
0
0
0
0
0
0
0
0
0
0
0
0
0
0
0
0
0
0
0
0
0
0
0
0
0
0
0
0
0
0
0
0
0
0
0
0
0
0
0
0
0
0
0
0
0
0
0
0
0
0
0
0
0
0
0
0
0
0
0
0
0
0
0
0
0
0
0
0
0
0
0
0
0
0
0
0
0
0
0
0
0
0
0
0
0
0
0
0
0
0
0
0
0
0
0
0
0
0
0
0
0
0
0
0
0
0
0
0
0
0
0
0
0
0
0
0
0
0
0
0
0
0
0
0
0
0
0
0
0
0
0
0
0
0
0
0
0
0
0
0
0
0
0
0
0
0
0
0
0
0
0
0
0
0
0
0
0
0
0
0
0
0
0
0
0
0
0
0
0
0
0
0
0
0
0
0
0
0
0
0
0
0
0
0
0
0
0
0
0
0
0
0
0
0
0
0
0
0
0
0
0
0
0
0
0
0
0
0
0
0
0
0
0
0
0
0
0
0
0
0
0
0
0
0
0
0
0
0
0
0
0
0
0
0
0
0
0
0
0
0
0
0
0
0
0
0
0
0
0
0
0
0
0
0
0
0
0
0
0
0
0
0
0
109
0
102
0
125
0
89
0
35
0
58
0
102
0
105
0
98
0
91
0
101
0
101
0
107
0
122
0
109
0
75
0
57
0
112
0
107
0
98
0
96
0
94
0
76
0
57
0
57
0
61
0
38
0
76
0
70
0
74
0
73
0
72
0
72
0
89
0
84
0
97
0
108
0
72
0
94
0
118
0
122
0
133
0
124
0
133
0
142
0
143
0
148
0
130
0
89
0
104
0
159
0
141
0
130
0
113
0
76
0
128
0
138
0
147
0
143
0
152
0
99
0
35
0
8
0
1
0
13
0
4
0
3
0
21
0
52
0
82
0
86
0
42
0
8
0
65
0
111
0
114
0
14
0
58
0
85
0
45
0
128
0
99
0
57
0
74
0
92
0
96
0
104
0
94
0
102
0
103
0
96
0
48
0
81
0
99
0
98
0
95
0
105
0
100
0
92
0
67
0
49
0
52
0
50
0
63
0
99
0
100
0
91
0
97
0
83
0
100
0
81
0
2
0
92
0
97
0
74
0
59
0
31
0
105
0
96
0
94
0
67
0
83
0
84
0
49
0
2
0
6
0
3
0
2
0
56
0
118
0
129
0
120
0
116
0
113
0
116
0
105
0
53
0
0
0
78
0
252
0
255
0
246
0
255
0
252
0
255
0
255
0
255
0
255
0
255
0
255
0
255
0
255
0
255
0
255
0
255
0
255
0
255
0
255
0
255
0
255
0
255
0
255
0
255
0
255
0
255
0
255
0
255
0
255
0
255
0
255
0
255
0
255
0
255
0
255
0
255
0
255
0
255
0
255
0
255
0
255
0
255
0
255
0
255
0
255
0
255
0
255
0
255
0
255
0
255
0
255
0
255
0
255
0
255
0
255
0
255
0
255
0
255
0
255
0
255
0
255
0
255
0
255
0
255
0
255
0
255
0
255
0
255
0
255
0
255
0
255
0
255
0
255
0
255
0
255
0
255
0
255
0
255
0
255
0
255
0
255
0
255
0
255
0
255
0
0
0
0
0
0
0
0
0
0
0
0
0
0
0
0
0
0
0
0
0
0
0
0
0
0
0
0
0
0
0
0
0
0
0
0
0
0
0
0
0
0
0
0
0
0
0
0
0
0
0
0
0
0
0
0
0
0
0
0
0
0
0
0
0
0
0
0
0
0
0
0
0
0
0
0
0
0
0
0
0
0
0
0
0
0
0
0
0
0
0
0
0
0
0
0
0
0
0
0
0
0
0
0
0
0
0
0
0
0
0
0
0
0
0
0
0
0
0
0
0
0
0
0
0
0
0
0
0
0
0
0
0
0
0
0
0
0
0
0
0
0
0
0
0
0
0
0
0
0
0
0
0
0
0
0
0
0
0
0
0
0
0
0
0
0
0
0
0
0
0
0
0
0
0
0
0
0
0
0
0
0
0
0
0
0
0
0
0
0
0
0
0
0
0
0
0
0
0
0
0
0
0
0
0
0
0
0
0
0
0
0
0
0
0
0
0
0
0
0
0
0
0
0
0
0
0
0
0
0
0
0
0
0
0
0
0
0
0
0
0
0
0
0
0
0
0
0
0
0
0
0
0
0
0
0
0
0
0
0
0
0
0
0
0
0
0
0
0
0
0
0
0
0
0
0
0
0
0
0
0
0
0
0
0
0
0
0
0
0
0
0
0
0
0
0
0
0
0
0
0
0
0
0
0
0
0
0
0
0
0
0
0
0
0
0
0
0
0
0
0
0
0
0
0
0
0
0
0
0
0
0
0
0
0
0
0
0
0
0
0
0
0
0
0
0
0
0
0
0
0
0
0
0
0
0
0
0
0
0
0
0
0
0
0
0
0
0
0
0
0
0
0
0
0
0
0
0
0
0
0
0
0
0
0
0
0
0
0
0
0
0
0
0
0
0
0
0
0
0
0
0
0
0
0
0
0
0
0
0
0
0
0
0
0
0
0
0
0
0
0
0
0
0
0
0
0
0
0
0
0
0
0
0
0
0
0
0
0
0
0
0
0
0
0
110
0
106
0
114
0
119
0
70
0
22
0
60
0
100
0
95
0
108
0
106
0
105
0
98
0
104
0
122
0
100
0
46
0
116
0
116
0
109
0
107
0
112
0
103
0
92
0
90
0
74
0
51
0
67
0
80
0
89
0
91
0
90
0
84
0
73
0
62
0
69
0
63
0
40
0
22
0
43
0
61
0
69
0
58
0
59
0
62
0
69
0
95
0
110
0
93
0
107
0
117
0
98
0
91
0
105
0
139
0
132
0
141
0
150
0
110
0
74
0
56
0
31
0
6
0
6
0
4
0
6
0
3
0
5
0
29
0
77
0
102
0
65
0
5
0
23
0
91
0
114
0
44
0
29
0
92
0
51
0
95
0
62
0
68
0
91
0
94
0
96
0
106
0
103
0
99
0
108
0
96
0
63
0
64
0
94
0
98
0
101
0
100
0
104
0
68
0
44
0
65
0
88
0
67
0
56
0
83
0
96
0
92
0
98
0
84
0
99
0
80
0
2
0
91
0
87
0
70
0
52
0
53
0
106
0
110
0
93
0
75
0
86
0
84
0
51
0
4
0
3
0
0
0
1
0
51
0
106
0
123
0
117
0
111
0
111
0
120
0
107
0
51
0
2
0
93
0
252
0
255
0
249
0
255
0
253
0
255
0
255
0
255
0
255
0
255
0
255
0
255
0
255
0
255
0
255
0
255
0
255
0
255
0
255
0
255
0
255
0
255
0
255
0
255
0
255
0
255
0
255
0
255
0
255
0
255
0
255
0
255
0
255
0
255
0
255
0
255
0
255
0
255
0
255
0
255
0
255
0
255
0
255
0
255
0
255
0
255
0
255
0
255
0
255
0
255
0
255
0
255
0
255
0
255
0
255
0
255
0
255
0
255
0
255
0
255
0
255
0
255
0
255
0
255
0
255
0
255
0
255
0
255
0
255
0
255
0
255
0
255
0
255
0
255
0
255
0
255
0
255
0
255
0
255
0
255
0
255
0
255
0
255
0
255
0
0
0
0
0
0
0
0
0
0
0
0
0
0
0
0
0
0
0
0
0
0
0
0
0
0
0
0
0
0
0
0
0
0
0
0
0
0
0
0
0
0
0
0
0
0
0
0
0
0
0
0
0
0
0
0
0
0
0
0
0
0
0
0
0
0
0
0
0
0
0
0
0
0
0
0
0
0
0
0
0
0
0
0
0
0
0
0
0
0
0
0
0
0
0
0
0
0
0
0
0
0
0
0
0
0
0
0
0
0
0
0
0
0
0
0
0
0
0
0
0
0
0
0
0
0
0
0
0
0
0
0
0
0
0
0
0
0
0
0
0
0
0
0
0
0
0
0
0
0
0
0
0
0
0
0
0
0
0
0
0
0
0
0
0
0
0
0
0
0
0
0
0
0
0
0
0
0
0
0
0
0
0
0
0
0
0
0
0
0
0
0
0
0
0
0
0
0
0
0
0
0
0
0
0
0
0
0
0
0
0
0
0
0
0
0
0
0
0
0
0
0
0
0
0
0
0
0
0
0
0
0
0
0
0
0
0
0
0
0
0
0
0
0
0
0
0
0
0
0
0
0
0
0
0
0
0
0
0
0
0
0
0
0
0
0
0
0
0
0
0
0
0
0
0
0
0
0
0
0
0
0
0
0
0
0
0
0
0
0
0
0
0
0
0
0
0
0
0
0
0
0
0
0
0
0
0
0
0
0
0
0
0
0
0
0
0
0
0
0
0
0
0
0
0
0
0
0
0
0
0
0
0
0
0
0
0
0
0
0
0
0
0
0
0
0
0
0
0
0
0
0
0
0
0
0
0
0
0
0
0
0
0
0
0
0
0
0
0
0
0
0
0
0
0
0
0
0
0
0
0
0
0
0
0
0
0
0
0
0
0
0
0
0
0
0
0
0
0
0
0
0
0
0
0
0
0
0
0
0
0
0
0
0
0
0
0
0
0
0
0
0
0
0
0
0
0
0
0
0
0
0
0
0
0
0
0
0
0
0
0
0
0
0
0
108
0
125
0
102
0
119
0
122
0
58
0
22
0
63
0
103
0
101
0
100
0
114
0
106
0
91
0
114
0
107
0
42
0
106
0
117
0
115
0
110
0
118
0
121
0
116
0
114
0
108
0
87
0
75
0
110
0
122
0
126
0
125
0
114
0
128
0
123
0
131
0
111
0
107
0
65
0
81
0
117
0
111
0
113
0
119
0
110
0
88
0
71
0
50
0
28
0
39
0
79
0
92
0
115
0
111
0
123
0
76
0
81
0
48
0
78
0
102
0
129
0
80
0
9
0
3
0
4
0
4
0
4
0
0
0
4
0
55
0
104
0
89
0
41
0
1
0
56
0
108
0
79
0
15
0
99
0
63
0
47
0
55
0
86
0
95
0
97
0
101
0
103
0
106
0
97
0
107
0
95
0
82
0
48
0
82
0
100
0
103
0
92
0
75
0
61
0
64
0
91
0
99
0
69
0
54
0
76
0
93
0
94
0
97
0
86
0
101
0
80
0
1
0
88
0
77
0
67
0
50
0
80
0
110
0
118
0
88
0
80
0
88
0
79
0
45
0
5
0
2
0
1
0
0
0
47
0
98
0
122
0
118
0
109
0
110
0
121
0
105
0
39
0
6
0
113
0
252
0
255
0
253
0
255
0
254
0
254
0
255
0
255
0
255
0
255
0
255
0
255
0
255
0
255
0
255
0
255
0
255
0
255
0
255
0
255
0
255
0
255
0
255
0
255
0
255
0
255
0
255
0
255
0
255
0
255
0
255
0
255
0
255
0
255
0
255
0
255
0
255
0
255
0
255
0
255
0
255
0
255
0
255
0
255
0
255
0
255
0
255
0
255
0
255
0
255
0
255
0
255
0
255
0
255
0
255
0
255
0
255
0
255
0
255
0
255
0
255
0
255
0
255
0
255
0
255
0
255
0
255
0
255
0
255
0
255
0
255
0
255
0
255
0
255
0
255
0
255
0
255
0
255
0
255
0
255
0
255
0
255
0
255
0
255
0
0
0
0
0
0
0
0
0
0
0
0
0
0
0
0
0
0
0
0
0
0
0
0
0
0
0
0
0
0
0
0
0
0
0
0
0
0
0
0
0
0
0
0
0
0
0
0
0
0
0
0
0
0
0
0
0
0
0
0
0
0
0
0
0
0
0
0
0
0
0
0
0
0
0
0
0
0
0
0
0
0
0
0
0
0
0
0
0
0
0
0
0
0
0
0
0
0
0
0
0
0
0
0
0
0
0
0
0
0
0
0
0
0
0
0
0
0
0
0
0
0
0
0
0
0
0
0
0
0
0
0
0
0
0
0
0
0
0
0
0
0
0
0
0
0
0
0
0
0
0
0
0
0
0
0
0
0
0
0
0
0
0
0
0
0
0
0
0
0
0
0
0
0
0
0
0
0
0
0
0
0
0
0
0
0
0
0
0
0
0
0
0
0
0
0
0
0
0
0
0
0
0
0
0
0
0
0
0
0
0
0
0
0
0
0
0
0
0
0
0
0
0
0
0
0
0
0
0
0
0
0
0
0
0
0
0
0
0
0
0
0
0
0
0
0
0
0
0
0
0
0
0
0
0
0
0
0
0
0
0
0
0
0
0
0
0
0
0
0
0
0
0
0
0
0
0
0
0
0
0
0
0
0
0
0
0
0
0
0
0
0
0
0
0
0
0
0
0
0
0
0
0
0
0
0
0
0
0
0
0
0
0
0
0
0
0
0
0
0
0
0
0
0
0
0
0
0
0
0
0
0
0
0
0
0
0
0
0
0
0
0
0
0
0
0
0
0
0
0
0
0
0
0
0
0
0
0
0
0
0
0
0
0
0
0
0
0
0
0
0
0
0
0
0
0
0
0
0
0
0
0
0
0
0
0
0
0
0
0
0
0
0
0
0
0
0
0
0
0
0
0
0
0
0
0
0
0
0
0
0
0
0
0
0
0
0
0
0
0
0
0
0
0
0
0
0
0
0
0
0
0
0
0
0
0
0
0
0
0
0
0
0
0
0
104
0
122
0
110
0
104
0
127
0
125
0
57
0
29
0
80
0
103
0
97
0
105
0
105
0
97
0
107
0
100
0
62
0
85
0
110
0
118
0
110
0
113
0
118
0
118
0
117
0
117
0
102
0
70
0
111
0
123
0
129
0
129
0
117
0
121
0
125
0
122
0
119
0
129
0
85
0
84
0
131
0
122
0
130
0
140
0
141
0
136
0
132
0
126
0
116
0
47
0
106
0
125
0
145
0
114
0
54
0
66
0
94
0
119
0
115
0
110
0
118
0
87
0
34
0
13
0
10
0
2
0
6
0
6
0
2
0
23
0
72
0
94
0
88
0
12
0
18
0
95
0
101
0
26
0
90
0
83
0
21
0
80
0
102
0
87
0
97
0
110
0
95
0
98
0
94
0
101
0
95
0
93
0
47
0
67
0
102
0
95
0
78
0
48
0
76
0
99
0
99
0
91
0
78
0
66
0
61
0
92
0
96
0
94
0
87
0
104
0
82
0
3
0
79
0
78
0
64
0
61
0
97
0
114
0
111
0
86
0
80
0
89
0
66
0
34
0
2
0
4
0
1
0
1
0
42
0
97
0
124
0
122
0
110
0
109
0
120
0
98
0
24
0
0
0
134
0
252
0
255
0
255
0
255
0
255
0
254
0
255
0
255
0
255
0
255
0
255
0
255
0
255
0
255
0
255
0
255
0
255
0
255
0
255
0
255
0
255
0
255
0
255
0
255
0
255
0
255
0
255
0
255
0
255
0
255
0
255
0
255
0
255
0
255
0
255
0
255
0
255
0
255
0
255
0
255
0
255
0
255
0
255
0
255
0
255
0
255
0
255
0
255
0
255
0
255
0
255
0
255
0
255
0
255
0
255
0
255
0
255
0
255
0
255
0
255
0
255
0
255
0
255
0
255
0
255
0
255
0
255
0
255
0
255
0
255
0
255
0
255
0
255
0
255
0
255
0
255
0
255
0
255
0
255
0
255
0
255
0
255
0
255
0
255
0
0
0
0
0
0
0
0
0
0
0
0
0
0
0
0
0
0
0
0
0
0
0
0
0
0
0
0
0
0
0
0
0
0
0
0
0
0
0
0
0
0
0
0
0
0
0
0
0
0
0
0
0
0
0
0
0
0
0
0
0
0
0
0
0
0
0
0
0
0
0
0
0
0
0
0
0
0
0
0
0
0
0
0
0
0
0
0
0
0
0
0
0
0
0
0
0
0
0
0
0
0
0
0
0
0
0
0
0
0
0
0
0
0
0
0
0
0
0
0
0
0
0
0
0
0
0
0
0
0
0
0
0
0
0
0
0
0
0
0
0
0
0
0
0
0
0
0
0
0
0
0
0
0
0
0
0
0
0
0
0
0
0
0
0
0
0
0
0
0
0
0
0
0
0
0
0
0
0
0
0
0
0
0
0
0
0
0
0
0
0
0
0
0
0
0
0
0
0
0
0
0
0
0
0
0
0
0
0
0
0
0
0
0
0
0
0
0
0
0
0
0
0
0
0
0
0
0
0
0
0
0
0
0
0
0
0
0
0
0
0
0
0
0
0
0
0
0
0
0
0
0
0
0
0
0
0
0
0
0
0
0
0
0
0
0
0
0
0
0
0
0
0
0
0
0
0
0
0
0
0
0
0
0
0
0
0
0
0
0
0
0
0
0
0
0
0
0
0
0
0
0
0
0
0
0
0
0
0
0
0
0
0
0
0
0
0
0
0
0
0
0
0
0
0
0
0
0
0
0
0
0
0
0
0
0
0
0
0
0
0
0
0
0
0
0
0
0
0
0
0
0
0
0
0
0
0
0
0
0
0
0
0
0
0
0
0
0
0
0
0
0
0
0
0
0
0
0
0
0
0
0
0
0
0
0
0
0
0
0
0
0
0
0
0
0
0
0
0
0
0
0
0
0
0
0
0
0
0
0
0
0
0
0
0
0
0
0
0
0
0
0
0
0
0
0
0
0
0
0
0
0
0
0
0
0
0
0
0
0
0
0
0
0
0
96
0
102
0
122
0
109
0
101
0
128
0
116
0
57
0
30
0
101
0
105
0
99
0
93
0
107
0
117
0
106
0
91
0
63
0
103
0
122
0
114
0
110
0
113
0
114
0
118
0
113
0
104
0
67
0
99
0
113
0
122
0
123
0
116
0
119
0
126
0
111
0
126
0
128
0
102
0
79
0
111
0
141
0
141
0
133
0
125
0
125
0
130
0
134
0
140
0
96
0
109
0
142
0
145
0
131
0
27
0
74
0
138
0
135
0
80
0
88
0
121
0
116
0
65
0
4
0
2
0
4
0
6
0
10
0
4
0
3
0
36
0
83
0
117
0
47
0
8
0
84
0
110
0
65
0
63
0
100
0
44
0
80
0
106
0
90
0
96
0
105
0
91
0
96
0
93
0
95
0
99
0
96
0
66
0
52
0
93
0
75
0
63
0
64
0
87
0
96
0
87
0
90
0
102
0
81
0
38
0
87
0
97
0
92
0
89
0
106
0
81
0
4
0
67
0
77
0
62
0
78
0
102
0
117
0
96
0
88
0
84
0
91
0
53
0
20
0
0
0
6
0
2
0
1
0
36
0
96
0
125
0
124
0
113
0
111
0
119
0
92
0
14
0
0
0
158
0
252
0
255
0
254
0
255
0
255
0
255
0
255
0
255
0
255
0
255
0
255
0
255
0
255
0
255
0
255
0
255
0
255
0
255
0
255
0
255
0
255
0
255
0
255
0
255
0
255
0
255
0
255
0
255
0
255
0
255
0
255
0
255
0
255
0
255
0
255
0
255
0
255
0
255
0
255
0
255
0
255
0
255
0
255
0
255
0
255
0
255
0
255
0
255
0
255
0
255
0
255
0
255
0
255
0
255
0
255
0
255
0
255
0
255
0
255
0
255
0
255
0
255
0
255
0
255
0
255
0
255
0
255
0
255
0
255
0
255
0
255
0
255
0
255
0
255
0
255
0
255
0
255
0
255
0
255
0
255
0
255
0
255
0
255
0
255
0
0
0
0
0
0
0
0
0
0
0
0
0
0
0
0
0
0
0
0
0
0
0
0
0
0
0
0
0
0
0
0
0
0
0
0
0
0
0
0
0
0
0
0
0
0
0
0
0
0
0
0
0
0
0
0
0
0
0
0
0
0
0
0
0
0
0
0
0
0
0
0
0
0
0
0
0
0
0
0
0
0
0
0
0
0
0
0
0
0
0
0
0
0
0
0
0
0
0
0
0
0
0
0
0
0
0
0
0
0
0
0
0
0
0
0
0
0
0
0
0
0
0
0
0
0
0
0
0
0
0
0
0
0
0
0
0
0
0
0
0
0
0
0
0
0
0
0
0
0
0
0
0
0
0
0
0
0
0
0
0
0
0
0
0
0
0
0
0
0
0
0
0
0
0
0
0
0
0
0
0
0
0
0
0
0
0
0
0
0
0
0
0
0
0
0
0
0
0
0
0
0
0
0
0
0
0
0
0
0
0
0
0
0
0
0
0
0
0
0
0
0
0
0
0
0
0
0
0
0
0
0
0
0
0
0
0
0
0
0
0
0
0
0
0
0
0
0
0
0
0
0
0
0
0
0
0
0
0
0
0
0
0
0
0
0
0
0
0
0
0
0
0
0
0
0
0
0
0
0
0
0
0
0
0
0
0
0
0
0
0
0
0
0
0
0
0
0
0
0
0
0
0
0
0
0
0
0
0
0
0
0
0
0
0
0
0
0
0
0
0
0
0
0
0
0
0
0
0
0
0
0
0
0
0
0
0
0
0
0
0
0
0
0
0
0
0
0
0
0
0
0
0
0
0
0
0
0
0
0
0
0
0
0
0
0
0
0
0
0
0
0
0
0
0
0
0
0
0
0
0
0
0
0
0
0
0
0
0
0
0
0
0
0
0
0
0
0
0
0
0
0
0
0
0
0
0
0
0
0
0
0
0
0
0
0
0
0
0
0
0
0
0
0
0
0
0
0
0
0
0
0
0
0
0
0
0
0
0
0
0
0
0
0
0
76
0
111
0
105
0
115
0
112
0
107
0
123
0
102
0
35
0
44
0
97
0
114
0
100
0
104
0
112
0
106
0
103
0
47
0
93
0
120
0
117
0
110
0
109
0
112
0
119
0
117
0
110
0
80
0
90
0
111
0
125
0
125
0
123
0
123
0
126
0
110
0
129
0
125
0
117
0
82
0
84
0
126
0
131
0
125
0
120
0
125
0
124
0
120
0
127
0
95
0
67
0
139
0
140
0
138
0
38
0
36
0
132
0
99
0
29
0
63
0
130
0
132
0
65
0
4
0
25
0
12
0
4
0
6
0
4
0
1
0
16
0
64
0
115
0
69
0
10
0
71
0
112
0
93
0
42
0
102
0
87
0
51
0
92
0
103
0
94
0
90
0
94
0
100
0
91
0
95
0
99
0
96
0
85
0
48
0
67
0
58
0
59
0
92
0
88
0
87
0
85
0
91
0
103
0
87
0
49
0
71
0
93
0
89
0
89
0
104
0
75
0
5
0
61
0
73
0
65
0
93
0
112
0
113
0
88
0
91
0
89
0
87
0
38
0
9
0
0
0
5
0
2
0
3
0
36
0
97
0
121
0
121
0
114
0
113
0
115
0
86
0
10
0
10
0
190
0
253
0
255
0
252
0
254
0
255
0
255
0
255
0
255
0
255
0
255
0
255
0
255
0
255
0
255
0
255
0
255
0
255
0
255
0
255
0
255
0
255
0
255
0
255
0
255
0
255
0
255
0
255
0
255
0
255
0
255
0
255
0
255
0
255
0
255
0
255
0
255
0
255
0
255
0
255
0
255
0
255
0
255
0
255
0
255
0
255
0
255
0
255
0
255
0
255
0
255
0
255
0
255
0
255
0
255
0
255
0
255
0
255
0
255
0
255
0
255
0
255
0
255
0
255
0
255
0
255
0
255
0
255
0
255
0
255
0
255
0
255
0
255
0
255
0
255
0
255
0
255
0
255
0
255
0
255
0
255
0
255
0
255
0
255
0
255
0
0
0
0
0
0
0
0
0
0
0
0
0
0
0
0
0
0
0
0
0
0
0
0
0
0
0
0
0
0
0
0
0
0
0
0
0
0
0
0
0
0
0
0
0
0
0
0
0
0
0
0
0
0
0
0
0
0
0
0
0
0
0
0
0
0
0
0
0
0
0
0
0
0
0
0
0
0
0
0
0
0
0
0
0
0
0
0
0
0
0
0
0
0
0
0
0
0
0
0
0
0
0
0
0
0
0
0
0
0
0
0
0
0
0
0
0
0
0
0
0
0
0
0
0
0
0
0
0
0
0
0
0
0
0
0
0
0
0
0
0
0
0
0
0
0
0
0
0
0
0
0
0
0
0
0
0
0
0
0
0
0
0
0
0
0
0
0
0
0
0
0
0
0
0
0
0
0
0
0
0
0
0
0
0
0
0
0
0
0
0
0
0
0
0
0
0
0
0
0
0
0
0
0
0
0
0
0
0
0
0
0
0
0
0
0
0
0
0
0
0
0
0
0
0
0
0
0
0
0
0
0
0
0
0
0
0
0
0
0
0
0
0
0
0
0
0
0
0
0
0
0
0
0
0
0
0
0
0
0
0
0
0
0
0
0
0
0
0
0
0
0
0
0
0
0
0
0
0
0
0
0
0
0
0
0
0
0
0
0
0
0
0
0
0
0
0
0
0
0
0
0
0
0
0
0
0
0
0
0
0
0
0
0
0
0
0
0
0
0
0
0
0
0
0
0
0
0
0
0
0
0
0
0
0
0
0
0
0
0
0
0
0
0
0
0
0
0
0
0
0
0
0
0
0
0
0
0
0
0
0
0
0
0
0
0
0
0
0
0
0
0
0
0
0
0
0
0
0
0
0
0
0
0
0
0
0
0
0
0
0
0
0
0
0
0
0
0
0
0
0
0
0
0
0
0
0
0
0
0
0
0
0
0
0
0
0
0
0
0
0
0
0
0
0
0
0
0
0
0
0
0
0
0
0
0
0
0
0
0
0
0
0
0
0
45
0
108
0
91
0
107
0
123
0
110
0
112
0
115
0
93
0
13
0
58
0
101
0
106
0
95
0
99
0
105
0
100
0
43
0
83
0
112
0
116
0
112
0
108
0
110
0
119
0
118
0
107
0
89
0
71
0
103
0
122
0
117
0
116
0
120
0
114
0
114
0
120
0
118
0
122
0
101
0
65
0
127
0
133
0
124
0
119
0
127
0
126
0
128
0
144
0
123
0
73
0
104
0
134
0
125
0
57
0
16
0
112
0
114
0
36
0
37
0
120
0
144
0
88
0
10
0
5
0
7
0
4
0
5
0
5
0
2
0
8
0
44
0
93
0
76
0
13
0
48
0
106
0
100
0
48
0
87
0
104
0
46
0
69
0
101
0
95
0
86
0
98
0
97
0
91
0
95
0
92
0
91
0
92
0
54
0
36
0
59
0
74
0
96
0
90
0
93
0
91
0
82
0
91
0
94
0
75
0
48
0
84
0
89
0
91
0
98
0
64
0
5
0
63
0
71
0
80
0
106
0
133
0
100
0
90
0
86
0
89
0
70
0
22
0
2
0
1
0
4
0
2
0
9
0
50
0
102
0
120
0
116
0
116
0
113
0
107
0
75
0
1
0
43
0
227
0
255
0
253
0
252
0
255
0
255
0
251
0
255
0
255
0
255
0
255
0
255
0
255
0
255
0
255
0
255
0
255
0
255
0
255
0
255
0
255
0
255
0
255
0
255
0
255
0
255
0
255
0
255
0
255
0
255
0
255
0
255
0
255
0
255
0
255
0
255
0
255
0
255
0
255
0
255
0
255
0
255
0
255
0
255
0
255
0
255
0
255
0
255
0
255
0
255
0
255
0
255
0
255
0
255
0
255
0
255
0
255
0
255
0
255
0
255
0
255
0
255
0
255
0
255
0
255
0
255
0
255
0
255
0
255
0
255
0
255
0
255
0
255
0
255
0
255
0
255
0
255
0
255
0
255
0
255
0
255
0
255
0
255
0
255
0
255
0
0
0
0
0
0
0
0
0
0
0
0
0
0
0
0
0
0
0
0
0
0
0
0
0
0
0
0
0
0
0
0
0
0
0
0
0
0
0
0
0
0
0
0
0
0
0
0
0
0
0
0
0
0
0
0
0
0
0
0
0
0
0
0
0
0
0
0
0
0
0
0
0
0
0
0
0
0
0
0
0
0
0
0
0
0
0
0
0
0
0
0
0
0
0
0
0
0
0
0
0
0
0
0
0
0
0
0
0
0
0
0
0
0
0
0
0
0
0
0
0
0
0
0
0
0
0
0
0
0
0
0
0
0
0
0
0
0
0
0
0
0
0
0
0
0
0
0
0
0
0
0
0
0
0
0
0
0
0
0
0
0
0
0
0
0
0
0
0
0
0
0
0
0
0
0
0
0
0
0
0
0
0
0
0
0
0
0
0
0
0
0
0
0
0
0
0
0
0
0
0
0
0
0
0
0
0
0
0
0
0
0
0
0
0
0
0
0
0
0
0
0
0
0
0
0
0
0
0
0
0
0
0
0
0
0
0
0
0
0
0
0
0
0
0
0
0
0
0
0
0
0
0
0
0
0
0
0
0
0
0
0
0
0
0
0
0
0
0
0
0
0
0
0
0
0
0
0
0
0
0
0
0
0
0
0
0
0
0
0
0
0
0
0
0
0
0
0
0
0
0
0
0
0
0
0
0
0
0
0
0
0
0
0
0
0
0
0
0
0
0
0
0
0
0
0
0
0
0
0
0
0
0
0
0
0
0
0
0
0
0
0
0
0
0
0
0
0
0
0
0
0
0
0
0
0
0
0
0
0
0
0
0
0
0
0
0
0
0
0
0
0
0
0
0
0
0
0
0
0
0
0
0
0
0
0
0
0
0
0
0
0
0
0
0
0
0
0
0
0
0
0
0
0
0
0
0
0
0
0
0
0
0
0
0
0
0
0
0
0
0
0
0
0
0
0
0
0
0
0
0
0
0
0
0
0
0
0
0
0
0
0
0
0
0
18
0
70
0
103
0
103
0
95
0
117
0
122
0
111
0
121
0
73
0
22
0
50
0
85
0
88
0
101
0
114
0
98
0
49
0
83
0
109
0
117
0
116
0
112
0
111
0
119
0
129
0
113
0
105
0
66
0
103
0
125
0
115
0
113
0
128
0
113
0
130
0
118
0
120
0
128
0
124
0
58
0
102
0
120
0
124
0
125
0
132
0
122
0
116
0
131
0
135
0
90
0
47
0
141
0
131
0
84
0
16
0
58
0
119
0
58
0
14
0
80
0
129
0
106
0
71
0
26
0
2
0
4
0
12
0
8
0
0
0
5
0
30
0
76
0
81
0
33
0
26
0
99
0
104
0
68
0
71
0
96
0
71
0
52
0
85
0
97
0
93
0
98
0
88
0
92
0
94
0
81
0
88
0
90
0
62
0
16
0
72
0
92
0
96
0
94
0
94
0
88
0
77
0
96
0
105
0
83
0
31
0
78
0
88
0
91
0
92
0
55
0
4
0
67
0
72
0
96
0
113
0
151
0
88
0
93
0
76
0
85
0
52
0
7
0
0
0
1
0
3
0
4
0
20
0
66
0
108
0
121
0
116
0
117
0
112
0
99
0
63
0
0
0
72
0
252
0
255
0
249
0
252
0
255
0
255
0
248
0
255
0
255
0
255
0
255
0
255
0
255
0
255
0
255
0
255
0
255
0
255
0
255
0
255
0
255
0
255
0
255
0
255
0
255
0
255
0
255
0
255
0
255
0
255
0
255
0
255
0
255
0
255
0
255
0
255
0
255
0
255
0
255
0
255
0
255
0
255
0
255
0
255
0
255
0
255
0
255
0
255
0
255
0
255
0
255
0
255
0
255
0
255
0
255
0
255
0
255
0
255
0
255
0
255
0
255
0
255
0
255
0
255
0
255
0
255
0
255
0
255
0
255
0
255
0
255
0
255
0
255
0
255
0
255
0
255
0
255
0
255
0
255
0
255
0
255
0
255
0
255
0
255
0
255
0
0
0
0
0
0
0
0
0
0
0
0
0
0
0
0
0
0
0
0
0
0
0
0
0
0
0
0
0
0
0
0
0
0
0
0
0
0
0
0
0
0
0
0
0
0
0
0
0
0
0
0
0
0
0
0
0
0
0
0
0
0
0
0
0
0
0
0
0
0
0
0
0
0
0
0
0
0
0
0
0
0
0
0
0
0
0
0
0
0
0
0
0
0
0
0
0
0
0
0
0
0
0
0
0
0
0
0
0
0
0
0
0
0
0
0
0
0
0
0
0
0
0
0
0
0
0
0
0
0
0
0
0
0
0
0
0
0
0
0
0
0
0
0
0
0
0
0
0
0
0
0
0
0
0
0
0
0
0
0
0
0
0
0
0
0
0
0
0
0
0
0
0
0
0
0
0
0
0
0
0
0
0
0
0
0
0
0
0
0
0
0
0
0
0
0
0
0
0
0
0
0
0
0
0
0
0
0
0
0
0
0
0
0
0
0
0
0
0
0
0
0
0
0
0
0
0
0
0
0
0
0
0
0
0
0
0
0
0
0
0
0
0
0
0
0
0
0
0
0
0
0
0
0
0
0
0
0
0
0
0
0
0
0
0
0
0
0
0
0
0
0
0
0
0
0
0
0
0
0
0
0
0
0
0
0
0
0
0
0
0
0
0
0
0
0
0
0
0
0
0
0
0
0
0
0
0
0
0
0
0
0
0
0
0
0
0
0
0
0
0
0
0
0
0
0
0
0
0
0
0
0
0
0
0
0
0
0
0
0
0
0
0
0
0
0
0
0
0
0
0
0
0
0
0
0
0
0
0
0
0
0
0
0
0
0
0
0
0
0
0
0
0
0
0
0
0
0
0
0
0
0
0
0
0
0
0
0
0
0
0
0
0
0
0
0
0
0
0
0
0
0
0
0
0
0
0
0
0
0
0
0
0
0
0
0
0
0
0
0
0
0
0
0
0
0
0
0
0
0
0
0
0
0
0
0
0
0
0
0
0
0
0
0
0
1
0
59
0
84
0
104
0
108
0
108
0
113
0
112
0
106
0
125
0
53
0
22
0
44
0
44
0
39
0
66
0
85
0
79
0
50
0
105
0
110
0
133
0
111
0
116
0
110
0
118
0
112
0
115
0
95
0
71
0
115
0
119
0
125
0
117
0
119
0
118
0
118
0
119
0
119
0
109
0
96
0
66
0
121
0
119
0
124
0
135
0
120
0
118
0
115
0
130
0
141
0
63
0
96
0
134
0
122
0
2
0
35
0
112
0
117
0
48
0
14
0
96
0
145
0
95
0
42
0
2
0
2
0
6
0
4
0
6
0
5
0
7
0
72
0
80
0
53
0
29
0
97
0
98
0
77
0
74
0
96
0
82
0
56
0
76
0
92
0
101
0
84
0
95
0
94
0
100
0
79
0
61
0
51
0
43
0
42
0
58
0
81
0
88
0
90
0
93
0
93
0
90
0
89
0
94
0
101
0
64
0
50
0
92
0
93
0
67
0
51
0
36
0
58
0
87
0
115
0
141
0
123
0
87
0
81
0
89
0
84
0
24
0
7
0
2
0
0
0
6
0
1
0
29
0
82
0
124
0
111
0
116
0
114
0
114
0
99
0
41
0
4
0
117
0
239
0
252
0
250
0
255
0
244
0
255
0
253
0
255
0
255
0
255
0
255
0
255
0
255
0
255
0
255
0
255
0
255
0
255
0
255
0
255
0
255
0
255
0
255
0
255
0
255
0
255
0
255
0
255
0
255
0
255
0
255
0
255
0
255
0
255
0
255
0
255
0
255
0
255
0
255
0
255
0
255
0
255
0
255
0
255
0
255
0
255
0
255
0
255
0
255
0
255
0
255
0
255
0
255
0
255
0
255
0
255
0
255
0
255
0
255
0
255
0
255
0
255
0
255
0
255
0
255
0
255
0
255
0
255
0
255
0
255
0
255
0
255
0
255
0
255
0
255
0
255
0
255
0
255
0
255
0
255
0
255
0
255
0
255
0
255
0
255
0
0
0
0
0
0
0
0
0
0
0
0
0
0
0
0
0
0
0
0
0
0
0
0
0
0
0
0
0
0
0
0
0
0
0
0
0
0
0
0
0
0
0
0
0
0
0
0
0
0
0
0
0
0
0
0
0
0
0
0
0
0
0
0
0
0
0
0
0
0
0
0
0
0
0
0
0
0
0
0
0
0
0
0
0
0
0
0
0
0
0
0
0
0
0
0
0
0
0
0
0
0
0
0
0
0
0
0
0
0
0
0
0
0
0
0
0
0
0
0
0
0
0
0
0
0
0
0
0
0
0
0
0
0
0
0
0
0
0
0
0
0
0
0
0
0
0
0
0
0
0
0
0
0
0
0
0
0
0
0
0
0
0
0
0
0
0
0
0
0
0
0
0
0
0
0
0
0
0
0
0
0
0
0
0
0
0
0
0
0
0
0
0
0
0
0
0
0
0
0
0
0
0
0
0
0
0
0
0
0
0
0
0
0
0
0
0
0
0
0
0
0
0
0
0
0
0
0
0
0
0
0
0
0
0
0
0
0
0
0
0
0
0
0
0
0
0
0
0
0
0
0
0
0
0
0
0
0
0
0
0
0
0
0
0
0
0
0
0
0
0
0
0
0
0
0
0
0
0
0
0
0
0
0
0
0
0
0
0
0
0
0
0
0
0
0
0
0
0
0
0
0
0
0
0
0
0
0
0
0
0
0
0
0
0
0
0
0
0
0
0
0
0
0
0
0
0
0
0
0
0
0
0
0
0
0
0
0
0
0
0
0
0
0
0
0
0
0
0
0
0
0
0
0
0
0
0
0
0
0
0
0
0
0
0
0
0
0
0
0
0
0
0
0
0
0
0
0
0
0
0
0
0
0
0
0
0
0
0
0
0
0
0
0
0
0
0
0
0
0
0
0
0
0
0
0
0
0
0
0
0
0
0
0
0
0
0
0
0
0
0
0
0
0
0
0
0
0
0
0
0
0
0
0
0
0
0
0
0
0
0
0
0
0
0
0
0
36
0
70
0
100
0
108
0
107
0
110
0
113
0
112
0
123
0
112
0
55
0
32
0
67
0
70
0
45
0
37
0
72
0
34
0
71
0
84
0
96
0
86
0
92
0
91
0
107
0
117
0
121
0
107
0
81
0
113
0
110
0
98
0
116
0
119
0
119
0
119
0
121
0
123
0
117
0
109
0
66
0
111
0
122
0
122
0
129
0
128
0
129
0
126
0
133
0
118
0
101
0
57
0
124
0
102
0
55
0
15
0
75
0
122
0
84
0
14
0
51
0
135
0
129
0
64
0
18
0
7
0
5
0
1
0
6
0
5
0
4
0
65
0
79
0
49
0
20
0
90
0
97
0
82
0
78
0
93
0
89
0
66
0
64
0
87
0
91
0
90
0
86
0
91
0
67
0
63
0
65
0
70
0
65
0
57
0
62
0
74
0
90
0
91
0
92
0
93
0
93
0
92
0
91
0
93
0
87
0
45
0
79
0
85
0
50
0
28
0
8
0
79
0
112
0
120
0
138
0
113
0
62
0
70
0
97
0
85
0
55
0
55
0
46
0
30
0
9
0
1
0
38
0
103
0
113
0
108
0
118
0
119
0
119
0
92
0
28
0
3
0
142
0
246
0
251
0
247
0
255
0
249
0
255
0
251
0
255
0
255
0
255
0
255
0
255
0
255
0
255
0
255
0
255
0
255
0
255
0
255
0
255
0
255
0
255
0
255
0
255
0
255
0
255
0
255
0
255
0
255
0
255
0
255
0
255
0
255
0
255
0
255
0
255
0
255
0
255
0
255
0
255
0
255
0
255
0
255
0
255
0
255
0
255
0
255
0
255
0
255
0
255
0
255
0
255
0
255
0
255
0
255
0
255
0
255
0
255
0
255
0
255
0
255
0
255
0
255
0
255
0
255
0
255
0
255
0
255
0
255
0
255
0
255
0
255
0
255
0
255
0
255
0
255
0
255
0
255
0
255
0
255
0
255
0
255
0
255
0
255
0
255
0
0
0
0
0
0
0
0
0
0
0
0
0
0
0
0
0
0
0
0
0
0
0
0
0
0
0
0
0
0
0
0
0
0
0
0
0
0
0
0
0
0
0
0
0
0
0
0
0
0
0
0
0
0
0
0
0
0
0
0
0
0
0
0
0
0
0
0
0
0
0
0
0
0
0
0
0
0
0
0
0
0
0
0
0
0
0
0
0
0
0
0
0
0
0
0
0
0
0
0
0
0
0
0
0
0
0
0
0
0
0
0
0
0
0
0
0
0
0
0
0
0
0
0
0
0
0
0
0
0
0
0
0
0
0
0
0
0
0
0
0
0
0
0
0
0
0
0
0
0
0
0
0
0
0
0
0
0
0
0
0
0
0
0
0
0
0
0
0
0
0
0
0
0
0
0
0
0
0
0
0
0
0
0
0
0
0
0
0
0
0
0
0
0
0
0
0
0
0
0
0
0
0
0
0
0
0
0
0
0
0
0
0
0
0
0
0
0
0
0
0
0
0
0
0
0
0
0
0
0
0
0
0
0
0
0
0
0
0
0
0
0
0
0
0
0
0
0
0
0
0
0
0
0
0
0
0
0
0
0
0
0
0
0
0
0
0
0
0
0
0
0
0
0
0
0
0
0
0
0
0
0
0
0
0
0
0
0
0
0
0
0
0
0
0
0
0
0
0
0
0
0
0
0
0
0
0
0
0
0
0
0
0
0
0
0
0
0
0
0
0
0
0
0
0
0
0
0
0
0
0
0
0
0
0
0
0
0
0
0
0
0
0
0
0
0
0
0
0
0
0
0
0
0
0
0
0
0
0
0
0
0
0
0
0
0
0
0
0
0
0
0
0
0
0
0
0
0
0
0
0
0
0
0
0
0
0
0
0
0
0
0
0
0
0
0
0
0
0
0
0
0
0
0
0
0
0
0
0
0
0
0
0
0
0
0
0
0
0
0
0
0
0
0
0
0
0
0
0
0
0
0
0
0
0
0
0
0
0
0
0
0
0
0
0
3
0
13
0
51
0
90
0
104
0
104
0
106
0
110
0
113
0
97
0
122
0
84
0
30
0
46
0
91
0
91
0
75
0
50
0
10
0
28
0
51
0
52
0
51
0
54
0
57
0
32
0
57
0
57
0
60
0
54
0
93
0
121
0
118
0
117
0
115
0
110
0
106
0
109
0
120
0
128
0
133
0
77
0
99
0
121
0
114
0
112
0
122
0
118
0
117
0
130
0
129
0
130
0
89
0
94
0
125
0
107
0
8
0
28
0
112
0
132
0
44
0
6
0
86
0
135
0
92
0
45
0
22
0
6
0
1
0
8
0
6
0
6
0
62
0
77
0
46
0
10
0
77
0
90
0
88
0
84
0
92
0
99
0
78
0
49
0
79
0
89
0
100
0
73
0
76
0
51
0
60
0
76
0
89
0
87
0
74
0
65
0
65
0
93
0
91
0
91
0
92
0
93
0
92
0
87
0
83
0
83
0
36
0
49
0
56
0
41
0
16
0
17
0
115
0
131
0
133
0
137
0
89
0
24
0
39
0
88
0
91
0
83
0
92
0
78
0
42
0
7
0
2
0
49
0
114
0
112
0
111
0
117
0
120
0
122
0
84
0
17
0
5
0
175
0
254
0
250
0
246
0
255
0
255
0
255
0
250
0
255
0
255
0
255
0
255
0
255
0
255
0
255
0
255
0
255
0
255
0
255
0
255
0
255
0
255
0
255
0
255
0
255
0
255
0
255
0
255
0
255
0
255
0
255
0
255
0
255
0
255
0
255
0
255
0
255
0
255
0
255
0
255
0
255
0
255
0
255
0
255
0
255
0
255
0
255
0
255
0
255
0
255
0
255
0
255
0
255
0
255
0
255
0
255
0
255
0
255
0
255
0
255
0
255
0
255
0
255
0
255
0
255
0
255
0
255
0
255
0
255
0
255
0
255
0
255
0
255
0
255
0
255
0
255
0
255
0
255
0
255
0
255
0
255
0
255
0
255
0
255
0
255
0
255
0
0
0
0
0
0
0
0
0
0
0
0
0
0
0
0
0
0
0
0
0
0
0
0
0
0
0
0
0
0
0
0
0
0
0
0
0
0
0
0
0
0
0
0
0
0
0
0
0
0
0
0
0
0
0
0
0
0
0
0
0
0
0
0
0
0
0
0
0
0
0
0
0
0
0
0
0
0
0
0
0
0
0
0
0
0
0
0
0
0
0
0
0
0
0
0
0
0
0
0
0
0
0
0
0
0
0
0
0
0
0
0
0
0
0
0
0
0
0
0
0
0
0
0
0
0
0
0
0
0
0
0
0
0
0
0
0
0
0
0
0
0
0
0
0
0
0
0
0
0
0
0
0
0
0
0
0
0
0
0
0
0
0
0
0
0
0
0
0
0
0
0
0
0
0
0
0
0
0
0
0
0
0
0
0
0
0
0
0
0
0
0
0
0
0
0
0
0
0
0
0
0
0
0
0
0
0
0
0
0
0
0
0
0
0
0
0
0
0
0
0
0
0
0
0
0
0
0
0
0
0
0
0
0
0
0
0
0
0
0
0
0
0
0
0
0
0
0
0
0
0
0
0
0
0
0
0
0
0
0
0
0
0
0
0
0
0
0
0
0
0
0
0
0
0
0
0
0
0
0
0
0
0
0
0
0
0
0
0
0
0
0
0
0
0
0
0
0
0
0
0
0
0
0
0
0
0
0
0
0
0
0
0
0
0
0
0
0
0
0
0
0
0
0
0
0
0
0
0
0
0
0
0
0
0
0
0
0
0
0
0
0
0
0
0
0
0
0
0
0
0
0
0
0
0
0
0
0
0
0
0
0
0
0
0
0
0
0
0
0
0
0
0
0
0
0
0
0
0
0
0
0
0
0
0
0
0
0
0
0
0
0
0
0
0
0
0
0
0
0
0
0
0
0
0
0
0
0
0
0
0
0
0
0
0
0
0
0
0
0
0
0
0
0
0
0
0
0
0
0
0
0
0
0
0
0
0
0
0
0
0
0
0
0
0
8
0
3
0
32
0
68
0
89
0
99
0
105
0
106
0
104
0
109
0
110
0
117
0
85
0
27
0
56
0
106
0
103
0
97
0
58
0
61
0
103
0
94
0
98
0
93
0
99
0
103
0
108
0
76
0
55
0
26
0
19
0
49
0
49
0
58
0
58
0
55
0
51
0
50
0
54
0
62
0
69
0
63
0
53
0
78
0
77
0
75
0
85
0
72
0
78
0
66
0
83
0
82
0
85
0
42
0
112
0
133
0
47
0
6
0
64
0
133
0
97
0
12
0
26
0
97
0
106
0
73
0
43
0
18
0
2
0
8
0
9
0
4
0
57
0
76
0
49
0
8
0
65
0
79
0
85
0
85
0
90
0
100
0
81
0
49
0
65
0
88
0
94
0
61
0
56
0
71
0
78
0
87
0
96
0
95
0
83
0
68
0
59
0
91
0
94
0
93
0
91
0
88
0
86
0
81
0
77
0
65
0
43
0
26
0
35
0
66
0
23
0
57
0
134
0
138
0
148
0
125
0
56
0
1
0
5
0
53
0
88
0
92
0
95
0
67
0
25
0
4
0
16
0
59
0
108
0
118
0
116
0
115
0
115
0
119
0
70
0
13
0
34
0
199
0
255
0
253
0
248
0
255
0
255
0
255
0
251
0
255
0
255
0
255
0
255
0
255
0
255
0
255
0
255
0
255
0
255
0
255
0
255
0
255
0
255
0
255
0
255
0
255
0
255
0
255
0
255
0
255
0
255
0
255
0
255
0
255
0
255
0
255
0
255
0
255
0
255
0
255
0
255
0
255
0
255
0
255
0
255
0
255
0
255
0
255
0
255
0
255
0
255
0
255
0
255
0
255
0
255
0
255
0
255
0
255
0
255
0
255
0
255
0
255
0
255
0
255
0
255
0
255
0
255
0
255
0
255
0
255
0
255
0
255
0
255
0
255
0
255
0
255
0
255
0
255
0
255
0
255
0
255
0
255
0
255
0
255
0
255
0
255
0
255
0
0
0
0
0
0
0
0
0
0
0
0
0
0
0
0
0
0
0
0
0
0
0
0
0
0
0
0
0
0
0
0
0
0
0
0
0
0
0
0
0
0
0
0
0
0
0
0
0
0
0
0
0
0
0
0
0
0
0
0
0
0
0
0
0
0
0
0
0
0
0
0
0
0
0
0
0
0
0
0
0
0
0
0
0
0
0
0
0
0
0
0
0
0
0
0
0
0
0
0
0
0
0
0
0
0
0
0
0
0
0
0
0
0
0
0
0
0
0
0
0
0
0
0
0
0
0
0
0
0
0
0
0
0
0
0
0
0
0
0
0
0
0
0
0
0
0
0
0
0
0
0
0
0
0
0
0
0
0
0
0
0
0
0
0
0
0
0
0
0
0
0
0
0
0
0
0
0
0
0
0
0
0
0
0
0
0
0
0
0
0
0
0
0
0
0
0
0
0
0
0
0
0
0
0
0
0
0
0
0
0
0
0
0
0
0
0
0
0
0
0
0
0
0
0
0
0
0
0
0
0
0
0
0
0
0
0
0
0
0
0
0
0
0
0
0
0
0
0
0
0
0
0
0
0
0
0
0
0
0
0
0
0
0
0
0
0
0
0
0
0
0
0
0
0
0
0
0
0
0
0
0
0
0
0
0
0
0
0
0
0
0
0
0
0
0
0
0
0
0
0
0
0
0
0
0
0
0
0
0
0
0
0
0
0
0
0
0
0
0
0
0
0
0
0
0
0
0
0
0
0
0
0
0
0
0
0
0
0
0
0
0
0
0
0
0
0
0
0
0
0
0
0
0
0
0
0
0
0
0
0
0
0
0
0
0
0
0
0
0
0
0
0
0
0
0
0
0
0
0
0
0
0
0
0
0
0
0
0
0
0
0
0
0
0
0
0
0
0
0
0
0
0
0
0
0
0
0
0
0
0
0
0
0
0
0
0
0
0
0
0
0
0
0
0
0
0
0
0
0
0
0
0
0
0
0
0
0
0
0
0
0
0
0
0
6
0
0
0
12
0
36
0
61
0
87
0
102
0
104
0
98
0
118
0
96
0
117
0
119
0
57
0
22
0
60
0
84
0
99
0
71
0
56
0
99
0
95
0
99
0
93
0
104
0
100
0
107
0
94
0
96
0
80
0
51
0
79
0
97
0
94
0
100
0
107
0
108
0
102
0
94
0
87
0
86
0
67
0
33
0
48
0
67
0
79
0
83
0
68
0
80
0
77
0
62
0
74
0
49
0
40
0
50
0
118
0
111
0
34
0
8
0
73
0
130
0
71
0
20
0
46
0
83
0
91
0
66
0
41
0
15
0
10
0
9
0
1
0
51
0
76
0
57
0
12
0
58
0
67
0
77
0
81
0
84
0
92
0
86
0
72
0
56
0
74
0
64
0
62
0
66
0
97
0
95
0
95
0
95
0
95
0
88
0
69
0
52
0
86
0
92
0
95
0
89
0
82
0
80
0
78
0
75
0
69
0
64
0
15
0
57
0
105
0
19
0
61
0
129
0
149
0
157
0
94
0
19
0
4
0
0
0
10
0
59
0
90
0
86
0
52
0
9
0
0
0
21
0
58
0
92
0
107
0
113
0
109
0
109
0
114
0
54
0
7
0
66
0
212
0
252
0
255
0
253
0
255
0
255
0
255
0
255
0
255
0
255
0
255
0
255
0
255
0
255
0
255
0
255
0
255
0
255
0
255
0
255
0
255
0
255
0
255
0
255
0
255
0
255
0
255
0
255
0
255
0
255
0
255
0
255
0
255
0
255
0
255
0
255
0
255
0
255
0
255
0
255
0
255
0
255
0
255
0
255
0
255
0
255
0
255
0
255
0
255
0
255
0
255
0
255
0
255
0
255
0
255
0
255
0
255
0
255
0
255
0
255
0
255
0
255
0
255
0
255
0
255
0
255
0
255
0
255
0
255
0
255
0
255
0
255
0
255
0
255
0
255
0
255
0
255
0
255
0
255
0
255
0
255
0
255
0
255
0
255
0
255
0
255
0
0
0
0
0
0
0
0
0
0
0
0
0
0
0
0
0
0
0
0
0
0
0
0
0
0
0
0
0
0
0
0
0
0
0
0
0
0
0
0
0
0
0
0
0
0
0
0
0
0
0
0
0
0
0
0
0
0
0
0
0
0
0
0
0
0
0
0
0
0
0
0
0
0
0
0
0
0
0
0
0
0
0
0
0
0
0
0
0
0
0
0
0
0
0
0
0
0
0
0
0
0
0
0
0
0
0
0
0
0
0
0
0
0
0
0
0
0
0
0
0
0
0
0
0
0
0
0
0
0
0
0
0
0
0
0
0
0
0
0
0
0
0
0
0
0
0
0
0
0
0
0
0
0
0
0
0
0
0
0
0
0
0
0
0
0
0
0
0
0
0
0
0
0
0
0
0
0
0
0
0
0
0
0
0
0
0
0
0
0
0
0
0
0
0
0
0
0
0
0
0
0
0
0
0
0
0
0
0
0
0
0
0
0
0
0
0
0
0
0
0
0
0
0
0
0
0
0
0
0
0
0
0
0
0
0
0
0
0
0
0
0
0
0
0
0
0
0
0
0
0
0
0
0
0
0
0
0
0
0
0
0
0
0
0
0
0
0
0
0
0
0
0
0
0
0
0
0
0
0
0
0
0
0
0
0
0
0
0
0
0
0
0
0
0
0
0
0
0
0
0
0
0
0
0
0
0
0
0
0
0
0
0
0
0
0
0
0
0
0
0
0
0
0
0
0
0
0
0
0
0
0
0
0
0
0
0
0
0
0
0
0
0
0
0
0
0
0
0
0
0
0
0
0
0
0
0
0
0
0
0
0
0
0
0
0
0
0
0
0
0
0
0
0
0
0
0
0
0
0
0
0
0
0
0
0
0
0
0
0
0
0
0
0
0
0
0
0
0
0
0
0
0
0
0
0
0
0
0
0
0
0
0
0
0
0
0
0
0
0
0
0
0
0
0
0
0
0
0
0
0
0
0
0
0
0
0
0
0
0
0
0
0
0
0
0
0
0
0
0
0
8
0
32
0
62
0
86
0
97
0
97
0
104
0
98
0
95
0
115
0
113
0
47
0
27
0
80
0
86
0
76
0
45
0
76
0
85
0
88
0
86
0
100
0
97
0
101
0
104
0
108
0
105
0
70
0
84
0
109
0
111
0
112
0
114
0
117
0
114
0
110
0
111
0
115
0
111
0
72
0
66
0
94
0
119
0
116
0
104
0
115
0
141
0
118
0
121
0
97
0
85
0
45
0
89
0
132
0
99
0
13
0
24
0
107
0
119
0
54
0
24
0
39
0
81
0
72
0
63
0
41
0
23
0
7
0
1
0
46
0
73
0
63
0
19
0
59
0
61
0
72
0
74
0
72
0
85
0
91
0
93
0
55
0
53
0
43
0
74
0
93
0
94
0
94
0
91
0
89
0
91
0
88
0
70
0
50
0
77
0
89
0
93
0
87
0
79
0
77
0
75
0
71
0
71
0
61
0
21
0
82
0
129
0
8
0
24
0
111
0
155
0
135
0
50
0
0
0
18
0
8
0
2
0
25
0
82
0
77
0
43
0
2
0
1
0
10
0
42
0
73
0
85
0
101
0
99
0
102
0
109
0
39
0
0
0
94
0
225
0
248
0
255
0
255
0
255
0
253
0
252
0
255
0
255
0
255
0
255
0
255
0
255
0
255
0
255
0
255
0
255
0
255
0
255
0
255
0
255
0
255
0
255
0
255
0
255
0
255
0
255
0
255
0
255
0
255
0
255
0
255
0
255
0
255
0
255
0
255
0
255
0
255
0
255
0
255
0
255
0
255
0
255
0
255
0
255
0
255
0
255
0
255
0
255
0
255
0
255
0
255
0
255
0
255
0
255
0
255
0
255
0
255
0
255
0
255
0
255
0
255
0
255
0
255
0
255
0
255
0
255
0
255
0
255
0
255
0
255
0
255
0
255
0
255
0
255
0
255
0
255
0
255
0
255
0
255
0
255
0
255
0
255
0
255
0
255
0
255
0
0
0
0
0
0
0
0
0
0
0
0
0
0
0
0
0
0
0
0
0
0
0
0
0
0
0
0
0
0
0
0
0
0
0
0
0
0
0
0
0
0
0
0
0
0
0
0
0
0
0
0
0
0
0
0
0
0
0
0
0
0
0
0
0
0
0
0
0
0
0
0
0
0
0
0
0
0
0
0
0
0
0
0
0
0
0
0
0
0
0
0
0
0
0
0
0
0
0
0
0
0
0
0
0
0
0
0
0
0
0
0
0
0
0
0
0
0
0
0
0
0
0
0
0
0
0
0
0
0
0
0
0
0
0
0
0
0
0
0
0
0
0
0
0
0
0
0
0
0
0
0
0
0
0
0
0
0
0
0
0
0
0
0
0
0
0
0
0
0
0
0
0
0
0
0
0
0
0
0
0
0
0
0
0
0
0
0
0
0
0
0
0
0
0
0
0
0
0
0
0
0
0
0
0
0
0
0
0
0
0
0
0
0
0
0
0
0
0
0
0
0
0
0
0
0
0
0
0
0
0
0
0
0
0
0
0
0
0
0
0
0
0
0
0
0
0
0
0
0
0
0
0
0
0
0
0
0
0
0
0
0
0
0
0
0
0
0
0
0
0
0
0
0
0
0
0
0
0
0
0
0
0
0
0
0
0
0
0
0
0
0
0
0
0
0
0
0
0
0
0
0
0
0
0
0
0
0
0
0
0
0
0
0
0
0
0
0
0
0
0
0
0
0
0
0
0
0
0
0
0
0
0
0
0
0
0
0
0
0
0
0
0
0
0
0
0
0
0
0
0
0
0
0
0
0
0
0
0
0
0
0
0
0
0
0
0
0
0
0
0
0
0
0
0
0
0
0
0
0
0
0
0
0
0
0
0
0
0
0
0
0
0
0
0
0
0
0
0
0
0
0
0
0
0
0
0
0
0
0
0
0
0
0
0
0
0
0
0
0
0
0
0
0
0
0
0
0
0
0
0
0
0
0
0
0
0
0
0
0
0
0
0
0
0
0
0
1
0
1
0
0
0
9
0
28
0
54
0
80
0
97
0
108
0
118
0
104
0
104
0
119
0
87
0
40
0
47
0
78
0
89
0
49
0
65
0
95
0
85
0
79
0
98
0
85
0
85
0
97
0
85
0
98
0
75
0
72
0
92
0
110
0
104
0
100
0
102
0
103
0
107
0
116
0
127
0
127
0
104
0
72
0
90
0
123
0
119
0
114
0
118
0
133
0
122
0
117
0
137
0
116
0
93
0
72
0
110
0
119
0
72
0
28
0
49
0
98
0
95
0
46
0
25
0
48
0
56
0
70
0
63
0
48
0
21
0
6
0
47
0
69
0
66
0
24
0
62
0
62
0
73
0
69
0
57
0
70
0
74
0
73
0
48
0
33
0
48
0
77
0
86
0
71
0
77
0
77
0
75
0
78
0
82
0
71
0
55
0
67
0
81
0
89
0
87
0
83
0
81
0
73
0
63
0
61
0
73
0
59
0
84
0
128
0
8
0
1
0
81
0
131
0
81
0
17
0
1
0
13
0
8
0
1
0
16
0
77
0
65
0
29
0
1
0
2
0
12
0
33
0
57
0
68
0
91
0
87
0
89
0
97
0
23
0
0
0
124
0
241
0
247
0
255
0
255
0
254
0
254
0
251
0
255
0
255
0
255
0
255
0
255
0
255
0
255
0
255
0
255
0
255
0
255
0
255
0
255
0
255
0
255
0
255
0
255
0
255
0
255
0
255
0
255
0
255
0
255
0
255
0
255
0
255
0
255
0
255
0
255
0
255
0
255
0
255
0
255
0
255
0
255
0
255
0
255
0
255
0
255
0
255
0
255
0
255
0
255
0
255
0
255
0
255
0
255
0
255
0
255
0
255
0
255
0
255
0
255
0
255
0
255
0
255
0
255
0
255
0
255
0
255
0
255
0
255
0
255
0
255
0
255
0
255
0
255
0
255
0
255
0
255
0
255
0
255
0
255
0
255
0
255
0
255
0
255
0
255
0
255
0
0
0
0
0
0
0
0
0
0
0
0
0
0
0
0
0
0
0
0
0
0
0
0
0
0
0
0
0
0
0
0
0
0
0
0
0
0
0
0
0
0
0
0
0
0
0
0
0
0
0
0
0
0
0
0
0
0
0
0
0
0
0
0
0
0
0
0
0
0
0
0
0
0
0
0
0
0
0
0
0
0
0
0
0
0
0
0
0
0
0
0
0
0
0
0
0
0
0
0
0
0
0
0
0
0
0
0
0
0
0
0
0
0
0
0
0
0
0
0
0
0
0
0
0
0
0
0
0
0
0
0
0
0
0
0
0
0
0
0
0
0
0
0
0
0
0
0
0
0
0
0
0
0
0
0
0
0
0
0
0
0
0
0
0
0
0
0
0
0
0
0
0
0
0
0
0
0
0
0
0
0
0
0
0
0
0
0
0
0
0
0
0
0
0
0
0
0
0
0
0
0
0
0
0
0
0
0
0
0
0
0
0
0
0
0
0
0
0
0
0
0
0
0
0
0
0
0
0
0
0
0
0
0
0
0
0
0
0
0
0
0
0
0
0
0
0
0
0
0
0
0
0
0
0
0
0
0
0
0
0
0
0
0
0
0
0
0
0
0
0
0
0
0
0
0
0
0
0
0
0
0
0
0
0
0
0
0
0
0
0
0
0
0
0
0
0
0
0
0
0
0
0
0
0
0
0
0
0
0
0
0
0
0
0
0
0
0
0
0
0
0
0
0
0
0
0
0
0
0
0
0
0
0
0
0
0
0
0
0
0
0
0
0
0
0
0
0
0
0
0
0
0
0
0
0
0
0
0
0
0
0
0
0
0
0
0
0
0
0
0
0
0
0
0
0
0
0
0
0
0
0
0
0
0
0
0
0
0
0
0
0
0
0
0
0
0
0
0
0
0
0
0
0
0
0
0
0
0
0
0
0
0
0
0
0
0
0
0
0
0
0
0
0
0
0
0
0
0
0
0
0
0
0
0
0
0
0
0
0
0
0
0
0
0
6
0
2
0
2
0
0
0
1
0
4
0
27
0
64
0
94
0
90
0
100
0
113
0
98
0
89
0
114
0
97
0
22
0
62
0
91
0
52
0
60
0
101
0
82
0
69
0
85
0
93
0
96
0
118
0
94
0
110
0
94
0
65
0
66
0
111
0
107
0
108
0
113
0
112
0
107
0
103
0
106
0
116
0
113
0
63
0
71
0
109
0
110
0
112
0
112
0
105
0
95
0
94
0
115
0
115
0
106
0
68
0
58
0
90
0
123
0
58
0
12
0
54
0
113
0
89
0
49
0
15
0
37
0
66
0
76
0
67
0
40
0
19
0
54
0
65
0
67
0
26
0
65
0
67
0
77
0
65
0
45
0
53
0
45
0
30
0
34
0
21
0
58
0
64
0
52
0
53
0
64
0
65
0
60
0
63
0
72
0
71
0
62
0
62
0
75
0
84
0
86
0
87
0
86
0
72
0
56
0
60
0
109
0
116
0
74
0
120
0
33
0
9
0
51
0
96
0
33
0
5
0
12
0
1
0
0
0
19
0
30
0
81
0
56
0
14
0
1
0
18
0
34
0
42
0
53
0
67
0
88
0
78
0
75
0
85
0
13
0
4
0
152
0
254
0
248
0
254
0
253
0
253
0
255
0
250
0
255
0
255
0
255
0
255
0
255
0
255
0
255
0
255
0
255
0
255
0
255
0
255
0
255
0
255
0
255
0
255
0
255
0
255
0
255
0
255
0
255
0
255
0
255
0
255
0
255
0
255
0
255
0
255
0
255
0
255
0
255
0
255
0
255
0
255
0
255
0
255
0
255
0
255
0
255
0
255
0
255
0
255
0
255
0
255
0
255
0
255
0
255
0
255
0
255
0
255
0
255
0
255
0
255
0
255
0
255
0
255
0
255
0
255
0
255
0
255
0
255
0
255
0
255
0
255
0
255
0
255
0
255
0
255
0
255
0
255
0
255
0
255
0
255
0
255
0
255
0
255
0
255
0
255
0
255
0
0
0
0
0
0
0
0
0
0
0
0
0
0
0
0
0
0
0
0
0
0
0
0
0
0
0
0
0
0
0
0
0
0
0
0
0
0
0
0
0
0
0
0
0
0
0
0
0
0
0
0
0
0
0
0
0
0
0
0
0
0
0
0
0
0
0
0
0
0
0
0
0
0
0
0
0
0
0
0
0
0
0
0
0
0
0
0
0
0
0
0
0
0
0
0
0
0
0
0
0
0
0
0
0
0
0
0
0
0
0
0
0
0
0
0
0
0
0
0
0
0
0
0
0
0
0
0
0
0
0
0
0
0
0
0
0
0
0
0
0
0
0
0
0
0
0
0
0
0
0
0
0
0
0
0
0
0
0
0
0
0
0
0
0
0
0
0
0
0
0
0
0
0
0
0
0
0
0
0
0
0
0
0
0
0
0
0
0
0
0
0
0
0
0
0
0
0
0
0
0
0
0
0
0
0
0
0
0
0
0
0
0
0
0
0
0
0
0
0
0
0
0
0
0
0
0
0
0
0
0
0
0
0
0
0
0
0
0
0
0
0
0
0
0
0
0
0
0
0
0
0
0
0
0
0
0
0
0
0
0
0
0
0
0
0
0
0
0
0
0
0
0
0
0
0
0
0
0
0
0
0
0
0
0
0
0
0
0
0
0
0
0
0
0
0
0
0
0
0
0
0
0
0
0
0
0
0
0
0
0
0
0
0
0
0
0
0
0
0
0
0
0
0
0
0
0
0
0
0
0
0
0
0
0
0
0
0
0
0
0
0
0
0
0
0
0
0
0
0
0
0
0
0
0
0
0
0
0
0
0
0
0
0
0
0
0
0
0
0
0
0
0
0
0
0
0
0
0
0
0
0
0
0
0
0
0
0
0
0
0
0
0
0
0
0
0
0
0
0
0
0
0
0
0
0
0
0
0
0
0
0
0
0
0
0
0
0
0
0
0
0
0
0
0
0
0
0
0
0
0
0
0
0
0
0
0
0
0
0
0
0
0
0
0
58
0
5
0
1
0
0
0
7
0
6
0
2
0
18
0
44
0
84
0
95
0
99
0
99
0
104
0
111
0
96
0
74
0
15
0
49
0
88
0
51
0
65
0
85
0
91
0
90
0
83
0
88
0
90
0
90
0
92
0
90
0
79
0
66
0
84
0
100
0
109
0
103
0
101
0
104
0
105
0
99
0
105
0
108
0
107
0
39
0
95
0
128
0
88
0
109
0
106
0
106
0
108
0
110
0
109
0
101
0
87
0
76
0
82
0
107
0
107
0
68
0
34
0
45
0
78
0
105
0
70
0
26
0
20
0
62
0
81
0
56
0
37
0
47
0
48
0
66
0
81
0
77
0
65
0
55
0
43
0
30
0
38
0
32
0
59
0
69
0
42
0
45
0
68
0
59
0
61
0
63
0
65
0
63
0
63
0
66
0
68
0
68
0
43
0
58
0
83
0
93
0
78
0
62
0
73
0
95
0
135
0
129
0
147
0
50
0
116
0
65
0
11
0
69
0
67
0
11
0
0
0
6
0
2
0
0
0
21
0
59
0
96
0
46
0
5
0
13
0
43
0
46
0
45
0
61
0
83
0
91
0
90
0
75
0
60
0
4
0
15
0
168
0
253
0
253
0
253
0
254
0
254
0
255
0
255
0
255
0
255
0
255
0
255
0
255
0
255
0
255
0
255
0
255
0
255
0
255
0
255
0
255
0
255
0
255
0
255
0
255
0
255
0
255
0
255
0
255
0
255
0
255
0
255
0
255
0
255
0
255
0
255
0
255
0
255
0
255
0
255
0
255
0
255
0
255
0
255
0
255
0
255
0
255
0
255
0
255
0
254
0
254
0
253
0
253
0
254
0
255
0
255
0
255
0
252
0
252
0
252
0
252
0
252
0
252
0
252
0
251
0
253
0
254
0
255
0
255
0
255
0
254
0
253
0
251
0
255
0
255
0
255
0
255
0
255
0
255
0
255
0
255
0
255
0
255
0
255
0
255
0
255
0
255
0
0
0
0
0
0
0
0
0
0
0
0
0
0
0
0
0
0
0
0
0
0
0
0
0
0
0
0
0
0
0
0
0
0
0
0
0
0
0
0
0
0
0
0
0
0
0
0
0
0
0
0
0
0
0
0
0
0
0
0
0
0
0
0
0
0
0
0
0
0
0
0
0
0
0
0
0
0
0
0
0
0
0
0
0
0
0
0
0
0
0
0
0
0
0
0
0
0
0
0
0
0
0
0
0
0
0
0
0
0
0
0
0
0
0
0
0
0
0
0
0
0
0
0
0
0
0
0
0
0
0
0
0
0
0
0
0
0
0
0
0
0
0
0
0
0
0
0
0
0
0
0
0
0
0
0
0
0
0
0
0
0
0
0
0
0
0
0
0
0
0
0
0
0
0
0
0
0
0
0
0
0
0
0
0
0
0
0
0
0
0
0
0
0
0
0
0
0
0
0
0
0
0
0
0
0
0
0
0
0
0
0
0
0
0
0
0
0
0
0
0
0
0
0
0
0
0
0
0
0
0
0
0
0
0
0
0
0
0
0
0
0
0
0
0
0
0
0
0
0
0
0
0
0
0
0
0
0
0
0
0
0
0
0
0
0
0
0
0
0
0
0
0
0
0
0
0
0
0
0
0
0
0
0
0
0
0
0
0
0
0
0
0
0
0
0
0
0
0
0
0
0
0
0
0
0
0
0
0
0
0
0
0
0
0
0
0
0
0
0
0
0
0
0
0
0
0
0
0
0
0
0
0
0
0
0
0
0
0
0
0
0
0
0
0
0
0
0
0
0
0
0
0
0
0
0
0
0
0
0
0
0
0
0
0
0
0
0
0
0
0
0
0
0
0
0
0
0
0
0
0
0
0
0
0
0
0
0
0
0
0
0
0
0
0
0
0
0
0
0
0
0
0
0
0
0
0
0
0
0
0
0
0
0
0
0
0
0
0
0
0
0
0
0
0
0
0
0
0
0
0
0
0
0
0
0
0
0
0
0
0
0
0
0
0
56
0
50
0
16
0
0
0
3
0
7
0
1
0
4
0
22
0
62
0
82
0
98
0
100
0
99
0
102
0
102
0
99
0
56
0
31
0
41
0
52
0
63
0
80
0
71
0
81
0
79
0
82
0
85
0
85
0
88
0
87
0
79
0
67
0
76
0
93
0
105
0
102
0
101
0
104
0
105
0
100
0
100
0
106
0
104
0
65
0
71
0
112
0
98
0
103
0
101
0
102
0
104
0
108
0
109
0
103
0
92
0
84
0
60
0
85
0
100
0
88
0
68
0
63
0
73
0
84
0
87
0
70
0
48
0
40
0
51
0
62
0
49
0
26
0
60
0
65
0
64
0
53
0
45
0
47
0
47
0
45
0
60
0
47
0
61
0
64
0
39
0
44
0
65
0
61
0
63
0
64
0
64
0
63
0
64
0
66
0
67
0
68
0
46
0
66
0
85
0
80
0
65
0
69
0
99
0
131
0
132
0
137
0
126
0
106
0
68
0
74
0
3
0
49
0
36
0
3
0
1
0
15
0
6
0
1
0
37
0
82
0
117
0
83
0
36
0
20
0
35
0
45
0
50
0
58
0
84
0
88
0
88
0
78
0
61
0
3
0
25
0
180
0
253
0
253
0
253
0
254
0
254
0
255
0
255
0
255
0
255
0
255
0
255
0
255
0
255
0
255
0
255
0
255
0
255
0
255
0
255
0
255
0
255
0
255
0
255
0
255
0
255
0
255
0
255
0
255
0
255
0
255
0
255
0
255
0
255
0
255
0
255
0
255
0
255
0
255
0
255
0
255
0
255
0
255
0
255
0
255
0
255
0
255
0
255
0
255
0
255
0
255
0
255
0
254
0
253
0
251
0
249
0
248
0
255
0
255
0
255
0
255
0
255
0
255
0
255
0
255
0
254
0
255
0
255
0
255
0
255
0
255
0
255
0
255
0
255
0
255
0
255
0
255
0
255
0
255
0
255
0
255
0
255
0
255
0
255
0
255
0
255
0
255
0
0
0
0
0
0
0
0
0
0
0
0
0
0
0
0
0
0
0
0
0
0
0
0
0
0
0
0
0
0
0
0
0
0
0
0
0
0
0
0
0
0
0
0
0
0
0
0
0
0
0
0
0
0
0
0
0
0
0
0
0
0
0
0
0
0
0
0
0
0
0
0
0
0
0
0
0
0
0
0
0
0
0
0
0
0
0
0
0
0
0
0
0
0
0
0
0
0
0
0
0
0
0
0
0
0
0
0
0
0
0
0
0
0
0
0
0
0
0
0
0
0
0
0
0
0
0
0
0
0
0
0
0
0
0
0
0
0
0
0
0
0
0
0
0
0
0
0
0
0
0
0
0
0
0
0
0
0
0
0
0
0
0
0
0
0
0
0
0
0
0
0
0
0
0
0
0
0
0
0
0
0
0
0
0
0
0
0
0
0
0
0
0
0
0
0
0
0
0
0
0
0
0
0
0
0
0
0
0
0
0
0
0
0
0
0
0
0
0
0
0
0
0
0
0
0
0
0
0
0
0
0
0
0
0
0
0
0
0
0
0
0
0
0
0
0
0
0
0
0
0
0
0
0
0
0
0
0
0
0
0
0
0
0
0
0
0
0
0
0
0
0
0
0
0
0
0
0
0
0
0
0
0
0
0
0
0
0
0
0
0
0
0
0
0
0
0
0
0
0
0
0
0
0
0
0
0
0
0
0
0
0
0
0
0
0
0
0
0
0
0
0
0
0
0
0
0
0
0
0
0
0
0
0
0
0
0
0
0
0
0
0
0
0
0
0
0
0
0
0
0
0
0
0
0
0
0
0
0
0
0
0
0
0
0
0
0
0
0
0
0
0
0
0
0
0
0
0
0
0
0
0
0
0
0
0
0
0
0
0
0
0
0
0
0
0
0
0
0
0
0
0
0
0
0
0
0
0
0
0
0
0
0
0
0
0
0
0
0
0
0
0
0
0
0
0
0
0
0
0
0
0
0
0
0
0
0
0
0
0
0
0
0
0
0
49
0
50
0
22
0
5
0
13
0
12
0
1
0
0
0
3
0
28
0
57
0
89
0
102
0
97
0
93
0
98
0
107
0
108
0
45
0
15
0
48
0
51
0
79
0
70
0
74
0
77
0
79
0
81
0
83
0
86
0
86
0
82
0
75
0
65
0
81
0
94
0
97
0
96
0
100
0
101
0
99
0
95
0
104
0
100
0
95
0
52
0
84
0
104
0
99
0
96
0
96
0
99
0
103
0
106
0
104
0
98
0
92
0
55
0
66
0
86
0
104
0
103
0
89
0
77
0
75
0
90
0
93
0
76
0
54
0
54
0
70
0
63
0
37
0
51
0
50
0
45
0
39
0
40
0
51
0
63
0
72
0
75
0
59
0
63
0
61
0
42
0
44
0
60
0
60
0
66
0
65
0
63
0
64
0
65
0
67
0
67
0
67
0
45
0
65
0
80
0
77
0
78
0
94
0
119
0
136
0
130
0
134
0
120
0
136
0
53
0
56
0
0
0
21
0
10
0
0
0
2
0
14
0
2
0
8
0
60
0
112
0
132
0
118
0
76
0
39
0
39
0
53
0
56
0
55
0
81
0
81
0
87
0
90
0
65
0
3
0
36
0
189
0
253
0
253
0
253
0
254
0
254
0
255
0
255
0
255
0
255
0
255
0
255
0
255
0
255
0
255
0
255
0
255
0
255
0
255
0
255
0
255
0
255
0
255
0
255
0
255
0
255
0
255
0
255
0
255
0
255
0
255
0
255
0
255
0
255
0
255
0
255
0
255
0
255
0
255
0
255
0
255
0
255
0
255
0
255
0
255
0
255
0
255
0
255
0
255
0
254
0
255
0
255
0
255
0
255
0
255
0
255
0
254
0
252
0
251
0
250
0
250
0
250
0
251
0
252
0
253
0
252
0
252
0
253
0
254
0
254
0
253
0
252
0
251
0
255
0
255
0
255
0
255
0
255
0
255
0
255
0
255
0
255
0
255
0
255
0
255
0
255
0
255
0
0
0
0
0
0
0
0
0
0
0
0
0
0
0
0
0
0
0
0
0
0
0
0
0
0
0
0
0
0
0
0
0
0
0
0
0
0
0
0
0
0
0
0
0
0
0
0
0
0
0
0
0
0
0
0
0
0
0
0
0
0
0
0
0
0
0
0
0
0
0
0
0
0
0
0
0
0
0
0
0
0
0
0
0
0
0
0
0
0
0
0
0
0
0
0
0
0
0
0
0
0
0
0
0
0
0
0
0
0
0
0
0
0
0
0
0
0
0
0
0
0
0
0
0
0
0
0
0
0
0
0
0
0
0
0
0
0
0
0
0
0
0
0
0
0
0
0
0
0
0
0
0
0
0
0
0
0
0
0
0
0
0
0
0
0
0
0
0
0
0
0
0
0
0
0
0
0
0
0
0
0
0
0
0
0
0
0
0
0
0
0
0
0
0
0
0
0
0
0
0
0
0
0
0
0
0
0
0
0
0
0
0
0
0
0
0
0
0
0
0
0
0
0
0
0
0
0
0
0
0
0
0
0
0
0
0
0
0
0
0
0
0
0
0
0
0
0
0
0
0
0
0
0
0
0
0
0
0
0
0
0
0
0
0
0
0
0
0
0
0
0
0
0
0
0
0
0
0
0
0
0
0
0
0
0
0
0
0
0
0
0
0
0
0
0
0
0
0
0
0
0
0
0
0
0
0
0
0
0
0
0
0
0
0
0
0
0
0
0
0
0
0
0
0
0
0
0
0
0
0
0
0
0
0
0
0
0
0
0
0
0
0
0
0
0
0
0
0
0
0
0
0
0
0
0
0
0
0
0
0
0
0
0
0
0
0
0
0
0
0
0
0
0
0
0
0
0
0
0
0
0
0
0
0
0
0
0
0
0
0
0
0
0
0
0
0
0
0
0
0
0
0
0
0
0
0
0
0
0
0
0
0
0
0
0
0
0
0
0
0
0
0
0
0
0
0
0
0
0
0
0
0
0
0
0
0
0
0
0
0
0
0
0
0
35
0
43
0
24
0
7
0
3
0
4
0
2
0
0
0
1
0
2
0
28
0
65
0
94
0
99
0
90
0
87
0
91
0
117
0
75
0
44
0
35
0
25
0
65
0
85
0
77
0
76
0
76
0
76
0
79
0
82
0
83
0
81
0
78
0
57
0
69
0
82
0
88
0
90
0
93
0
94
0
94
0
91
0
102
0
95
0
106
0
60
0
53
0
93
0
100
0
92
0
93
0
95
0
98
0
102
0
102
0
99
0
96
0
74
0
62
0
67
0
93
0
108
0
100
0
86
0
84
0
94
0
87
0
88
0
90
0
79
0
57
0
46
0
44
0
27
0
33
0
42
0
50
0
55
0
60
0
69
0
77
0
68
0
63
0
66
0
66
0
51
0
45
0
52
0
60
0
67
0
65
0
62
0
65
0
67
0
66
0
66
0
68
0
66
0
61
0
63
0
80
0
105
0
124
0
128
0
126
0
131
0
125
0
136
0
137
0
95
0
20
0
0
0
3
0
10
0
1
0
2
0
2
0
0
0
25
0
86
0
134
0
134
0
130
0
98
0
64
0
60
0
65
0
61
0
56
0
80
0
80
0
93
0
106
0
69
0
2
0
51
0
196
0
253
0
253
0
253
0
254
0
254
0
255
0
255
0
255
0
255
0
255
0
255
0
255
0
255
0
255
0
255
0
255
0
255
0
255
0
255
0
255
0
255
0
255
0
255
0
255
0
255
0
255
0
255
0
255
0
255
0
255
0
255
0
255
0
255
0
255
0
255
0
255
0
255
0
255
0
255
0
255
0
255
0
255
0
255
0
255
0
255
0
255
0
255
0
255
0
254
0
255
0
255
0
255
0
255
0
255
0
255
0
255
0
255
0
255
0
255
0
255
0
255
0
255
0
255
0
255
0
255
0
255
0
255
0
255
0
255
0
255
0
255
0
255
0
255
0
255
0
255
0
255
0
255
0
255
0
255
0
255
0
255
0
255
0
255
0
255
0
255
0
255
0
0
0
0
0
0
0
0
0
0
0
0
0
0
0
0
0
0
0
0
0
0
0
0
0
0
0
0
0
0
0
0
0
0
0
0
0
0
0
0
0
0
0
0
0
0
0
0
0
0
0
0
0
0
0
0
0
0
0
0
0
0
0
0
0
0
0
0
0
0
0
0
0
0
0
0
0
0
0
0
0
0
0
0
0
0
0
0
0
0
0
0
0
0
0
0
0
0
0
0
0
0
0
0
0
0
0
0
0
0
0
0
0
0
0
0
0
0
0
0
0
0
0
0
0
0
0
0
0
0
0
0
0
0
0
0
0
0
0
0
0
0
0
0
0
0
0
0
0
0
0
0
0
0
0
0
0
0
0
0
0
0
0
0
0
0
0
0
0
0
0
0
0
0
0
0
0
0
0
0
0
0
0
0
0
0
0
0
0
0
0
0
0
0
0
0
0
0
0
0
0
0
0
0
0
0
0
0
0
0
0
0
0
0
0
0
0
0
0
0
0
0
0
0
0
0
0
0
0
0
0
0
0
0
0
0
0
0
0
0
0
0
0
0
0
0
0
0
0
0
0
0
0
0
0
0
0
0
0
0
0
0
0
0
0
0
0
0
0
0
0
0
0
0
0
0
0
0
0
0
0
0
0
0
0
0
0
0
0
0
0
0
0
0
0
0
0
0
0
0
0
0
0
0
0
0
0
0
0
0
0
0
0
0
0
0
0
0
0
0
0
0
0
0
0
0
0
0
0
0
0
0
0
0
0
0
0
0
0
0
0
0
0
0
0
0
0
0
0
0
0
0
0
0
0
0
0
0
0
0
0
0
0
0
0
0
0
0
0
0
0
0
0
0
0
0
0
0
0
0
0
0
0
0
0
0
0
0
0
0
0
0
0
0
0
0
0
0
0
0
0
0
0
0
0
0
0
0
0
0
0
0
0
0
0
0
0
0
0
0
0
0
0
0
0
0
0
0
0
0
0
0
0
0
0
0
0
0
0
0
0
0
0
0
0
17
0
69
0
56
0
27
0
1
0
0
0
8
0
12
0
2
0
0
0
6
0
30
0
63
0
86
0
92
0
86
0
82
0
92
0
88
0
88
0
41
0
5
0
28
0
83
0
85
0
75
0
74
0
74
0
76
0
78
0
77
0
78
0
77
0
58
0
63
0
72
0
81
0
85
0
86
0
88
0
90
0
88
0
96
0
91
0
99
0
85
0
36
0
70
0
100
0
91
0
91
0
91
0
93
0
95
0
96
0
95
0
94
0
96
0
67
0
53
0
70
0
90
0
94
0
90
0
93
0
99
0
84
0
78
0
81
0
72
0
47
0
27
0
22
0
18
0
29
0
48
0
66
0
69
0
64
0
60
0
63
0
60
0
67
0
68
0
66
0
58
0
43
0
46
0
65
0
67
0
63
0
62
0
66
0
67
0
67
0
67
0
70
0
95
0
65
0
54
0
82
0
121
0
135
0
134
0
132
0
127
0
128
0
138
0
120
0
138
0
18
0
1
0
3
0
14
0
3
0
1
0
1
0
8
0
55
0
113
0
141
0
142
0
129
0
100
0
82
0
81
0
72
0
63
0
66
0
97
0
92
0
102
0
114
0
63
0
3
0
77
0
217
0
253
0
253
0
253
0
254
0
254
0
255
0
255
0
255
0
255
0
255
0
255
0
255
0
255
0
255
0
255
0
255
0
255
0
255
0
255
0
255
0
255
0
255
0
255
0
255
0
255
0
255
0
255
0
255
0
255
0
255
0
255
0
255
0
255
0
255
0
255
0
255
0
255
0
255
0
255
0
255
0
255
0
255
0
255
0
255
0
255
0
255
0
255
0
255
0
255
0
255
0
255
0
253
0
252
0
252
0
253
0
254
0
248
0
250
0
253
0
255
0
255
0
254
0
252
0
251
0
251
0
252
0
252
0
253
0
254
0
255
0
255
0
255
0
255
0
255
0
255
0
255
0
255
0
255
0
255
0
255
0
255
0
255
0
255
0
255
0
255
0
255
0
0
0
0
0
0
0
0
0
0
0
0
0
0
0
0
0
0
0
0
0
0
0
0
0
0
0
0
0
0
0
0
0
0
0
0
0
0
0
0
0
0
0
0
0
0
0
0
0
0
0
0
0
0
0
0
0
0
0
0
0
0
0
0
0
0
0
0
0
0
0
0
0
0
0
0
0
0
0
0
0
0
0
0
0
0
0
0
0
0
0
0
0
0
0
0
0
0
0
0
0
0
0
0
0
0
0
0
0
0
0
0
0
0
0
0
0
0
0
0
0
0
0
0
0
0
0
0
0
0
0
0
0
0
0
0
0
0
0
0
0
0
0
0
0
0
0
0
0
0
0
0
0
0
0
0
0
0
0
0
0
0
0
0
0
0
0
0
0
0
0
0
0
0
0
0
0
0
0
0
0
0
0
0
0
0
0
0
0
0
0
0
0
0
0
0
0
0
0
0
0
0
0
0
0
0
0
0
0
0
0
0
0
0
0
0
0
0
0
0
0
0
0
0
0
0
0
0
0
0
0
0
0
0
0
0
0
0
0
0
0
0
0
0
0
0
0
0
0
0
0
0
0
0
0
0
0
0
0
0
0
0
0
0
0
0
0
0
0
0
0
0
0
0
0
0
0
0
0
0
0
0
0
0
0
0
0
0
0
0
0
0
0
0
0
0
0
0
0
0
0
0
0
0
0
0
0
0
0
0
0
0
0
0
0
0
0
0
0
0
0
0
0
0
0
0
0
0
0
0
0
0
0
0
0
0
0
0
0
0
0
0
0
0
0
0
0
0
0
0
0
0
0
0
0
0
0
0
0
0
0
0
0
0
0
0
0
0
0
0
0
0
0
0
0
0
0
0
0
0
0
0
0
0
0
0
0
0
0
0
0
0
0
0
0
0
0
0
0
0
0
0
0
0
0
0
0
0
0
0
0
0
0
0
0
0
0
0
0
0
0
0
0
0
0
0
0
0
0
0
0
0
0
0
0
0
0
0
0
0
0
0
0
0
0
4
0
60
0
93
0
101
0
59
0
13
0
1
0
2
0
4
0
6
0
0
0
3
0
24
0
57
0
84
0
92
0
89
0
78
0
86
0
104
0
73
0
36
0
4
0
62
0
82
0
75
0
72
0
72
0
75
0
75
0
75
0
75
0
79
0
65
0
60
0
63
0
73
0
82
0
83
0
84
0
89
0
85
0
86
0
89
0
88
0
100
0
45
0
48
0
86
0
90
0
89
0
89
0
89
0
89
0
89
0
88
0
88
0
102
0
78
0
59
0
63
0
76
0
86
0
90
0
92
0
84
0
78
0
54
0
30
0
42
0
72
0
66
0
35
0
33
0
33
0
46
0
67
0
75
0
68
0
60
0
63
0
60
0
71
0
66
0
60
0
57
0
39
0
40
0
71
0
64
0
60
0
62
0
68
0
68
0
65
0
69
0
76
0
90
0
65
0
62
0
98
0
129
0
130
0
125
0
128
0
123
0
140
0
123
0
126
0
138
0
58
0
2
0
7
0
10
0
4
0
1
0
0
0
26
0
86
0
133
0
142
0
155
0
132
0
101
0
91
0
90
0
76
0
70
0
83
0
119
0
110
0
109
0
111
0
47
0
3
0
107
0
244
0
253
0
253
0
253
0
254
0
254
0
255
0
255
0
255
0
255
0
255
0
255
0
255
0
255
0
255
0
255
0
255
0
255
0
255
0
255
0
255
0
255
0
255
0
255
0
255
0
255
0
255
0
255
0
255
0
255
0
255
0
255
0
255
0
255
0
255
0
255
0
255
0
255
0
255
0
255
0
255
0
254
0
254
0
254
0
254
0
254
0
254
0
254
0
254
0
255
0
255
0
254
0
254
0
255
0
255
0
255
0
255
0
255
0
255
0
255
0
255
0
255
0
255
0
255
0
255
0
255
0
255
0
255
0
255
0
253
0
252
0
251
0
251
0
254
0
254
0
254
0
254
0
254
0
254
0
254
0
254
0
255
0
255
0
255
0
255
0
255
0
255
0
0
0
0
0
0
0
0
0
0
0
0
0
0
0
0
0
0
0
0
0
0
0
0
0
0
0
0
0
0
0
0
0
0
0
0
0
0
0
0
0
0
0
0
0
0
0
0
0
0
0
0
0
0
0
0
0
0
0
0
0
0
0
0
0
0
0
0
0
0
0
0
0
0
0
0
0
0
0
0
0
0
0
0
0
0
0
0
0
0
0
0
0
0
0
0
0
0
0
0
0
0
0
0
0
0
0
0
0
0
0
0
0
0
0
0
0
0
0
0
0
0
0
0
0
0
0
0
0
0
0
0
0
0
0
0
0
0
0
0
0
0
0
0
0
0
0
0
0
0
0
0
0
0
0
0
0
0
0
0
0
0
0
0
0
0
0
0
0
0
0
0
0
0
0
0
0
0
0
0
0
0
0
0
0
0
0
0
0
0
0
0
0
0
0
0
0
0
0
0
0
0
0
0
0
0
0
0
0
0
0
0
0
0
0
0
0
0
0
0
0
0
0
0
0
0
0
0
0
0
0
0
0
0
0
0
0
0
0
0
0
0
0
0
0
0
0
0
0
0
0
0
0
0
0
0
0
0
0
0
0
0
0
0
0
0
0
0
0
0
0
0
0
0
0
0
0
0
0
0
0
0
0
0
0
0
0
0
0
0
0
0
0
0
0
0
0
0
0
0
0
0
0
0
0
0
0
0
0
0
0
0
0
0
0
0
0
0
0
0
0
0
0
0
0
0
0
0
0
0
0
0
0
0
0
0
0
0
0
0
0
0
0
0
0
0
0
0
0
0
0
0
0
0
0
0
0
0
0
0
0
0
0
0
0
0
0
0
0
0
0
0
0
0
0
0
0
0
0
0
0
0
0
0
0
0
0
0
0
0
0
0
0
0
0
0
0
0
0
0
0
0
0
0
0
0
0
0
0
0
0
0
0
0
0
0
0
0
0
0
0
0
0
0
0
0
0
0
0
0
0
0
0
0
0
0
0
0
0
0
0
0
0
0
0
1
0
24
0
88
0
144
0
132
0
69
0
13
0
1
0
2
0
3
0
3
0
1
0
1
0
24
0
60
0
87
0
96
0
79
0
91
0
90
0
95
0
69
0
25
0
40
0
51
0
62
0
59
0
60
0
64
0
65
0
63
0
65
0
70
0
69
0
55
0
51
0
64
0
78
0
80
0
82
0
87
0
86
0
74
0
87
0
81
0
92
0
77
0
39
0
63
0
86
0
87
0
87
0
85
0
84
0
83
0
82
0
82
0
88
0
82
0
70
0
59
0
64
0
75
0
80
0
77
0
61
0
68
0
42
0
7
0
27
0
85
0
102
0
77
0
54
0
35
0
31
0
49
0
65
0
63
0
59
0
61
0
54
0
67
0
55
0
51
0
56
0
37
0
33
0
67
0
58
0
58
0
62
0
70
0
68
0
65
0
71
0
83
0
90
0
74
0
77
0
108
0
132
0
132
0
122
0
118
0
126
0
135
0
120
0
132
0
121
0
107
0
34
0
3
0
4
0
6
0
4
0
0
0
26
0
94
0
140
0
142
0
155
0
138
0
114
0
104
0
102
0
87
0
82
0
93
0
121
0
115
0
113
0
108
0
35
0
3
0
126
0
254
0
253
0
253
0
253
0
254
0
254
0
255
0
255
0
255
0
255
0
255
0
255
0
255
0
255
0
255
0
255
0
255
0
255
0
255
0
255
0
255
0
255
0
255
0
255
0
255
0
255
0
255
0
255
0
255
0
255
0
255
0
255
0
255
0
255
0
255
0
255
0
255
0
255
0
255
0
255
0
255
0
254
0
254
0
254
0
254
0
254
0
254
0
254
0
254
0
251
0
252
0
254
0
255
0
255
0
253
0
250
0
248
0
255
0
255
0
253
0
246
0
241
0
241
0
243
0
245
0
251
0
251
0
250
0
250
0
251
0
253
0
254
0
255
0
254
0
254
0
254
0
254
0
254
0
254
0
254
0
254
0
255
0
255
0
255
0
255
0
255
0
255
0
0
0
0
0
0
0
0
0
0
0
0
0
0
0
0
0
0
0
0
0
0
0
0
0
0
0
0
0
0
0
0
0
0
0
0
0
0
0
0
0
0
0
0
0
0
0
0
0
0
0
0
0
0
0
0
0
0
0
0
0
0
0
0
0
0
0
0
0
0
0
0
0
0
0
0
0
0
0
0
0
0
0
0
0
0
0
0
0
0
0
0
0
0
0
0
0
0
0
0
0
0
0
0
0
0
0
0
0
0
0
0
0
0
0
0
0
0
0
0
0
0
0
0
0
0
0
0
0
0
0
0
0
0
0
0
0
0
0
0
0
0
0
0
0
0
0
0
0
0
0
0
0
0
0
0
0
0
0
0
0
0
0
0
0
0
0
0
0
0
0
0
0
0
0
0
0
0
0
0
0
0
0
0
0
0
0
0
0
0
0
0
0
0
0
0
0
0
0
0
0
0
0
0
0
0
0
0
0
0
0
0
0
0
0
0
0
0
0
0
0
0
0
0
0
0
0
0
0
0
0
0
0
0
0
0
0
0
0
0
0
0
0
0
0
0
0
0
0
0
0
0
0
0
0
0
0
0
0
0
0
0
0
0
0
0
0
0
0
0
0
0
0
0
0
0
0
0
0
0
0
0
0
0
0
0
0
0
0
0
0
0
0
0
0
0
0
0
0
0
0
0
0
0
0
0
0
0
0
0
0
0
0
0
0
0
0
0
0
0
0
0
0
0
0
0
0
0
0
0
0
0
0
0
0
0
0
0
0
0
0
0
0
0
0
0
0
0
0
0
0
0
0
0
0
0
0
0
0
0
0
0
0
0
0
0
0
0
0
0
0
0
0
0
0
0
0
0
0
0
0
0
0
0
0
0
0
0
0
0
0
0
0
0
0
0
0
0
0
0
0
0
0
0
0
0
0
0
0
0
0
0
0
0
0
0
0
0
0
0
0
0
0
0
0
0
0
0
0
0
0
0
0
0
0
0
0
0
0
0
0
0
0
0
0
2
0
18
0
58
0
114
0
142
0
115
0
55
0
9
0
2
0
0
0
6
0
6
0
1
0
2
0
37
0
73
0
92
0
80
0
99
0
71
0
96
0
81
0
60
0
31
0
13
0
42
0
40
0
41
0
46
0
47
0
45
0
47
0
53
0
69
0
49
0
41
0
55
0
71
0
76
0
78
0
84
0
87
0
69
0
88
0
81
0
78
0
103
0
40
0
43
0
85
0
85
0
85
0
83
0
80
0
79
0
78
0
79
0
67
0
75
0
71
0
54
0
49
0
61
0
66
0
60
0
62
0
67
0
53
0
24
0
24
0
61
0
91
0
97
0
71
0
37
0
17
0
32
0
50
0
49
0
42
0
40
0
42
0
57
0
45
0
45
0
58
0
37
0
27
0
59
0
56
0
56
0
63
0
71
0
68
0
64
0
72
0
87
0
117
0
97
0
85
0
100
0
127
0
140
0
134
0
123
0
133
0
118
0
135
0
125
0
113
0
129
0
76
0
9
0
4
0
10
0
4
0
1
0
11
0
84
0
139
0
144
0
142
0
141
0
128
0
117
0
113
0
101
0
91
0
97
0
109
0
109
0
113
0
110
0
32
0
2
0
131
0
249
0
253
0
253
0
253
0
254
0
254
0
255
0
255
0
255
0
255
0
255
0
255
0
255
0
255
0
255
0
255
0
255
0
255
0
255
0
255
0
255
0
255
0
255
0
255
0
255
0
255
0
255
0
255
0
255
0
255
0
255
0
255
0
255
0
255
0
255
0
255
0
255
0
255
0
255
0
255
0
255
0
254
0
254
0
254
0
254
0
254
0
254
0
254
0
254
0
255
0
255
0
255
0
252
0
243
0
231
0
219
0
212
0
199
0
188
0
172
0
155
0
145
0
143
0
146
0
149
0
185
0
188
0
195
0
205
0
217
0
229
0
239
0
245
0
254
0
254
0
254
0
254
0
254
0
254
0
254
0
254
0
255
0
255
0
255
0
255
0
255
0
255
0
0
0
0
0
0
0
0
0
0
0
0
0
0
0
0
0
0
0
0
0
0
0
0
0
0
0
0
0
0
0
0
0
0
0
0
0
0
0
0
0
0
0
0
0
0
0
0
0
0
0
0
0
0
0
0
0
0
0
0
0
0
0
0
0
0
0
0
0
0
0
0
0
0
0
0
0
0
0
0
0
0
0
0
0
0
0
0
0
0
0
0
0
0
0
0
0
0
0
0
0
0
0
0
0
0
0
0
0
0
0
0
0
0
0
0
0
0
0
0
0
0
0
0
0
0
0
0
0
0
0
0
0
0
0
0
0
0
0
0
0
0
0
0
0
0
0
0
0
0
0
0
0
0
0
0
0
0
0
0
0
0
0
0
0
0
0
0
0
0
0
0
0
0
0
0
0
0
0
0
0
0
0
0
0
0
0
0
0
0
0
0
0
0
0
0
0
0
0
0
0
0
0
0
0
0
0
0
0
0
0
0
0
0
0
0
0
0
0
0
0
0
0
0
0
0
0
0
0
0
0
0
0
0
0
0
0
0
0
0
0
0
0
0
0
0
0
0
0
0
0
0
0
0
0
0
0
0
0
0
0
0
0
0
0
0
0
0
0
0
0
0
0
0
0
0
0
0
0
0
0
0
0
0
0
0
0
0
0
0
0
0
0
0
0
0
0
0
0
0
0
0
0
0
0
0
0
0
0
0
0
0
0
0
0
0
0
0
0
0
0
0
0
0
0
0
0
0
0
0
0
0
0
0
0
0
0
0
0
0
0
0
0
0
0
0
0
0
0
0
0
0
0
0
0
0
0
0
0
0
0
0
0
0
0
0
0
0
0
0
0
0
0
0
0
0
0
0
0
0
0
0
0
0
0
0
0
0
0
0
0
0
0
0
0
0
0
0
0
0
0
0
0
0
0
0
0
0
0
0
0
0
0
0
0
0
0
0
0
0
0
0
0
0
0
0
0
0
0
0
0
0
0
0
0
0
0
0
0
0
0
0
0
0
0
10
0
63
0
109
0
138
0
135
0
138
0
135
0
80
0
9
0
2
0
7
0
9
0
4
0
1
0
4
0
25
0
43
0
93
0
86
0
76
0
77
0
91
0
91
0
55
0
12
0
33
0
52
0
63
0
57
0
56
0
61
0
56
0
43
0
52
0
38
0
26
0
27
0
39
0
49
0
49
0
44
0
51
0
51
0
51
0
51
0
53
0
53
0
45
0
36
0
49
0
64
0
53
0
46
0
60
0
53
0
37
0
46
0
46
0
43
0
43
0
45
0
38
0
33
0
44
0
63
0
67
0
81
0
79
0
47
0
11
0
16
0
61
0
104
0
90
0
101
0
58
0
25
0
48
0
32
0
44
0
19
0
42
0
44
0
39
0
47
0
57
0
37
0
21
0
37
0
80
0
85
0
76
0
60
0
62
0
92
0
121
0
135
0
141
0
125
0
106
0
79
0
131
0
141
0
128
0
126
0
120
0
137
0
135
0
128
0
144
0
118
0
65
0
5
0
5
0
2
0
7
0
3
0
0
0
29
0
99
0
149
0
134
0
115
0
124
0
114
0
113
0
122
0
102
0
109
0
115
0
112
0
116
0
91
0
17
0
0
0
149
0
249
0
253
0
253
0
253
0
254
0
254
0
255
0
255
0
255
0
255
0
255
0
255
0
255
0
255
0
255
0
255
0
255
0
255
0
255
0
255
0
255
0
255
0
255
0
255
0
255
0
254
0
255
0
254
0
250
0
250
0
253
0
254
0
254
0
247
0
251
0
254
0
254
0
253
0
253
0
251
0
248
0
249
0
251
0
246
0
247
0
254
0
250
0
245
0
253
0
250
0
217
0
173
0
153
0
117
0
77
0
58
0
26
0
1
0
17
0
16
0
17
0
31
0
28
0
25
0
42
0
15
0
10
0
4
0
14
0
39
0
63
0
99
0
142
0
185
0
212
0
253
0
253
0
237
0
252
0
255
0
237
0
250
0
255
0
255
0
255
0
255
0
250
0
0
0
0
0
0
0
0
0
0
0
0
0
0
0
0
0
0
0
0
0
0
0
0
0
0
0
0
0
0
0
0
0
0
0
0
0
0
0
0
0
0
0
0
0
0
0
0
0
0
0
0
0
0
0
0
0
0
0
0
0
0
0
0
0
0
0
0
0
0
0
0
0
0
0
0
0
0
0
0
0
0
0
0
0
0
0
0
0
0
0
0
0
0
0
0
0
0
0
0
0
0
0
0
0
0
0
0
0
0
0
0
0
0
0
0
0
0
0
0
0
0
0
0
0
0
0
0
0
0
0
0
0
0
0
0
0
0
0
0
0
0
0
0
0
0
0
0
0
0
0
0
0
0
0
0
0
0
0
0
0
0
0
0
0
0
0
0
0
0
0
0
0
0
0
0
0
0
0
0
0
0
0
0
0
0
0
0
0
0
0
0
0
0
0
0
0
0
0
0
0
0
0
0
0
0
0
0
0
0
0
0
0
0
0
0
0
0
0
0
0
0
0
0
0
0
0
0
0
0
0
0
0
0
0
0
0
0
0
0
0
0
0
0
0
0
0
0
0
0
0
0
0
0
0
0
0
0
0
0
0
0
0
0
0
0
0
0
0
0
0
0
0
0
0
0
0
0
0
0
0
0
0
0
0
0
0
0
0
0
0
0
0
0
0
0
0
0
0
0
0
0
0
0
0
0
0
0
0
0
0
0
0
0
0
0
0
0
0
0
0
0
0
0
0
0
0
0
0
0
0
0
0
0
0
0
0
0
0
0
0
0
0
0
0
0
0
0
0
0
0
0
0
0
0
0
0
0
0
0
0
0
0
0
0
0
0
0
0
0
0
0
0
0
0
0
0
0
0
0
0
0
0
0
0
0
0
0
0
0
0
0
0
0
0
0
0
0
0
0
0
0
0
0
0
0
0
0
0
0
0
0
0
0
0
0
0
0
0
0
0
0
0
0
0
0
0
0
0
0
0
0
0
0
0
0
0
0
0
0
0
0
0
0
0
35
0
75
0
123
0
154
0
152
0
153
0
156
0
128
0
82
0
20
0
3
0
1
0
6
0
7
0
1
0
5
0
21
0
57
0
78
0
93
0
92
0
87
0
82
0
71
0
59
0
25
0
38
0
53
0
60
0
61
0
60
0
59
0
59
0
68
0
58
0
47
0
40
0
39
0
42
0
44
0
45
0
46
0
48
0
48
0
48
0
51
0
52
0
46
0
38
0
29
0
31
0
43
0
57
0
61
0
64
0
67
0
64
0
64
0
60
0
61
0
64
0
59
0
52
0
56
0
68
0
76
0
82
0
82
0
61
0
25
0
12
0
53
0
105
0
109
0
113
0
91
0
50
0
58
0
96
0
79
0
69
0
73
0
72
0
67
0
68
0
77
0
71
0
49
0
36
0
102
0
79
0
62
0
73
0
108
0
134
0
131
0
117
0
125
0
126
0
118
0
83
0
117
0
131
0
129
0
138
0
124
0
124
0
120
0
115
0
122
0
94
0
68
0
20
0
3
0
3
0
6
0
6
0
0
0
14
0
72
0
136
0
142
0
119
0
124
0
120
0
117
0
108
0
87
0
103
0
107
0
110
0
116
0
89
0
19
0
3
0
158
0
253
0
253
0
253
0
253
0
254
0
254
0
255
0
255
0
255
0
255
0
255
0
255
0
255
0
255
0
255
0
255
0
255
0
255
0
255
0
255
0
255
0
255
0
255
0
255
0
255
0
254
0
252
0
255
0
255
0
255
0
252
0
245
0
244
0
254
0
254
0
252
0
241
0
245
0
252
0
252
0
251
0
250
0
251
0
245
0
236
0
223
0
187
0
151
0
138
0
109
0
77
0
36
0
31
0
34
0
55
0
103
0
116
0
130
0
143
0
158
0
180
0
195
0
186
0
170
0
167
0
172
0
168
0
153
0
138
0
121
0
82
0
46
0
34
0
6
0
95
0
146
0
174
0
230
0
253
0
248
0
255
0
255
0
255
0
250
0
240
0
253
0
255
0
0
0
0
0
0
0
0
0
0
0
0
0
0
0
0
0
0
0
0
0
0
0
0
0
0
0
0
0
0
0
0
0
0
0
0
0
0
0
0
0
0
0
0
0
0
0
0
0
0
0
0
0
0
0
0
0
0
0
0
0
0
0
0
0
0
0
0
0
0
0
0
0
0
0
0
0
0
0
0
0
0
0
0
0
0
0
0
0
0
0
0
0
0
0
0
0
0
0
0
0
0
0
0
0
0
0
0
0
0
0
0
0
0
0
0
0
0
0
0
0
0
0
0
0
0
0
0
0
0
0
0
0
0
0
0
0
0
0
0
0
0
0
0
0
0
0
0
0
0
0
0
0
0
0
0
0
0
0
0
0
0
0
0
0
0
0
0
0
0
0
0
0
0
0
0
0
0
0
0
0
0
0
0
0
0
0
0
0
0
0
0
0
0
0
0
0
0
0
0
0
0
0
0
0
0
0
0
0
0
0
0
0
0
0
0
0
0
0
0
0
0
0
0
0
0
0
0
0
0
0
0
0
0
0
0
0
0
0
0
0
0
0
0
0
0
0
0
0
0
0
0
0
0
0
0
0
0
0
0
0
0
0
0
0
0
0
0
0
0
0
0
0
0
0
0
0
0
0
0
0
0
0
0
0
0
0
0
0
0
0
0
0
0
0
0
0
0
0
0
0
0
0
0
0
0
0
0
0
0
0
0
0
0
0
0
0
0
0
0
0
0
0
0
0
0
0
0
0
0
0
0
0
0
0
0
0
0
0
0
0
0
0
0
0
0
0
0
0
0
0
0
0
0
0
0
0
0
0
0
0
0
0
0
0
0
0
0
0
0
0
0
0
0
0
0
0
0
0
0
0
0
0
0
0
0
0
0
0
0
0
0
0
0
0
0
0
0
0
0
0
0
0
0
0
0
0
0
0
0
0
0
0
0
0
0
0
0
0
0
0
0
0
0
0
0
0
0
0
0
0
0
0
0
0
0
0
0
0
0
0
0
0
0
0
38
0
110
0
140
0
158
0
157
0
161
0
170
0
158
0
134
0
68
0
21
0
2
0
4
0
10
0
0
0
0
0
5
0
14
0
52
0
86
0
92
0
83
0
79
0
82
0
86
0
44
0
34
0
36
0
52
0
63
0
62
0
59
0
60
0
68
0
66
0
59
0
50
0
44
0
44
0
51
0
59
0
61
0
62
0
62
0
62
0
66
0
69
0
66
0
60
0
38
0
26
0
50
0
72
0
66
0
72
0
84
0
74
0
78
0
74
0
74
0
78
0
77
0
67
0
63
0
65
0
79
0
83
0
91
0
77
0
38
0
9
0
47
0
110
0
117
0
115
0
112
0
91
0
58
0
132
0
105
0
108
0
100
0
105
0
110
0
112
0
117
0
116
0
81
0
28
0
83
0
76
0
85
0
109
0
130
0
133
0
127
0
123
0
127
0
127
0
113
0
77
0
109
0
137
0
133
0
131
0
127
0
128
0
117
0
86
0
91
0
104
0
108
0
46
0
1
0
5
0
3
0
8
0
6
0
2
0
35
0
106
0
140
0
124
0
124
0
121
0
113
0
88
0
66
0
88
0
96
0
107
0
115
0
85
0
20
0
14
0
170
0
255
0
253
0
253
0
253
0
254
0
254
0
255
0
255
0
255
0
255
0
255
0
255
0
255
0
255
0
255
0
255
0
255
0
255
0
255
0
255
0
255
0
255
0
255
0
255
0
255
0
254
0
247
0
241
0
253
0
254
0
254
0
253
0
251
0
249
0
253
0
255
0
254
0
253
0
255
0
234
0
207
0
153
0
140
0
110
0
86
0
67
0
36
0
9
0
2
0
62
0
74
0
94
0
136
0
159
0
173
0
199
0
195
0
204
0
209
0
223
0
222
0
204
0
200
0
212
0
220
0
218
0
218
0
203
0
193
0
197
0
191
0
173
0
164
0
113
0
70
0
25
0
34
0
100
0
165
0
215
0
251
0
244
0
255
0
255
0
254
0
255
0
255
0
0
0
0
0
0
0
0
0
0
0
0
0
0
0
0
0
0
0
0
0
0
0
0
0
0
0
0
0
0
0
0
0
0
0
0
0
0
0
0
0
0
0
0
0
0
0
0
0
0
0
0
0
0
0
0
0
0
0
0
0
0
0
0
0
0
0
0
0
0
0
0
0
0
0
0
0
0
0
0
0
0
0
0
0
0
0
0
0
0
0
0
0
0
0
0
0
0
0
0
0
0
0
0
0
0
0
0
0
0
0
0
0
0
0
0
0
0
0
0
0
0
0
0
0
0
0
0
0
0
0
0
0
0
0
0
0
0
0
0
0
0
0
0
0
0
0
0
0
0
0
0
0
0
0
0
0
0
0
0
0
0
0
0
0
0
0
0
0
0
0
0
0
0
0
0
0
0
0
0
0
0
0
0
0
0
0
0
0
0
0
0
0
0
0
0
0
0
0
0
0
0
0
0
0
0
0
0
0
0
0
0
0
0
0
0
0
0
0
0
0
0
0
0
0
0
0
0
0
0
0
0
0
0
0
0
0
0
0
0
0
0
0
0
0
0
0
0
0
0
0
0
0
0
0
0
0
0
0
0
0
0
0
0
0
0
0
0
0
0
0
0
0
0
0
0
0
0
0
0
0
0
0
0
0
0
0
0
0
0
0
0
0
0
0
0
0
0
0
0
0
0
0
0
0
0
0
0
0
0
0
0
0
0
0
0
0
0
0
0
0
0
0
0
0
0
0
0
0
0
0
0
0
0
0
0
0
0
0
0
0
0
0
0
0
0
0
0
0
0
0
0
0
0
0
0
0
0
0
0
0
0
0
0
0
0
0
0
0
0
0
0
0
0
0
0
0
0
0
0
0
0
0
0
0
0
0
0
0
0
0
0
0
0
0
0
0
0
0
0
0
0
0
0
0
0
0
0
0
0
0
0
0
0
0
0
0
0
0
0
0
0
0
0
0
0
0
0
0
0
0
0
0
0
0
0
0
0
0
0
0
0
0
0
0
42
0
146
0
147
0
144
0
147
0
162
0
176
0
170
0
152
0
130
0
69
0
14
0
1
0
3
0
1
0
0
0
4
0
1
0
20
0
49
0
68
0
81
0
89
0
88
0
84
0
79
0
47
0
22
0
33
0
54
0
65
0
62
0
58
0
62
0
63
0
63
0
57
0
50
0
49
0
56
0
63
0
61
0
62
0
61
0
60
0
63
0
67
0
66
0
61
0
56
0
41
0
51
0
69
0
67
0
70
0
74
0
69
0
77
0
71
0
69
0
74
0
76
0
69
0
60
0
56
0
68
0
85
0
99
0
81
0
35
0
8
0
50
0
117
0
109
0
103
0
109
0
102
0
57
0
94
0
112
0
109
0
121
0
116
0
119
0
118
0
114
0
115
0
81
0
26
0
49
0
85
0
125
0
139
0
125
0
112
0
121
0
137
0
133
0
134
0
115
0
78
0
99
0
138
0
135
0
126
0
126
0
119
0
106
0
80
0
96
0
127
0
139
0
63
0
1
0
11
0
4
0
2
0
8
0
1
0
7
0
63
0
127
0
129
0
122
0
109
0
96
0
68
0
50
0
67
0
89
0
105
0
113
0
80
0
20
0
21
0
177
0
255
0
253
0
253
0
253
0
254
0
254
0
255
0
255
0
255
0
255
0
255
0
255
0
255
0
255
0
255
0
255
0
255
0
254
0
254
0
254
0
254
0
254
0
254
0
254
0
254
0
253
0
254
0
254
0
254
0
254
0
253
0
249
0
244
0
253
0
252
0
238
0
217
0
189
0
144
0
93
0
55
0
16
0
21
0
28
0
53
0
90
0
112
0
125
0
141
0
163
0
174
0
185
0
210
0
213
0
207
0
215
0
197
0
203
0
210
0
225
0
213
0
181
0
177
0
180
0
161
0
150
0
161
0
154
0
146
0
166
0
191
0
203
0
209
0
193
0
158
0
134
0
102
0
33
0
4
0
100
0
234
0
248
0
254
0
254
0
255
0
255
0
253
0
0
0
0
0
0
0
0
0
0
0
0
0
0
0
0
0
0
0
0
0
0
0
0
0
0
0
0
0
0
0
0
0
0
0
0
0
0
0
0
0
0
0
0
0
0
0
0
0
0
0
0
0
0
0
0
0
0
0
0
0
0
0
0
0
0
0
0
0
0
0
0
0
0
0
0
0
0
0
0
0
0
0
0
0
0
0
0
0
0
0
0
0
0
0
0
0
0
0
0
0
0
0
0
0
0
0
0
0
0
0
0
0
0
0
0
0
0
0
0
0
0
0
0
0
0
0
0
0
0
0
0
0
0
0
0
0
0
0
0
0
0
0
0
0
0
0
0
0
0
0
0
0
0
0
0
0
0
0
0
0
0
0
0
0
0
0
0
0
0
0
0
0
0
0
0
0
0
0
0
0
0
0
0
0
0
0
0
0
0
0
0
0
0
0
0
0
0
0
0
0
0
0
0
0
0
0
0
0
0
0
0
0
0
0
0
0
0
0
0
0
0
0
0
0
0
0
0
0
0
0
0
0
0
0
0
0
0
0
0
0
0
0
0
0
0
0
0
0
0
0
0
0
0
0
0
0
0
0
0
0
0
0
0
0
0
0
0
0
0
0
0
0
0
0
0
0
0
0
0
0
0
0
0
0
0
0
0
0
0
0
0
0
0
0
0
0
0
0
0
0
0
0
0
0
0
0
0
0
0
0
0
0
0
0
0
0
0
0
0
0
0
0
0
0
0
0
0
0
0
0
0
0
0
0
0
0
0
0
0
0
0
0
0
0
0
0
0
0
0
0
0
0
0
0
0
0
0
0
0
0
0
0
0
0
0
0
0
0
0
0
0
0
0
0
0
0
0
0
0
0
0
0
0
0
0
0
0
0
0
0
0
0
0
0
0
0
0
0
0
0
0
0
0
0
0
0
0
0
0
0
0
0
0
0
0
0
0
0
0
0
0
0
0
0
0
0
0
0
0
0
0
0
0
0
0
0
0
0
0
0
0
0
0
0
79
0
152
0
145
0
140
0
144
0
163
0
181
0
183
0
174
0
171
0
121
0
55
0
7
0
0
0
2
0
6
0
3
0
5
0
6
0
14
0
35
0
64
0
86
0
92
0
88
0
90
0
70
0
39
0
24
0
37
0
58
0
67
0
66
0
61
0
62
0
62
0
59
0
53
0
50
0
48
0
48
0
58
0
59
0
59
0
57
0
58
0
62
0
61
0
57
0
56
0
52
0
41
0
46
0
64
0
63
0
57
0
67
0
69
0
62
0
59
0
62
0
67
0
64
0
57
0
52
0
55
0
84
0
98
0
68
0
22
0
13
0
60
0
119
0
106
0
101
0
104
0
109
0
83
0
48
0
122
0
111
0
127
0
103
0
90
0
81
0
73
0
77
0
72
0
46
0
57
0
97
0
133
0
138
0
128
0
125
0
127
0
131
0
123
0
139
0
133
0
91
0
85
0
123
0
130
0
133
0
109
0
88
0
95
0
113
0
130
0
124
0
124
0
73
0
1
0
15
0
3
0
1
0
7
0
1
0
0
0
22
0
106
0
136
0
120
0
88
0
73
0
52
0
42
0
51
0
90
0
105
0
111
0
75
0
16
0
22
0
176
0
251
0
253
0
253
0
253
0
254
0
254
0
255
0
255
0
255
0
255
0
255
0
255
0
255
0
255
0
255
0
255
0
255
0
254
0
254
0
254
0
254
0
254
0
254
0
254
0
254
0
249
0
254
0
255
0
246
0
242
0
253
0
255
0
255
0
243
0
204
0
146
0
82
0
23
0
4
0
19
0
55
0
133
0
144
0
155
0
169
0
180
0
162
0
135
0
126
0
105
0
104
0
99
0
115
0
124
0
139
0
165
0
159
0
149
0
157
0
177
0
188
0
193
0
203
0
170
0
103
0
71
0
114
0
145
0
158
0
180
0
196
0
199
0
199
0
197
0
207
0
181
0
179
0
166
0
69
0
26
0
104
0
247
0
255
0
251
0
241
0
249
0
255
0
0
0
0
0
0
0
0
0
0
0
0
0
0
0
0
0
0
0
0
0
0
0
0
0
0
0
0
0
0
0
0
0
0
0
0
0
0
0
0
0
0
0
0
0
0
0
0
0
0
0
0
0
0
0
0
0
0
0
0
0
0
0
0
0
0
0
0
0
0
0
0
0
0
0
0
0
0
0
0
0
0
0
0
0
0
0
0
0
0
0
0
0
0
0
0
0
0
0
0
0
0
0
0
0
0
0
0
0
0
0
0
0
0
0
0
0
0
0
0
0
0
0
0
0
0
0
0
0
0
0
0
0
0
0
0
0
0
0
0
0
0
0
0
0
0
0
0
0
0
0
0
0
0
0
0
0
0
0
0
0
0
0
0
0
0
0
0
0
0
0
0
0
0
0
0
0
0
0
0
0
0
0
0
0
0
0
0
0
0
0
0
0
0
0
0
0
0
0
0
0
0
0
0
0
0
0
0
0
0
0
0
0
0
0
0
0
0
0
0
0
0
0
0
0
0
0
0
0
0
0
0
0
0
0
0
0
0
0
0
0
0
0
0
0
0
0
0
0
0
0
0
0
0
0
0
0
0
0
0
0
0
0
0
0
0
0
0
0
0
0
0
0
0
0
0
0
0
0
0
0
0
0
0
0
0
0
0
0
0
0
0
0
0
0
0
0
0
0
0
0
0
0
0
0
0
0
0
0
0
0
0
0
0
0
0
0
0
0
0
0
0
0
0
0
0
0
0
0
0
0
0
0
0
0
0
0
0
0
0
0
0
0
0
0
0
0
0
0
0
0
0
0
0
0
0
0
0
0
0
0
0
0
0
0
0
0
0
0
0
0
0
0
0
0
0
0
0
0
0
0
0
0
0
0
0
0
0
0
0
0
0
0
0
0
0
0
0
0
0
0
0
0
0
0
0
0
0
0
0
0
0
0
0
0
0
0
0
0
0
0
0
0
0
0
0
0
0
0
0
0
0
0
0
0
0
0
0
0
0
0
0
0
0
0
107
0
145
0
149
0
150
0
148
0
155
0
171
0
181
0
185
0
180
0
153
0
91
0
22
0
0
0
4
0
8
0
0
0
6
0
2
0
0
0
6
0
26
0
54
0
76
0
88
0
86
0
91
0
79
0
49
0
28
0
35
0
53
0
63
0
60
0
59
0
59
0
59
0
59
0
53
0
45
0
38
0
61
0
64
0
64
0
61
0
62
0
64
0
63
0
60
0
61
0
63
0
41
0
34
0
58
0
61
0
52
0
68
0
63
0
60
0
58
0
58
0
62
0
63
0
61
0
57
0
51
0
74
0
78
0
47
0
19
0
33
0
76
0
112
0
115
0
114
0
112
0
123
0
116
0
44
0
114
0
118
0
104
0
85
0
77
0
78
0
79
0
85
0
93
0
94
0
73
0
103
0
126
0
128
0
128
0
133
0
132
0
122
0
124
0
135
0
129
0
98
0
85
0
123
0
121
0
116
0
75
0
88
0
116
0
134
0
143
0
123
0
113
0
65
0
1
0
12
0
2
0
0
0
3
0
5
0
0
0
1
0
79
0
128
0
104
0
65
0
54
0
41
0
44
0
57
0
96
0
106
0
109
0
75
0
16
0
20
0
173
0
249
0
253
0
253
0
253
0
254
0
254
0
255
0
255
0
255
0
255
0
255
0
255
0
255
0
255
0
255
0
255
0
255
0
253
0
253
0
253
0
253
0
253
0
253
0
253
0
253
0
252
0
251
0
245
0
243
0
253
0
254
0
211
0
158
0
100
0
42
0
7
0
37
0
102
0
152
0
171
0
174
0
154
0
147
0
123
0
100
0
79
0
46
0
18
0
13
0
16
0
44
0
80
0
129
0
150
0
155
0
157
0
131
0
122
0
114
0
105
0
101
0
125
0
171
0
198
0
190
0
154
0
194
0
218
0
222
0
225
0
222
0
211
0
208
0
213
0
214
0
199
0
201
0
204
0
141
0
51
0
10
0
165
0
236
0
255
0
255
0
247
0
255
0
0
0
0
0
0
0
0
0
0
0
0
0
0
0
0
0
0
0
0
0
0
0
0
0
0
0
0
0
0
0
0
0
0
0
0
0
0
0
0
0
0
0
0
0
0
0
0
0
0
0
0
0
0
0
0
0
0
0
0
0
0
0
0
0
0
0
0
0
0
0
0
0
0
0
0
0
0
0
0
0
0
0
0
0
0
0
0
0
0
0
0
0
0
0
0
0
0
0
0
0
0
0
0
0
0
0
0
0
0
0
0
0
0
0
0
0
0
0
0
0
0
0
0
0
0
0
0
0
0
0
0
0
0
0
0
0
0
0
0
0
0
0
0
0
0
0
0
0
0
0
0
0
0
0
0
0
0
0
0
0
0
0
0
0
0
0
0
0
0
0
0
0
0
0
0
0
0
0
0
0
0
0
0
0
0
0
0
0
0
0
0
0
0
0
0
0
0
0
0
0
0
0
0
0
0
0
0
0
0
0
0
0
0
0
0
0
0
0
0
0
0
0
0
0
0
0
0
0
0
0
0
0
0
0
0
0
0
0
0
0
0
0
0
0
0
0
0
0
0
0
0
0
0
0
0
0
0
0
0
0
0
0
0
0
0
0
0
0
0
0
0
0
0
0
0
0
0
0
0
0
0
0
0
0
0
0
0
0
0
0
0
0
0
0
0
0
0
0
0
0
0
0
0
0
0
0
0
0
0
0
0
0
0
0
0
0
0
0
0
0
0
0
0
0
0
0
0
0
0
0
0
0
0
0
0
0
0
0
0
0
0
0
0
0
0
0
0
0
0
0
0
0
0
0
0
0
0
0
0
0
0
0
0
0
0
0
0
0
0
0
0
0
0
0
0
0
0
0
0
0
0
0
0
0
0
0
0
0
0
0
0
0
0
0
0
0
0
0
0
0
0
0
0
0
0
0
0
0
0
0
0
0
0
0
0
0
0
0
0
0
0
0
0
0
0
0
0
0
0
0
0
0
0
0
0
0
0
0
0
0
0
0
0
0
117
0
145
0
151
0
150
0
145
0
149
0
166
0
177
0
177
0
182
0
163
0
107
0
32
0
0
0
1
0
7
0
0
0
2
0
1
0
1
0
1
0
1
0
15
0
36
0
54
0
66
0
81
0
91
0
81
0
50
0
27
0
34
0
49
0
60
0
58
0
57
0
60
0
63
0
60
0
50
0
43
0
53
0
57
0
58
0
56
0
55
0
57
0
57
0
55
0
67
0
67
0
54
0
42
0
46
0
57
0
62
0
63
0
62
0
62
0
63
0
63
0
63
0
64
0
66
0
66
0
50
0
52
0
41
0
26
0
33
0
64
0
94
0
108
0
122
0
117
0
121
0
125
0
112
0
64
0
65
0
100
0
87
0
95
0
101
0
109
0
121
0
123
0
123
0
129
0
75
0
101
0
126
0
129
0
123
0
122
0
126
0
130
0
128
0
131
0
122
0
104
0
90
0
122
0
101
0
83
0
79
0
120
0
139
0
124
0
133
0
130
0
118
0
59
0
3
0
2
0
1
0
1
0
2
0
1
0
0
0
1
0
40
0
93
0
69
0
41
0
41
0
31
0
54
0
83
0
105
0
107
0
106
0
75
0
18
0
18
0
172
0
251
0
253
0
253
0
253
0
254
0
254
0
255
0
255
0
255
0
255
0
255
0
255
0
255
0
255
0
255
0
255
0
255
0
253
0
253
0
253
0
253
0
253
0
253
0
253
0
253
0
254
0
253
0
251
0
247
0
220
0
158
0
78
0
22
0
35
0
83
0
138
0
168
0
166
0
146
0
121
0
102
0
62
0
46
0
12
0
3
0
2
0
5
0
30
0
62
0
120
0
144
0
166
0
183
0
167
0
140
0
121
0
84
0
50
0
35
0
8
0
1
0
1
0
39
0
124
0
205
0
197
0
210
0
210
0
208
0
223
0
231
0
235
0
240
0
237
0
213
0
215
0
216
0
203
0
191
0
123
0
14
0
57
0
145
0
224
0
253
0
255
0
251
0
0
0
0
0
0
0
0
0
0
0
0
0
0
0
0
0
0
0
0
0
0
0
0
0
0
0
0
0
0
0
0
0
0
0
0
0
0
0
0
0
0
0
0
0
0
0
0
0
0
0
0
0
0
0
0
0
0
0
0
0
0
0
0
0
0
0
0
0
0
0
0
0
0
0
0
0
0
0
0
0
0
0
0
0
0
0
0
0
0
0
0
0
0
0
0
0
0
0
0
0
0
0
0
0
0
0
0
0
0
0
0
0
0
0
0
0
0
0
0
0
0
0
0
0
0
0
0
0
0
0
0
0
0
0
0
0
0
0
0
0
0
0
0
0
0
0
0
0
0
0
0
0
0
0
0
0
0
0
0
0
0
0
0
0
0
0
0
0
0
0
0
0
0
0
0
0
0
0
0
0
0
0
0
0
0
0
0
0
0
0
0
0
0
0
0
0
0
0
0
0
0
0
0
0
0
0
0
0
0
0
0
0
0
0
0
0
0
0
0
0
0
0
0
0
0
0
0
0
0
0
0
0
0
0
0
0
0
0
0
0
0
0
0
0
0
0
0
0
0
0
0
0
0
0
0
0
0
0
0
0
0
0
0
0
0
0
0
0
0
0
0
0
0
0
0
0
0
0
0
0
0
0
0
0
0
0
0
0
0
0
0
0
0
0
0
0
0
0
0
0
0
0
0
0
0
0
0
0
0
0
0
0
0
0
0
0
0
0
0
0
0
0
0
0
0
0
0
0
0
0
0
0
0
0
0
0
0
0
0
0
0
0
0
0
0
0
0
0
0
0
0
0
0
0
0
0
0
0
0
0
0
0
0
0
0
0
0
0
0
0
0
0
0
0
0
0
0
0
0
0
0
0
0
0
0
0
0
0
0
0
0
0
0
0
0
0
0
0
0
0
0
0
0
0
0
0
0
0
0
0
0
0
0
0
0
0
0
0
0
0
0
0
0
0
0
0
0
0
0
0
0
0
0
0
0
0
0
0
0
0
0
0
0
0
129
0
147
0
146
0
138
0
136
0
156
0
182
0
187
0
175
0
185
0
165
0
108
0
34
0
1
0
1
0
7
0
6
0
3
0
2
0
4
0
4
0
2
0
0
0
5
0
13
0
39
0
47
0
71
0
93
0
80
0
43
0
30
0
42
0
68
0
66
0
64
0
65
0
65
0
60
0
51
0
44
0
53
0
58
0
60
0
59
0
59
0
60
0
60
0
57
0
62
0
55
0
61
0
49
0
35
0
54
0
75
0
62
0
59
0
64
0
68
0
65
0
64
0
65
0
67
0
68
0
50
0
31
0
9
0
12
0
49
0
91
0
108
0
108
0
117
0
111
0
120
0
114
0
88
0
77
0
33
0
68
0
102
0
123
0
123
0
122
0
135
0
135
0
128
0
135
0
82
0
99
0
125
0
136
0
128
0
119
0
124
0
137
0
119
0
132
0
136
0
119
0
84
0
101
0
80
0
68
0
118
0
135
0
128
0
112
0
131
0
122
0
112
0
73
0
7
0
0
0
1
0
7
0
4
0
2
0
0
0
5
0
9
0
59
0
36
0
24
0
34
0
26
0
61
0
110
0
110
0
107
0
105
0
77
0
20
0
18
0
172
0
254
0
253
0
253
0
253
0
254
0
254
0
255
0
255
0
255
0
255
0
255
0
255
0
255
0
255
0
255
0
255
0
255
0
253
0
253
0
253
0
253
0
253
0
253
0
253
0
253
0
254
0
251
0
226
0
166
0
76
0
17
0
40
0
97
0
143
0
163
0
156
0
121
0
88
0
65
0
31
0
9
0
3
0
3
0
1
0
8
0
42
0
85
0
135
0
180
0
191
0
192
0
169
0
136
0
87
0
49
0
39
0
13
0
2
0
0
0
1
0
7
0
8
0
1
0
43
0
129
0
208
0
207
0
201
0
206
0
230
0
238
0
230
0
227
0
218
0
231
0
225
0
220
0
236
0
233
0
184
0
135
0
15
0
42
0
107
0
199
0
255
0
254
0
0
0
0
0
0
0
0
0
0
0
0
0
0
0
0
0
0
0
0
0
0
0
0
0
0
0
0
0
0
0
0
0
0
0
0
0
0
0
0
0
0
0
0
0
0
0
0
0
0
0
0
0
0
0
0
0
0
0
0
0
0
0
0
0
0
0
0
0
0
0
0
0
0
0
0
0
0
0
0
0
0
0
0
0
0
0
0
0
0
0
0
0
0
0
0
0
0
0
0
0
0
0
0
0
0
0
0
0
0
0
0
0
0
0
0
0
0
0
0
0
0
0
0
0
0
0
0
0
0
0
0
0
0
0
0
0
0
0
0
0
0
0
0
0
0
0
0
0
0
0
0
0
0
0
0
0
0
0
0
0
0
0
0
0
0
0
0
0
0
0
0
0
0
0
0
0
0
0
0
0
0
0
0
0
0
0
0
0
0
0
0
0
0
0
0
0
0
0
0
0
0
0
0
0
0
0
0
0
0
0
0
0
0
0
0
0
0
0
0
0
0
0
0
0
0
0
0
0
0
0
0
0
0
0
0
0
0
0
0
0
0
0
0
0
0
0
0
0
0
0
0
0
0
0
0
0
0
0
0
0
0
0
0
0
0
0
0
0
0
0
0
0
0
0
0
0
0
0
0
0
0
0
0
0
0
0
0
0
0
0
0
0
0
0
0
0
0
0
0
0
0
0
0
0
0
0
0
0
0
0
0
0
0
0
0
0
0
0
0
0
0
0
0
0
0
0
0
0
0
0
0
0
0
0
0
0
0
0
0
0
0
0
0
0
0
0
0
0
0
0
0
0
0
0
0
0
0
0
0
0
0
0
0
0
0
0
0
0
0
0
0
0
0
0
0
0
0
0
0
0
0
0
0
0
0
0
0
0
0
0
0
0
0
0
0
0
0
0
0
0
0
0
0
0
0
0
0
0
0
0
0
0
0
0
0
0
0
0
0
0
0
0
0
0
0
0
0
0
0
0
0
0
0
0
0
0
0
0
0
0
0
0
0
0
91
0
126
0
139
0
146
0
145
0
157
0
177
0
183
0
177
0
176
0
163
0
128
0
54
0
3
0
1
0
1
0
2
0
3
0
2
0
2
0
1
0
1
0
2
0
2
0
3
0
0
0
5
0
20
0
47
0
66
0
65
0
46
0
25
0
36
0
34
0
37
0
45
0
54
0
59
0
57
0
53
0
34
0
47
0
58
0
61
0
62
0
62
0
60
0
54
0
67
0
65
0
61
0
53
0
41
0
38
0
50
0
67
0
63
0
69
0
74
0
74
0
70
0
66
0
59
0
52
0
23
0
10
0
12
0
49
0
101
0
123
0
112
0
100
0
94
0
69
0
77
0
71
0
90
0
94
0
48
0
70
0
140
0
122
0
121
0
129
0
131
0
138
0
141
0
120
0
101
0
93
0
112
0
132
0
128
0
126
0
130
0
121
0
125
0
141
0
132
0
124
0
51
0
44
0
95
0
137
0
127
0
128
0
126
0
126
0
126
0
119
0
97
0
73
0
7
0
3
0
0
0
0
0
0
0
1
0
1
0
1
0
8
0
2
0
11
0
13
0
1
0
33
0
91
0
119
0
104
0
108
0
81
0
49
0
3
0
19
0
156
0
254
0
253
0
252
0
252
0
253
0
255
0
254
0
253
0
251
0
252
0
252
0
255
0
255
0
255
0
243
0
247
0
255
0
248
0
249
0
250
0
251
0
251
0
253
0
254
0
254
0
226
0
152
0
69
0
19
0
32
0
105
0
159
0
154
0
123
0
75
0
32
0
23
0
17
0
4
0
1
0
11
0
1
0
7
0
42
0
109
0
154
0
168
0
191
0
199
0
157
0
110
0
72
0
39
0
1
0
1
0
4
0
0
0
13
0
1
0
6
0
8
0
3
0
0
0
30
0
106
0
184
0
201
0
204
0
192
0
200
0
226
0
234
0
224
0
236
0
246
0
250
0
244
0
218
0
190
0
170
0
162
0
48
0
13
0
0
0
77
0
204
0
254
0
0
0
0
0
0
0
0
0
0
0
0
0
0
0
0
0
0
0
0
0
0
0
0
0
0
0
0
0
0
0
0
0
0
0
0
0
0
0
0
0
0
0
0
0
0
0
0
0
0
0
0
0
0
0
0
0
0
0
0
0
0
0
0
0
0
0
0
0
0
0
0
0
0
0
0
0
0
0
0
0
0
0
0
0
0
0
0
0
0
0
0
0
0
0
0
0
0
0
0
0
0
0
0
0
0
0
0
0
0
0
0
0
0
0
0
0
0
0
0
0
0
0
0
0
0
0
0
0
0
0
0
0
0
0
0
0
0
0
0
0
0
0
0
0
0
0
0
0
0
0
0
0
0
0
0
0
0
0
0
0
0
0
0
0
0
0
0
0
0
0
0
0
0
0
0
0
0
0
0
0
0
0
0
0
0
0
0
0
0
0
0
0
0
0
0
0
0
0
0
0
0
0
0
0
0
0
0
0
0
0
0
0
0
0
0
0
0
0
0
0
0
0
0
0
0
0
0
0
0
0
0
0
0
0
0
0
0
0
0
0
0
0
0
0
0
0
0
0
0
0
0
0
0
0
0
0
0
0
0
0
0
0
0
0
0
0
0
0
0
0
0
0
0
0
0
0
0
0
0
0
0
0
0
0
0
0
0
0
0
0
0
0
0
0
0
0
0
0
0
0
0
0
0
0
0
0
0
0
0
0
0
0
0
0
0
0
0
0
0
0
0
0
0
0
0
0
0
0
0
0
0
0
0
0
0
0
0
0
0
0
0
0
0
0
0
0
0
0
0
0
0
0
0
0
0
0
0
0
0
0
0
0
0
0
0
0
0
0
0
0
0
0
0
0
0
0
0
0
0
0
0
0
0
0
0
0
0
0
0
0
0
0
0
0
0
0
0
0
0
0
0
0
0
0
0
0
0
0
0
0
0
0
0
0
0
0
0
0
0
0
0
0
0
0
0
0
0
0
0
0
0
0
0
0
0
0
0
0
0
0
0
0
0
0
122
0
132
0
142
0
146
0
143
0
153
0
173
0
181
0
176
0
172
0
162
0
129
0
74
0
16
0
1
0
6
0
4
0
3
0
2
0
1
0
1
0
1
0
1
0
2
0
3
0
7
0
2
0
3
0
6
0
14
0
24
0
29
0
29
0
5
0
16
0
30
0
38
0
40
0
39
0
39
0
39
0
28
0
45
0
62
0
65
0
62
0
60
0
63
0
65
0
71
0
71
0
69
0
63
0
53
0
49
0
54
0
64
0
54
0
60
0
62
0
58
0
49
0
40
0
28
0
17
0
8
0
13
0
57
0
100
0
100
0
87
0
78
0
70
0
72
0
70
0
90
0
103
0
127
0
129
0
87
0
69
0
133
0
119
0
117
0
125
0
128
0
129
0
128
0
123
0
126
0
99
0
97
0
115
0
122
0
130
0
136
0
129
0
126
0
114
0
93
0
93
0
58
0
55
0
107
0
139
0
130
0
126
0
120
0
123
0
128
0
121
0
96
0
70
0
3
0
5
0
5
0
4
0
3
0
2
0
0
0
1
0
6
0
1
0
0
0
2
0
32
0
91
0
117
0
92
0
117
0
94
0
61
0
52
0
11
0
6
0
131
0
251
0
252
0
252
0
252
0
253
0
254
0
255
0
255
0
254
0
255
0
254
0
249
0
250
0
255
0
255
0
255
0
248
0
254
0
254
0
255
0
255
0
255
0
249
0
182
0
105
0
49
0
17
0
35
0
96
0
134
0
134
0
98
0
53
0
21
0
23
0
13
0
3
0
1
0
5
0
5
0
2
0
41
0
94
0
133
0
169
0
197
0
206
0
191
0
142
0
84
0
57
0
43
0
28
0
3
0
1
0
10
0
5
0
5
0
1
0
7
0
0
0
5
0
64
0
111
0
160
0
180
0
197
0
205
0
194
0
190
0
210
0
242
0
252
0
241
0
194
0
141
0
105
0
75
0
46
0
28
0
26
0
7
0
1
0
0
0
13
0
97
0
209
0
0
0
0
0
0
0
0
0
0
0
0
0
0
0
0
0
0
0
0
0
0
0
0
0
0
0
0
0
0
0
0
0
0
0
0
0
0
0
0
0
0
0
0
0
0
0
0
0
0
0
0
0
0
0
0
0
0
0
0
0
0
0
0
0
0
0
0
0
0
0
0
0
0
0
0
0
0
0
0
0
0
0
0
0
0
0
0
0
0
0
0
0
0
0
0
0
0
0
0
0
0
0
0
0
0
0
0
0
0
0
0
0
0
0
0
0
0
0
0
0
0
0
0
0
0
0
0
0
0
0
0
0
0
0
0
0
0
0
0
0
0
0
0
0
0
0
0
0
0
0
0
0
0
0
0
0
0
0
0
0
0
0
0
0
0
0
0
0
0
0
0
0
0
0
0
0
0
0
0
0
0
0
0
0
0
0
0
0
0
0
0
0
0
0
0
0
0
0
0
0
0
0
0
0
0
0
0
0
0
0
0
0
0
0
0
0
0
0
0
0
0
0
0
0
0
0
0
0
0
0
0
0
0
0
0
0
0
0
0
0
0
0
0
0
0
0
0
0
0
0
0
0
0
0
0
0
0
0
0
0
0
0
0
0
0
0
0
0
0
0
0
0
0
0
0
0
0
0
0
0
0
0
0
0
0
0
0
0
0
0
0
0
0
0
0
0
0
0
0
0
0
0
0
0
0
0
0
0
0
0
0
0
0
0
0
0
0
0
0
0
0
0
0
0
0
0
0
0
0
0
0
0
0
0
0
0
0
0
0
0
0
0
0
0
0
0
0
0
0
0
0
0
0
0
0
0
0
0
0
0
0
0
0
0
0
0
0
0
0
0
0
0
0
0
0
0
0
0
0
0
0
0
0
0
0
0
0
0
0
0
0
0
0
0
0
0
0
0
0
0
0
0
0
0
0
0
0
0
0
0
0
0
0
0
0
0
0
0
0
0
0
0
0
0
0
0
0
0
0
0
0
0
0
0
0
0
0
0
0
0
0
0
0
0
113
0
139
0
145
0
145
0
140
0
149
0
170
0
178
0
173
0
167
0
160
0
129
0
102
0
35
0
0
0
14
0
4
0
3
0
2
0
1
0
1
0
1
0
1
0
2
0
3
0
1
0
1
0
2
0
2
0
2
0
1
0
8
0
14
0
0
0
7
0
24
0
38
0
44
0
44
0
43
0
42
0
24
0
34
0
48
0
53
0
51
0
46
0
51
0
58
0
53
0
54
0
59
0
61
0
58
0
51
0
51
0
53
0
64
0
65
0
60
0
46
0
32
0
22
0
10
0
2
0
26
0
16
0
50
0
76
0
59
0
54
0
78
0
97
0
101
0
112
0
108
0
119
0
129
0
126
0
104
0
50
0
127
0
128
0
127
0
129
0
130
0
120
0
117
0
128
0
119
0
98
0
98
0
118
0
125
0
126
0
132
0
133
0
97
0
81
0
82
0
97
0
94
0
80
0
115
0
135
0
127
0
125
0
124
0
125
0
125
0
118
0
97
0
78
0
1
0
2
0
3
0
3
0
1
0
0
0
0
0
1
0
3
0
1
0
4
0
26
0
69
0
119
0
123
0
88
0
80
0
60
0
39
0
41
0
15
0
1
0
112
0
245
0
252
0
252
0
252
0
252
0
253
0
255
0
255
0
255
0
253
0
255
0
255
0
252
0
243
0
244
0
253
0
255
0
254
0
236
0
237
0
250
0
219
0
133
0
54
0
21
0
52
0
91
0
142
0
144
0
97
0
53
0
22
0
2
0
4
0
3
0
2
0
13
0
3
0
2
0
15
0
70
0
108
0
162
0
191
0
208
0
215
0
204
0
161
0
87
0
66
0
54
0
48
0
33
0
9
0
1
0
5
0
1
0
3
0
0
0
7
0
10
0
61
0
143
0
181
0
194
0
167
0
172
0
187
0
205
0
202
0
180
0
159
0
151
0
104
0
54
0
11
0
4
0
3
0
1
0
1
0
1
0
0
0
0
0
2
0
0
0
2
0
113
0
0
0
0
0
0
0
0
0
0
0
0
0
0
0
0
0
0
0
0
0
0
0
0
0
0
0
0
0
0
0
0
0
0
0
0
0
0
0
0
0
0
0
0
0
0
0
0
0
0
0
0
0
0
0
0
0
0
0
0
0
0
0
0
0
0
0
0
0
0
0
0
0
0
0
0
0
0
0
0
0
0
0
0
0
0
0
0
0
0
0
0
0
0
0
0
0
0
0
0
0
0
0
0
0
0
0
0
0
0
0
0
0
0
0
0
0
0
0
0
0
0
0
0
0
0
0
0
0
0
0
0
0
0
0
0
0
0
0
0
0
0
0
0
0
0
0
0
0
0
0
0
0
0
0
0
0
0
0
0
0
0
0
0
0
0
0
0
0
0
0
0
0
0
0
0
0
0
0
0
0
0
0
0
0
0
0
0
0
0
0
0
0
0
0
0
0
0
0
0
0
0
0
0
0
0
0
0
0
0
0
0
0
0
0
0
0
0
0
0
0
0
0
0
0
0
0
0
0
0
0
0
0
0
0
0
0
0
0
0
0
0
0
0
0
0
0
0
0
0
0
0
0
0
0
0
0
0
0
0
0
0
0
0
0
0
0
0
0
0
0
0
0
0
0
0
0
0
0
0
0
0
0
0
0
0
0
0
0
0
0
0
0
0
0
0
0
0
0
0
0
0
0
0
0
0
0
0
0
0
0
0
0
0
0
0
0
0
0
0
0
0
0
0
0
0
0
0
0
0
0
0
0
0
0
0
0
0
0
0
0
0
0
0
0
0
0
0
0
0
0
0
0
0
0
0
0
0
0
0
0
0
0
0
0
0
0
0
0
0
0
0
0
0
0
0
0
0
0
0
0
0
0
0
0
0
0
0
0
0
0
0
0
0
0
0
0
0
0
0
0
0
0
0
0
0
0
0
0
0
0
0
0
0
0
0
0
0
0
0
0
0
0
0
0
0
0
0
0
0
0
0
0
0
0
0
0
0
0
0
0
0
0
0
0
136
0
138
0
144
0
144
0
139
0
148
0
170
0
177
0
170
0
167
0
158
0
128
0
121
0
52
0
0
0
16
0
3
0
2
0
2
0
1
0
0
0
0
0
1
0
2
0
2
0
1
0
2
0
7
0
8
0
4
0
1
0
1
0
1
0
9
0
5
0
9
0
27
0
49
0
61
0
60
0
54
0
37
0
28
0
24
0
33
0
41
0
41
0
38
0
37
0
35
0
36
0
42
0
49
0
48
0
38
0
29
0
27
0
45
0
44
0
34
0
18
0
6
0
4
0
5
0
4
0
22
0
23
0
34
0
52
0
68
0
80
0
93
0
106
0
111
0
121
0
101
0
118
0
122
0
116
0
126
0
66
0
104
0
128
0
134
0
126
0
124
0
111
0
108
0
124
0
121
0
92
0
88
0
114
0
138
0
131
0
106
0
83
0
87
0
86
0
116
0
129
0
124
0
86
0
107
0
132
0
122
0
129
0
134
0
131
0
120
0
107
0
96
0
91
0
9
0
3
0
0
0
0
0
0
0
0
0
2
0
5
0
4
0
1
0
14
0
61
0
100
0
110
0
93
0
71
0
23
0
39
0
38
0
32
0
11
0
4
0
97
0
229
0
252
0
253
0
253
0
253
0
252
0
253
0
255
0
255
0
250
0
245
0
249
0
255
0
255
0
253
0
246
0
249
0
253
0
255
0
240
0
160
0
63
0
16
0
38
0
79
0
154
0
152
0
121
0
59
0
12
0
2
0
3
0
2
0
8
0
12
0
7
0
4
0
6
0
47
0
105
0
144
0
180
0
197
0
205
0
222
0
216
0
175
0
135
0
92
0
83
0
78
0
62
0
34
0
6
0
1
0
1
0
0
0
5
0
0
0
22
0
77
0
147
0
192
0
195
0
187
0
177
0
149
0
142
0
159
0
154
0
107
0
57
0
30
0
2
0
1
0
1
0
3
0
8
0
3
0
6
0
16
0
13
0
0
0
6
0
8
0
0
0
16
0
0
0
0
0
0
0
0
0
0
0
0
0
0
0
0
0
0
0
0
0
0
0
0
0
0
0
0
0
0
0
0
0
0
0
0
0
0
0
0
0
0
0
0
0
0
0
0
0
0
0
0
0
0
0
0
0
0
0
0
0
0
0
0
0
0
0
0
0
0
0
0
0
0
0
0
0
0
0
0
0
0
0
0
0
0
0
0
0
0
0
0
0
0
0
0
0
0
0
0
0
0
0
0
0
0
0
0
0
0
0
0
0
0
0
0
0
0
0
0
0
0
0
0
0
0
0
0
0
0
0
0
0
0
0
0
0
0
0
0
0
0
0
0
0
0
0
0
0
0
0
0
0
0
0
0
0
0
0
0
0
0
0
0
0
0
0
0
0
0
0
0
0
0
0
0
0
0
0
0
0
0
0
0
0
0
0
0
0
0
0
0
0
0
0
0
0
0
0
0
0
0
0
0
0
0
0
0
0
0
0
0
0
0
0
0
0
0
0
0
0
0
0
0
0
0
0
0
0
0
0
0
0
0
0
0
0
0
0
0
0
0
0
0
0
0
0
0
0
0
0
0
0
0
0
0
0
0
0
0
0
0
0
0
0
0
0
0
0
0
0
0
0
0
0
0
0
0
0
0
0
0
0
0
0
0
0
0
0
0
0
0
0
0
0
0
0
0
0
0
0
0
0
0
0
0
0
0
0
0
0
0
0
0
0
0
0
0
0
0
0
0
0
0
0
0
0
0
0
0
0
0
0
0
0
0
0
0
0
0
0
0
0
0
0
0
0
0
0
0
0
0
0
0
0
0
0
0
0
0
0
0
0
0
0
0
0
0
0
0
0
0
0
0
0
0
0
0
0
0
0
0
0
0
0
0
0
0
0
0
0
0
0
0
0
0
0
0
0
0
0
0
0
0
0
0
0
0
0
0
0
0
0
0
0
0
0
0
0
0
0
0
0
0
0
0
0
0
0
0
0
0
0
0
0
0
0
0
0
0
0
0
0
0
0
132
0
134
0
141
0
142
0
139
0
151
0
171
0
176
0
166
0
168
0
159
0
125
0
128
0
67
0
2
0
9
0
1
0
2
0
1
0
0
0
0
0
0
0
0
0
1
0
2
0
4
0
3
0
0
0
0
0
1
0
0
0
1
0
2
0
5
0
0
0
2
0
6
0
27
0
47
0
56
0
60
0
65
0
38
0
20
0
25
0
47
0
58
0
48
0
34
0
45
0
44
0
47
0
50
0
46
0
31
0
16
0
10
0
20
0
22
0
22
0
14
0
13
0
21
0
35
0
45
0
55
0
70
0
50
0
49
0
98
0
118
0
101
0
97
0
99
0
110
0
98
0
127
0
125
0
113
0
130
0
86
0
64
0
106
0
122
0
112
0
109
0
106
0
104
0
113
0
110
0
103
0
98
0
100
0
98
0
84
0
73
0
77
0
112
0
113
0
139
0
136
0
122
0
77
0
93
0
130
0
126
0
129
0
130
0
125
0
112
0
98
0
87
0
85
0
20
0
8
0
1
0
4
0
7
0
5
0
3
0
3
0
2
0
4
0
33
0
84
0
118
0
101
0
53
0
20
0
9
0
37
0
44
0
34
0
17
0
1
0
66
0
208
0
252
0
254
0
255
0
253
0
251
0
250
0
252
0
254
0
255
0
254
0
249
0
244
0
246
0
255
0
255
0
255
0
255
0
166
0
53
0
4
0
17
0
77
0
131
0
155
0
124
0
70
0
20
0
7
0
11
0
5
0
2
0
12
0
6
0
1
0
1
0
17
0
68
0
132
0
175
0
191
0
216
0
213
0
206
0
219
0
199
0
144
0
115
0
95
0
75
0
76
0
54
0
18
0
0
0
1
0
4
0
6
0
4
0
24
0
75
0
149
0
198
0
204
0
194
0
186
0
142
0
111
0
95
0
102
0
91
0
46
0
8
0
2
0
3
0
9
0
11
0
4
0
0
0
0
0
0
0
0
0
0
0
0
0
0
0
10
0
2
0
0
0
0
0
0
0
0
0
0
0
0
0
0
0
0
0
0
0
0
0
0
0
0
0
0
0
0
0
0
0
0
0
0
0
0
0
0
0
0
0
0
0
0
0
0
0
0
0
0
0
0
0
0
0
0
0
0
0
0
0
0
0
0
0
0
0
0
0
0
0
0
0
0
0
0
0
0
0
0
0
0
0
0
0
0
0
0
0
0
0
0
0
0
0
0
0
0
0
0
0
0
0
0
0
0
0
0
0
0
0
0
0
0
0
0
0
0
0
0
0
0
0
0
0
0
0
0
0
0
0
0
0
0
0
0
0
0
0
0
0
0
0
0
0
0
0
0
0
0
0
0
0
0
0
0
0
0
0
0
0
0
0
0
0
0
0
0
0
0
0
0
0
0
0
0
0
0
0
0
0
0
0
0
0
0
0
0
0
0
0
0
0
0
0
0
0
0
0
0
0
0
0
0
0
0
0
0
0
0
0
0
0
0
0
0
0
0
0
0
0
0
0
0
0
0
0
0
0
0
0
0
0
0
0
0
0
0
0
0
0
0
0
0
0
0
0
0
0
0
0
0
0
0
0
0
0
0
0
0
0
0
0
0
0
0
0
0
0
0
0
0
0
0
0
0
0
0
0
0
0
0
0
0
0
0
0
0
0
0
0
0
0
0
0
0
0
0
0
0
0
0
0
0
0
0
0
0
0
0
0
0
0
0
0
0
0
0
0
0
0
0
0
0
0
0
0
0
0
0
0
0
0
0
0
0
0
0
0
0
0
0
0
0
0
0
0
0
0
0
0
0
0
0
0
0
0
0
0
0
0
0
0
0
0
0
0
0
0
0
0
0
0
0
0
0
0
0
0
0
0
0
0
0
0
0
0
0
0
0
0
0
0
0
0
0
0
0
0
0
0
0
0
0
0
0
0
0
0
0
0
0
0
0
0
0
0
0
0
0
0
0
0
0
0
0
0
0
0
0
0
0
0
0
0
0
0
0
0
0
0
0
0
0
0
0
0
109
0
132
0
138
0
139
0
138
0
151
0
172
0
176
0
166
0
168
0
157
0
127
0
126
0
85
0
11
0
1
0
2
0
1
0
1
0
0
0
0
0
0
0
0
0
1
0
1
0
4
0
0
0
0
0
0
0
1
0
2
0
1
0
0
0
1
0
2
0
2
0
2
0
5
0
19
0
40
0
56
0
74
0
53
0
34
0
32
0
51
0
68
0
64
0
51
0
61
0
59
0
61
0
64
0
59
0
47
0
35
0
28
0
22
0
35
0
47
0
49
0
51
0
59
0
71
0
80
0
97
0
114
0
78
0
50
0
89
0
116
0
107
0
105
0
105
0
106
0
103
0
119
0
115
0
103
0
110
0
98
0
52
0
87
0
108
0
105
0
108
0
112
0
109
0
106
0
98
0
100
0
85
0
63
0
53
0
56
0
77
0
107
0
114
0
111
0
127
0
126
0
115
0
87
0
84
0
120
0
130
0
121
0
113
0
108
0
101
0
89
0
75
0
67
0
16
0
5
0
1
0
7
0
9
0
2
0
0
0
1
0
3
0
55
0
97
0
111
0
109
0
78
0
26
0
1
0
15
0
20
0
23
0
30
0
38
0
2
0
31
0
180
0
247
0
251
0
254
0
254
0
250
0
248
0
250
0
252
0
255
0
255
0
255
0
243
0
247
0
254
0
218
0
165
0
36
0
11
0
27
0
89
0
135
0
132
0
117
0
115
0
26
0
20
0
9
0
6
0
13
0
3
0
1
0
5
0
3
0
9
0
52
0
116
0
156
0
167
0
188
0
216
0
213
0
223
0
214
0
210
0
185
0
139
0
111
0
80
0
89
0
92
0
59
0
14
0
3
0
4
0
1
0
0
0
10
0
80
0
142
0
186
0
199
0
199
0
208
0
197
0
116
0
79
0
51
0
48
0
45
0
22
0
2
0
3
0
1
0
6
0
3
0
1
0
1
0
9
0
7
0
1
0
0
0
12
0
0
0
0
0
7
0
4
0
0
0
0
0
0
0
0
0
0
0
0
0
0
0
0
0
0
0
0
0
0
0
0
0
0
0
0
0
0
0
0
0
0
0
0
0
0
0
0
0
0
0
0
0
0
0
0
0
0
0
0
0
0
0
0
0
0
0
0
0
0
0
0
0
0
0
0
0
0
0
0
0
0
0
0
0
0
0
0
0
0
0
0
0
0
0
0
0
0
0
0
0
0
0
0
0
0
0
0
0
0
0
0
0
0
0
0
0
0
0
0
0
0
0
0
0
0
0
0
0
0
0
0
0
0
0
0
0
0
0
0
0
0
0
0
0
0
0
0
0
0
0
0
0
0
0
0
0
0
0
0
0
0
0
0
0
0
0
0
0
0
0
0
0
0
0
0
0
0
0
0
0
0
0
0
0
0
0
0
0
0
0
0
0
0
0
0
0
0
0
0
0
0
0
0
0
0
0
0
0
0
0
0
0
0
0
0
0
0
0
0
0
0
0
0
0
0
0
0
0
0
0
0
0
0
0
0
0
0
0
0
0
0
0
0
0
0
0
0
0
0
0
0
0
0
0
0
0
0
0
0
0
0
0
0
0
0
0
0
0
0
0
0
0
0
0
0
0
0
0
0
0
0
0
0
0
0
0
0
0
0
0
0
0
0
0
0
0
0
0
0
0
0
0
0
0
0
0
0
0
0
0
0
0
0
0
0
0
0
0
0
0
0
0
0
0
0
0
0
0
0
0
0
0
0
0
0
0
0
0
0
0
0
0
0
0
0
0
0
0
0
0
0
0
0
0
0
0
0
0
0
0
0
0
0
0
0
0
0
0
0
0
0
0
0
0
0
0
0
0
0
0
0
0
0
0
0
0
0
0
0
0
0
0
0
0
0
0
0
0
0
0
0
0
0
0
0
0
0
0
0
0
0
0
0
0
0
0
0
0
0
0
0
0
0
0
0
0
0
0
0
0
0
0
0
0
0
0
0
0
0
0
0
0
0
0
0
0
0
0
0
0
0
0
134
0
136
0
140
0
137
0
134
0
148
0
169
0
174
0
165
0
166
0
158
0
131
0
122
0
105
0
39
0
1
0
8
0
1
0
0
0
0
0
0
0
0
0
0
0
0
0
1
0
0
0
0
0
1
0
5
0
6
0
5
0
2
0
1
0
1
0
6
0
9
0
4
0
1
0
4
0
21
0
36
0
55
0
62
0
56
0
42
0
40
0
56
0
68
0
68
0
62
0
61
0
62
0
66
0
68
0
63
0
59
0
58
0
32
0
48
0
63
0
67
0
66
0
70
0
80
0
86
0
96
0
103
0
99
0
79
0
78
0
100
0
109
0
100
0
100
0
96
0
103
0
96
0
103
0
112
0
106
0
123
0
79
0
79
0
91
0
105
0
108
0
107
0
98
0
84
0
92
0
79
0
44
0
36
0
71
0
102
0
103
0
102
0
99
0
96
0
103
0
110
0
109
0
101
0
76
0
105
0
114
0
108
0
102
0
96
0
86
0
73
0
67
0
68
0
10
0
2
0
0
0
4
0
2
0
0
0
6
0
21
0
58
0
118
0
148
0
128
0
87
0
38
0
6
0
8
0
8
0
4
0
3
0
22
0
72
0
39
0
13
0
118
0
239
0
245
0
252
0
254
0
251
0
249
0
250
0
253
0
250
0
247
0
247
0
255
0
255
0
210
0
103
0
7
0
36
0
76
0
109
0
124
0
140
0
137
0
86
0
21
0
1
0
7
0
1
0
1
0
1
0
13
0
10
0
9
0
37
0
99
0
152
0
165
0
175
0
199
0
211
0
205
0
209
0
220
0
208
0
201
0
185
0
158
0
135
0
101
0
123
0
119
0
69
0
14
0
5
0
8
0
1
0
0
0
40
0
121
0
172
0
198
0
198
0
195
0
206
0
184
0
155
0
114
0
60
0
24
0
8
0
7
0
6
0
5
0
1
0
2
0
2
0
2
0
5
0
8
0
3
0
1
0
1
0
12
0
6
0
0
0
2
0
12
0
0
0
0
0
0
0
0
0
0
0
0
0
0
0
0
0
0
0
0
0
0
0
0
0
0
0
0
0
0
0
0
0
0
0
0
0
0
0
0
0
0
0
0
0
0
0
0
0
0
0
0
0
0
0
0
0
0
0
0
0
0
0
0
0
0
0
0
0
0
0
0
0
0
0
0
0
0
0
0
0
0
0
0
0
0
0
0
0
0
0
0
0
0
0
0
0
0
0
0
0
0
0
0
0
0
0
0
0
0
0
0
0
0
0
0
0
0
0
0
0
0
0
0
0
0
0
0
0
0
0
0
0
0
0
0
0
0
0
0
0
0
0
0
0
0
0
0
0
0
0
0
0
0
0
0
0
0
0
0
0
0
0
0
0
0
0
0
0
0
0
0
0
0
0
0
0
0
0
0
0
0
0
0
0
0
0
0
0
0
0
0
0
0
0
0
0
0
0
0
0
0
0
0
0
0
0
0
0
0
0
0
0
0
0
0
0
0
0
0
0
0
0
0
0
0
0
0
0
0
0
0
0
0
0
0
0
0
0
0
0
0
0
0
0
0
0
0
0
0
0
0
0
0
0
0
0
0
0
0
0
0
0
0
0
0
0
0
0
0
0
0
0
0
0
0
0
0
0
0
0
0
0
0
0
0
0
0
0
0
0
0
0
0
0
0
0
0
0
0
0
0
0
0
0
0
0
0
0
0
0
0
0
0
0
0
0
0
0
0
0
0
0
0
0
0
0
0
0
0
0
0
0
0
0
0
0
0
0
0
0
0
0
0
0
0
0
0
0
0
0
0
0
0
0
0
0
0
0
0
0
0
0
0
0
0
0
0
0
0
0
0
0
0
0
0
0
0
0
0
0
0
0
0
0
0
0
0
0
0
0
0
0
0
0
0
0
0
0
0
0
0
0
0
0
0
0
0
0
0
0
0
0
0
0
0
0
0
0
0
0
0
0
0
0
0
0
0
0
0
0
0
0
0
0
0
0
0
0
0
0
0
0
0
0
119
0
141
0
143
0
136
0
131
0
144
0
167
0
174
0
165
0
163
0
157
0
135
0
122
0
120
0
60
0
1
0
13
0
1
0
0
0
0
0
0
0
0
0
0
0
0
0
1
0
3
0
2
0
0
0
0
0
0
0
1
0
3
0
7
0
0
0
1
0
4
0
5
0
4
0
4
0
5
0
7
0
35
0
67
0
79
0
53
0
28
0
41
0
63
0
82
0
63
0
60
0
59
0
62
0
62
0
61
0
61
0
63
0
37
0
54
0
68
0
72
0
71
0
79
0
91
0
101
0
104
0
90
0
100
0
89
0
58
0
83
0
120
0
107
0
104
0
101
0
120
0
96
0
106
0
123
0
93
0
117
0
104
0
71
0
71
0
96
0
99
0
86
0
68
0
48
0
50
0
79
0
77
0
68
0
88
0
105
0
106
0
109
0
104
0
101
0
97
0
97
0
93
0
96
0
67
0
98
0
92
0
99
0
104
0
95
0
72
0
57
0
66
0
85
0
14
0
6
0
2
0
1
0
0
0
2
0
30
0
61
0
135
0
148
0
140
0
115
0
76
0
15
0
1
0
13
0
5
0
7
0
3
0
24
0
103
0
84
0
10
0
54
0
232
0
241
0
250
0
254
0
252
0
250
0
251
0
254
0
248
0
249
0
255
0
233
0
146
0
48
0
20
0
46
0
110
0
125
0
142
0
143
0
118
0
71
0
24
0
2
0
8
0
13
0
7
0
7
0
10
0
1
0
13
0
62
0
137
0
137
0
152
0
176
0
193
0
200
0
206
0
215
0
191
0
186
0
165
0
171
0
169
0
151
0
143
0
124
0
127
0
117
0
57
0
2
0
0
0
13
0
10
0
7
0
70
0
131
0
168
0
203
0
210
0
196
0
188
0
151
0
155
0
160
0
142
0
91
0
36
0
5
0
0
0
2
0
5
0
3
0
4
0
6
0
1
0
1
0
1
0
10
0
7
0
0
0
0
0
17
0
0
0
0
0
0
0
0
0
0
0
0
0
0
0
0
0
0
0
0
0
0
0
0
0
0
0
0
0
0
0
0
0
0
0
0
0
0
0
0
0
0
0
0
0
0
0
0
0
0
0
0
0
0
0
0
0
0
0
0
0
0
0
0
0
0
0
0
0
0
0
0
0
0
0
0
0
0
0
0
0
0
0
0
0
0
0
0
0
0
0
0
0
0
0
0
0
0
0
0
0
0
0
0
0
0
0
0
0
0
0
0
0
0
0
0
0
0
0
0
0
0
0
0
0
0
0
0
0
0
0
0
0
0
0
0
0
0
0
0
0
0
0
0
0
0
0
0
0
0
0
0
0
0
0
0
0
0
0
0
0
0
0
0
0
0
0
0
0
0
0
0
0
0
0
0
0
0
0
0
0
0
0
0
0
0
0
0
0
0
0
0
0
0
0
0
0
0
0
0
0
0
0
0
0
0
0
0
0
0
0
0
0
0
0
0
0
0
0
0
0
0
0
0
0
0
0
0
0
0
0
0
0
0
0
0
0
0
0
0
0
0
0
0
0
0
0
0
0
0
0
0
0
0
0
0
0
0
0
0
0
0
0
0
0
0
0
0
0
0
0
0
0
0
0
0
0
0
0
0
0
0
0
0
0
0
0
0
0
0
0
0
0
0
0
0
0
0
0
0
0
0
0
0
0
0
0
0
0
0
0
0
0
0
0
0
0
0
0
0
0
0
0
0
0
0
0
0
0
0
0
0
0
0
0
0
0
0
0
0
0
0
0
0
0
0
0
0
0
0
0
0
0
0
0
0
0
0
0
0
0
0
0
0
0
0
0
0
0
0
0
0
0
0
0
0
0
0
0
0
0
0
0
0
0
0
0
0
0
0
0
0
0
0
0
0
0
0
0
0
0
0
0
0
0
0
0
0
0
0
0
0
0
0
0
0
0
0
0
0
0
0
0
0
0
0
0
0
0
0
0
0
0
0
0
0
0
0
0
0
0
0
0
0
0
0
0
0
0
130
0
130
0
138
0
140
0
135
0
141
0
157
0
166
0
164
0
165
0
158
0
131
0
111
0
111
0
91
0
36
0
0
0
0
0
0
0
0
0
1
0
1
0
0
0
0
0
3
0
5
0
5
0
2
0
0
0
0
0
1
0
1
0
1
0
1
0
1
0
6
0
1
0
2
0
9
0
7
0
0
0
3
0
30
0
58
0
62
0
46
0
39
0
54
0
74
0
66
0
74
0
71
0
63
0
68
0
70
0
67
0
68
0
66
0
42
0
54
0
89
0
104
0
103
0
106
0
100
0
99
0
99
0
108
0
96
0
71
0
79
0
107
0
117
0
99
0
108
0
105
0
105
0
116
0
117
0
104
0
97
0
81
0
64
0
51
0
49
0
45
0
40
0
51
0
66
0
75
0
90
0
86
0
66
0
63
0
83
0
96
0
92
0
101
0
96
0
97
0
107
0
110
0
96
0
74
0
58
0
99
0
100
0
92
0
66
0
59
0
82
0
103
0
95
0
18
0
2
0
1
0
14
0
1
0
1
0
44
0
123
0
137
0
141
0
126
0
84
0
36
0
7
0
3
0
6
0
10
0
11
0
11
0
65
0
106
0
135
0
41
0
2
0
145
0
246
0
252
0
249
0
252
0
253
0
253
0
244
0
251
0
253
0
212
0
79
0
3
0
15
0
92
0
142
0
136
0
144
0
134
0
91
0
40
0
8
0
2
0
6
0
2
0
8
0
5
0
2
0
8
0
47
0
99
0
133
0
141
0
156
0
182
0
208
0
217
0
206
0
180
0
158
0
149
0
147
0
143
0
159
0
160
0
155
0
152
0
123
0
122
0
75
0
22
0
0
0
1
0
5
0
2
0
1
0
112
0
146
0
169
0
177
0
187
0
187
0
169
0
158
0
162
0
154
0
167
0
162
0
145
0
79
0
4
0
1
0
0
0
16
0
8
0
1
0
1
0
8
0
0
0
2
0
3
0
3
0
2
0
4
0
4
0
4
0
0
0
0
0
0
0
0
0
0
0
0
0
0
0
0
0
0
0
0
0
0
0
0
0
0
0
0
0
0
0
0
0
0
0
0
0
0
0
0
0
0
0
0
0
0
0
0
0
0
0
0
0
0
0
0
0
0
0
0
0
0
0
0
0
0
0
0
0
0
0
0
0
0
0
0
0
0
0
0
0
0
0
0
0
0
0
0
0
0
0
0
0
0
0
0
0
0
0
0
0
0
0
0
0
0
0
0
0
0
0
0
0
0
0
0
0
0
0
0
0
0
0
0
0
0
0
0
0
0
0
0
0
0
0
0
0
0
0
0
0
0
0
0
0
0
0
0
0
0
0
0
0
0
0
0
0
0
0
0
0
0
0
0
0
0
0
0
0
0
0
0
0
0
0
0
0
0
0
0
0
0
0
0
0
0
0
0
0
0
0
0
0
0
0
0
0
0
0
0
0
0
0
0
0
0
0
0
0
0
0
0
0
0
0
0
0
0
0
0
0
0
0
0
0
0
0
0
0
0
0
0
0
0
0
0
0
0
0
0
0
0
0
0
0
0
0
0
0
0
0
0
0
0
0
0
0
0
0
0
0
0
0
0
0
0
0
0
0
0
0
0
0
0
0
0
0
0
0
0
0
0
0
0
0
0
0
0
0
0
0
0
0
0
0
0
0
0
0
0
0
0
0
0
0
0
0
0
0
0
0
0
0
0
0
0
0
0
0
0
0
0
0
0
0
0
0
0
0
0
0
0
0
0
0
0
0
0
0
0
0
0
0
0
0
0
0
0
0
0
0
0
0
0
0
0
0
0
0
0
0
0
0
0
0
0
0
0
0
0
0
0
0
0
0
0
0
0
0
0
0
0
0
0
0
0
0
0
0
0
0
0
0
0
0
0
0
0
0
0
0
0
0
0
0
0
0
0
0
0
0
0
0
0
0
0
0
0
0
0
0
0
0
0
0
0
0
0
0
0
0
0
0
0
0
0
0
0
0
0
0
0
0
0
0
132
0
129
0
137
0
139
0
134
0
140
0
156
0
166
0
164
0
168
0
159
0
136
0
114
0
108
0
96
0
50
0
0
0
3
0
0
0
0
0
1
0
1
0
0
0
0
0
1
0
0
0
0
0
2
0
3
0
3
0
4
0
2
0
1
0
6
0
2
0
0
0
2
0
3
0
1
0
1
0
2
0
1
0
4
0
21
0
62
0
74
0
52
0
45
0
57
0
81
0
85
0
80
0
76
0
80
0
81
0
77
0
80
0
74
0
50
0
59
0
84
0
97
0
97
0
93
0
92
0
91
0
97
0
104
0
97
0
78
0
76
0
94
0
108
0
107
0
117
0
115
0
108
0
106
0
90
0
65
0
51
0
53
0
48
0
33
0
21
0
40
0
73
0
82
0
67
0
69
0
79
0
77
0
60
0
52
0
62
0
73
0
74
0
81
0
81
0
84
0
94
0
101
0
97
0
81
0
64
0
109
0
86
0
64
0
57
0
67
0
88
0
95
0
85
0
19
0
6
0
0
0
1
0
1
0
10
0
59
0
108
0
126
0
113
0
83
0
42
0
9
0
1
0
3
0
8
0
4
0
14
0
40
0
48
0
91
0
131
0
83
0
12
0
30
0
233
0
242
0
255
0
251
0
236
0
246
0
254
0
224
0
109
0
10
0
17
0
83
0
126
0
131
0
124
0
140
0
110
0
66
0
27
0
6
0
1
0
4
0
7
0
9
0
1
0
1
0
38
0
86
0
120
0
143
0
158
0
192
0
196
0
194
0
179
0
156
0
142
0
139
0
143
0
146
0
147
0
143
0
157
0
157
0
152
0
150
0
122
0
102
0
46
0
4
0
3
0
8
0
1
0
3
0
22
0
119
0
149
0
162
0
159
0
163
0
159
0
146
0
138
0
147
0
163
0
155
0
149
0
177
0
118
0
27
0
51
0
5
0
1
0
2
0
1
0
1
0
2
0
4
0
1
0
4
0
2
0
1
0
1
0
2
0
5
0
0
0
0
0
0
0
0
0
0
0
0
0
0
0
0
0
0
0
0
0
0
0
0
0
0
0
0
0
0
0
0
0
0
0
0
0
0
0
0
0
0
0
0
0
0
0
0
0
0
0
0
0
0
0
0
0
0
0
0
0
0
0
0
0
0
0
0
0
0
0
0
0
0
0
0
0
0
0
0
0
0
0
0
0
0
0
0
0
0
0
0
0
0
0
0
0
0
0
0
0
0
0
0
0
0
0
0
0
0
0
0
0
0
0
0
0
0
0
0
0
0
0
0
0
0
0
0
0
0
0
0
0
0
0
0
0
0
0
0
0
0
0
0
0
0
0
0
0
0
0
0
0
0
0
0
0
0
0
0
0
0
0
0
0
0
0
0
0
0
0
0
0
0
0
0
0
0
0
0
0
0
0
0
0
0
0
0
0
0
0
0
0
0
0
0
0
0
0
0
0
0
0
0
0
0
0
0
0
0
0
0
0
0
0
0
0
0
0
0
0
0
0
0
0
0
0
0
0
0
0
0
0
0
0
0
0
0
0
0
0
0
0
0
0
0
0
0
0
0
0
0
0
0
0
0
0
0
0
0
0
0
0
0
0
0
0
0
0
0
0
0
0
0
0
0
0
0
0
0
0
0
0
0
0
0
0
0
0
0
0
0
0
0
0
0
0
0
0
0
0
0
0
0
0
0
0
0
0
0
0
0
0
0
0
0
0
0
0
0
0
0
0
0
0
0
0
0
0
0
0
0
0
0
0
0
0
0
0
0
0
0
0
0
0
0
0
0
0
0
0
0
0
0
0
0
0
0
0
0
0
0
0
0
0
0
0
0
0
0
0
0
0
0
0
0
0
0
0
0
0
0
0
0
0
0
0
0
0
0
0
0
0
0
0
0
0
0
0
0
0
0
0
0
0
0
0
0
0
0
0
0
0
0
0
0
0
0
0
0
0
0
0
0
0
0
0
0
0
0
0
0
0
0
0
0
0
0
0
0
0
0
0
0
0
132
0
127
0
135
0
137
0
134
0
140
0
154
0
164
0
165
0
172
0
158
0
143
0
119
0
104
0
104
0
70
0
4
0
5
0
1
0
0
0
1
0
1
0
0
0
0
0
1
0
0
0
0
0
1
0
2
0
1
0
2
0
4
0
6
0
12
0
2
0
2
0
11
0
10
0
0
0
0
0
9
0
17
0
14
0
11
0
19
0
40
0
56
0
55
0
47
0
85
0
87
0
82
0
81
0
85
0
82
0
78
0
87
0
94
0
70
0
53
0
69
0
94
0
99
0
99
0
111
0
95
0
102
0
104
0
99
0
89
0
78
0
85
0
106
0
104
0
107
0
94
0
80
0
74
0
63
0
47
0
42
0
60
0
36
0
17
0
22
0
51
0
76
0
79
0
70
0
66
0
72
0
73
0
64
0
56
0
57
0
67
0
75
0
73
0
73
0
71
0
72
0
80
0
83
0
74
0
59
0
94
0
63
0
45
0
55
0
74
0
79
0
74
0
70
0
20
0
17
0
3
0
1
0
4
0
41
0
69
0
80
0
90
0
73
0
43
0
13
0
1
0
0
0
3
0
4
0
2
0
48
0
75
0
50
0
99
0
140
0
130
0
30
0
1
0
144
0
254
0
243
0
254
0
252
0
253
0
172
0
46
0
18
0
33
0
98
0
144
0
139
0
127
0
132
0
111
0
60
0
8
0
0
0
1
0
4
0
4
0
1
0
2
0
13
0
49
0
95
0
135
0
158
0
170
0
178
0
177
0
163
0
146
0
133
0
131
0
139
0
150
0
157
0
145
0
147
0
142
0
154
0
154
0
148
0
147
0
118
0
73
0
14
0
1
0
12
0
15
0
1
0
9
0
56
0
131
0
155
0
159
0
146
0
141
0
136
0
126
0
122
0
121
0
135
0
133
0
137
0
168
0
139
0
68
0
66
0
25
0
0
0
1
0
12
0
6
0
8
0
8
0
1
0
5
0
5
0
4
0
4
0
3
0
1
0
0
0
0
0
0
0
0
0
0
0
0
0
0
0
0
0
0
0
0
0
0
0
0
0
0
0
0
0
0
0
0
0
0
0
0
0
0
0
0
0
0
0
0
0
0
0
0
0
0
0
0
0
0
0
0
0
0
0
0
0
0
0
0
0
0
0
0
0
0
0
0
0
0
0
0
0
0
0
0
0
0
0
0
0
0
0
0
0
0
0
0
0
0
0
0
0
0
0
0
0
0
0
0
0
0
0
0
0
0
0
0
0
0
0
0
0
0
0
0
0
0
0
0
0
0
0
0
0
0
0
0
0
0
0
0
0
0
0
0
0
0
0
0
0
0
0
0
0
0
0
0
0
0
0
0
0
0
0
0
0
0
0
0
0
0
0
0
0
0
0
0
0
0
0
0
0
0
0
0
0
0
0
0
0
0
0
0
0
0
0
0
0
0
0
0
0
0
0
0
0
0
0
0
0
0
0
0
0
0
0
0
0
0
0
0
0
0
0
0
0
0
0
0
0
0
0
0
0
0
0
0
0
0
0
0
0
0
0
0
0
0
0
0
0
0
0
0
0
0
0
0
0
0
0
0
0
0
0
0
0
0
0
0
0
0
0
0
0
0
0
0
0
0
0
0
0
0
0
0
0
0
0
0
0
0
0
0
0
0
0
0
0
0
0
0
0
0
0
0
0
0
0
0
0
0
0
0
0
0
0
0
0
0
0
0
0
0
0
0
0
0
0
0
0
0
0
0
0
0
0
0
0
0
0
0
0
0
0
0
0
0
0
0
0
0
0
0
0
0
0
0
0
0
0
0
0
0
0
0
0
0
0
0
0
0
0
0
0
0
0
0
0
0
0
0
0
0
0
0
0
0
0
0
0
0
0
0
0
0
0
0
0
0
0
0
0
0
0
0
0
0
0
0
0
0
0
0
0
0
0
0
0
0
0
0
0
0
0
0
0
0
0
0
0
0
0
0
0
0
0
0
0
0
0
0
0
0
0
0
0
0
0
0
0
125
0
124
0
131
0
135
0
133
0
138
0
151
0
161
0
165
0
173
0
156
0
146
0
124
0
100
0
109
0
86
0
19
0
4
0
0
0
0
0
1
0
1
0
0
0
0
0
3
0
10
0
5
0
2
0
1
0
1
0
0
0
0
0
4
0
1
0
1
0
0
0
0
0
2
0
2
0
14
0
30
0
46
0
71
0
74
0
46
0
33
0
43
0
39
0
23
0
62
0
65
0
63
0
65
0
70
0
63
0
60
0
72
0
79
0
69
0
59
0
77
0
109
0
107
0
96
0
103
0
94
0
103
0
102
0
99
0
98
0
85
0
87
0
112
0
82
0
79
0
66
0
60
0
67
0
68
0
64
0
66
0
68
0
47
0
32
0
36
0
49
0
59
0
63
0
66
0
70
0
71
0
73
0
70
0
61
0
56
0
65
0
80
0
67
0
68
0
61
0
53
0
57
0
67
0
61
0
46
0
50
0
46
0
48
0
61
0
69
0
59
0
53
0
59
0
16
0
16
0
7
0
2
0
20
0
49
0
54
0
39
0
34
0
31
0
21
0
8
0
2
0
2
0
2
0
1
0
13
0
78
0
76
0
72
0
127
0
149
0
134
0
46
0
0
0
54
0
213
0
254
0
245
0
251
0
142
0
32
0
5
0
66
0
120
0
133
0
129
0
130
0
122
0
107
0
47
0
16
0
0
0
2
0
10
0
4
0
1
0
0
0
17
0
73
0
119
0
127
0
135
0
156
0
166
0
157
0
146
0
135
0
126
0
127
0
137
0
145
0
146
0
143
0
145
0
148
0
142
0
151
0
149
0
144
0
140
0
109
0
44
0
1
0
1
0
14
0
12
0
1
0
25
0
90
0
135
0
156
0
155
0
135
0
125
0
119
0
109
0
107
0
99
0
90
0
112
0
121
0
114
0
128
0
106
0
43
0
40
0
17
0
0
0
2
0
50
0
85
0
78
0
59
0
3
0
3
0
2
0
1
0
1
0
4
0
0
0
0
0
0
0
0
0
0
0
0
0
0
0
0
0
0
0
0
0
0
0
0
0
0
0
0
0
0
0
0
0
0
0
0
0
0
0
0
0
0
0
0
0
0
0
0
0
0
0
0
0
0
0
0
0
0
0
0
0
0
0
0
0
0
0
0
0
0
0
0
0
0
0
0
0
0
0
0
0
0
0
0
0
0
0
0
0
0
0
0
0
0
0
0
0
0
0
0
0
0
0
0
0
0
0
0
0
0
0
0
0
0
0
0
0
0
0
0
0
0
0
0
0
0
0
0
0
0
0
0
0
0
0
0
0
0
0
0
0
0
0
0
0
0
0
0
0
0
0
0
0
0
0
0
0
0
0
0
0
0
0
0
0
0
0
0
0
0
0
0
0
0
0
0
0
0
0
0
0
0
0
0
0
0
0
0
0
0
0
0
0
0
0
0
0
0
0
0
0
0
0
0
0
0
0
0
0
0
0
0
0
0
0
0
0
0
0
0
0
0
0
0
0
0
0
0
0
0
0
0
0
0
0
0
0
0
0
0
0
0
0
0
0
0
0
0
0
0
0
0
0
0
0
0
0
0
0
0
0
0
0
0
0
0
0
0
0
0
0
0
0
0
0
0
0
0
0
0
0
0
0
0
0
0
0
0
0
0
0
0
0
0
0
0
0
0
0
0
0
0
0
0
0
0
0
0
0
0
0
0
0
0
0
0
0
0
0
0
0
0
0
0
0
0
0
0
0
0
0
0
0
0
0
0
0
0
0
0
0
0
0
0
0
0
0
0
0
0
0
0
0
0
0
0
0
0
0
0
0
0
0
0
0
0
0
0
0
0
0
0
0
0
0
0
0
0
0
0
0
0
0
0
0
0
0
0
0
0
0
0
0
0
0
0
0
0
0
0
0
0
0
0
0
0
0
0
0
0
0
0
0
0
0
0
0
0
0
0
0
0
0
0
0
0
0
0
0
0
0
0
0
0
0
0
0
0
0
0
0
0
0
0
0
114
0
122
0
128
0
132
0
132
0
135
0
145
0
156
0
163
0
167
0
153
0
149
0
127
0
102
0
110
0
96
0
39
0
3
0
0
0
0
0
0
0
1
0
0
0
2
0
7
0
4
0
4
0
14
0
27
0
31
0
20
0
5
0
1
0
6
0
16
0
22
0
17
0
23
0
46
0
71
0
87
0
102
0
99
0
92
0
72
0
35
0
11
0
11
0
31
0
24
0
36
0
41
0
44
0
45
0
38
0
37
0
48
0
38
0
43
0
44
0
61
0
86
0
80
0
57
0
55
0
43
0
53
0
53
0
55
0
61
0
48
0
39
0
55
0
65
0
69
0
72
0
81
0
94
0
87
0
69
0
60
0
38
0
57
0
56
0
33
0
27
0
50
0
64
0
63
0
67
0
63
0
60
0
59
0
48
0
37
0
44
0
61
0
53
0
56
0
55
0
48
0
52
0
59
0
52
0
35
0
21
0
46
0
59
0
60
0
62
0
54
0
51
0
61
0
17
0
6
0
0
0
6
0
19
0
27
0
19
0
8
0
1
0
5
0
11
0
5
0
0
0
2
0
9
0
13
0
39
0
84
0
45
0
94
0
148
0
146
0
104
0
64
0
17
0
3
0
191
0
251
0
254
0
102
0
1
0
6
0
82
0
113
0
127
0
118
0
124
0
130
0
88
0
28
0
2
0
0
0
3
0
11
0
3
0
1
0
5
0
30
0
89
0
118
0
134
0
129
0
137
0
155
0
149
0
124
0
126
0
135
0
143
0
142
0
133
0
128
0
130
0
136
0
145
0
147
0
140
0
146
0
144
0
137
0
128
0
89
0
19
0
2
0
2
0
8
0
1
0
2
0
44
0
107
0
131
0
150
0
143
0
119
0
107
0
97
0
86
0
81
0
78
0
77
0
90
0
88
0
79
0
118
0
127
0
59
0
63
0
69
0
5
0
2
0
125
0
216
0
213
0
210
0
215
0
181
0
127
0
71
0
29
0
6
0
0
0
0
0
0
0
0
0
0
0
0
0
0
0
0
0
0
0
0
0
0
0
0
0
0
0
0
0
0
0
0
0
0
0
0
0
0
0
0
0
0
0
0
0
0
0
0
0
0
0
0
0
0
0
0
0
0
0
0
0
0
0
0
0
0
0
0
0
0
0
0
0
0
0
0
0
0
0
0
0
0
0
0
0
0
0
0
0
0
0
0
0
0
0
0
0
0
0
0
0
0
0
0
0
0
0
0
0
0
0
0
0
0
0
0
0
0
0
0
0
0
0
0
0
0
0
0
0
0
0
0
0
0
0
0
0
0
0
0
0
0
0
0
0
0
0
0
0
0
0
0
0
0
0
0
0
0
0
0
0
0
0
0
0
0
0
0
0
0
0
0
0
0
0
0
0
0
0
0
0
0
0
0
0
0
0
0
0
0
0
0
0
0
0
0
0
0
0
0
0
0
0
0
0
0
0
0
0
0
0
0
0
0
0
0
0
0
0
0
0
0
0
0
0
0
0
0
0
0
0
0
0
0
0
0
0
0
0
0
0
0
0
0
0
0
0
0
0
0
0
0
0
0
0
0
0
0
0
0
0
0
0
0
0
0
0
0
0
0
0
0
0
0
0
0
0
0
0
0
0
0
0
0
0
0
0
0
0
0
0
0
0
0
0
0
0
0
0
0
0
0
0
0
0
0
0
0
0
0
0
0
0
0
0
0
0
0
0
0
0
0
0
0
0
0
0
0
0
0
0
0
0
0
0
0
0
0
0
0
0
0
0
0
0
0
0
0
0
0
0
0
0
0
0
0
0
0
0
0
0
0
0
0
0
0
0
0
0
0
0
0
0
0
0
0
0
0
0
0
0
0
0
0
0
0
0
0
0
0
0
0
0
0
0
0
0
0
0
0
0
0
0
0
0
0
0
0
0
0
0
0
0
0
0
0
0
0
0
0
0
0
0
0
0
0
0
0
0
0
0
0
0
0
0
0
0
0
0
0
0
0
0
0
0
105
0
120
0
124
0
129
0
130
0
131
0
138
0
150
0
159
0
160
0
154
0
150
0
130
0
107
0
109
0
98
0
61
0
5
0
0
0
0
0
0
0
0
0
0
0
2
0
7
0
0
0
4
0
33
0
69
0
84
0
67
0
36
0
14
0
7
0
34
0
57
0
66
0
76
0
93
0
101
0
96
0
80
0
64
0
43
0
20
0
2
0
3
0
15
0
32
0
48
0
73
0
87
0
89
0
88
0
85
0
84
0
93
0
89
0
77
0
43
0
16
0
25
0
50
0
75
0
88
0
94
0
100
0
102
0
103
0
103
0
87
0
63
0
52
0
83
0
87
0
87
0
92
0
96
0
76
0
47
0
36
0
27
0
43
0
52
0
41
0
27
0
30
0
49
0
68
0
51
0
44
0
44
0
46
0
38
0
28
0
33
0
45
0
52
0
55
0
55
0
53
0
54
0
54
0
42
0
27
0
25
0
59
0
64
0
58
0
66
0
69
0
68
0
78
0
33
0
7
0
0
0
6
0
13
0
5
0
0
0
3
0
0
0
5
0
5
0
1
0
1
0
17
0
42
0
59
0
72
0
72
0
41
0
116
0
149
0
132
0
86
0
89
0
35
0
17
0
89
0
198
0
105
0
1
0
2
0
74
0
107
0
118
0
135
0
142
0
116
0
64
0
14
0
1
0
1
0
3
0
9
0
2
0
0
0
2
0
46
0
93
0
131
0
123
0
120
0
127
0
134
0
133
0
129
0
127
0
126
0
127
0
131
0
132
0
134
0
137
0
143
0
148
0
141
0
142
0
132
0
136
0
131
0
124
0
107
0
60
0
4
0
6
0
7
0
1
0
0
0
7
0
60
0
112
0
131
0
141
0
126
0
96
0
82
0
72
0
58
0
52
0
50
0
79
0
57
0
50
0
85
0
116
0
124
0
107
0
36
0
78
0
6
0
3
0
129
0
236
0
228
0
227
0
226
0
237
0
246
0
238
0
205
0
151
0
0
0
0
0
0
0
0
0
0
0
0
0
0
0
0
0
0
0
0
0
0
0
0
0
0
0
0
0
0
0
0
0
0
0
0
0
0
0
0
0
0
0
0
0
0
0
0
0
0
0
0
0
0
0
0
0
0
0
0
0
0
0
0
0
0
0
0
0
0
0
0
0
0
0
0
0
0
0
0
0
0
0
0
0
0
0
0
0
0
0
0
0
0
0
0
0
0
0
0
0
0
0
0
0
0
0
0
0
0
0
0
0
0
0
0
0
0
0
0
0
0
0
0
0
0
0
0
0
0
0
0
0
0
0
0
0
0
0
0
0
0
0
0
0
0
0
0
0
0
0
0
0
0
0
0
0
0
0
0
0
0
0
0
0
0
0
0
0
0
0
0
0
0
0
0
0
0
0
0
0
0
0
0
0
0
0
0
0
0
0
0
0
0
0
0
0
0
0
0
0
0
0
0
0
0
0
0
0
0
0
0
0
0
0
0
0
0
0
0
0
0
0
0
0
0
0
0
0
0
0
0
0
0
0
0
0
0
0
0
0
0
0
0
0
0
0
0
0
0
0
0
0
0
0
0
0
0
0
0
0
0
0
0
0
0
0
0
0
0
0
0
0
0
0
0
0
0
0
0
0
0
0
0
0
0
0
0
0
0
0
0
0
0
0
0
0
0
0
0
0
0
0
0
0
0
0
0
0
0
0
0
0
0
0
0
0
0
0
0
0
0
0
0
0
0
0
0
0
0
0
0
0
0
0
0
0
0
0
0
0
0
0
0
0
0
0
0
0
0
0
0
0
0
0
0
0
0
0
0
0
0
0
0
0
0
0
0
0
0
0
0
0
0
0
0
0
0
0
0
0
0
0
0
0
0
0
0
0
0
0
0
0
0
0
0
0
0
0
0
0
0
0
0
0
0
0
0
0
0
0
0
0
0
0
0
0
0
0
0
0
0
0
0
0
0
0
0
0
0
0
0
0
0
0
0
0
0
0
0
0
0
0
0
0
99
0
118
0
122
0
127
0
128
0
127
0
132
0
144
0
155
0
154
0
156
0
152
0
135
0
118
0
108
0
96
0
82
0
10
0
4
0
0
0
1
0
0
0
0
0
0
0
4
0
3
0
4
0
28
0
72
0
100
0
94
0
70
0
53
0
5
0
17
0
32
0
50
0
61
0
61
0
48
0
35
0
3
0
5
0
5
0
1
0
5
0
16
0
11
0
2
0
32
0
71
0
96
0
95
0
91
0
92
0
93
0
99
0
107
0
109
0
97
0
67
0
57
0
85
0
106
0
99
0
107
0
105
0
107
0
104
0
99
0
91
0
67
0
37
0
95
0
95
0
87
0
79
0
72
0
52
0
36
0
37
0
45
0
33
0
38
0
50
0
43
0
22
0
33
0
62
0
46
0
44
0
47
0
52
0
50
0
44
0
43
0
49
0
65
0
60
0
52
0
48
0
49
0
51
0
47
0
43
0
37
0
70
0
74
0
69
0
80
0
84
0
83
0
98
0
44
0
13
0
1
0
5
0
11
0
2
0
1
0
7
0
9
0
8
0
3
0
4
0
19
0
49
0
75
0
90
0
83
0
45
0
87
0
141
0
139
0
112
0
92
0
102
0
73
0
14
0
20
0
43
0
0
0
0
0
88
0
104
0
132
0
123
0
116
0
101
0
59
0
8
0
1
0
4
0
10
0
9
0
4
0
0
0
11
0
45
0
93
0
130
0
124
0
118
0
121
0
127
0
122
0
113
0
120
0
136
0
145
0
134
0
124
0
125
0
135
0
142
0
139
0
133
0
134
0
132
0
119
0
122
0
118
0
108
0
83
0
27
0
4
0
6
0
6
0
1
0
1
0
26
0
74
0
114
0
127
0
127
0
99
0
62
0
48
0
44
0
35
0
29
0
33
0
50
0
29
0
56
0
106
0
112
0
119
0
127
0
49
0
106
0
52
0
9
0
115
0
214
0
220
0
224
0
221
0
227
0
235
0
237
0
229
0
214
0
0
0
0
0
0
0
0
0
0
0
0
0
0
0
0
0
0
0
0
0
0
0
0
0
0
0
0
0
0
0
0
0
0
0
0
0
0
0
0
0
0
0
0
0
0
0
0
0
0
0
0
0
0
0
0
0
0
0
0
0
0
0
0
0
0
0
0
0
0
0
0
0
0
0
0
0
0
0
0
0
0
0
0
0
0
0
0
0
0
0
0
0
0
0
0
0
0
0
0
0
0
0
0
0
0
0
0
0
0
0
0
0
0
0
0
0
0
0
0
0
0
0
0
0
0
0
0
0
0
0
0
0
0
0
0
0
0
0
0
0
0
0
0
0
0
0
0
0
0
0
0
0
0
0
0
0
0
0
0
0
0
0
0
0
0
0
0
0
0
0
0
0
0
0
0
0
0
0
0
0
0
0
0
0
0
0
0
0
0
0
0
0
0
0
0
0
0
0
0
0
0
0
0
0
0
0
0
0
0
0
0
0
0
0
0
0
0
0
0
0
0
0
0
0
0
0
0
0
0
0
0
0
0
0
0
0
0
0
0
0
0
0
0
0
0
0
0
0
0
0
0
0
0
0
0
0
0
0
0
0
0
0
0
0
0
0
0
0
0
0
0
0
0
0
0
0
0
0
0
0
0
0
0
0
0
0
0
0
0
0
0
0
0
0
0
0
0
0
0
0
0
0
0
0
0
0
0
0
0
0
0
0
0
0
0
0
0
0
0
0
0
0
0
0
0
0
0
0
0
0
0
0
0
0
0
0
0
0
0
0
0
0
0
0
0
0
0
0
0
0
0
0
0
0
0
0
0
0
0
0
0
0
0
0
0
0
0
0
0
0
0
0
0
0
0
0
0
0
0
0
0
0
0
0
0
0
0
0
0
0
0
0
0
0
0
0
0
0
0
0
0
0
0
0
0
0
0
0
0
0
0
0
0
0
0
0
0
0
0
0
0
0
0
0
0
0
0
0
0
0
0
0
0
0
0
0
0
0
0
0
0
0
0
0
98
0
117
0
121
0
126
0
127
0
125
0
129
0
141
0
153
0
150
0
159
0
153
0
139
0
124
0
106
0
93
0
96
0
14
0
7
0
2
0
1
0
0
0
0
0
0
0
1
0
14
0
0
0
6
0
41
0
76
0
89
0
84
0
80
0
47
0
18
0
1
0
2
0
12
0
10
0
6
0
7
0
17
0
2
0
7
0
10
0
14
0
6
0
1
0
19
0
12
0
61
0
91
0
88
0
83
0
86
0
88
0
91
0
81
0
97
0
104
0
77
0
58
0
85
0
104
0
84
0
102
0
94
0
95
0
94
0
92
0
101
0
89
0
50
0
82
0
85
0
81
0
73
0
66
0
50
0
43
0
52
0
50
0
43
0
39
0
43
0
46
0
46
0
45
0
47
0
59
0
58
0
62
0
67
0
65
0
58
0
52
0
50
0
73
0
56
0
40
0
36
0
42
0
53
0
66
0
78
0
37
0
74
0
85
0
85
0
94
0
88
0
89
0
114
0
41
0
10
0
1
0
4
0
11
0
4
0
2
0
4
0
3
0
1
0
1
0
12
0
42
0
73
0
89
0
90
0
72
0
24
0
128
0
155
0
125
0
94
0
103
0
99
0
116
0
49
0
2
0
1
0
0
0
70
0
88
0
134
0
117
0
125
0
105
0
54
0
13
0
4
0
8
0
5
0
6
0
1
0
1
0
8
0
46
0
89
0
117
0
125
0
118
0
126
0
128
0
122
0
121
0
125
0
127
0
126
0
123
0
130
0
137
0
138
0
133
0
131
0
134
0
138
0
128
0
125
0
110
0
111
0
110
0
97
0
67
0
6
0
5
0
4
0
2
0
1
0
12
0
42
0
84
0
116
0
114
0
108
0
71
0
29
0
18
0
19
0
16
0
14
0
35
0
12
0
22
0
95
0
120
0
107
0
124
0
113
0
46
0
95
0
50
0
4
0
60
0
164
0
215
0
237
0
235
0
235
0
234
0
230
0
222
0
213
0
0
0
0
0
0
0
0
0
0
0
0
0
0
0
0
0
0
0
0
0
0
0
0
0
0
0
0
0
0
0
0
0
0
0
0
0
0
0
0
0
0
0
0
0
0
0
0
0
0
0
0
0
0
0
0
0
0
0
0
0
0
0
0
0
0
0
0
0
0
0
0
0
0
0
0
0
0
0
0
0
0
0
0
0
0
0
0
0
0
0
0
0
0
0
0
0
0
0
0
0
0
0
0
0
0
0
0
0
0
0
0
0
0
0
0
0
0
0
0
0
0
0
0
0
0
0
0
0
0
0
0
0
0
0
0
0
0
0
0
0
0
0
0
0
0
0
0
0
0
0
0
0
0
0
0
0
0
0
0
0
0
0
0
0
0
0
0
0
0
0
0
0
0
0
0
0
0
0
0
0
0
0
0
0
0
0
0
0
0
0
0
0
0
0
0
0
0
0
0
0
0
0
0
0
0
0
0
0
0
0
0
0
0
0
0
0
0
0
0
0
0
0
0
0
0
0
0
0
0
0
0
0
0
0
0
0
0
0
0
0
0
0
0
0
0
0
0
0
0
0
0
0
0
0
0
0
0
0
0
0
0
0
0
0
0
0
0
0
0
0
0
0
0
0
0
0
0
0
0
0
0
0
0
0
0
0
0
0
0
0
0
0
0
0
0
0
0
0
0
0
0
0
0
0
0
0
0
0
0
0
0
0
0
0
0
0
0
0
0
0
0
0
0
0
0
0
0
0
0
0
0
0
0
0
0
0
0
0
0
0
0
0
0
0
0
0
0
0
0
0
0
0
0
0
0
0
0
0
0
0
0
0
0
0
0
0
0
0
0
0
0
0
0
0
0
0
0
0
0
0
0
0
0
0
0
0
0
0
0
0
0
0
0
0
0
0
0
0
0
0
0
0
0
0
0
0
0
0
0
0
0
0
0
0
0
0
0
0
0
0
0
0
0
0
0
0
0
0
0
0
0
0
0
0
0
0
0
0
0
0
0
0
0
0
67
0
120
0
117
0
116
0
125
0
133
0
125
0
129
0
151
0
151
0
151
0
147
0
135
0
119
0
105
0
98
0
94
0
58
0
3
0
1
0
8
0
1
0
5
0
0
0
8
0
6
0
1
0
9
0
35
0
64
0
81
0
89
0
92
0
91
0
56
0
22
0
10
0
6
0
1
0
1
0
1
0
0
0
4
0
5
0
1
0
1
0
4
0
4
0
3
0
3
0
38
0
89
0
105
0
88
0
84
0
93
0
87
0
87
0
81
0
101
0
98
0
58
0
66
0
99
0
101
0
95
0
107
0
109
0
101
0
99
0
106
0
102
0
89
0
74
0
98
0
86
0
60
0
61
0
71
0
71
0
73
0
61
0
65
0
68
0
81
0
85
0
58
0
42
0
63
0
74
0
69
0
62
0
62
0
72
0
75
0
56
0
32
0
42
0
47
0
58
0
69
0
74
0
76
0
82
0
90
0
47
0
60
0
91
0
87
0
100
0
104
0
117
0
95
0
56
0
5
0
4
0
4
0
1
0
8
0
2
0
1
0
10
0
4
0
15
0
44
0
80
0
95
0
81
0
53
0
31
0
37
0
133
0
146
0
100
0
105
0
114
0
117
0
61
0
28
0
2
0
4
0
50
0
102
0
125
0
126
0
118
0
77
0
27
0
1
0
0
0
1
0
2
0
2
0
11
0
1
0
4
0
42
0
89
0
116
0
122
0
121
0
118
0
120
0
120
0
120
0
120
0
121
0
125
0
128
0
122
0
127
0
130
0
129
0
128
0
128
0
125
0
119
0
110
0
118
0
109
0
98
0
105
0
90
0
40
0
1
0
1
0
4
0
2
0
1
0
6
0
43
0
87
0
118
0
125
0
87
0
38
0
5
0
2
0
8
0
12
0
12
0
2
0
23
0
83
0
121
0
110
0
109
0
118
0
104
0
46
0
96
0
90
0
35
0
46
0
124
0
183
0
197
0
225
0
217
0
225
0
239
0
228
0
200
0
0
0
0
0
0
0
0
0
0
0
0
0
0
0
0
0
0
0
0
0
0
0
0
0
0
0
0
0
0
0
0
0
0
0
0
0
0
0
0
0
0
0
0
0
0
0
0
0
0
0
0
0
0
0
0
0
0
0
0
0
0
0
0
0
0
0
0
0
0
0
0
0
0
0
0
0
0
0
0
0
0
0
0
0
0
0
0
0
0
0
0
0
0
0
0
0
0
0
0
0
0
0
0
0
0
0
0
0
0
0
0
0
0
0
0
0
0
0
0
0
0
0
0
0
0
0
0
0
0
0
0
0
0
0
0
0
0
0
0
0
0
0
0
0
0
0
0
0
0
0
0
0
0
0
0
0
0
0
0
0
0
0
0
0
0
0
0
0
0
0
0
0
0
0
0
0
0
0
0
0
0
0
0
0
0
0
0
0
0
0
0
0
0
0
0
0
0
0
0
0
0
0
0
0
0
0
0
0
0
0
0
0
0
0
0
0
0
0
0
0
0
0
0
0
0
0
0
0
0
0
0
0
0
0
0
0
0
0
0
0
0
0
0
0
0
0
0
0
0
0
0
0
0
0
0
0
0
0
0
0
0
0
0
0
0
0
0
0
0
0
0
0
0
0
0
0
0
0
0
0
0
0
0
0
0
0
0
0
0
0
0
0
0
0
0
0
0
0
0
0
0
0
0
0
0
0
0
0
0
0
0
0
0
0
0
0
0
0
0
0
0
0
0
0
0
0
0
0
0
0
0
0
0
0
0
0
0
0
0
0
0
0
0
0
0
0
0
0
0
0
0
0
0
0
0
0
0
0
0
0
0
0
0
0
0
0
0
0
0
0
0
0
0
0
0
0
0
0
0
0
0
0
0
0
0
0
0
0
0
0
0
0
0
0
0
0
0
0
0
0
0
0
0
0
0
0
0
0
0
0
0
0
0
0
0
0
0
0
0
0
0
0
0
0
0
0
0
0
0
0
0
0
0
0
0
0
0
0
0
0
0
0
0
0
48
0
108
0
115
0
118
0
123
0
129
0
123
0
127
0
145
0
147
0
149
0
149
0
140
0
125
0
109
0
97
0
91
0
67
0
5
0
0
0
4
0
1
0
3
0
0
0
7
0
2
0
1
0
0
0
23
0
66
0
93
0
94
0
84
0
91
0
83
0
71
0
60
0
55
0
51
0
42
0
33
0
24
0
10
0
0
0
0
0
0
0
0
0
2
0
6
0
7
0
17
0
47
0
76
0
95
0
100
0
97
0
96
0
103
0
96
0
104
0
95
0
60
0
59
0
85
0
97
0
95
0
99
0
99
0
92
0
90
0
95
0
95
0
88
0
59
0
62
0
62
0
61
0
61
0
52
0
52
0
63
0
88
0
92
0
88
0
88
0
98
0
85
0
62
0
60
0
94
0
97
0
95
0
88
0
83
0
73
0
50
0
27
0
47
0
59
0
73
0
82
0
84
0
84
0
88
0
92
0
53
0
73
0
88
0
97
0
134
0
111
0
106
0
126
0
55
0
4
0
5
0
4
0
1
0
7
0
2
0
1
0
9
0
3
0
22
0
67
0
88
0
62
0
25
0
10
0
37
0
62
0
88
0
114
0
123
0
111
0
85
0
55
0
17
0
9
0
4
0
32
0
94
0
140
0
117
0
68
0
45
0
24
0
5
0
0
0
1
0
3
0
3
0
4
0
0
0
2
0
28
0
73
0
106
0
114
0
116
0
123
0
121
0
121
0
122
0
123
0
123
0
125
0
126
0
126
0
117
0
124
0
128
0
126
0
121
0
115
0
105
0
94
0
97
0
103
0
105
0
109
0
104
0
68
0
18
0
0
0
1
0
3
0
1
0
0
0
22
0
67
0
106
0
123
0
115
0
73
0
22
0
1
0
2
0
2
0
1
0
1
0
13
0
56
0
110
0
86
0
78
0
125
0
126
0
105
0
66
0
104
0
94
0
40
0
30
0
74
0
125
0
154
0
199
0
214
0
233
0
239
0
227
0
206
0
0
0
0
0
0
0
0
0
0
0
0
0
0
0
0
0
0
0
0
0
0
0
0
0
0
0
0
0
0
0
0
0
0
0
0
0
0
0
0
0
0
0
0
0
0
0
0
0
0
0
0
0
0
0
0
0
0
0
0
0
0
0
0
0
0
0
0
0
0
0
0
0
0
0
0
0
0
0
0
0
0
0
0
0
0
0
0
0
0
0
0
0
0
0
0
0
0
0
0
0
0
0
0
0
0
0
0
0
0
0
0
0
0
0
0
0
0
0
0
0
0
0
0
0
0
0
0
0
0
0
0
0
0
0
0
0
0
0
0
0
0
0
0
0
0
0
0
0
0
0
0
0
0
0
0
0
0
0
0
0
0
0
0
0
0
0
0
0
0
0
0
0
0
0
0
0
0
0
0
0
0
0
0
0
0
0
0
0
0
0
0
0
0
0
0
0
0
0
0
0
0
0
0
0
0
0
0
0
0
0
0
0
0
0
0
0
0
0
0
0
0
0
0
0
0
0
0
0
0
0
0
0
0
0
0
0
0
0
0
0
0
0
0
0
0
0
0
0
0
0
0
0
0
0
0
0
0
0
0
0
0
0
0
0
0
0
0
0
0
0
0
0
0
0
0
0
0
0
0
0
0
0
0
0
0
0
0
0
0
0
0
0
0
0
0
0
0
0
0
0
0
0
0
0
0
0
0
0
0
0
0
0
0
0
0
0
0
0
0
0
0
0
0
0
0
0
0
0
0
0
0
0
0
0
0
0
0
0
0
0
0
0
0
0
0
0
0
0
0
0
0
0
0
0
0
0
0
0
0
0
0
0
0
0
0
0
0
0
0
0
0
0
0
0
0
0
0
0
0
0
0
0
0
0
0
0
0
0
0
0
0
0
0
0
0
0
0
0
0
0
0
0
0
0
0
0
0
0
0
0
0
0
0
0
0
0
0
0
0
0
0
0
0
0
0
0
0
0
0
0
0
0
0
0
0
0
0
0
0
0
0
0
0
0
19
0
89
0
112
0
123
0
121
0
123
0
122
0
125
0
135
0
140
0
147
0
151
0
145
0
130
0
111
0
97
0
88
0
83
0
17
0
0
0
2
0
6
0
3
0
0
0
6
0
1
0
2
0
2
0
8
0
33
0
65
0
82
0
85
0
75
0
80
0
70
0
51
0
47
0
64
0
75
0
74
0
72
0
36
0
6
0
1
0
0
0
0
0
1
0
9
0
4
0
2
0
4
0
39
0
84
0
100
0
97
0
98
0
95
0
94
0
96
0
92
0
75
0
65
0
80
0
101
0
99
0
99
0
99
0
97
0
95
0
92
0
91
0
90
0
55
0
46
0
55
0
71
0
68
0
60
0
67
0
76
0
81
0
93
0
90
0
90
0
106
0
111
0
85
0
61
0
113
0
112
0
103
0
89
0
83
0
77
0
62
0
45
0
75
0
91
0
101
0
98
0
92
0
92
0
94
0
94
0
68
0
61
0
93
0
114
0
129
0
130
0
124
0
86
0
54
0
1
0
5
0
5
0
1
0
5
0
1
0
1
0
4
0
34
0
69
0
81
0
64
0
16
0
3
0
10
0
98
0
115
0
65
0
73
0
105
0
76
0
37
0
8
0
0
0
2
0
33
0
90
0
123
0
105
0
60
0
28
0
4
0
3
0
1
0
4
0
7
0
4
0
1
0
2
0
1
0
17
0
64
0
108
0
121
0
111
0
110
0
120
0
122
0
120
0
120
0
123
0
126
0
127
0
123
0
120
0
125
0
124
0
118
0
109
0
106
0
109
0
111
0
109
0
103
0
102
0
105
0
113
0
95
0
40
0
0
0
1
0
7
0
6
0
1
0
0
0
37
0
90
0
119
0
119
0
95
0
49
0
5
0
1
0
3
0
5
0
3
0
4
0
22
0
107
0
90
0
65
0
113
0
101
0
53
0
69
0
71
0
103
0
103
0
67
0
41
0
43
0
67
0
95
0
134
0
167
0
192
0
193
0
193
0
202
0
0
0
0
0
0
0
0
0
0
0
0
0
0
0
0
0
0
0
0
0
0
0
0
0
0
0
0
0
0
0
0
0
0
0
0
0
0
0
0
0
0
0
0
0
0
0
0
0
0
0
0
0
0
0
0
0
0
0
0
0
0
0
0
0
0
0
0
0
0
0
0
0
0
0
0
0
0
0
0
0
0
0
0
0
0
0
0
0
0
0
0
0
0
0
0
0
0
0
0
0
0
0
0
0
0
0
0
0
0
0
0
0
0
0
0
0
0
0
0
0
0
0
0
0
0
0
0
0
0
0
0
0
0
0
0
0
0
0
0
0
0
0
0
0
0
0
0
0
0
0
0
0
0
0
0
0
0
0
0
0
0
0
0
0
0
0
0
0
0
0
0
0
0
0
0
0
0
0
0
0
0
0
0
0
0
0
0
0
0
0
0
0
0
0
0
0
0
0
0
0
0
0
0
0
0
0
0
0
0
0
0
0
0
0
0
0
0
0
0
0
0
0
0
0
0
0
0
0
0
0
0
0
0
0
0
0
0
0
0
0
0
0
0
0
0
0
0
0
0
0
0
0
0
0
0
0
0
0
0
0
0
0
0
0
0
0
0
0
0
0
0
0
0
0
0
0
0
0
0
0
0
0
0
0
0
0
0
0
0
0
0
0
0
0
0
0
0
0
0
0
0
0
0
0
0
0
0
0
0
0
0
0
0
0
0
0
0
0
0
0
0
0
0
0
0
0
0
0
0
0
0
0
0
0
0
0
0
0
0
0
0
0
0
0
0
0
0
0
0
0
0
0
0
0
0
0
0
0
0
0
0
0
0
0
0
0
0
0
0
0
0
0
0
0
0
0
0
0
0
0
0
0
0
0
0
0
0
0
0
0
0
0
0
0
0
0
0
0
0
0
0
0
0
0
0
0
0
0
0
0
0
0
0
0
0
0
0
0
0
0
0
0
0
0
0
0
0
0
0
0
0
0
0
0
0
0
0
0
0
0
0
0
0
0
1
0
68
0
107
0
126
0
120
0
119
0
122
0
124
0
127
0
135
0
142
0
150
0
147
0
133
0
114
0
98
0
89
0
98
0
35
0
0
0
2
0
9
0
4
0
0
0
8
0
2
0
10
0
9
0
1
0
8
0
31
0
46
0
44
0
39
0
36
0
21
0
6
0
9
0
34
0
61
0
76
0
99
0
67
0
30
0
8
0
2
0
1
0
1
0
2
0
7
0
1
0
12
0
27
0
43
0
66
0
79
0
74
0
86
0
89
0
90
0
92
0
88
0
64
0
60
0
83
0
101
0
97
0
98
0
102
0
99
0
89
0
84
0
85
0
49
0
43
0
54
0
64
0
61
0
74
0
90
0
85
0
90
0
103
0
108
0
107
0
119
0
124
0
99
0
68
0
88
0
87
0
82
0
82
0
90
0
98
0
89
0
74
0
97
0
114
0
121
0
111
0
101
0
104
0
108
0
106
0
93
0
58
0
91
0
129
0
125
0
126
0
107
0
38
0
56
0
1
0
5
0
4
0
1
0
4
0
2
0
1
0
11
0
78
0
93
0
51
0
20
0
4
0
6
0
50
0
131
0
144
0
95
0
65
0
58
0
21
0
2
0
2
0
10
0
37
0
82
0
105
0
77
0
24
0
5
0
11
0
8
0
4
0
3
0
6
0
6
0
1
0
1
0
1
0
4
0
47
0
97
0
121
0
119
0
112
0
110
0
111
0
120
0
117
0
116
0
119
0
123
0
123
0
115
0
109
0
109
0
107
0
101
0
94
0
95
0
104
0
112
0
113
0
108
0
100
0
89
0
84
0
63
0
17
0
0
0
11
0
5
0
5
0
0
0
4
0
46
0
100
0
121
0
113
0
73
0
31
0
1
0
1
0
7
0
3
0
4
0
12
0
64
0
102
0
49
0
93
0
134
0
32
0
2
0
12
0
58
0
92
0
105
0
82
0
54
0
39
0
47
0
71
0
110
0
144
0
171
0
175
0
179
0
192
0
0
0
0
0
0
0
0
0
0
0
0
0
0
0
0
0
0
0
0
0
0
0
0
0
0
0
0
0
0
0
0
0
0
0
0
0
0
0
0
0
0
0
0
0
0
0
0
0
0
0
0
0
0
0
0
0
0
0
0
0
0
0
0
0
0
0
0
0
0
0
0
0
0
0
0
0
0
0
0
0
0
0
0
0
0
0
0
0
0
0
0
0
0
0
0
0
0
0
0
0
0
0
0
0
0
0
0
0
0
0
0
0
0
0
0
0
0
0
0
0
0
0
0
0
0
0
0
0
0
0
0
0
0
0
0
0
0
0
0
0
0
0
0
0
0
0
0
0
0
0
0
0
0
0
0
0
0
0
0
0
0
0
0
0
0
0
0
0
0
0
0
0
0
0
0
0
0
0
0
0
0
0
0
0
0
0
0
0
0
0
0
0
0
0
0
0
0
0
0
0
0
0
0
0
0
0
0
0
0
0
0
0
0
0
0
0
0
0
0
0
0
0
0
0
0
0
0
0
0
0
0
0
0
0
0
0
0
0
0
0
0
0
0
0
0
0
0
0
0
0
0
0
0
0
0
0
0
0
0
0
0
0
0
0
0
0
0
0
0
0
0
0
0
0
0
0
0
0
0
0
0
0
0
0
0
0
0
0
0
0
0
0
0
0
0
0
0
0
0
0
0
0
0
0
0
0
0
0
0
0
0
0
0
0
0
0
0
0
0
0
0
0
0
0
0
0
0
0
0
0
0
0
0
0
0
0
0
0
0
0
0
0
0
0
0
0
0
0
0
0
0
0
0
0
0
0
0
0
0
0
0
0
0
0
0
0
0
0
0
0
0
0
0
0
0
0
0
0
0
0
0
0
0
0
0
0
0
0
0
0
0
0
0
0
0
0
0
0
0
0
0
0
0
0
0
0
0
0
0
0
0
0
0
0
0
0
0
0
0
0
0
0
0
0
0
0
0
0
0
0
0
0
0
0
0
0
0
0
0
0
0
0
0
0
1
0
46
0
96
0
123
0
116
0
116
0
122
0
122
0
121
0
132
0
139
0
146
0
144
0
132
0
116
0
100
0
94
0
102
0
52
0
2
0
1
0
7
0
1
0
0
0
3
0
3
0
1
0
0
0
0
0
18
0
36
0
24
0
3
0
10
0
0
0
0
0
0
0
4
0
11
0
25
0
40
0
75
0
67
0
41
0
9
0
0
0
4
0
3
0
1
0
13
0
15
0
61
0
62
0
12
0
34
0
68
0
54
0
61
0
69
0
69
0
78
0
86
0
65
0
56
0
78
0
99
0
92
0
91
0
95
0
91
0
80
0
77
0
82
0
57
0
47
0
58
0
71
0
71
0
82
0
97
0
92
0
103
0
109
0
114
0
111
0
102
0
94
0
81
0
63
0
45
0
65
0
85
0
100
0
111
0
115
0
107
0
96
0
88
0
111
0
124
0
118
0
113
0
118
0
122
0
120
0
107
0
81
0
87
0
130
0
127
0
79
0
50
0
67
0
62
0
2
0
2
0
4
0
1
0
4
0
2
0
1
0
52
0
83
0
55
0
3
0
1
0
8
0
35
0
90
0
131
0
123
0
118
0
73
0
30
0
16
0
4
0
8
0
15
0
69
0
93
0
52
0
5
0
1
0
0
0
1
0
7
0
1
0
1
0
1
0
3
0
1
0
2
0
6
0
30
0
78
0
113
0
112
0
108
0
119
0
119
0
109
0
119
0
116
0
113
0
115
0
117
0
115
0
106
0
98
0
97
0
103
0
108
0
107
0
103
0
98
0
89
0
80
0
70
0
67
0
49
0
34
0
22
0
2
0
1
0
7
0
1
0
2
0
1
0
6
0
40
0
83
0
100
0
92
0
51
0
22
0
1
0
2
0
3
0
0
0
1
0
15
0
113
0
48
0
66
0
117
0
59
0
0
0
8
0
1
0
37
0
84
0
112
0
94
0
58
0
34
0
44
0
75
0
75
0
101
0
139
0
169
0
182
0
186
0
0
0
0
0
0
0
0
0
0
0
0
0
0
0
0
0
0
0
0
0
0
0
0
0
0
0
0
0
0
0
0
0
0
0
0
0
0
0
0
0
0
0
0
0
0
0
0
0
0
0
0
0
0
0
0
0
0
0
0
0
0
0
0
0
0
0
0
0
0
0
0
0
0
0
0
0
0
0
0
0
0
0
0
0
0
0
0
0
0
0
0
0
0
0
0
0
0
0
0
0
0
0
0
0
0
0
0
0
0
0
0
0
0
0
0
0
0
0
0
0
0
0
0
0
0
0
0
0
0
0
0
0
0
0
0
0
0
0
0
0
0
0
0
0
0
0
0
0
0
0
0
0
0
0
0
0
0
0
0
0
0
0
0
0
0
0
0
0
0
0
0
0
0
0
0
0
0
0
0
0
0
0
0
0
0
0
0
0
0
0
0
0
0
0
0
0
0
0
0
0
0
0
0
0
0
0
0
0
0
0
0
0
0
0
0
0
0
0
0
0
0
0
0
0
0
0
0
0
0
0
0
0
0
0
0
0
0
0
0
0
0
0
0
0
0
0
0
0
0
0
0
0
0
0
0
0
0
0
0
0
0
0
0
0
0
0
0
0
0
0
0
0
0
0
0
0
0
0
0
0
0
0
0
0
0
0
0
0
0
0
0
0
0
0
0
0
0
0
0
0
0
0
0
0
0
0
0
0
0
0
0
0
0
0
0
0
0
0
0
0
0
0
0
0
0
0
0
0
0
0
0
0
0
0
0
0
0
0
0
0
0
0
0
0
0
0
0
0
0
0
0
0
0
0
0
0
0
0
0
0
0
0
0
0
0
0
0
0
0
0
0
0
0
0
0
0
0
0
0
0
0
0
0
0
0
0
0
0
0
0
0
0
0
0
0
0
0
0
0
0
0
0
0
0
0
0
0
0
0
0
0
0
0
0
0
0
0
0
0
0
0
0
0
0
0
0
0
0
0
0
0
0
0
0
0
0
0
0
0
0
0
0
0
0
3
0
27
0
80
0
113
0
111
0
114
0
119
0
119
0
118
0
126
0
134
0
142
0
141
0
131
0
116
0
103
0
97
0
95
0
68
0
10
0
1
0
3
0
0
0
0
0
1
0
9
0
5
0
0
0
0
0
10
0
31
0
37
0
32
0
20
0
2
0
0
0
2
0
4
0
0
0
0
0
9
0
25
0
35
0
27
0
1
0
0
0
6
0
7
0
0
0
7
0
28
0
90
0
95
0
28
0
32
0
74
0
74
0
58
0
61
0
57
0
63
0
74
0
60
0
50
0
66
0
76
0
68
0
62
0
62
0
59
0
54
0
56
0
63
0
66
0
47
0
55
0
82
0
86
0
76
0
79
0
88
0
80
0
79
0
89
0
90
0
78
0
73
0
74
0
70
0
50
0
82
0
112
0
118
0
113
0
112
0
118
0
122
0
78
0
100
0
120
0
124
0
122
0
121
0
119
0
115
0
106
0
93
0
99
0
112
0
73
0
45
0
54
0
94
0
70
0
2
0
2
0
4
0
2
0
4
0
2
0
2
0
43
0
39
0
12
0
2
0
1
0
12
0
65
0
135
0
142
0
96
0
90
0
48
0
4
0
9
0
4
0
12
0
22
0
39
0
33
0
6
0
1
0
4
0
11
0
3
0
2
0
1
0
1
0
1
0
3
0
2
0
4
0
7
0
58
0
96
0
113
0
101
0
100
0
118
0
120
0
104
0
108
0
105
0
104
0
102
0
101
0
96
0
88
0
81
0
92
0
92
0
89
0
76
0
64
0
54
0
41
0
30
0
16
0
21
0
12
0
1
0
3
0
4
0
1
0
4
0
0
0
4
0
3
0
2
0
14
0
32
0
40
0
38
0
21
0
7
0
1
0
4
0
4
0
2
0
16
0
36
0
76
0
40
0
112
0
70
0
6
0
17
0
12
0
10
0
4
0
67
0
123
0
133
0
99
0
53
0
44
0
68
0
60
0
67
0
96
0
138
0
168
0
177
0
0
0
0
0
0
0
0
0
0
0
0
0
0
0
0
0
0
0
0
0
0
0
0
0
0
0
0
0
0
0
0
0
0
0
0
0
0
0
0
0
0
0
0
0
0
0
0
0
0
0
0
0
0
0
0
0
0
0
0
0
0
0
0
0
0
0
0
0
0
0
0
0
0
0
0
0
0
0
0
0
0
0
0
0
0
0
0
0
0
0
0
0
0
0
0
0
0
0
0
0
0
0
0
0
0
0
0
0
0
0
0
0
0
0
0
0
0
0
0
0
0
0
0
0
0
0
0
0
0
0
0
0
0
0
0
0
0
0
0
0
0
0
0
0
0
0
0
0
0
0
0
0
0
0
0
0
0
0
0
0
0
0
0
0
0
0
0
0
0
0
0
0
0
0
0
0
0
0
0
0
0
0
0
0
0
0
0
0
0
0
0
0
0
0
0
0
0
0
0
0
0
0
0
0
0
0
0
0
0
0
0
0
0
0
0
0
0
0
0
0
0
0
0
0
0
0
0
0
0
0
0
0
0
0
0
0
0
0
0
0
0
0
0
0
0
0
0
0
0
0
0
0
0
0
0
0
0
0
0
0
0
0
0
0
0
0
0
0
0
0
0
0
0
0
0
0
0
0
0
0
0
0
0
0
0
0
0
0
0
0
0
0
0
0
0
0
0
0
0
0
0
0
0
0
0
0
0
0
0
0
0
0
0
0
0
0
0
0
0
0
0
0
0
0
0
0
0
0
0
0
0
0
0
0
0
0
0
0
0
0
0
0
0
0
0
0
0
0
0
0
0
0
0
0
0
0
0
0
0
0
0
0
0
0
0
0
0
0
0
0
0
0
0
0
0
0
0
0
0
0
0
0
0
0
0
0
0
0
0
0
0
0
0
0
0
0
0
0
0
0
0
0
0
0
0
0
0
0
0
0
0
0
0
0
0
0
0
0
0
0
0
0
0
0
0
0
0
0
0
0
0
0
0
0
0
0
0
0
0
0
0
0
0
0
1
0
12
0
63
0
98
0
104
0
110
0
114
0
113
0
113
0
119
0
128
0
139
0
142
0
133
0
118
0
104
0
97
0
88
0
84
0
24
0
0
0
2
0
0
0
3
0
1
0
8
0
11
0
8
0
0
0
0
0
6
0
38
0
64
0
41
0
28
0
13
0
3
0
0
0
0
0
0
0
0
0
1
0
8
0
8
0
0
0
0
0
4
0
5
0
1
0
5
0
17
0
55
0
73
0
48
0
27
0
53
0
87
0
93
0
88
0
77
0
71
0
67
0
49
0
29
0
27
0
44
0
42
0
40
0
40
0
40
0
38
0
39
0
41
0
49
0
40
0
40
0
56
0
69
0
60
0
56
0
67
0
68
0
70
0
88
0
97
0
92
0
96
0
101
0
89
0
85
0
108
0
125
0
118
0
107
0
108
0
119
0
128
0
81
0
95
0
113
0
122
0
121
0
116
0
113
0
114
0
111
0
93
0
80
0
70
0
29
0
65
0
94
0
90
0
79
0
5
0
2
0
3
0
3
0
5
0
2
0
2
0
8
0
4
0
3
0
2
0
14
0
50
0
106
0
148
0
131
0
76
0
34
0
11
0
1
0
3
0
6
0
7
0
18
0
0
0
1
0
1
0
9
0
5
0
4
0
10
0
2
0
2
0
4
0
4
0
1
0
0
0
6
0
16
0
81
0
97
0
103
0
95
0
94
0
100
0
99
0
87
0
82
0
81
0
79
0
75
0
69
0
61
0
56
0
52
0
48
0
42
0
27
0
9
0
2
0
1
0
0
0
0
0
0
0
2
0
0
0
0
0
5
0
6
0
1
0
5
0
4
0
3
0
3
0
1
0
0
0
1
0
2
0
2
0
2
0
1
0
0
0
2
0
5
0
13
0
32
0
49
0
29
0
85
0
97
0
12
0
0
0
21
0
0
0
10
0
1
0
26
0
89
0
149
0
153
0
99
0
59
0
62
0
103
0
91
0
96
0
122
0
156
0
176
0
0
0
0
0
0
0
0
0
0
0
0
0
0
0
0
0
0
0
0
0
0
0
0
0
0
0
0
0
0
0
0
0
0
0
0
0
0
0
0
0
0
0
0
0
0
0
0
0
0
0
0
0
0
0
0
0
0
0
0
0
0
0
0
0
0
0
0
0
0
0
0
0
0
0
0
0
0
0
0
0
0
0
0
0
0
0
0
0
0
0
0
0
0
0
0
0
0
0
0
0
0
0
0
0
0
0
0
0
0
0
0
0
0
0
0
0
0
0
0
0
0
0
0
0
0
0
0
0
0
0
0
0
0
0
0
0
0
0
0
0
0
0
0
0
0
0
0
0
0
0
0
0
0
0
0
0
0
0
0
0
0
0
0
0
0
0
0
0
0
0
0
0
0
0
0
0
0
0
0
0
0
0
0
0
0
0
0
0
0
0
0
0
0
0
0
0
0
0
0
0
0
0
0
0
0
0
0
0
0
0
0
0
0
0
0
0
0
0
0
0
0
0
0
0
0
0
0
0
0
0
0
0
0
0
0
0
0
0
0
0
0
0
0
0
0
0
0
0
0
0
0
0
0
0
0
0
0
0
0
0
0
0
0
0
0
0
0
0
0
0
0
0
0
0
0
0
0
0
0
0
0
0
0
0
0
0
0
0
0
0
0
0
0
0
0
0
0
0
0
0
0
0
0
0
0
0
0
0
0
0
0
0
0
0
0
0
0
0
0
0
0
0
0
0
0
0
0
0
0
0
0
0
0
0
0
0
0
0
0
0
0
0
0
0
0
0
0
0
0
0
0
0
0
0
0
0
0
0
0
0
0
0
0
0
0
0
0
0
0
0
0
0
0
0
0
0
0
0
0
0
0
0
0
0
0
0
0
0
0
0
0
0
0
0
0
0
0
0
0
0
0
0
0
0
0
0
0
0
0
0
0
0
0
0
0
0
0
0
0
0
0
0
0
0
0
0
0
0
0
0
0
0
0
0
0
0
0
0
0
0
0
0
0
0
2
0
3
0
52
0
89
0
100
0
108
0
111
0
110
0
111
0
113
0
124
0
138
0
142
0
135
0
119
0
105
0
96
0
86
0
96
0
37
0
4
0
5
0
1
0
9
0
1
0
1
0
1
0
0
0
0
0
1
0
1
0
11
0
25
0
47
0
50
0
43
0
22
0
10
0
10
0
7
0
0
0
3
0
1
0
1
0
1
0
2
0
1
0
2
0
3
0
2
0
6
0
4
0
24
0
45
0
8
0
4
0
69
0
91
0
89
0
85
0
82
0
77
0
63
0
43
0
32
0
55
0
61
0
69
0
73
0
74
0
72
0
66
0
60
0
41
0
53
0
42
0
36
0
56
0
67
0
62
0
64
0
78
0
84
0
106
0
116
0
111
0
116
0
107
0
76
0
100
0
114
0
122
0
119
0
115
0
117
0
113
0
108
0
85
0
90
0
102
0
114
0
116
0
116
0
121
0
127
0
131
0
102
0
33
0
30
0
64
0
103
0
90
0
97
0
84
0
8
0
1
0
3
0
3
0
6
0
2
0
1
0
10
0
6
0
2
0
7
0
36
0
103
0
139
0
130
0
85
0
55
0
1
0
5
0
9
0
1
0
7
0
2
0
1
0
1
0
6
0
4
0
4
0
3
0
2
0
1
0
1
0
0
0
4
0
1
0
1
0
0
0
13
0
34
0
93
0
93
0
95
0
95
0
91
0
80
0
71
0
68
0
58
0
58
0
55
0
49
0
41
0
32
0
27
0
24
0
9
0
10
0
5
0
1
0
0
0
1
0
4
0
3
0
2
0
4
0
2
0
2
0
5
0
0
0
0
0
5
0
1
0
0
0
1
0
7
0
6
0
1
0
1
0
8
0
1
0
0
0
0
0
1
0
0
0
6
0
22
0
33
0
49
0
116
0
41
0
3
0
9
0
3
0
11
0
2
0
6
0
0
0
24
0
118
0
171
0
132
0
81
0
75
0
86
0
79
0
83
0
111
0
153
0
185
0
0
0
0
0
0
0
0
0
0
0
0
0
0
0
0
0
0
0
0
0
0
0
0
0
0
0
0
0
0
0
0
0
0
0
0
0
0
0
0
0
0
0
0
0
0
0
0
0
0
0
0
0
0
0
0
0
0
0
0
0
0
0
0
0
0
0
0
0
0
0
0
0
0
0
0
0
0
0
0
0
0
0
0
0
0
0
0
0
0
0
0
0
0
0
0
0
0
0
0
0
0
0
0
0
0
0
0
0
0
0
0
0
0
0
0
0
0
0
0
0
0
0
0
0
0
0
0
0
0
0
0
0
0
0
0
0
0
0
0
0
0
0
0
0
0
0
0
0
0
0
0
0
0
0
0
0
0
0
0
0
0
0
0
0
0
0
0
0
0
0
0
0
0
0
0
0
0
0
0
0
0
0
0
0
0
0
0
0
0
0
0
0
0
0
0
0
0
0
0
0
0
0
0
0
0
0
0
0
0
0
0
0
0
0
0
0
0
0
0
0
0
0
0
0
0
0
0
0
0
0
0
0
0
0
0
0
0
0
0
0
0
0
0
0
0
0
0
0
0
0
0
0
0
0
0
0
0
0
0
0
0
0
0
0
0
0
0
0
0
0
0
0
0
0
0
0
0
0
0
0
0
0
0
0
0
0
0
0
0
0
0
0
0
0
0
0
0
0
0
0
0
0
0
0
0
0
0
0
0
0
0
0
0
0
0
0
0
0
0
0
0
0
0
0
0
0
0
0
0
0
0
0
0
0
0
0
0
0
0
0
0
0
0
0
0
0
0
0
0
0
0
0
0
0
0
0
0
0
0
0
0
0
0
0
0
0
0
0
0
0
0
0
0
0
0
0
0
0
0
0
0
0
0
0
0
0
0
0
0
0
0
0
0
0
0
0
0
0
0
0
0
0
0
0
0
0
0
0
0
0
0
0
0
0
0
0
0
0
0
0
0
0
0
0
0
0
0
0
0
0
0
0
0
0
0
0
0
0
0
0
0
0
0
0
1
0
0
0
31
0
71
0
96
0
108
0
113
0
114
0
110
0
108
0
115
0
127
0
134
0
133
0
123
0
108
0
99
0
92
0
93
0
58
0
9
0
1
0
4
0
4
0
0
0
3
0
0
0
0
0
12
0
2
0
0
0
10
0
0
0
5
0
13
0
76
0
81
0
55
0
50
0
24
0
9
0
2
0
2
0
4
0
5
0
4
0
2
0
1
0
0
0
4
0
1
0
0
0
2
0
2
0
2
0
8
0
16
0
37
0
48
0
56
0
52
0
60
0
71
0
68
0
54
0
51
0
80
0
83
0
74
0
81
0
85
0
79
0
80
0
76
0
63
0
73
0
27
0
72
0
89
0
99
0
92
0
77
0
91
0
97
0
98
0
108
0
117
0
99
0
69
0
109
0
124
0
107
0
119
0
128
0
106
0
107
0
113
0
99
0
82
0
99
0
117
0
109
0
122
0
135
0
112
0
85
0
62
0
27
0
60
0
96
0
87
0
90
0
89
0
98
0
25
0
3
0
4
0
4
0
4
0
3
0
8
0
8
0
3
0
6
0
16
0
84
0
138
0
129
0
86
0
16
0
13
0
8
0
3
0
0
0
0
0
1
0
2
0
0
0
0
0
0
0
0
0
0
0
0
0
0
0
0
0
1
0
0
0
5
0
2
0
1
0
2
0
10
0
50
0
95
0
89
0
82
0
76
0
65
0
57
0
58
0
65
0
53
0
46
0
33
0
21
0
10
0
5
0
4
0
4
0
2
0
2
0
1
0
1
0
1
0
0
0
0
0
0
0
0
0
0
0
0
0
0
0
0
0
0
0
0
0
0
0
0
0
0
0
0
0
0
0
0
0
0
0
0
0
0
0
2
0
4
0
0
0
1
0
8
0
3
0
5
0
28
0
99
0
54
0
11
0
0
0
2
0
2
0
2
0
3
0
0
0
5
0
1
0
30
0
140
0
173
0
124
0
129
0
120
0
98
0
92
0
119
0
155
0
176
0
0
0
0
0
0
0
0
0
0
0
0
0
0
0
0
0
0
0
0
0
0
0
0
0
0
0
0
0
0
0
0
0
0
0
0
0
0
0
0
0
0
0
0
0
0
0
0
0
0
0
0
0
0
0
0
0
0
0
0
0
0
0
0
0
0
0
0
0
0
0
0
0
0
0
0
0
0
0
0
0
0
0
0
0
0
0
0
0
0
0
0
0
0
0
0
0
0
0
0
0
0
0
0
0
0
0
0
0
0
0
0
0
0
0
0
0
0
0
0
0
0
0
0
0
0
0
0
0
0
0
0
0
0
0
0
0
0
0
0
0
0
0
0
0
0
0
0
0
0
0
0
0
0
0
0
0
0
0
0
0
0
0
0
0
0
0
0
0
0
0
0
0
0
0
0
0
0
0
0
0
0
0
0
0
0
0
0
0
0
0
0
0
0
0
0
0
0
0
0
0
0
0
0
0
0
0
0
0
0
0
0
0
0
0
0
0
0
0
0
0
0
0
0
0
0
0
0
0
0
0
0
0
0
0
0
0
0
0
0
0
0
0
0
0
0
0
0
0
0
0
0
0
0
0
0
0
0
0
0
0
0
0
0
0
0
0
0
0
0
0
0
0
0
0
0
0
0
0
0
0
0
0
0
0
0
0
0
0
0
0
0
0
0
0
0
0
0
0
0
0
0
0
0
0
0
0
0
0
0
0
0
0
0
0
0
0
0
0
0
0
0
0
0
0
0
0
0
0
0
0
0
0
0
0
0
0
0
0
0
0
0
0
0
0
0
0
0
0
0
0
0
0
0
0
0
0
0
0
0
0
0
0
0
0
0
0
0
0
0
0
0
0
0
0
0
0
0
0
0
0
0
0
0
0
0
0
0
0
0
0
0
0
0
0
0
0
0
0
0
0
0
0
0
0
0
0
0
0
0
0
0
0
0
0
0
0
0
0
0
0
0
0
0
0
0
0
0
0
0
0
0
0
0
0
0
0
0
0
0
0
0
0
0
0
6
0
0
0
21
0
58
0
89
0
103
0
107
0
107
0
108
0
104
0
110
0
120
0
129
0
131
0
124
0
110
0
100
0
92
0
90
0
66
0
25
0
1
0
3
0
6
0
0
0
4
0
0
0
0
0
6
0
0
0
0
0
22
0
46
0
19
0
7
0
58
0
85
0
73
0
85
0
78
0
41
0
4
0
4
0
3
0
0
0
0
0
0
0
0
0
5
0
3
0
1
0
2
0
5
0
4
0
1
0
4
0
10
0
25
0
47
0
66
0
71
0
72
0
77
0
76
0
72
0
45
0
67
0
78
0
75
0
76
0
79
0
76
0
79
0
79
0
73
0
73
0
48
0
57
0
90
0
90
0
83
0
83
0
90
0
91
0
89
0
94
0
100
0
87
0
66
0
89
0
118
0
110
0
115
0
122
0
114
0
122
0
123
0
111
0
84
0
97
0
123
0
121
0
119
0
103
0
66
0
69
0
67
0
40
0
51
0
96
0
90
0
94
0
95
0
76
0
15
0
8
0
4
0
2
0
6
0
3
0
1
0
7
0
4
0
6
0
51
0
122
0
140
0
87
0
24
0
12
0
9
0
6
0
3
0
0
0
0
0
0
0
1
0
0
0
0
0
0
0
0
0
0
0
0
0
0
0
0
0
2
0
0
0
3
0
2
0
1
0
3
0
10
0
49
0
109
0
96
0
79
0
67
0
63
0
59
0
56
0
52
0
27
0
22
0
15
0
6
0
2
0
0
0
0
0
1
0
2
0
2
0
1
0
1
0
1
0
0
0
0
0
0
0
0
0
0
0
0
0
0
0
0
0
0
0
0
0
0
0
0
0
0
0
0
0
0
0
0
0
0
0
0
0
0
0
4
0
1
0
1
0
4
0
3
0
1
0
21
0
68
0
76
0
40
0
6
0
0
0
2
0
1
0
1
0
2
0
2
0
1
0
1
0
13
0
86
0
152
0
157
0
157
0
144
0
122
0
114
0
134
0
163
0
177
0
0
0
0
0
0
0
0
0
0
0
0
0
0
0
0
0
0
0
0
0
0
0
0
0
0
0
0
0
0
0
0
0
0
0
0
0
0
0
0
0
0
0
0
0
0
0
0
0
0
0
0
0
0
0
0
0
0
0
0
0
0
0
0
0
0
0
0
0
0
0
0
0
0
0
0
0
0
0
0
0
0
0
0
0
0
0
0
0
0
0
0
0
0
0
0
0
0
0
0
0
0
0
0
0
0
0
0
0
0
0
0
0
0
0
0
0
0
0
0
0
0
0
0
0
0
0
0
0
0
0
0
0
0
0
0
0
0
0
0
0
0
0
0
0
0
0
0
0
0
0
0
0
0
0
0
0
0
0
0
0
0
0
0
0
0
0
0
0
0
0
0
0
0
0
0
0
0
0
0
0
0
0
0
0
0
0
0
0
0
0
0
0
0
0
0
0
0
0
0
0
0
0
0
0
0
0
0
0
0
0
0
0
0
0
0
0
0
0
0
0
0
0
0
0
0
0
0
0
0
0
0
0
0
0
0
0
0
0
0
0
0
0
0
0
0
0
0
0
0
0
0
0
0
0
0
0
0
0
0
0
0
0
0
0
0
0
0
0
0
0
0
0
0
0
0
0
0
0
0
0
0
0
0
0
0
0
0
0
0
0
0
0
0
0
0
0
0
0
0
0
0
0
0
0
0
0
0
0
0
0
0
0
0
0
0
0
0
0
0
0
0
0
0
0
0
0
0
0
0
0
0
0
0
0
0
0
0
0
0
0
0
0
0
0
0
0
0
0
0
0
0
0
0
0
0
0
0
0
0
0
0
0
0
0
0
0
0
0
0
0
0
0
0
0
0
0
0
0
0
0
0
0
0
0
0
0
0
0
0
0
0
0
0
0
0
0
0
0
0
0
0
0
0
0
0
0
0
0
0
0
0
0
0
0
0
0
0
0
0
0
0
0
0
0
0
0
0
0
0
0
0
0
0
0
0
0
0
0
0
0
0
0
0
0
23
0
1
0
7
0
37
0
74
0
96
0
100
0
102
0
107
0
99
0
104
0
111
0
122
0
128
0
124
0
113
0
101
0
92
0
86
0
80
0
46
0
2
0
1
0
8
0
1
0
0
0
2
0
1
0
2
0
2
0
2
0
53
0
135
0
102
0
32
0
29
0
83
0
89
0
90
0
102
0
71
0
32
0
20
0
6
0
1
0
2
0
2
0
1
0
0
0
2
0
1
0
3
0
7
0
5
0
0
0
0
0
3
0
12
0
36
0
69
0
84
0
82
0
77
0
80
0
86
0
49
0
57
0
75
0
82
0
75
0
74
0
79
0
79
0
81
0
83
0
76
0
72
0
45
0
89
0
84
0
77
0
82
0
83
0
82
0
81
0
85
0
87
0
84
0
78
0
69
0
107
0
110
0
105
0
108
0
113
0
122
0
117
0
105
0
82
0
86
0
100
0
89
0
77
0
65
0
48
0
78
0
92
0
64
0
45
0
98
0
89
0
86
0
84
0
53
0
3
0
11
0
4
0
2
0
7
0
8
0
2
0
20
0
14
0
38
0
86
0
113
0
90
0
36
0
3
0
6
0
5
0
4
0
2
0
1
0
0
0
0
0
0
0
0
0
0
0
0
0
0
0
0
0
0
0
0
0
0
0
2
0
0
0
4
0
1
0
1
0
4
0
8
0
44
0
98
0
92
0
78
0
64
0
61
0
61
0
48
0
31
0
6
0
4
0
2
0
0
0
0
0
0
0
1
0
1
0
2
0
2
0
1
0
1
0
1
0
0
0
0
0
0
0
0
0
0
0
0
0
0
0
0
0
0
0
0
0
0
0
0
0
0
0
0
0
0
0
0
0
0
0
0
0
0
0
7
0
0
0
1
0
8
0
0
0
2
0
47
0
96
0
44
0
21
0
1
0
1
0
2
0
1
0
0
0
2
0
8
0
1
0
3
0
2
0
28
0
114
0
170
0
174
0
167
0
148
0
138
0
149
0
167
0
175
0
0
0
0
0
0
0
0
0
0
0
0
0
0
0
0
0
0
0
0
0
0
0
0
0
0
0
0
0
0
0
0
0
0
0
0
0
0
0
0
0
0
0
0
0
0
0
0
0
0
0
0
0
0
0
0
0
0
0
0
0
0
0
0
0
0
0
0
0
0
0
0
0
0
0
0
0
0
0
0
0
0
0
0
0
0
0
0
0
0
0
0
0
0
0
0
0
0
0
0
0
0
0
0
0
0
0
0
0
0
0
0
0
0
0
0
0
0
0
0
0
0
0
0
0
0
0
0
0
0
0
0
0
0
0
0
0
0
0
0
0
0
0
0
0
0
0
0
0
0
0
0
0
0
0
0
0
0
0
0
0
0
0
0
0
0
0
0
0
0
0
0
0
0
0
0
0
0
0
0
0
0
0
0
0
0
0
0
0
0
0
0
0
0
0
0
0
0
0
0
0
0
0
0
0
0
0
0
0
0
0
0
0
0
0
0
0
0
0
0
0
0
0
0
0
0
0
0
0
0
0
0
0
0
0
0
0
0
0
0
0
0
0
0
0
0
0
0
0
0
0
0
0
0
0
0
0
0
0
0
0
0
0
0
0
0
0
0
0
0
0
0
0
0
0
0
0
0
0
0
0
0
0
0
0
0
0
0
0
0
0
0
0
0
0
0
0
0
0
0
0
0
0
0
0
0
0
0
0
0
0
0
0
0
0
0
0
0
0
0
0
0
0
0
0
0
0
0
0
0
0
0
0
0
0
0
0
0
0
0
0
0
0
0
0
0
0
0
0
0
0
0
0
0
0
0
0
0
0
0
0
0
0
0
0
0
0
0
0
0
0
0
0
0
0
0
0
0
0
0
0
0
0
0
0
0
0
0
0
0
0
0
0
0
0
0
0
0
0
0
0
0
0
0
0
0
0
0
0
0
0
0
0
0
0
0
0
0
0
0
0
0
0
0
0
0
0
0
0
0
0
0
0
0
0
0
0
0
0
0
0
0
0
0
0
46
0
2
0
0
0
12
0
53
0
88
0
97
0
99
0
104
0
100
0
101
0
106
0
117
0
125
0
124
0
112
0
101
0
94
0
83
0
88
0
62
0
7
0
1
0
9
0
1
0
0
0
2
0
1
0
0
0
7
0
6
0
64
0
191
0
211
0
86
0
5
0
54
0
87
0
62
0
76
0
83
0
83
0
51
0
14
0
1
0
1
0
6
0
3
0
2
0
1
0
0
0
2
0
6
0
4
0
0
0
0
0
4
0
5
0
17
0
48
0
74
0
81
0
76
0
76
0
83
0
63
0
53
0
66
0
81
0
74
0
74
0
81
0
76
0
82
0
85
0
82
0
84
0
44
0
82
0
86
0
80
0
86
0
83
0
82
0
84
0
84
0
84
0
88
0
92
0
61
0
87
0
99
0
98
0
99
0
104
0
108
0
103
0
112
0
84
0
68
0
68
0
64
0
63
0
74
0
84
0
93
0
108
0
77
0
42
0
93
0
82
0
69
0
73
0
53
0
3
0
5
0
5
0
1
0
6
0
9
0
1
0
14
0
57
0
110
0
106
0
59
0
19
0
8
0
7
0
1
0
2
0
3
0
3
0
3
0
2
0
0
0
0
0
0
0
0
0
0
0
0
0
0
0
0
0
0
0
0
0
1
0
0
0
7
0
1
0
1
0
4
0
2
0
29
0
76
0
92
0
96
0
79
0
61
0
47
0
27
0
6
0
3
0
3
0
3
0
2
0
2
0
1
0
1
0
1
0
2
0
2
0
1
0
1
0
1
0
0
0
0
0
0
0
0
0
0
0
0
0
0
0
0
0
0
0
0
0
0
0
0
0
0
0
0
0
0
0
0
0
0
0
0
0
0
0
2
0
1
0
2
0
1
0
1
0
29
0
70
0
78
0
18
0
6
0
0
0
2
0
3
0
1
0
0
0
1
0
5
0
1
0
11
0
2
0
2
0
67
0
130
0
158
0
175
0
163
0
157
0
163
0
171
0
173
0
0
0
0
0
0
0
0
0
0
0
0
0
0
0
0
0
0
0
0
0
0
0
0
0
0
0
0
0
0
0
0
0
0
0
0
0
0
0
0
0
0
0
0
0
0
0
0
0
0
0
0
0
0
0
0
0
0
0
0
0
0
0
0
0
0
0
0
0
0
0
0
0
0
0
0
0
0
0
0
0
0
0
0
0
0
0
0
0
0
0
0
0
0
0
0
0
0
0
0
0
0
0
0
0
0
0
0
0
0
0
0
0
0
0
0
0
0
0
0
0
0
0
0
0
0
0
0
0
0
0
0
0
0
0
0
0
0
0
0
0
0
0
0
0
0
0
0
0
0
0
0
0
0
0
0
0
0
0
0
0
0
0
0
0
0
0
0
0
0
0
0
0
0
0
0
0
0
0
0
0
0
0
0
0
0
0
0
0
0
0
0
0
0
0
0
0
0
0
0
0
0
0
0
0
0
0
0
0
0
0
0
0
0
0
0
0
0
0
0
0
0
0
0
0
0
0
0
0
0
0
0
0
0
0
0
0
0
0
0
0
0
0
0
0
0
0
0
0
0
0
0
0
0
0
0
0
0
0
0
0
0
0
0
0
0
0
0
0
0
0
0
0
0
0
0
0
0
0
0
0
0
0
0
0
0
0
0
0
0
0
0
0
0
0
0
0
0
0
0
0
0
0
0
0
0
0
0
0
0
0
0
0
0
0
0
0
0
0
0
0
0
0
0
0
0
0
0
0
0
0
0
0
0
0
0
0
0
0
0
0
0
0
0
0
0
0
0
0
0
0
0
0
0
0
0
0
0
0
0
0
0
0
0
0
0
0
0
0
0
0
0
0
0
0
0
0
0
0
0
0
0
0
0
0
0
0
0
0
0
0
0
0
0
0
0
0
0
0
0
0
0
0
0
0
0
0
0
0
0
0
0
0
0
0
0
0
0
0
0
0
0
0
0
0
0
0
0
0
0
0
0
0
0
0
0
0
0
0
0
0
0
0
0
0
58
0
22
0
0
0
0
0
30
0
75
0
96
0
100
0
101
0
103
0
102
0
104
0
112
0
120
0
120
0
110
0
101
0
97
0
83
0
90
0
72
0
14
0
1
0
6
0
2
0
2
0
2
0
1
0
0
0
3
0
0
0
46
0
189
0
254
0
151
0
9
0
14
0
67
0
50
0
50
0
72
0
106
0
81
0
46
0
16
0
3
0
2
0
4
0
7
0
1
0
0
0
0
0
3
0
2
0
0
0
2
0
8
0
3
0
2
0
18
0
49
0
74
0
79
0
76
0
76
0
73
0
51
0
55
0
71
0
73
0
78
0
83
0
75
0
82
0
80
0
85
0
81
0
51
0
63
0
88
0
83
0
88
0
86
0
87
0
90
0
88
0
85
0
88
0
95
0
70
0
71
0
85
0
96
0
96
0
92
0
87
0
88
0
94
0
62
0
33
0
42
0
69
0
85
0
90
0
100
0
89
0
100
0
81
0
47
0
72
0
68
0
64
0
82
0
72
0
9
0
0
0
5
0
0
0
6
0
4
0
4
0
33
0
101
0
138
0
91
0
19
0
11
0
9
0
4
0
0
0
1
0
3
0
5
0
5
0
3
0
2
0
0
0
0
0
0
0
0
0
0
0
0
0
0
0
0
0
0
0
1
0
1
0
10
0
2
0
5
0
5
0
1
0
11
0
60
0
92
0
109
0
84
0
46
0
18
0
4
0
1
0
3
0
4
0
5
0
6
0
5
0
4
0
3
0
2
0
2
0
2
0
1
0
1
0
1
0
0
0
0
0
0
0
0
0
0
0
0
0
0
0
0
0
0
0
0
0
0
0
0
0
0
0
0
0
0
0
0
0
0
0
0
0
0
0
1
0
4
0
6
0
0
0
8
0
65
0
77
0
30
0
4
0
3
0
2
0
4
0
4
0
1
0
1
0
0
0
1
0
1
0
9
0
2
0
3
0
24
0
64
0
126
0
171
0
169
0
171
0
174
0
176
0
173
0
0
0
0
0
0
0
0
0
0
0
0
0
0
0
0
0
0
0
0
0
0
0
0
0
0
0
0
0
0
0
0
0
0
0
0
0
0
0
0
0
0
0
0
0
0
0
0
0
0
0
0
0
0
0
0
0
0
0
0
0
0
0
0
0
0
0
0
0
0
0
0
0
0
0
0
0
0
0
0
0
0
0
0
0
0
0
0
0
0
0
0
0
0
0
0
0
0
0
0
0
0
0
0
0
0
0
0
0
0
0
0
0
0
0
0
0
0
0
0
0
0
0
0
0
0
0
0
0
0
0
0
0
0
0
0
0
0
0
0
0
0
0
0
0
0
0
0
0
0
0
0
0
0
0
0
0
0
0
0
0
0
0
0
0
0
0
0
0
0
0
0
0
0
0
0
0
0
0
0
0
0
0
0
0
0
0
0
0
0
0
0
0
0
0
0
0
0
0
0
0
0
0
0
0
0
0
0
0
0
0
0
0
0
0
0
0
0
0
0
0
0
0
0
0
0
0
0
0
0
0
0
0
0
0
0
0
0
0
0
0
0
0
0
0
0
0
0
0
0
0
0
0
0
0
0
0
0
0
0
0
0
0
0
0
0
0
0
0
0
0
0
0
0
0
0
0
0
0
0
0
0
0
0
0
0
0
0
0
0
0
0
0
0
0
0
0
0
0
0
0
0
0
0
0
0
0
0
0
0
0
0
0
0
0
0
0
0
0
0
0
0
0
0
0
0
0
0
0
0
0
0
0
0
0
0
0
0
0
0
0
0
0
0
0
0
0
0
0
0
0
0
0
0
0
0
0
0
0
0
0
0
0
0
0
0
0
0
0
0
0
0
0
0
0
0
0
0
0
0
0
0
0
0
0
0
0
0
0
0
0
0
0
0
0
0
0
0
0
0
0
0
0
0
0
0
0
0
0
0
0
0
0
0
0
0
0
0
0
0
0
0
0
0
0
0
0
0
0
0
0
0
0
0
0
0
0
0
0
0
0
0
0
0
0
55
0
47
0
12
0
0
0
11
0
54
0
86
0
96
0
98
0
102
0
102
0
103
0
108
0
114
0
114
0
109
0
101
0
98
0
85
0
89
0
77
0
30
0
1
0
1
0
3
0
3
0
0
0
3
0
0
0
3
0
0
0
43
0
188
0
252
0
215
0
82
0
3
0
34
0
59
0
47
0
35
0
65
0
78
0
85
0
70
0
38
0
12
0
4
0
6
0
2
0
0
0
0
0
3
0
2
0
0
0
3
0
10
0
5
0
4
0
6
0
28
0
58
0
75
0
77
0
77
0
78
0
56
0
48
0
62
0
76
0
84
0
83
0
76
0
79
0
73
0
80
0
73
0
57
0
41
0
76
0
79
0
73
0
77
0
82
0
88
0
89
0
88
0
91
0
96
0
86
0
62
0
74
0
86
0
82
0
72
0
59
0
63
0
51
0
45
0
34
0
46
0
85
0
95
0
87
0
92
0
88
0
95
0
91
0
59
0
42
0
61
0
77
0
97
0
83
0
24
0
2
0
3
0
3
0
4
0
2
0
34
0
101
0
111
0
89
0
33
0
2
0
13
0
15
0
3
0
0
0
1
0
2
0
4
0
4
0
3
0
2
0
1
0
0
0
0
0
0
0
0
0
0
0
0
0
0
0
0
0
0
0
2
0
11
0
2
0
6
0
6
0
0
0
3
0
26
0
56
0
74
0
54
0
18
0
1
0
1
0
4
0
0
0
0
0
0
0
2
0
2
0
2
0
1
0
0
0
2
0
2
0
1
0
1
0
1
0
0
0
0
0
0
0
0
0
0
0
0
0
0
0
0
0
0
0
0
0
0
0
0
0
0
0
0
0
0
0
0
0
0
0
0
0
0
0
0
0
11
0
8
0
0
0
27
0
77
0
61
0
2
0
2
0
3
0
4
0
4
0
2
0
0
0
0
0
0
0
1
0
4
0
3
0
0
0
5
0
2
0
16
0
90
0
148
0
159
0
173
0
179
0
179
0
176
0
0
0
0
0
0
0
0
0
0
0
0
0
0
0
0
0
0
0
0
0
0
0
0
0
0
0
0
0
0
0
0
0
0
0
0
0
0
0
0
0
0
0
0
0
0
0
0
0
0
0
0
0
0
0
0
0
0
0
0
0
0
0
0
0
0
0
0
0
0
0
0
0
0
0
0
0
0
0
0
0
0
0
0
0
0
0
0
0
0
0
0
0
0
0
0
0
0
0
0
0
0
0
0
0
0
0
0
0
0
0
0
0
0
0
0
0
0
0
0
0
0
0
0
0
0
0
0
0
0
0
0
0
0
0
0
0
0
0
0
0
0
0
0
0
0
0
0
0
0
0
0
0
0
0
0
0
0
0
0
0
0
0
0
0
0
0
0
0
0
0
0
0
0
0
0
0
0
0
0
0
0
0
0
0
0
0
0
0
0
0
0
0
0
0
0
0
0
0
0
0
0
0
0
0
0
0
0
0
0
0
0
0
0
0
0
0
0
0
0
0
0
0
0
0
0
0
0
0
0
0
0
0
0
0
0
0
0
0
0
0
0
0
0
0
0
0
0
0
0
0
0
0
0
0
0
0
0
0
0
0
0
0
0
0
0
0
0
0
0
0
0
0
0
0
0
0
0
0
0
0
0
0
0
0
0
0
0
0
0
0
0
0
0
0
0
0
0
0
0
0
0
0
0
0
0
0
0
0
0
0
0
0
0
0
0
0
0
0
0
0
0
0
0
0
0
0
0
0
0
0
0
0
0
0
0
0
0
0
0
0
0
0
0
0
0
0
0
0
0
0
0
0
0
0
0
0
0
0
0
0
0
0
0
0
0
0
0
0
0
0
0
0
0
0
0
0
0
0
0
0
0
0
0
0
0
0
0
0
0
0
0
0
0
0
0
0
0
0
0
0
0
0
0
0
0
0
0
0
0
0
0
0
0
0
0
0
0
0
0
0
0
0
0
0
0
0
0
0
0
0
0
0
0
0
0
0
0
0
0
0
0
0
0
0
38
0
68
0
33
0
1
0
0
0
29
0
68
0
90
0
96
0
97
0
98
0
100
0
104
0
108
0
110
0
106
0
104
0
98
0
88
0
88
0
83
0
50
0
9
0
0
0
4
0
2
0
0
0
6
0
0
0
2
0
7
0
54
0
196
0
252
0
255
0
176
0
36
0
5
0
69
0
65
0
16
0
14
0
42
0
73
0
82
0
62
0
31
0
7
0
0
0
3
0
2
0
4
0
7
0
5
0
1
0
1
0
6
0
7
0
2
0
1
0
14
0
36
0
56
0
70
0
76
0
74
0
61
0
47
0
51
0
71
0
77
0
70
0
65
0
66
0
65
0
65
0
69
0
59
0
27
0
55
0
74
0
63
0
69
0
77
0
82
0
85
0
87
0
87
0
86
0
84
0
47
0
60
0
71
0
64
0
63
0
55
0
63
0
60
0
76
0
65
0
63
0
95
0
100
0
88
0
98
0
97
0
87
0
84
0
58
0
17
0
75
0
97
0
90
0
66
0
32
0
10
0
1
0
9
0
14
0
26
0
80
0
122
0
77
0
23
0
1
0
2
0
13
0
11
0
6
0
0
0
0
0
0
0
1
0
1
0
1
0
0
0
0
0
0
0
0
0
0
0
0
0
0
0
0
0
0
0
0
0
0
0
2
0
9
0
1
0
4
0
7
0
0
0
1
0
1
0
10
0
19
0
14
0
2
0
0
0
0
0
8
0
1
0
0
0
0
0
1
0
1
0
1
0
1
0
1
0
2
0
2
0
1
0
1
0
1
0
0
0
0
0
0
0
0
0
0
0
0
0
0
0
0
0
0
0
0
0
0
0
0
0
0
0
0
0
0
0
0
0
0
0
0
0
0
0
4
0
8
0
2
0
8
0
38
0
50
0
24
0
0
0
2
0
4
0
4
0
2
0
1
0
1
0
1
0
1
0
2
0
2
0
5
0
2
0
4
0
1
0
2
0
49
0
103
0
126
0
156
0
172
0
174
0
174
0
0
0
0
0
0
0
0
0
0
0
0
0
0
0
0
0
0
0
0
0
0
0
0
0
0
0
0
0
0
0
0
0
0
0
0
0
0
0
0
0
0
0
0
0
0
0
0
0
0
0
0
0
0
0
0
0
0
0
0
0
0
0
0
0
0
0
0
0
0
0
0
0
0
0
0
0
0
0
0
0
0
0
0
0
0
0
0
0
0
0
0
0
0
0
0
0
0
0
0
0
0
0
0
0
0
0
0
0
0
0
0
0
0
0
0
0
0
0
0
0
0
0
0
0
0
0
0
0
0
0
0
0
0
0
0
0
0
0
0
0
0
0
0
0
0
0
0
0
0
0
0
0
0
0
0
0
0
0
0
0
0
0
0
0
0
0
0
0
0
0
0
0
0
0
0
0
0
0
0
0
0
0
0
0
0
0
0
0
0
0
0
0
0
0
0
0
0
0
0
0
0
0
0
0
0
0
0
0
0
0
0
0
0
0
0
0
0
0
0
0
0
0
0
0
0
0
0
0
0
0
0
0
0
0
0
0
0
0
0
0
0
0
0
0
0
0
0
0
0
0
0
0
0
0
0
0
0
0
0
0
0
0
0
0
0
0
0
0
0
0
0
0
0
0
0
0
0
0
0
0
0
0
0
0
0
0
0
0
0
0
0
0
0
0
0
0
0
0
0
0
0
0
0
0
0
0
0
0
0
0
0
0
0
0
0
0
0
0
0
0
0
0
0
0
0
0
0
0
0
0
0
0
0
0
0
0
0
0
0
0
0
0
0
0
0
0
0
0
0
0
0
0
0
0
0
0
0
0
0
0
0
0
0
0
0
0
0
0
0
0
0
0
0
0
0
0
0
0
0
0
0
0
0
0
0
0
0
0
0
0
0
0
0
0
0
0
0
0
0
0
0
0
0
0
0
0
0
0
0
0
0
0
0
0
0
0
0
0
0
0
0
0
0
0
0
0
0
0
0
0
0
0
0
0
0
0
0
0
0
0
0
0
0
0
27
0
79
0
48
0
7
0
0
0
14
0
53
0
84
0
94
0
93
0
95
0
98
0
101
0
104
0
106
0
105
0
106
0
97
0
92
0
89
0
86
0
64
0
17
0
0
0
3
0
7
0
0
0
10
0
0
0
0
0
2
0
51
0
190
0
251
0
253
0
230
0
75
0
1
0
73
0
89
0
29
0
4
0
8
0
18
0
32
0
41
0
34
0
16
0
2
0
3
0
4
0
8
0
12
0
9
0
1
0
0
0
1
0
8
0
3
0
4
0
5
0
17
0
36
0
57
0
74
0
64
0
61
0
43
0
39
0
59
0
62
0
47
0
44
0
53
0
58
0
49
0
67
0
56
0
21
0
39
0
70
0
73
0
80
0
82
0
79
0
78
0
78
0
72
0
66
0
63
0
27
0
47
0
58
0
60
0
75
0
79
0
92
0
104
0
103
0
60
0
41
0
82
0
98
0
85
0
89
0
98
0
70
0
61
0
42
0
6
0
100
0
115
0
74
0
41
0
32
0
17
0
1
0
13
0
31
0
54
0
117
0
87
0
32
0
1
0
8
0
15
0
2
0
1
0
4
0
0
0
0
0
0
0
0
0
0
0
0
0
0
0
0
0
0
0
0
0
0
0
0
0
0
0
0
0
0
0
0
0
0
0
2
0
5
0
2
0
1
0
8
0
0
0
5
0
4
0
1
0
0
0
0
0
6
0
4
0
0
0
0
0
2
0
2
0
2
0
1
0
1
0
1
0
2
0
2
0
2
0
2
0
1
0
1
0
1
0
0
0
0
0
0
0
0
0
0
0
0
0
0
0
0
0
0
0
0
0
0
0
0
0
0
0
0
0
0
0
0
0
0
0
0
0
0
0
10
0
2
0
2
0
17
0
40
0
16
0
0
0
6
0
3
0
4
0
3
0
2
0
2
0
1
0
2
0
1
0
3
0
1
0
13
0
6
0
3
0
5
0
0
0
15
0
62
0
93
0
132
0
156
0
165
0
169
0
0
0
0
0
0
0
0
0
0
0
0
0
0
0
0
0
0
0
0
0
0
0
0
0
0
0
0
0
0
0
0
0
0
0
0
0
0
0
0
0
0
0
0
0
0
0
0
0
0
0
0
0
0
0
0
0
0
0
0
0
0
0
0
0
0
0
0
0
0
0
0
0
0
0
0
0
0
0
0
0
0
0
0
0
0
0
0
0
0
0
0
0
0
0
0
0
0
0
0
0
0
0
0
0
0
0
0
0
0
0
0
0
0
0
0
0
0
0
0
0
0
0
0
0
0
0
0
0
0
0
0
0
0
0
0
0
0
0
0
0
0
0
0
0
0
0
0
0
0
0
0
0
0
0
0
0
0
0
0
0
0
0
0
0
0
0
0
0
0
0
0
0
0
0
0
0
0
0
0
0
0
0
0
0
0
0
0
0
0
0
0
0
0
0
0
0
0
0
0
0
0
0
0
0
0
0
0
0
0
0
0
0
0
0
0
0
0
0
0
0
0
0
0
0
0
0
0
0
0
0
0
0
0
0
0
0
0
0
0
0
0
0
0
0
0
0
0
0
0
0
0
0
0
0
0
0
0
0
0
0
0
0
0
0
0
0
0
0
0
0
0
0
0
0
0
0
0
0
0
0
0
0
0
0
0
0
0
0
0
0
0
0
0
0
0
0
0
0
0
0
0
0
0
0
0
0
0
0
0
0
0
0
0
0
0
0
0
0
0
0
0
0
0
0
0
0
0
0
0
0
0
0
0
0
0
0
0
0
0
0
0
0
0
0
0
0
0
0
0
0
0
0
0
0
0
0
0
0
0
0
0
0
0
0
0
0
0
0
0
0
0
0
0
0
0
0
0
0
0
0
0
0
0
0
0
0
0
0
0
0
0
0
0
0
0
0
0
0
0
0
0
0
0
0
0
0
0
0
0
0
0
0
0
0
0
0
0
0
0
0
0
0
0
0
0
0
0
0
0
0
0
0
0
0
0
0
0
0
0
0
0
0
0
0
2
0
76
0
78
0
16
0
1
0
7
0
23
0
66
0
92
0
84
0
96
0
102
0
96
0
94
0
99
0
101
0
99
0
97
0
91
0
96
0
89
0
91
0
21
0
0
0
2
0
3
0
0
0
8
0
0
0
2
0
3
0
43
0
195
0
253
0
249
0
228
0
58
0
8
0
71
0
86
0
55
0
13
0
4
0
0
0
3
0
2
0
1
0
4
0
8
0
2
0
2
0
24
0
57
0
67
0
48
0
25
0
16
0
3
0
6
0
7
0
2
0
0
0
11
0
31
0
44
0
50
0
44
0
31
0
16
0
14
0
21
0
21
0
16
0
20
0
22
0
33
0
29
0
34
0
36
0
36
0
71
0
57
0
55
0
51
0
48
0
47
0
49
0
50
0
53
0
37
0
33
0
61
0
94
0
103
0
101
0
100
0
102
0
89
0
89
0
63
0
55
0
88
0
100
0
85
0
77
0
53
0
41
0
85
0
103
0
58
0
55
0
71
0
43
0
74
0
64
0
13
0
9
0
46
0
65
0
63
0
75
0
25
0
7
0
0
0
1
0
4
0
0
0
0
0
5
0
0
0
0
0
0
0
0
0
0
0
0
0
0
0
0
0
0
0
0
0
0
0
0
0
0
0
0
0
0
0
0
0
0
0
0
0
0
0
0
0
0
0
0
0
0
0
0
0
2
0
2
0
2
0
2
0
2
0
2
0
2
0
2
0
0
0
0
0
0
0
0
0
0
0
0
0
0
0
0
0
0
0
0
0
0
0
0
0
0
0
0
0
0
0
0
0
0
0
0
0
0
0
0
0
0
0
0
0
0
0
0
0
2
0
1
0
0
0
0
0
0
0
0
0
1
0
2
0
4
0
4
0
4
0
4
0
4
0
4
0
4
0
4
0
1
0
1
0
1
0
1
0
1
0
1
0
1
0
1
0
0
0
0
0
1
0
2
0
3
0
4
0
4
0
5
0
37
0
69
0
94
0
115
0
152
0
176
0
0
0
0
0
0
0
0
0
0
0
0
0
0
0
0
0
0
0
0
0
0
0
0
0
0
0
0
0
0
0
0
0
0
0
0
0
0
0
0
0
0
0
0
0
0
0
0
0
0
0
0
0
0
0
0
0
0
0
0
0
0
0
0
0
0
0
0
0
0
0
0
0
0
0
0
0
0
0
0
0
0
0
0
0
0
0
0
0
0
0
0
0
0
0
0
0
0
0
0
0
0
0
0
0
0
0
0
0
0
0
0
0
0
0
0
0
0
0
0
0
0
0
0
0
0
0
0
0
0
0
0
0
0
0
0
0
0
0
0
0
0
0
0
0
0
0
0
0
0
0
0
0
0
0
0
0
0
0
0
0
0
0
0
0
0
0
0
0
0
0
0
0
0
0
0
0
0
0
0
0
0
0
0
0
0
0
0
0
0
0
0
0
0
0
0
0
0
0
0
0
0
0
0
0
0
0
0
0
0
0
0
0
0
0
0
0
0
0
0
0
0
0
0
0
0
0
0
0
0
0
0
0
0
0
0
0
0
0
0
0
0
0
0
0
0
0
0
0
0
0
0
0
0
0
0
0
0
0
0
0
0
0
0
0
0
0
0
0
0
0
0
0
0
0
0
0
0
0
0
0
0
0
0
0
0
0
0
0
0
0
0
0
0
0
0
0
0
0
0
0
0
0
0
0
0
0
0
0
0
0
0
0
0
0
0
0
0
0
0
0
0
0
0
0
0
0
0
0
0
0
0
0
0
0
0
0
0
0
0
0
0
0
0
0
0
0
0
0
0
0
0
0
0
0
0
0
0
0
0
0
0
0
0
0
0
0
0
0
0
0
0
0
0
0
0
0
0
0
0
0
0
0
0
0
0
0
0
0
0
0
0
0
0
0
0
0
0
0
0
0
0
0
0
0
0
0
0
0
0
0
0
0
0
0
0
0
0
0
0
0
0
0
0
0
0
0
0
0
0
0
0
0
0
0
0
0
0
0
0
0
0
0
0
0
2
0
48
0
76
0
38
0
6
0
1
0
1
0
47
0
92
0
91
0
90
0
93
0
98
0
99
0
97
0
96
0
100
0
97
0
101
0
92
0
92
0
82
0
42
0
2
0
2
0
4
0
0
0
7
0
0
0
2
0
1
0
34
0
170
0
243
0
254
0
219
0
65
0
18
0
52
0
74
0
69
0
23
0
10
0
1
0
4
0
6
0
4
0
1
0
1
0
5
0
2
0
15
0
42
0
64
0
70
0
68
0
68
0
40
0
23
0
13
0
15
0
6
0
2
0
10
0
33
0
65
0
63
0
54
0
39
0
31
0
37
0
42
0
43
0
68
0
74
0
72
0
57
0
53
0
36
0
13
0
35
0
53
0
56
0
61
0
68
0
77
0
86
0
93
0
96
0
76
0
69
0
79
0
94
0
91
0
85
0
91
0
97
0
90
0
88
0
73
0
78
0
100
0
87
0
56
0
51
0
82
0
78
0
91
0
107
0
89
0
50
0
38
0
53
0
99
0
74
0
20
0
23
0
77
0
63
0
14
0
16
0
16
0
2
0
0
0
4
0
8
0
2
0
0
0
4
0
0
0
0
0
0
0
0
0
0
0
0
0
0
0
0
0
0
0
0
0
0
0
0
0
0
0
0
0
0
0
0
0
0
0
0
0
0
0
0
0
0
0
0
0
0
0
0
0
2
0
2
0
2
0
2
0
2
0
2
0
2
0
2
0
0
0
0
0
0
0
0
0
0
0
0
0
0
0
0
0
0
0
0
0
0
0
0
0
0
0
0
0
0
0
0
0
0
0
0
0
0
0
0
0
0
0
0
0
0
0
0
0
2
0
1
0
0
0
0
0
0
0
0
0
1
0
2
0
4
0
4
0
4
0
4
0
4
0
4
0
4
0
4
0
1
0
1
0
1
0
1
0
1
0
1
0
1
0
1
0
0
0
0
0
1
0
1
0
2
0
3
0
4
0
4
0
36
0
64
0
76
0
79
0
104
0
139
0
0
0
0
0
0
0
0
0
0
0
0
0
0
0
0
0
0
0
0
0
0
0
0
0
0
0
0
0
0
0
0
0
0
0
0
0
0
0
0
0
0
0
0
0
0
0
0
0
0
0
0
0
0
0
0
0
0
0
0
0
0
0
0
0
0
0
0
0
0
0
0
0
0
0
0
0
0
0
0
0
0
0
0
0
0
0
0
0
0
0
0
0
0
0
0
0
0
0
0
0
0
0
0
0
0
0
0
0
0
0
0
0
0
0
0
0
0
0
0
0
0
0
0
0
0
0
0
0
0
0
0
0
0
0
0
0
0
0
0
0
0
0
0
0
0
0
0
0
0
0
0
0
0
0
0
0
0
0
0
0
0
0
0
0
0
0
0
0
0
0
0
0
0
0
0
0
0
0
0
0
0
0
0
0
0
0
0
0
0
0
0
0
0
0
0
0
0
0
0
0
0
0
0
0
0
0
0
0
0
0
0
0
0
0
0
0
0
0
0
0
0
0
0
0
0
0
0
0
0
0
0
0
0
0
0
0
0
0
0
0
0
0
0
0
0
0
0
0
0
0
0
0
0
0
0
0
0
0
0
0
0
0
0
0
0
0
0
0
0
0
0
0
0
0
0
0
0
0
0
0
0
0
0
0
0
0
0
0
0
0
0
0
0
0
0
0
0
0
0
0
0
0
0
0
0
0
0
0
0
0
0
0
0
0
0
0
0
0
0
0
0
0
0
0
0
0
0
0
0
0
0
0
0
0
0
0
0
0
0
0
0
0
0
0
0
0
0
0
0
0
0
0
0
0
0
0
0
0
0
0
0
0
0
0
0
0
0
0
0
0
0
0
0
0
0
0
0
0
0
0
0
0
0
0
0
0
0
0
0
0
0
0
0
0
0
0
0
0
0
0
0
0
0
0
0
0
0
0
0
0
0
0
0
0
0
0
0
0
0
0
0
0
0
0
0
0
0
0
0
0
0
0
0
0
0
0
0
0
0
0
0
0
0
0
12
0
23
0
76
0
62
0
23
0
1
0
1
0
20
0
69
0
95
0
85
0
86
0
99
0
104
0
96
0
92
0
99
0
96
0
106
0
88
0
93
0
70
0
58
0
9
0
1
0
4
0
0
0
5
0
0
0
3
0
0
0
20
0
128
0
238
0
253
0
154
0
24
0
29
0
52
0
70
0
65
0
32
0
18
0
3
0
3
0
4
0
4
0
3
0
3
0
8
0
3
0
3
0
14
0
35
0
54
0
67
0
71
0
80
0
67
0
57
0
49
0
35
0
19
0
17
0
26
0
58
0
70
0
74
0
64
0
51
0
52
0
69
0
85
0
76
0
85
0
85
0
78
0
81
0
63
0
37
0
55
0
102
0
101
0
99
0
97
0
93
0
89
0
85
0
82
0
70
0
64
0
75
0
92
0
90
0
88
0
95
0
101
0
97
0
80
0
51
0
57
0
78
0
69
0
59
0
80
0
85
0
101
0
93
0
97
0
95
0
32
0
16
0
83
0
90
0
95
0
72
0
50
0
60
0
45
0
19
0
9
0
6
0
0
0
0
0
7
0
11
0
5
0
1
0
2
0
0
0
0
0
0
0
0
0
0
0
0
0
0
0
0
0
0
0
0
0
0
0
0
0
0
0
0
0
0
0
0
0
0
0
0
0
0
0
0
0
0
0
0
0
0
0
0
0
2
0
2
0
2
0
2
0
2
0
2
0
2
0
2
0
0
0
0
0
0
0
0
0
0
0
0
0
0
0
0
0
0
0
0
0
0
0
0
0
0
0
0
0
0
0
0
0
0
0
0
0
0
0
0
0
0
0
0
0
0
0
0
0
2
0
1
0
0
0
0
0
0
0
0
0
1
0
2
0
3
0
3
0
3
0
3
0
3
0
3
0
3
0
3
0
1
0
1
0
1
0
1
0
1
0
1
0
1
0
1
0
0
0
0
0
0
0
1
0
2
0
3
0
3
0
4
0
2
0
25
0
43
0
57
0
85
0
118
0
0
0
0
0
0
0
0
0
0
0
0
0
0
0
0
0
0
0
0
0
0
0
0
0
0
0
0
0
0
0
0
0
0
0
0
0
0
0
0
0
0
0
0
0
0
0
0
0
0
0
0
0
0
0
0
0
0
0
0
0
0
0
0
0
0
0
0
0
0
0
0
0
0
0
0
0
0
0
0
0
0
0
0
0
0
0
0
0
0
0
0
0
0
0
0
0
0
0
0
0
0
0
0
0
0
0
0
0
0
0
0
0
0
0
0
0
0
0
0
0
0
0
0
0
0
0
0
0
0
0
0
0
0
0
0
0
0
0
0
0
0
0
0
0
0
0
0
0
0
0
0
0
0
0
0
0
0
0
0
0
0
0
0
0
0
0
0
0
0
0
0
0
0
0
0
0
0
0
0
0
0
0
0
0
0
0
0
0
0
0
0
0
0
0
0
0
0
0
0
0
0
0
0
0
0
0
0
0
0
0
0
0
0
0
0
0
0
0
0
0
0
0
0
0
0
0
0
0
0
0
0
0
0
0
0
0
0
0
0
0
0
0
0
0
0
0
0
0
0
0
0
0
0
0
0
0
0
0
0
0
0
0
0
0
0
0
0
0
0
0
0
0
0
0
0
0
0
0
0
0
0
0
0
0
0
0
0
0
0
0
0
0
0
0
0
0
0
0
0
0
0
0
0
0
0
0
0
0
0
0
0
0
0
0
0
0
0
0
0
0
0
0
0
0
0
0
0
0
0
0
0
0
0
0
0
0
0
0
0
0
0
0
0
0
0
0
0
0
0
0
0
0
0
0
0
0
0
0
0
0
0
0
0
0
0
0
0
0
0
0
0
0
0
0
0
0
0
0
0
0
0
0
0
0
0
0
0
0
0
0
0
0
0
0
0
0
0
0
0
0
0
0
0
0
0
0
0
0
0
0
0
0
0
0
0
0
0
0
0
0
0
0
0
0
0
0
0
0
0
0
0
0
0
0
0
0
0
0
0
0
0
0
0
0
55
0
10
0
74
0
78
0
36
0
9
0
0
0
3
0
27
0
84
0
85
0
89
0
98
0
99
0
95
0
93
0
94
0
96
0
100
0
91
0
92
0
68
0
47
0
9
0
0
0
3
0
0
0
3
0
0
0
3
0
0
0
7
0
82
0
214
0
251
0
99
0
2
0
46
0
67
0
71
0
49
0
23
0
13
0
1
0
1
0
1
0
3
0
6
0
6
0
6
0
6
0
2
0
1
0
7
0
24
0
39
0
45
0
59
0
79
0
80
0
51
0
33
0
29
0
16
0
1
0
31
0
51
0
71
0
68
0
51
0
46
0
65
0
89
0
67
0
73
0
76
0
73
0
82
0
71
0
47
0
65
0
83
0
83
0
84
0
84
0
84
0
84
0
83
0
83
0
51
0
44
0
62
0
83
0
85
0
79
0
73
0
68
0
80
0
61
0
26
0
33
0
62
0
74
0
82
0
108
0
102
0
97
0
72
0
64
0
69
0
35
0
29
0
89
0
98
0
51
0
52
0
87
0
66
0
20
0
4
0
18
0
2
0
0
0
0
0
6
0
9
0
5
0
1
0
1
0
0
0
0
0
0
0
0
0
0
0
0
0
0
0
0
0
0
0
0
0
0
0
0
0
0
0
0
0
0
0
0
0
0
0
0
0
0
0
0
0
0
0
0
0
0
0
0
0
1
0
1
0
1
0
1
0
1
0
1
0
1
0
1
0
0
0
0
0
0
0
0
0
0
0
0
0
0
0
0
0
0
0
0
0
0
0
0
0
0
0
0
0
0
0
0
0
0
0
0
0
0
0
0
0
1
0
1
0
1
0
1
0
2
0
1
0
0
0
0
0
0
0
0
0
1
0
2
0
2
0
2
0
2
0
2
0
2
0
2
0
2
0
2
0
1
0
1
0
1
0
1
0
1
0
1
0
1
0
1
0
0
0
0
0
0
0
1
0
1
0
2
0
2
0
2
0
21
0
24
0
29
0
54
0
87
0
110
0
0
0
0
0
0
0
0
0
0
0
0
0
0
0
0
0
0
0
0
0
0
0
0
0
0
0
0
0
0
0
0
0
0
0
0
0
0
0
0
0
0
0
0
0
0
0
0
0
0
0
0
0
0
0
0
0
0
0
0
0
0
0
0
0
0
0
0
0
0
0
0
0
0
0
0
0
0
0
0
0
0
0
0
0
0
0
0
0
0
0
0
0
0
0
0
0
0
0
0
0
0
0
0
0
0
0
0
0
0
0
0
0
0
0
0
0
0
0
0
0
0
0
0
0
0
0
0
0
0
0
0
0
0
0
0
0
0
0
0
0
0
0
0
0
0
0
0
0
0
0
0
0
0
0
0
0
0
0
0
0
0
0
0
0
0
0
0
0
0
0
0
0
0
0
0
0
0
0
0
0
0
0
0
0
0
0
0
0
0
0
0
0
0
0
0
0
0
0
0
0
0
0
0
0
0
0
0
0
0
0
0
0
0
0
0
0
0
0
0
0
0
0
0
0
0
0
0
0
0
0
0
0
0
0
0
0
0
0
0
0
0
0
0
0
0
0
0
0
0
0
0
0
0
0
0
0
0
0
0
0
0
0
0
0
0
0
0
0
0
0
0
0
0
0
0
0
0
0
0
0
0
0
0
0
0
0
0
0
0
0
0
0
0
0
0
0
0
0
0
0
0
0
0
0
0
0
0
0
0
0
0
0
0
0
0
0
0
0
0
0
0
0
0
0
0
0
0
0
0
0
0
0
0
0
0
0
0
0
0
0
0
0
0
0
0
0
0
0
0
0
0
0
0
0
0
0
0
0
0
0
0
0
0
0
0
0
0
0
0
0
0
0
0
0
0
0
0
0
0
0
0
0
0
0
0
0
0
0
0
0
0
0
0
0
0
0
0
0
0
0
0
0
0
0
0
0
0
0
0
0
0
0
0
0
0
0
0
0
0
0
0
0
0
0
0
0
0
0
0
0
0
0
0
0
0
0
0
0
0
0
0
0
0
0
22
0
4
0
58
0
87
0
49
0
13
0
1
0
1
0
3
0
58
0
81
0
95
0
92
0
90
0
96
0
96
0
89
0
98
0
88
0
100
0
90
0
71
0
22
0
5
0
1
0
2
0
0
0
1
0
0
0
3
0
0
0
0
0
42
0
170
0
241
0
90
0
6
0
57
0
72
0
72
0
45
0
18
0
14
0
5
0
2
0
1
0
3
0
13
0
19
0
3
0
8
0
10
0
4
0
4
0
20
0
40
0
52
0
40
0
65
0
70
0
44
0
22
0
18
0
8
0
2
0
12
0
32
0
59
0
66
0
50
0
37
0
48
0
70
0
66
0
69
0
71
0
67
0
76
0
62
0
36
0
52
0
70
0
70
0
69
0
69
0
70
0
71
0
73
0
74
0
60
0
47
0
52
0
62
0
59
0
50
0
41
0
29
0
53
0
50
0
32
0
36
0
77
0
95
0
89
0
91
0
110
0
76
0
51
0
53
0
66
0
76
0
66
0
44
0
54
0
43
0
70
0
80
0
39
0
4
0
2
0
2
0
3
0
0
0
0
0
3
0
4
0
1
0
0
0
1
0
0
0
0
0
0
0
0
0
0
0
0
0
0
0
0
0
0
0
0
0
0
0
0
0
0
0
0
0
0
0
0
0
0
0
0
0
0
0
0
0
0
0
0
0
0
0
0
0
1
0
1
0
1
0
1
0
1
0
1
0
1
0
1
0
0
0
0
0
0
0
0
0
0
0
0
0
0
0
0
0
0
0
0
0
0
0
0
0
0
0
0
0
0
0
0
0
0
0
0
0
0
0
1
0
1
0
2
0
2
0
2
0
2
0
1
0
0
0
0
0
0
0
0
0
1
0
2
0
2
0
2
0
2
0
2
0
2
0
2
0
2
0
2
0
1
0
1
0
1
0
1
0
1
0
1
0
1
0
1
0
0
0
0
0
0
0
0
0
1
0
1
0
1
0
1
0
0
0
1
0
13
0
63
0
98
0
102
0
0
0
0
0
0
0
0
0
0
0
0
0
0
0
0
0
0
0
0
0
0
0
0
0
0
0
0
0
0
0
0
0
0
0
0
0
0
0
0
0
0
0
0
0
0
0
0
0
0
0
0
0
0
0
0
0
0
0
0
0
0
0
0
0
0
0
0
0
0
0
0
0
0
0
0
0
0
0
0
0
0
0
0
0
0
0
0
0
0
0
0
0
0
0
0
0
0
0
0
0
0
0
0
0
0
0
0
0
0
0
0
0
0
0
0
0
0
0
0
0
0
0
0
0
0
0
0
0
0
0
0
0
0
0
0
0
0
0
0
0
0
0
0
0
0
0
0
0
0
0
0
0
0
0
0
0
0
0
0
0
0
0
0
0
0
0
0
0
0
0
0
0
0
0
0
0
0
0
0
0
0
0
0
0
0
0
0
0
0
0
0
0
0
0
0
0
0
0
0
0
0
0
0
0
0
0
0
0
0
0
0
0
0
0
0
0
0
0
0
0
0
0
0
0
0
0
0
0
0
0
0
0
0
0
0
0
0
0
0
0
0
0
0
0
0
0
0
0
0
0
0
0
0
0
0
0
0
0
0
0
0
0
0
0
0
0
0
0
0
0
0
0
0
0
0
0
0
0
0
0
0
0
0
0
0
0
0
0
0
0
0
0
0
0
0
0
0
0
0
0
0
0
0
0
0
0
0
0
0
0
0
0
0
0
0
0
0
0
0
0
0
0
0
0
0
0
0
0
0
0
0
0
0
0
0
0
0
0
0
0
0
0
0
0
0
0
0
0
0
0
0
0
0
0
0
0
0
0
0
0
0
0
0
0
0
0
0
0
0
0
0
0
0
0
0
0
0
0
0
0
0
0
0
0
0
0
0
0
0
0
0
0
0
0
0
0
0
0
0
0
0
0
0
0
0
0
0
0
0
0
0
0
0
0
0
0
0
0
0
0
0
0
0
0
0
0
0
0
0
0
0
0
0
0
0
0
0
0
0
0
0
0
0
0
4
0
6
0
32
0
80
0
65
0
16
0
0
0
0
0
1
0
29
0
63
0
87
0
82
0
82
0
95
0
97
0
87
0
100
0
85
0
105
0
88
0
61
0
5
0
5
0
3
0
0
0
3
0
1
0
1
0
3
0
0
0
0
0
14
0
148
0
201
0
53
0
5
0
48
0
64
0
70
0
45
0
45
0
44
0
35
0
18
0
4
0
1
0
4
0
6
0
4
0
7
0
8
0
4
0
2
0
13
0
36
0
56
0
49
0
45
0
44
0
38
0
22
0
5
0
4
0
16
0
2
0
16
0
44
0
61
0
55
0
42
0
47
0
62
0
69
0
78
0
77
0
71
0
78
0
61
0
33
0
47
0
70
0
68
0
62
0
55
0
49
0
44
0
42
0
41
0
48
0
32
0
28
0
37
0
44
0
53
0
58
0
53
0
64
0
69
0
44
0
33
0
73
0
101
0
95
0
85
0
62
0
48
0
69
0
95
0
91
0
96
0
70
0
14
0
34
0
98
0
102
0
32
0
4
0
1
0
16
0
6
0
4
0
2
0
1
0
0
0
0
0
0
0
0
0
0
0
0
0
0
0
0
0
0
0
0
0
0
0
0
0
0
0
0
0
0
0
0
0
0
0
0
0
0
0
0
0
0
0
0
0
0
0
0
0
0
0
0
0
0
0
0
0
0
0
0
0
0
0
0
0
0
0
0
0
0
0
0
0
0
0
0
0
0
0
0
0
0
0
0
0
0
0
0
0
0
0
0
0
0
0
0
0
0
0
0
0
0
0
0
0
0
0
0
0
0
0
0
0
1
0
2
0
3
0
3
0
4
0
2
0
1
0
0
0
0
0
0
0
0
0
1
0
2
0
1
0
1
0
1
0
1
0
1
0
1
0
1
0
1
0
1
0
1
0
1
0
1
0
1
0
1
0
1
0
1
0
0
0
0
0
0
0
0
0
0
0
0
0
0
0
0
0
1
0
8
0
27
0
54
0
64
0
52
0
0
0
0
0
0
0
0
0
0
0
0
0
0
0
0
0
0
0
0
0
0
0
0
0
0
0
0
0
0
0
0
0
0
0
0
0
0
0
0
0
0
0
0
0
0
0
0
0
0
0
0
0
0
0
0
0
0
0
0
0
0
0
0
0
0
0
0
0
0
0
0
0
0
0
0
0
0
0
0
0
0
0
0
0
0
0
0
0
0
0
0
0
0
0
0
0
0
0
0
0
0
0
0
0
0
0
0
0
0
0
0
0
0
0
0
0
0
0
0
0
0
0
0
0
0
0
0
0
0
0
0
0
0
0
0
0
0
0
0
0
0
0
0
0
0
0
0
0
0
0
0
0
0
0
0
0
0
0
0
0
0
0
0
0
0
0
0
0
0
0
0
0
0
0
0
0
0
0
0
0
0
0
0
0
0
0
0
0
0
0
0
0
0
0
0
0
0
0
0
0
0
0
0
0
0
0
0
0
0
0
0
0
0
0
0
0
0
0
0
0
0
0
0
0
0
0
0
0
0
0
0
0
0
0
0
0
0
0
0
0
0
0
0
0
0
0
0
0
0
0
0
0
0
0
0
0
0
0
0
0
0
0
0
0
0
0
0
0
0
0
0
0
0
0
0
0
0
0
0
0
0
0
0
0
0
0
0
0
0
0
0
0
0
0
0
0
0
0
0
0
0
0
0
0
0
0
0
0
0
0
0
0
0
0
0
0
0
0
0
0
0
0
0
0
0
0
0
0
0
0
0
0
0
0
0
0
0
0
0
0
0
0
0
0
0
0
0
0
0
0
0
0
0
0
0
0
0
0
0
0
0
0
0
0
0
0
0
0
0
0
0
0
0
0
0
0
0
0
0
0
0
0
0
0
0
0
0
0
0
0
0
0
0
0
0
0
0
0
0
0
0
0
0
0
0
0
0
0
0
0
0
0
0
0
0
0
0
0
0
0
0
0
0
0
0
0
0
0
0
0
0
0
0
0
0
0
0
0
0
0
0
0
0
0
140
0
52
0
9
0
56
0
80
0
31
0
1
0
1
0
7
0
5
0
35
0
64
0
75
0
83
0
94
0
96
0
88
0
96
0
88
0
96
0
78
0
35
0
4
0
6
0
2
0
0
0
6
0
2
0
2
0
2
0
0
0
2
0
0
0
97
0
120
0
4
0
6
0
37
0
48
0
59
0
44
0
66
0
66
0
60
0
45
0
30
0
19
0
8
0
2
0
10
0
3
0
1
0
2
0
1
0
0
0
11
0
27
0
31
0
13
0
4
0
9
0
5
0
1
0
1
0
11
0
2
0
3
0
16
0
39
0
45
0
35
0
33
0
44
0
56
0
61
0
59
0
51
0
52
0
37
0
12
0
29
0
28
0
30
0
34
0
38
0
43
0
46
0
49
0
50
0
24
0
17
0
28
0
44
0
57
0
74
0
89
0
91
0
85
0
88
0
59
0
39
0
67
0
92
0
86
0
79
0
40
0
55
0
95
0
116
0
93
0
64
0
47
0
32
0
100
0
70
0
27
0
10
0
12
0
5
0
7
0
17
0
0
0
1
0
2
0
0
0
0
0
0
0
0
0
0
0
0
0
0
0
0
0
0
0
0
0
0
0
0
0
0
0
0
0
0
0
0
0
0
0
0
0
0
0
0
0
0
0
0
0
0
0
0
0
0
0
0
0
0
0
0
0
0
0
0
0
0
0
0
0
0
0
0
0
0
0
0
0
0
0
0
0
0
0
0
0
0
0
0
0
0
0
0
0
0
0
0
0
0
0
0
0
0
0
0
0
0
0
0
0
0
0
0
0
0
0
1
0
1
0
2
0
3
0
4
0
4
0
2
0
1
0
0
0
0
0
0
0
0
0
1
0
2
0
0
0
0
0
0
0
0
0
0
0
0
0
0
0
0
0
1
0
1
0
1
0
1
0
1
0
1
0
1
0
1
0
0
0
0
0
0
0
0
0
0
0
0
0
0
0
0
0
2
0
2
0
2
0
3
0
34
0
71
0
0
0
0
0
0
0
0
0
0
0
0
0
0
0
0
0
0
0
0
0
0
0
0
0
0
0
0
0
0
0
0
0
0
0
0
0
0
0
0
0
0
0
0
0
0
0
0
0
0
0
0
0
0
0
0
0
0
0
0
0
0
0
0
0
0
0
0
0
0
0
0
0
0
0
0
0
0
0
0
0
0
0
0
0
0
0
0
0
0
0
0
0
0
0
0
0
0
0
0
0
0
0
0
0
0
0
0
0
0
0
0
0
0
0
0
0
0
0
0
0
0
0
0
0
0
0
0
0
0
0
0
0
0
0
0
0
0
0
0
0
0
0
0
0
0
0
0
0
0
0
0
0
0
0
0
0
0
0
0
0
0
0
0
0
0
0
0
0
0
0
0
0
0
0
0
0
0
0
0
0
0
0
0
0
0
0
0
0
0
0
0
0
0
0
0
0
0
0
0
0
0
0
0
0
0
0
0
0
0
0
0
0
0
0
0
0
0
0
0
0
0
0
0
0
0
0
0
0
0
0
0
0
0
0
0
0
0
0
0
0
0
0
0
0
0
0
0
0
0
0
0
0
0
0
0
0
0
0
0
0
0
0
0
0
0
0
0
0
0
0
0
0
0
0
0
0
0
0
0
0
0
0
0
0
0
0
0
0
0
0
0
0
0
0
0
0
0
0
0
0
0
0
0
0
0
0
0
0
0
0
0
0
0
0
0
0
0
0
0
0
0
0
0
0
0
0
0
0
0
0
0
0
0
0
0
0
0
0
0
0
0
0
0
0
0
0
0
0
0
0
0
0
0
0
0
0
0
0
0
0
0
0
0
0
0
0
0
0
0
0
0
0
0
0
0
0
0
0
0
0
0
0
0
0
0
0
0
0
0
0
0
0
0
0
0
0
0
0
0
0
0
0
0
0
0
0
0
0
0
0
0
0
0
0
0
0
0
0
0
0
0
0
0
0
0
0
0
0
0
0
0
0
0
0
0
0
0
0
0
0
0
0
0
0
157
0
106
0
4
0
32
0
88
0
50
0
10
0
1
0
7
0
1
0
12
0
43
0
71
0
87
0
93
0
92
0
90
0
90
0
93
0
84
0
69
0
8
0
9
0
6
0
1
0
0
0
7
0
3
0
3
0
2
0
1
0
5
0
0
0
12
0
50
0
3
0
41
0
44
0
28
0
41
0
45
0
59
0
64
0
65
0
61
0
58
0
53
0
41
0
28
0
14
0
2
0
0
0
9
0
10
0
1
0
1
0
4
0
7
0
2
0
0
0
1
0
1
0
6
0
5
0
0
0
13
0
4
0
4
0
12
0
17
0
8
0
2
0
11
0
6
0
4
0
10
0
10
0
10
0
8
0
3
0
30
0
53
0
56
0
61
0
65
0
67
0
67
0
66
0
66
0
30
0
36
0
58
0
76
0
78
0
78
0
78
0
71
0
79
0
94
0
81
0
71
0
89
0
86
0
56
0
37
0
97
0
98
0
92
0
87
0
66
0
37
0
36
0
92
0
85
0
33
0
16
0
2
0
7
0
2
0
5
0
17
0
0
0
0
0
2
0
1
0
0
0
1
0
0
0
0
0
0
0
0
0
0
0
0
0
0
0
0
0
0
0
0
0
0
0
0
0
0
0
0
0
0
0
0
0
0
0
0
0
0
0
0
0
0
0
0
0
0
0
0
0
0
0
0
0
0
0
0
0
0
0
0
0
0
0
0
0
0
0
0
0
0
0
0
0
0
0
0
0
0
0
0
0
0
0
0
0
0
0
0
0
0
0
0
0
0
0
0
0
0
0
0
0
0
0
0
0
1
0
2
0
3
0
4
0
4
0
5
0
2
0
1
0
0
0
0
0
0
0
0
0
1
0
2
0
0
0
0
0
0
0
0
0
0
0
0
0
0
0
0
0
1
0
1
0
1
0
1
0
1
0
1
0
1
0
1
0
0
0
0
0
0
0
0
0
0
0
0
0
0
0
0
0
2
0
8
0
7
0
8
0
46
0
76
0
0
0
0
0
0
0
0
0
0
0
0
0
0
0
0
0
0
0
0
0
0
0
0
0
0
0
0
0
0
0
0
0
0
0
0
0
0
0
0
0
0
0
0
0
0
0
0
0
0
0
0
0
0
0
0
0
0
0
0
0
0
0
0
0
0
0
0
0
0
0
0
0
0
0
0
0
0
0
0
0
0
0
0
0
0
0
0
0
0
0
0
0
0
0
0
0
0
0
0
0
0
0
0
0
0
0
0
0
0
0
0
0
0
0
0
0
0
0
0
0
0
0
0
0
0
0
0
0
0
0
0
0
0
0
0
0
0
0
0
0
0
0
0
0
0
0
0
0
0
0
0
0
0
0
0
0
0
0
0
0
0
0
0
0
0
0
0
0
0
0
0
0
0
0
0
0
0
0
0
0
0
0
0
0
0
0
0
0
0
0
0
0
0
0
0
0
0
0
0
0
0
0
0
0
0
0
0
0
0
0
0
0
0
0
0
0
0
0
0
0
0
0
0
0
0
0
0
0
0
0
0
0
0
0
0
0
0
0
0
0
0
0
0
0
0
0
0
0
0
0
0
0
0
0
0
0
0
0
0
0
0
0
0
0
0
0
0
0
0
0
0
0
0
0
0
0
0
0
0
0
0
0
0
0
0
0
0
0
0
0
0
0
0
0
0
0
0
0
0
0
0
0
0
0
0
0
0
0
0
0
0
0
0
0
0
0
0
0
0
0
0
0
0
0
0
0
0
0
0
0
0
0
0
0
0
0
0
0
0
0
0
0
0
0
0
0
0
0
0
0
0
0
0
0
0
0
0
0
0
0
0
0
0
0
0
0
0
0
0
0
0
0
0
0
0
0
0
0
0
0
0
0
0
0
0
0
0
0
0
0
0
0
0
0
0
0
0
0
0
0
0
0
0
0
0
0
0
0
0
0
0
0
0
0
0
0
0
0
0
0
0
0
0
0
0
0
0
0
0
0
0
0
0
0
0
0
0
0
0
0
0
0
0
0
153
0
115
0
22
0
1
0
70
0
82
0
21
0
10
0
3
0
2
0
10
0
25
0
46
0
70
0
88
0
93
0
88
0
88
0
98
0
72
0
27
0
4
0
0
0
0
0
3
0
9
0
0
0
9
0
1
0
1
0
6
0
0
0
8
0
13
0
10
0
15
0
43
0
63
0
47
0
21
0
16
0
37
0
51
0
61
0
61
0
60
0
65
0
67
0
64
0
37
0
18
0
11
0
13
0
4
0
1
0
4
0
3
0
2
0
10
0
4
0
6
0
3
0
3
0
4
0
1
0
2
0
4
0
5
0
21
0
41
0
30
0
24
0
46
0
54
0
49
0
47
0
44
0
47
0
54
0
36
0
6
0
32
0
35
0
34
0
31
0
32
0
32
0
23
0
10
0
1
0
9
0
6
0
23
0
70
0
95
0
97
0
101
0
93
0
83
0
87
0
63
0
58
0
42
0
73
0
104
0
97
0
94
0
66
0
35
0
45
0
80
0
84
0
60
0
8
0
7
0
6
0
5
0
5
0
5
0
5
0
6
0
0
0
0
0
0
0
0
0
0
0
0
0
0
0
0
0
0
0
0
0
0
0
0
0
0
0
0
0
0
0
0
0
0
0
0
0
0
0
0
0
0
0
0
0
0
0
0
0
0
0
0
0
0
0
0
0
0
0
0
0
0
0
0
0
0
0
0
0
0
0
0
0
0
0
0
0
0
0
0
0
0
0
0
0
0
0
0
0
0
0
0
0
0
0
0
0
1
0
1
0
1
0
2
0
2
0
1
0
1
0
0
0
1
0
4
0
13
0
6
0
3
0
19
0
40
0
52
0
30
0
6
0
2
0
2
0
0
0
1
0
4
0
1
0
0
0
0
0
0
0
0
0
0
0
0
0
0
0
0
0
0
0
0
0
0
0
0
0
0
0
0
0
0
0
0
0
0
0
0
0
0
0
0
0
0
0
0
0
0
0
0
0
0
0
6
0
8
0
0
0
1
0
29
0
0
0
0
0
0
0
0
0
0
0
0
0
0
0
0
0
0
0
0
0
0
0
0
0
0
0
0
0
0
0
0
0
0
0
0
0
0
0
0
0
0
0
0
0
0
0
0
0
0
0
0
0
0
0
0
0
0
0
0
0
0
0
0
0
0
0
0
0
0
0
0
0
0
0
0
0
0
0
0
0
0
0
0
0
0
0
0
0
0
0
0
0
0
0
0
0
0
0
0
0
0
0
0
0
0
0
0
0
0
0
0
0
0
0
0
0
0
0
0
0
0
0
0
0
0
0
0
0
0
0
0
0
0
0
0
0
0
0
0
0
0
0
0
0
0
0
0
0
0
0
0
0
0
0
0
0
0
0
0
0
0
0
0
0
0
0
0
0
0
0
0
0
0
0
0
0
0
0
0
0
0
0
0
0
0
0
0
0
0
0
0
0
0
0
0
0
0
0
0
0
0
0
0
0
0
0
0
0
0
0
0
0
0
0
0
0
0
0
0
0
0
0
0
0
0
0
0
0
0
0
0
0
0
0
0
0
0
0
0
0
0
0
0
0
0
0
0
0
0
0
0
0
0
0
0
0
0
0
0
0
0
0
0
0
0
0
0
0
0
0
0
0
0
0
0
0
0
0
0
0
0
0
0
0
0
0
0
0
0
0
0
0
0
0
0
0
0
0
0
0
0
0
0
0
0
0
0
0
0
0
0
0
0
0
0
0
0
0
0
0
0
0
0
0
0
0
0
0
0
0
0
0
0
0
0
0
0
0
0
0
0
0
0
0
0
0
0
0
0
0
0
0
0
0
0
0
0
0
0
0
0
0
0
0
0
0
0
0
0
0
0
0
0
0
0
0
0
0
0
0
0
0
0
0
0
0
0
0
0
0
0
0
0
0
0
0
0
0
0
0
0
0
0
0
0
0
0
0
0
0
0
0
0
0
0
0
0
0
0
0
0
0
0
0
0
0
0
0
0
0
0
0
0
0
0
0
0
0
0
0
0
0
0
0
102
0
81
0
31
0
3
0
44
0
71
0
37
0
12
0
4
0
1
0
5
0
19
0
36
0
56
0
77
0
89
0
90
0
92
0
88
0
55
0
16
0
1
0
0
0
0
0
3
0
0
0
0
0
9
0
1
0
1
0
10
0
0
0
10
0
1
0
19
0
44
0
58
0
60
0
45
0
34
0
38
0
36
0
42
0
49
0
54
0
60
0
59
0
51
0
41
0
54
0
38
0
41
0
51
0
47
0
32
0
14
0
9
0
5
0
4
0
3
0
4
0
4
0
3
0
14
0
10
0
6
0
10
0
6
0
14
0
28
0
23
0
23
0
47
0
75
0
76
0
83
0
86
0
84
0
82
0
61
0
30
0
82
0
88
0
89
0
85
0
82
0
82
0
79
0
74
0
62
0
71
0
58
0
51
0
74
0
94
0
92
0
90
0
95
0
104
0
89
0
39
0
52
0
65
0
84
0
78
0
67
0
56
0
47
0
64
0
101
0
115
0
66
0
14
0
7
0
6
0
5
0
4
0
3
0
4
0
4
0
5
0
0
0
0
0
0
0
0
0
0
0
0
0
0
0
0
0
0
0
0
0
0
0
0
0
0
0
0
0
0
0
0
0
0
0
0
0
0
0
0
0
0
0
0
0
0
0
0
0
0
0
0
0
0
0
0
0
0
0
0
0
0
0
0
0
0
0
0
0
0
0
0
0
0
0
0
0
0
0
0
0
0
0
0
0
0
0
0
0
0
0
0
0
0
0
0
0
3
0
2
0
1
0
1
0
1
0
1
0
1
0
1
0
7
0
7
0
0
0
1
0
5
0
41
0
76
0
95
0
33
0
5
0
2
0
2
0
0
0
1
0
0
0
1
0
0
0
0
0
0
0
0
0
0
0
0
0
0
0
0
0
0
0
0
0
0
0
0
0
0
0
0
0
0
0
0
0
0
0
0
0
0
0
0
0
0
0
0
0
0
0
0
0
5
0
3
0
1
0
2
0
11
0
31
0
0
0
0
0
0
0
0
0
0
0
0
0
0
0
0
0
0
0
0
0
0
0
0
0
0
0
0
0
0
0
0
0
0
0
0
0
0
0
0
0
0
0
0
0
0
0
0
0
0
0
0
0
0
0
0
0
0
0
0
0
0
0
0
0
0
0
0
0
0
0
0
0
0
0
0
0
0
0
0
0
0
0
0
0
0
0
0
0
0
0
0
0
0
0
0
0
0
0
0
0
0
0
0
0
0
0
0
0
0
0
0
0
0
0
0
0
0
0
0
0
0
0
0
0
0
0
0
0
0
0
0
0
0
0
0
0
0
0
0
0
0
0
0
0
0
0
0
0
0
0
0
0
0
0
0
0
0
0
0
0
0
0
0
0
0
0
0
0
0
0
0
0
0
0
0
0
0
0
0
0
0
0
0
0
0
0
0
0
0
0
0
0
0
0
0
0
0
0
0
0
0
0
0
0
0
0
0
0
0
0
0
0
0
0
0
0
0
0
0
0
0
0
0
0
0
0
0
0
0
0
0
0
0
0
0
0
0
0
0
0
0
0
0
0
0
0
0
0
0
0
0
0
0
0
0
0
0
0
0
0
0
0
0
0
0
0
0
0
0
0
0
0
0
0
0
0
0
0
0
0
0
0
0
0
0
0
0
0
0
0
0
0
0
0
0
0
0
0
0
0
0
0
0
0
0
0
0
0
0
0
0
0
0
0
0
0
0
0
0
0
0
0
0
0
0
0
0
0
0
0
0
0
0
0
0
0
0
0
0
0
0
0
0
0
0
0
0
0
0
0
0
0
0
0
0
0
0
0
0
0
0
0
0
0
0
0
0
0
0
0
0
0
0
0
0
0
0
0
0
0
0
0
0
0
0
0
0
0
0
0
0
0
0
0
0
0
0
0
0
0
0
0
0
0
0
0
0
0
0
0
0
0
0
0
0
0
0
0
0
0
0
0
0
0
0
0
0
0
0
0
0
0
0
0
0
0
0
0
0
0
0
0
0
0
11
0
18
0
27
0
32
0
30
0
62
0
62
0
17
0
4
0
4
0
3
0
1
0
4
0
21
0
50
0
77
0
89
0
91
0
69
0
29
0
1
0
1
0
1
0
0
0
7
0
0
0
0
0
8
0
1
0
1
0
8
0
4
0
12
0
5
0
62
0
120
0
134
0
108
0
62
0
35
0
36
0
53
0
41
0
33
0
34
0
40
0
49
0
62
0
71
0
48
0
43
0
55
0
74
0
80
0
82
0
82
0
78
0
66
0
45
0
15
0
19
0
23
0
9
0
7
0
3
0
3
0
6
0
3
0
1
0
1
0
2
0
2
0
9
0
29
0
34
0
51
0
67
0
73
0
79
0
73
0
55
0
57
0
73
0
91
0
97
0
96
0
94
0
93
0
92
0
97
0
103
0
84
0
59
0
63
0
76
0
76
0
70
0
37
0
43
0
28
0
14
0
71
0
109
0
108
0
85
0
25
0
62
0
105
0
117
0
94
0
54
0
16
0
14
0
5
0
4
0
3
0
2
0
2
0
2
0
2
0
3
0
0
0
0
0
0
0
0
0
0
0
0
0
0
0
0
0
0
0
0
0
0
0
0
0
0
0
0
0
0
0
0
0
0
0
0
0
0
0
0
0
0
0
0
0
0
0
0
0
0
0
0
0
0
0
0
0
0
0
0
0
0
0
0
0
0
0
0
0
0
0
0
0
0
0
0
0
0
0
0
0
0
0
0
0
0
0
0
0
0
0
0
0
0
0
0
0
1
0
1
0
1
0
2
0
1
0
2
0
2
0
1
0
5
0
0
0
1
0
14
0
55
0
94
0
103
0
93
0
40
0
5
0
1
0
2
0
3
0
1
0
0
0
1
0
0
0
0
0
0
0
0
0
0
0
0
0
0
0
0
0
0
0
0
0
0
0
0
0
0
0
0
0
0
0
0
0
0
0
0
0
0
0
0
0
0
0
0
0
0
0
0
0
0
0
3
0
10
0
11
0
3
0
6
0
0
0
0
0
0
0
0
0
0
0
0
0
0
0
0
0
0
0
0
0
0
0
0
0
0
0
0
0
0
0
0
0
0
0
0
0
0
0
0
0
0
0
0
0
0
0
0
0
0
0
0
0
0
0
0
0
0
0
0
0
0
0
0
0
0
0
0
0
0
0
0
0
0
0
0
0
0
0
0
0
0
0
0
0
0
0
0
0
0
0
0
0
0
0
0
0
0
0
0
0
0
0
0
0
0
0
0
0
0
0
0
0
0
0
0
0
0
0
0
0
0
0
0
0
0
0
0
0
0
0
0
0
0
0
0
0
0
0
0
0
0
0
0
0
0
0
0
0
0
0
0
0
0
0
0
0
0
0
0
0
0
0
0
0
0
0
0
0
0
0
0
0
0
0
0
0
0
0
0
0
0
0
0
0
0
0
0
0
0
0
0
0
0
0
0
0
0
0
0
0
0
0
0
0
0
0
0
0
0
0
0
0
0
0
0
0
0
0
0
0
0
0
0
0
0
0
0
0
0
0
0
0
0
0
0
0
0
0
0
0
0
0
0
0
0
0
0
0
0
0
0
0
0
0
0
0
0
0
0
0
0
0
0
0
0
0
0
0
0
0
0
0
0
0
0
0
0
0
0
0
0
0
0
0
0
0
0
0
0
0
0
0
0
0
0
0
0
0
0
0
0
0
0
0
0
0
0
0
0
0
0
0
0
0
0
0
0
0
0
0
0
0
0
0
0
0
0
0
0
0
0
0
0
0
0
0
0
0
0
0
0
0
0
0
0
0
0
0
0
0
0
0
0
0
0
0
0
0
0
0
0
0
0
0
0
0
0
0
0
0
0
0
0
0
0
0
0
0
0
0
0
0
0
0
0
0
0
0
0
0
0
0
0
0
0
0
0
0
0
0
0
0
0
0
0
0
0
0
0
0
0
0
0
0
0
0
0
0
0
0
0
0
0
0
0
0
0
0
0
0
0
0
0
0
0
0
0
0
0
0
0
0
0
0
4
0
2
0
21
0
62
0
43
0
45
0
73
0
43
0
19
0
22
0
11
0
1
0
2
0
5
0
35
0
61
0
75
0
86
0
52
0
8
0
0
0
3
0
5
0
2
0
10
0
5
0
4
0
6
0
0
0
0
0
2
0
5
0
10
0
17
0
89
0
149
0
156
0
130
0
93
0
65
0
58
0
16
0
12
0
14
0
18
0
14
0
11
0
15
0
26
0
51
0
46
0
56
0
66
0
63
0
64
0
74
0
82
0
95
0
77
0
57
0
75
0
89
0
78
0
75
0
62
0
41
0
47
0
46
0
36
0
26
0
18
0
16
0
22
0
2
0
0
0
2
0
9
0
6
0
7
0
6
0
3
0
20
0
35
0
52
0
60
0
59
0
58
0
60
0
63
0
64
0
62
0
51
0
42
0
51
0
65
0
70
0
70
0
100
0
85
0
64
0
70
0
94
0
72
0
40
0
38
0
81
0
99
0
114
0
98
0
55
0
13
0
2
0
7
0
3
0
2
0
1
0
0
0
0
0
0
0
1
0
1
0
0
0
0
0
0
0
0
0
0
0
0
0
0
0
0
0
0
0
0
0
0
0
0
0
0
0
0
0
0
0
0
0
0
0
0
0
0
0
0
0
0
0
0
0
0
0
0
0
0
0
0
0
0
0
0
0
0
0
0
0
0
0
0
0
0
0
0
0
0
0
0
0
0
0
0
0
0
0
0
0
0
0
0
0
0
0
0
0
0
0
0
0
0
0
0
0
2
0
1
0
2
0
3
0
2
0
2
0
4
0
4
0
2
0
10
0
37
0
67
0
99
0
116
0
103
0
82
0
46
0
7
0
1
0
5
0
7
0
1
0
1
0
3
0
0
0
0
0
0
0
0
0
0
0
0
0
0
0
0
0
0
0
0
0
0
0
0
0
0
0
0
0
0
0
0
0
0
0
0
0
0
0
0
0
0
0
0
0
0
0
0
0
0
0
0
0
7
0
8
0
0
0
1
0
0
0
0
0
0
0
0
0
0
0
0
0
0
0
0
0
0
0
0
0
0
0
0
0
0
0
0
0
0
0
0
0
0
0
0
0
0
0
0
0
0
0
0
0
0
0
0
0
0
0
0
0
0
0
0
0
0
0
0
0
0
0
0
0
0
0
0
0
0
0
0
0
0
0
0
0
0
0
0
0
0
0
0
0
0
0
0
0
0
0
0
0
0
0
0
0
0
0
0
0
0
0
0
0
0
0
0
0
0
0
0
0
0
0
0
0
0
0
0
0
0
0
0
0
0
0
0
0
0
0
0
0
0
0
0
0
0
0
0
0
0
0
0
0
0
0
0
0
0
0
0
0
0
0
0
0
0
0
0
0
0
0
0
0
0
0
0
0
0
0
0
0
0
0
0
0
0
0
0
0
0
0
0
0
0
0
0
0
0
0
0
0
0
0
0
0
0
0
0
0
0
0
0
0
0
0
0
0
0
0
0
0
0
0
0
0
0
0
0
0
0
0
0
0
0
0
0
0
0
0
0
0
0
0
0
0
0
0
0
0
0
0
0
0
0
0
0
0
0
0
0
0
0
0
0
0
0
0
0
0
0
0
0
0
0
0
0
0
0
0
0
0
0
0
0
0
0
0
0
0
0
0
0
0
0
0
0
0
0
0
0
0
0
0
0
0
0
0
0
0
0
0
0
0
0
0
0
0
0
0
0
0
0
0
0
0
0
0
0
0
0
0
0
0
0
0
0
0
0
0
0
0
0
0
0
0
0
0
0
0
0
0
0
0
0
0
0
0
0
0
0
0
0
0
0
0
0
0
0
0
0
0
0
0
0
0
0
0
0
0
0
0
0
0
0
0
0
0
0
0
0
0
0
0
0
0
0
0
0
0
0
0
0
0
0
0
0
0
0
0
0
0
0
0
0
0
0
0
0
0
0
0
0
0
0
0
0
0
0
0
0
0
0
0
0
0
0
0
0
0
0
0
0
0
0
0
0
0
0
0
0
0
0
0
3
0
11
0
26
0
89
0
74
0
29
0
63
0
71
0
44
0
52
0
35
0
11
0
2
0
8
0
35
0
56
0
66
0
84
0
47
0
3
0
0
0
5
0
6
0
1
0
7
0
4
0
3
0
3
0
13
0
13
0
3
0
3
0
5
0
5
0
68
0
120
0
139
0
144
0
139
0
128
0
126
0
113
0
88
0
59
0
38
0
17
0
2
0
5
0
17
0
7
0
4
0
22
0
43
0
48
0
52
0
61
0
65
0
75
0
65
0
57
0
82
0
104
0
105
0
112
0
110
0
96
0
100
0
102
0
91
0
73
0
69
0
75
0
80
0
84
0
68
0
61
0
60
0
56
0
53
0
44
0
28
0
51
0
45
0
39
0
33
0
34
0
37
0
49
0
59
0
47
0
29
0
31
0
54
0
73
0
80
0
86
0
91
0
75
0
86
0
84
0
84
0
72
0
65
0
75
0
113
0
129
0
121
0
95
0
49
0
10
0
9
0
8
0
4
0
2
0
1
0
0
0
0
0
0
0
0
0
0
0
0
0
0
0
0
0
0
0
0
0
0
0
0
0
0
0
0
0
0
0
0
0
0
0
0
0
0
0
0
0
0
0
0
0
0
0
0
0
0
0
0
0
0
0
0
0
0
0
0
0
0
0
0
0
0
0
0
0
0
0
0
0
0
0
0
0
0
0
0
0
0
0
0
0
0
0
0
0
0
0
0
0
0
0
0
0
0
0
0
0
0
0
0
0
0
0
0
0
4
0
4
0
4
0
2
0
1
0
1
0
5
0
9
0
16
0
52
0
89
0
98
0
95
0
94
0
96
0
98
0
45
0
10
0
1
0
5
0
5
0
1
0
3
0
3
0
0
0
0
0
0
0
0
0
0
0
0
0
0
0
0
0
0
0
0
0
0
0
0
0
0
0
0
0
0
0
0
0
0
0
0
0
0
0
0
0
0
0
0
0
0
0
0
0
13
0
0
0
1
0
1
0
5
0
2
0
0
0
0
0
0
0
0
0
0
0
0
0
0
0
0
0
0
0
0
0
0
0
0
0
0
0
0
0
0
0
0
0
0
0
0
0
0
0
0
0
0
0
0
0
0
0
0
0
0
0
0
0
0
0
0
0
0
0
0
0
0
0
0
0
0
0
0
0
0
0
0
0
0
0
0
0
0
0
0
0
0
0
0
0
0
0
0
0
0
0
0
0
0
0
0
0
0
0
0
0
0
0
0
0
0
0
0
0
0
0
0
0
0
0
0
0
0
0
0
0
0
0
0
0
0
0
0
0
0
0
0
0
0
0
0
0
0
0
0
0
0
0
0
0
0
0
0
0
0
0
0
0
0
0
0
0
0
0
0
0
0
0
0
0
0
0
0
0
0
0
0
0
0
0
0
0
0
0
0
0
0
0
0
0
0
0
0
0
0
0
0
0
0
0
0
0
0
0
0
0
0
0
0
0
0
0
0
0
0
0
0
0
0
0
0
0
0
0
0
0
0
0
0
0
0
0
0
0
0
0
0
0
0
0
0
0
0
0
0
0
0
0
0
0
0
0
0
0
0
0
0
0
0
0
0
0
0
0
0
0
0
0
0
0
0
0
0
0
0
0
0
0
0
0
0
0
0
0
0
0
0
0
0
0
0
0
0
0
0
0
0
0
0
0
0
0
0
0
0
0
0
0
0
0
0
0
0
0
0
0
0
0
0
0
0
0
0
0
0
0
0
0
0
0
0
0
0
0
0
0
0
0
0
0
0
0
0
0
0
0
0
0
0
0
0
0
0
0
0
0
0
0
0
0
0
0
0
0
0
0
0
0
0
0
0
0
0
0
0
0
0
0
0
0
0
0
0
0
0
0
0
0
0
0
0
0
0
0
0
0
0
0
0
0
0
0
0
0
0
0
0
0
0
0
0
0
0
0
0
0
0
0
0
0
0
0
0
0
0
0
0
0
0
0
0
0
0
0
0
0
0
0
0
0
0
0
0
0
0
0
0
0
0
0
8
0
9
0
28
0
107
0
113
0
40
0
45
0
71
0
36
0
87
0
58
0
16
0
1
0
0
0
28
0
63
0
83
0
88
0
56
0
13
0
0
0
5
0
4
0
0
0
4
0
1
0
0
0
2
0
37
0
42
0
12
0
3
0
1
0
1
0
30
0
56
0
72
0
98
0
123
0
136
0
146
0
141
0
131
0
121
0
118
0
106
0
76
0
35
0
9
0
32
0
9
0
3
0
17
0
26
0
31
0
34
0
28
0
51
0
44
0
33
0
50
0
67
0
74
0
87
0
89
0
112
0
110
0
117
0
108
0
86
0
82
0
99
0
112
0
116
0
106
0
104
0
108
0
110
0
109
0
93
0
68
0
124
0
113
0
101
0
95
0
95
0
100
0
109
0
118
0
97
0
66
0
66
0
98
0
112
0
105
0
103
0
104
0
106
0
124
0
103
0
59
0
25
0
59
0
101
0
127
0
128
0
104
0
63
0
18
0
5
0
12
0
10
0
13
0
2
0
1
0
0
0
0
0
0
0
0
0
0
0
0
0
0
0
0
0
0
0
0
0
0
0
0
0
0
0
0
0
0
0
0
0
0
0
0
0
0
0
0
0
0
0
0
0
0
0
0
0
0
0
0
0
0
0
0
0
0
0
0
0
0
0
0
0
0
0
0
0
0
0
0
0
0
0
0
0
0
0
0
0
0
0
0
0
0
0
0
0
0
0
0
0
0
0
0
0
0
0
0
0
0
0
0
0
0
0
0
0
2
0
2
0
1
0
1
0
1
0
0
0
9
0
18
0
70
0
86
0
99
0
100
0
99
0
99
0
94
0
84
0
44
0
16
0
1
0
2
0
0
0
1
0
2
0
1
0
0
0
0
0
0
0
0
0
0
0
0
0
0
0
0
0
0
0
0
0
0
0
0
0
0
0
0
0
0
0
0
0
0
0
0
0
0
0
0
0
0
0
0
0
0
0
0
0
5
0
0
0
1
0
6
0
8
0
1
0
0
0
0
0
0
0
0
0
0
0
0
0
0
0
0
0
0
0
0
0
0
0
0
0
0
0
0
0
0
0
0
0
0
0
0
0
0
0
0
0
0
0
0
0
0
0
0
0
0
0
0
0
0
0
0
0
0
0
0
0
0
0
0
0
0
0
0
0
0
0
0
0
0
0
0
0
0
0
0
0
0
0
0
0
0
0
0
0
0
0
0
0
0
0
0
0
0
0
0
0
0
0
0
0
0
0
0
0
0
0
0
0
0
0
0
0
0
0
0
0
0
0
0
0
0
0
0
0
0
0
0
0
0
0
0
0
0
0
0
0
0
0
0
0
0
0
0
0
0
0
0
0
0
0
0
0
0
0
0
0
0
0
0
0
0
0
0
0
0
0
0
0
0
0
0
0
0
0
0
0
0
0
0
0
0
0
0
0
0
0
0
0
0
0
0
0
0
0
0
0
0
0
0
0
0
0
0
0
0
0
0
0
0
0
0
0
0
0
0
0
0
0
0
0
0
0
0
0
0
0
0
0
0
0
0
0
0
0
0
0
0
0
0
0
0
0
0
0
0
0
0
0
0
0
0
0
0
0
0
0
0
0
0
0
0
0
0
0
0
0
0
0
0
0
0
0
0
0
0
0
0
0
0
0
0
0
0
0
0
0
0
0
0
0
0
0
0
0
0
0
0
0
0
0
0
0
0
0
0
0
0
0
0
0
0
0
0
0
0
0
0
0
0
0
0
0
0
0
0
0
0
0
0
0
0
0
0
0
0
0
0
0
0
0
0
0
0
0
0
0
0
0
0
0
0
0
0
0
0
0
0
0
0
0
0
0
0
0
0
0
0
0
0
0
0
0
0
0
0
0
0
0
0
0
0
0
0
0
0
0
0
0
0
0
0
0
0
0
0
0
0
0
0
0
0
0
0
0
0
0
0
0
0
0
0
0
0
0
0
0
0
0
0
0
0
0
0
0
0
0
0
0
0
0
0
0
0
0
0
0
0
0
0
0
2
0
2
0
40
0
112
0
128
0
56
0
33
0
67
0
39
0
80
0
61
0
30
0
5
0
5
0
32
0
68
0
91
0
87
0
65
0
26
0
1
0
2
0
3
0
3
0
12
0
11
0
0
0
3
0
54
0
63
0
17
0
5
0
0
0
12
0
12
0
2
0
3
0
4
0
35
0
68
0
95
0
125
0
124
0
124
0
123
0
125
0
124
0
114
0
101
0
54
0
28
0
14
0
13
0
12
0
21
0
35
0
41
0
37
0
37
0
25
0
35
0
46
0
53
0
70
0
68
0
82
0
79
0
98
0
104
0
84
0
78
0
100
0
118
0
111
0
110
0
113
0
115
0
115
0
113
0
92
0
57
0
116
0
112
0
110
0
114
0
116
0
114
0
115
0
120
0
129
0
95
0
95
0
121
0
126
0
119
0
115
0
108
0
125
0
116
0
93
0
72
0
39
0
91
0
123
0
118
0
110
0
49
0
20
0
6
0
13
0
22
0
6
0
4
0
3
0
2
0
1
0
0
0
0
0
0
0
0
0
0
0
0
0
0
0
0
0
0
0
0
0
0
0
0
0
0
0
0
0
0
0
0
0
0
0
0
0
0
0
0
0
0
0
0
0
0
0
0
0
0
0
0
0
0
0
0
0
0
0
0
0
0
0
0
0
0
0
0
0
0
0
0
0
0
0
0
0
0
0
0
0
0
0
0
0
0
0
0
0
0
0
0
0
0
0
0
0
0
0
0
0
0
0
0
0
0
0
1
0
0
0
1
0
1
0
2
0
17
0
38
0
54
0
94
0
95
0
94
0
97
0
105
0
109
0
88
0
63
0
48
0
29
0
16
0
5
0
1
0
1
0
4
0
1
0
0
0
0
0
0
0
0
0
0
0
0
0
0
0
0
0
0
0
0
0
0
0
0
0
0
0
0
0
0
0
0
0
0
0
0
0
0
0
0
0
0
0
0
0
0
0
0
0
1
0
4
0
12
0
9
0
1
0
0
0
0
0
0
0
0
0
0
0
0
0
0
0
0
0
0
0
0
0
0
0
0
0
0
0
0
0
0
0
0
0
0
0
0
0
0
0
0
0
0
0
0
0
0
0
0
0
0
0
0
0
0
0
0
0
0
0
0
0
0
0
0
0
0
0
0
0
0
0
0
0
0
0
0
0
0
0
0
0
0
0
0
0
0
0
0
0
0
0
0
0
0
0
0
0
0
0
0
0
0
0
0
0
0
0
0
0
0
0
0
0
0
0
0
0
0
0
0
0
0
0
0
0
0
0
0
0
0
0
0
0
0
0
0
0
0
0
0
0
0
0
0
0
0
0
0
0
0
0
0
0
0
0
0
0
0
0
0
0
0
0
0
0
0
0
0
0
0
0
0
0
0
0
0
0
0
0
0
0
0
0
0
0
0
0
0
0
0
0
0
0
0
0
0
0
0
0
0
0
0
0
0
0
0
0
0
0
0
0
0
0
0
0
0
0
0
0
0
0
0
0
0
0
0
0
0
0
0
0
0
0
0
0
0
0
0
0
0
0
0
0
0
0
0
0
0
0
0
0
0
0
0
0
0
0
0
0
0
0
0
0
0
0
0
0
0
0
0
0
0
0
0
0
0
0
0
0
0
0
0
0
0
0
0
0
0
0
0
0
0
0
0
0
0
0
0
0
0
0
0
0
0
0
0
0
0
0
0
0
0
0
0
0
0
0
0
0
0
0
0
0
0
0
0
0
0
0
0
0
0
0
0
0
0
0
0
0
0
0
0
0
0
0
0
0
0
0
0
0
0
0
0
0
0
0
0
0
0
0
0
0
0
0
0
0
0
0
0
0
0
0
0
0
0
0
0
0
0
0
0
0
0
0
0
0
0
0
0
0
0
0
0
0
0
0
0
0
0
0
0
0
0
0
0
0
0
0
0
0
0
0
0
0
0
0
0
0
0
0
0
0
0
0
0
0
0
0
0
0
0
0
0
0
0
0
0
0
0
0
0
0
0
0
0
0
4
0
5
0
65
0
107
0
118
0
57
0
28
0
79
0
76
0
38
0
48
0
56
0
54
0
50
0
55
0
64
0
72
0
83
0
69
0
31
0
2
0
0
0
5
0
12
0
24
0
32
0
9
0
2
0
57
0
66
0
15
0
6
0
6
0
1
0
4
0
9
0
10
0
16
0
10
0
3
0
6
0
6
0
37
0
64
0
72
0
77
0
91
0
106
0
113
0
139
0
119
0
102
0
74
0
31
0
7
0
16
0
27
0
33
0
36
0
21
0
22
0
26
0
26
0
30
0
17
0
31
0
30
0
65
0
91
0
76
0
70
0
94
0
113
0
90
0
95
0
103
0
105
0
107
0
112
0
95
0
59
0
120
0
115
0
114
0
115
0
113
0
110
0
114
0
122
0
112
0
84
0
89
0
111
0
118
0
124
0
128
0
118
0
93
0
61
0
61
0
93
0
77
0
99
0
110
0
104
0
32
0
20
0
10
0
7
0
6
0
2
0
4
0
18
0
3
0
2
0
1
0
0
0
0
0
0
0
0
0
1
0
0
0
0
0
0
0
0
0
0
0
0
0
0
0
0
0
0
0
0
0
0
0
0
0
0
0
0
0
0
0
0
0
0
0
0
0
0
0
0
0
0
0
0
0
0
0
0
0
0
0
0
0
0
0
0
0
0
0
0
0
0
0
0
0
0
0
0
0
0
0
0
0
0
0
0
0
0
0
0
0
0
0
0
0
0
0
0
0
0
0
0
0
0
0
0
0
3
0
4
0
6
0
9
0
22
0
47
0
76
0
97
0
83
0
98
0
106
0
98
0
87
0
84
0
82
0
78
0
55
0
42
0
29
0
9
0
1
0
2
0
7
0
1
0
0
0
0
0
0
0
0
0
0
0
0
0
0
0
0
0
0
0
0
0
0
0
0
0
0
0
0
0
0
0
0
0
0
0
0
0
0
0
0
0
0
0
0
0
0
0
0
0
5
0
3
0
1
0
1
0
1
0
11
0
0
0
0
0
0
0
0
0
0
0
0
0
0
0
0
0
0
0
0
0
0
0
0
0
0
0
0
0
0
0
0
0
0
0
0
0
0
0
0
0
0
0
0
0
0
0
0
0
0
0
0
0
0
0
0
0
0
0
0
0
0
0
0
0
0
0
0
0
0
0
0
0
0
0
0
0
0
0
0
0
0
0
0
0
0
0
0
0
0
0
0
0
0
0
0
0
0
0
0
0
0
0
0
0
0
0
0
0
0
0
0
0
0
0
0
0
0
0
0
0
0
0
0
0
0
0
0
0
0
0
0
0
0
0
0
0
0
0
0
0
0
0
0
0
0
0
0
0
0
0
0
0
0
0
0
0
0
0
0
0
0
0
0
0
0
0
0
0
0
0
0
0
0
0
0
0
0
0
0
0
0
0
0
0
0
0
0
0
0
0
0
0
0
0
0
0
0
0
0
0
0
0
0
0
0
0
0
0
0
0
0
0
0
0
0
0
0
0
0
0
0
0
0
0
0
0
0
0
0
0
0
0
0
0
0
0
0
0
0
0
0
0
0
0
0
0
0
0
0
0
0
0
0
0
0
0
0
0
0
0
0
0
0
0
0
0
0
0
0
0
0
0
0
0
0
0
0
0
0
0
0
0
0
0
0
0
0
0
0
0
0
0
0
0
0
0
0
0
0
0
0
0
0
0
0
0
0
0
0
0
0
0
0
0
0
0
0
0
0
0
0
0
0
0
0
0
0
0
0
0
0
0
0
0
0
0
0
0
0
0
0
0
0
0
0
0
0
0
0
0
0
0
0
0
0
0
0
0
0
0
0
0
0
0
0
0
0
0
0
0
0
0
0
0
0
0
0
0
0
0
0
0
0
0
0
0
0
0
0
0
0
0
0
0
0
0
0
0
0
0
0
0
0
0
0
0
0
0
0
0
0
0
0
0
0
0
0
0
0
0
0
0
0
0
0
0
0
0
0
0
0
0
0
0
0
0
0
0
0
0
0
0
0
0
2
0
18
0
75
0
102
0
81
0
37
0
31
0
93
0
106
0
94
0
112
0
118
0
117
0
126
0
126
0
107
0
95
0
55
0
30
0
6
0
2
0
5
0
23
0
53
0
79
0
77
0
29
0
6
0
34
0
56
0
26
0
2
0
3
0
17
0
1
0
7
0
28
0
11
0
1
0
0
0
1
0
3
0
2
0
1
0
11
0
40
0
65
0
75
0
76
0
61
0
94
0
126
0
132
0
119
0
92
0
55
0
25
0
22
0
12
0
15
0
37
0
55
0
62
0
65
0
68
0
45
0
40
0
33
0
29
0
33
0
49
0
75
0
95
0
100
0
102
0
102
0
107
0
116
0
118
0
96
0
71
0
113
0
114
0
119
0
122
0
120
0
117
0
119
0
125
0
107
0
113
0
76
0
94
0
131
0
100
0
80
0
68
0
83
0
101
0
120
0
121
0
105
0
81
0
64
0
55
0
3
0
3
0
3
0
2
0
2
0
1
0
1
0
1
0
0
0
0
0
0
0
0
0
0
0
0
0
0
0
0
0
0
0
0
0
0
0
0
0
0
0
0
0
0
0
0
0
0
0
0
0
0
0
0
0
0
0
0
0
0
0
0
0
0
0
0
0
0
0
0
0
0
0
0
0
0
0
0
0
4
0
0
0
0
0
0
0
0
0
1
0
4
0
2
0
4
0
5
0
5
0
4
0
2
0
0
0
0
0
2
0
0
0
1
0
2
0
3
0
5
0
9
0
15
0
20
0
32
0
37
0
49
0
62
0
76
0
88
0
97
0
102
0
89
0
90
0
93
0
91
0
87
0
82
0
76
0
72
0
64
0
49
0
29
0
13
0
4
0
0
0
1
0
4
0
0
0
0
0
1
0
3
0
1
0
1
0
1
0
3
0
4
0
0
0
0
0
0
0
2
0
0
0
0
0
0
0
1
0
1
0
1
0
1
0
1
0
1
0
1
0
1
0
1
0
2
0
1
0
1
0
0
0
12
0
0
0
0
0
0
0
0
0
0
0
0
0
0
0
0
0
0
0
0
0
0
0
0
0
0
0
0
0
0
0
0
0
0
0
0
0
0
0
0
0
0
0
0
0
0
0
0
0
0
0
0
0
0
0
0
0
0
0
0
0
0
0
0
0
0
0
0
0
0
0
0
0
0
0
0
0
0
0
0
0
0
0
0
0
0
0
0
0
0
0
0
0
0
0
0
0
0
0
0
0
0
0
0
0
0
0
0
0
0
0
0
0
0
0
0
0
0
0
0
0
0
0
0
0
0
0
0
0
0
0
0
0
0
0
0
0
0
0
0
0
0
0
0
0
0
0
0
0
0
0
0
0
0
0
0
0
0
0
0
0
0
0
0
0
0
0
0
0
0
0
0
0
0
0
0
0
0
0
0
0
0
0
0
0
0
0
0
0
0
0
0
0
0
0
0
0
0
0
0
0
0
0
0
0
0
0
0
0
0
0
0
0
0
0
0
0
0
0
0
0
0
0
0
0
0
0
0
0
0
0
0
0
0
0
0
0
0
0
0
0
0
0
0
0
0
0
0
0
0
0
0
0
0
0
0
0
0
0
0
0
0
0
0
0
0
0
0
0
0
0
0
0
0
0
0
0
0
0
0
0
0
0
0
0
0
0
0
0
0
0
0
0
0
0
0
0
0
0
0
0
0
0
0
0
0
0
0
0
0
0
0
0
0
0
0
0
0
0
0
0
0
0
0
0
0
0
0
0
0
0
0
0
0
0
0
0
0
0
0
0
0
0
0
0
0
0
0
0
0
0
0
0
0
0
0
0
0
0
0
0
0
0
0
0
0
0
0
0
0
0
0
0
0
0
0
0
0
0
0
0
0
0
0
0
0
0
0
0
0
0
0
0
0
0
0
0
0
0
0
0
0
0
0
0
0
0
0
0
0
0
0
0
0
0
0
0
0
0
0
0
0
0
0
0
0
0
0
0
0
0
0
0
0
0
0
0
0
0
0
0
0
0
0
0
2
0
21
0
76
0
105
0
107
0
67
0
12
0
35
0
51
0
99
0
123
0
124
0
113
0
128
0
147
0
140
0
124
0
9
0
1
0
1
0
11
0
9
0
16
0
42
0
61
0
56
0
27
0
6
0
25
0
52
0
39
0
9
0
0
0
1
0
2
0
36
0
84
0
89
0
72
0
58
0
44
0
31
0
22
0
10
0
2
0
2
0
8
0
24
0
36
0
64
0
64
0
70
0
88
0
110
0
118
0
104
0
82
0
57
0
35
0
13
0
13
0
28
0
44
0
56
0
64
0
74
0
69
0
61
0
48
0
32
0
29
0
47
0
69
0
52
0
59
0
64
0
63
0
68
0
79
0
77
0
69
0
99
0
105
0
111
0
109
0
105
0
102
0
103
0
105
0
113
0
121
0
88
0
77
0
96
0
84
0
76
0
82
0
110
0
118
0
126
0
122
0
99
0
64
0
32
0
12
0
3
0
3
0
2
0
2
0
2
0
1
0
1
0
1
0
0
0
0
0
0
0
0
0
0
0
0
0
0
0
0
0
0
0
0
0
0
0
0
0
0
0
0
0
0
0
0
0
0
0
0
0
0
0
0
0
0
0
0
0
0
0
0
0
0
0
0
0
0
0
0
0
0
0
0
0
0
0
0
0
3
0
0
0
5
0
8
0
0
0
1
0
4
0
1
0
2
0
1
0
0
0
0
0
0
0
0
0
1
0
1
0
1
0
6
0
17
0
28
0
39
0
50
0
59
0
65
0
73
0
75
0
79
0
83
0
87
0
91
0
92
0
93
0
91
0
92
0
93
0
91
0
86
0
82
0
77
0
74
0
64
0
58
0
40
0
16
0
2
0
2
0
4
0
1
0
1
0
4
0
2
0
0
0
0
0
5
0
7
0
4
0
5
0
3
0
4
0
5
0
2
0
0
0
0
0
0
0
1
0
1
0
1
0
1
0
1
0
1
0
1
0
1
0
1
0
2
0
2
0
1
0
0
0
12
0
0
0
0
0
0
0
0
0
0
0
0
0
0
0
0
0
0
0
0
0
0
0
0
0
0
0
0
0
0
0
0
0
0
0
0
0
0
0
0
0
0
0
0
0
0
0
0
0
0
0
0
0
0
0
0
0
0
0
0
0
0
0
0
0
0
0
0
0
0
0
0
0
0
0
0
0
0
0
0
0
0
0
0
0
0
0
0
0
0
0
0
0
0
0
0
0
0
0
0
0
0
0
0
0
0
0
0
0
0
0
0
0
0
0
0
0
0
0
0
0
0
0
0
0
0
0
0
0
0
0
0
0
0
0
0
0
0
0
0
0
0
0
0
0
0
0
0
0
0
0
0
0
0
0
0
0
0
0
0
0
0
0
0
0
0
0
0
0
0
0
0
0
0
0
0
0
0
0
0
0
0
0
0
0
0
0
0
0
0
0
0
0
0
0
0
0
0
0
0
0
0
0
0
0
0
0
0
0
0
0
0
0
0
0
0
0
0
0
0
0
0
0
0
0
0
0
0
0
0
0
0
0
0
0
0
0
0
0
0
0
0
0
0
0
0
0
0
0
0
0
0
0
0
0
0
0
0
0
0
0
0
0
0
0
0
0
0
0
0
0
0
0
0
0
0
0
0
0
0
0
0
0
0
0
0
0
0
0
0
0
0
0
0
0
0
0
0
0
0
0
0
0
0
0
0
0
0
0
0
0
0
0
0
0
0
0
0
0
0
0
0
0
0
0
0
0
0
0
0
0
0
0
0
0
0
0
0
0
0
0
0
0
0
0
0
0
0
0
0
0
0
0
0
0
0
0
0
0
0
0
0
0
0
0
0
0
0
0
0
0
0
0
0
0
0
0
0
0
0
0
0
0
0
0
0
0
0
0
0
0
0
0
0
0
0
0
0
0
0
0
0
0
0
0
0
0
0
0
0
0
0
0
0
0
0
0
0
0
0
0
0
0
0
0
0
0
0
0
0
0
0
0
0
0
0
0
0
0
0
0
0
0
0
0
3
0
48
0
99
0
120
0
126
0
99
0
27
0
6
0
13
0
57
0
108
0
133
0
125
0
130
0
144
0
140
0
128
0
52
0
12
0
2
0
10
0
1
0
0
0
4
0
4
0
24
0
18
0
4
0
10
0
38
0
44
0
19
0
0
0
2
0
2
0
37
0
95
0
123
0
124
0
115
0
105
0
88
0
83
0
73
0
57
0
38
0
24
0
14
0
11
0
18
0
34
0
55
0
72
0
74
0
73
0
82
0
92
0
104
0
91
0
62
0
26
0
4
0
4
0
20
0
32
0
64
0
69
0
76
0
74
0
54
0
35
0
38
0
55
0
48
0
56
0
60
0
57
0
54
0
52
0
42
0
29
0
40
0
56
0
67
0
63
0
57
0
57
0
58
0
57
0
65
0
72
0
57
0
35
0
59
0
91
0
98
0
114
0
115
0
121
0
122
0
107
0
76
0
38
0
6
0
2
0
3
0
2
0
2
0
2
0
1
0
1
0
1
0
1
0
0
0
0
0
0
0
0
0
0
0
0
0
0
0
0
0
0
0
0
0
0
0
0
0
0
0
0
0
0
0
0
0
0
0
0
0
0
0
0
0
0
0
0
0
0
0
0
0
0
0
0
0
0
0
0
0
0
0
0
0
0
0
0
0
2
0
3
0
12
0
12
0
0
0
0
0
2
0
0
0
3
0
1
0
1
0
1
0
10
0
16
0
19
0
19
0
35
0
43
0
55
0
67
0
76
0
82
0
86
0
89
0
92
0
93
0
94
0
94
0
95
0
94
0
93
0
93
0
93
0
93
0
92
0
89
0
84
0
82
0
78
0
76
0
66
0
67
0
54
0
27
0
7
0
3
0
3
0
1
0
0
0
5
0
4
0
0
0
0
0
8
0
8
0
1
0
3
0
3
0
6
0
7
0
1
0
0
0
0
0
2
0
1
0
1
0
1
0
1
0
1
0
1
0
1
0
1
0
1
0
2
0
2
0
1
0
1
0
12
0
0
0
0
0
0
0
0
0
0
0
0
0
0
0
0
0
0
0
0
0
0
0
0
0
0
0
0
0
0
0
0
0
0
0
0
0
0
0
0
0
0
0
0
0
0
0
0
0
0
0
0
0
0
0
0
0
0
0
0
0
0
0
0
0
0
0
0
0
0
0
0
0
0
0
0
0
0
0
0
0
0
0
0
0
0
0
0
0
0
0
0
0
0
0
0
0
0
0
0
0
0
0
0
0
0
0
0
0
0
0
0
0
0
0
0
0
0
0
0
0
0
0
0
0
0
0
0
0
0
0
0
0
0
0
0
0
0
0
0
0
0
0
0
0
0
0
0
0
0
0
0
0
0
0
0
0
0
0
0
0
0
0
0
0
0
0
0
0
0
0
0
0
0
0
0
0
0
0
0
0
0
0
0
0
0
0
0
0
0
0
0
0
0
0
0
0
0
0
0
0
0
0
0
0
0
0
0
0
0
0
0
0
0
0
0
0
0
0
0
0
0
0
0
0
0
0
0
0
0
0
0
0
0
0
0
0
0
0
0
0
0
0
0
0
0
0
0
0
0
0
0
0
0
0
0
0
0
0
0
0
0
0
0
0
0
0
0
0
0
0
0
0
0
0
0
0
0
0
0
0
0
0
0
0
0
0
0
0
0
0
0
0
0
0
0
0
0
0
0
0
0
0
0
0
0
0
0
0
0
0
0
0
0
0
0
0
0
0
0
0
0
0
0
0
0
0
0
0
0
0
0
0
0
0
0
0
0
0
0
0
0
0
0
0
0
0
0
0
0
0
0
0
0
0
0
0
0
0
0
0
0
0
0
0
0
0
0
0
0
0
0
0
0
0
0
0
0
0
0
0
0
0
0
0
0
0
0
0
0
0
0
0
0
0
0
0
0
0
0
0
0
0
0
0
0
0
0
0
0
0
0
0
0
0
0
0
0
0
0
0
0
0
0
0
0
0
0
0
0
0
0
0
0
0
0
0
0
0
0
0
0
0
0
0
5
0
58
0
111
0
110
0
101
0
96
0
47
0
7
0
2
0
14
0
80
0
127
0
129
0
123
0
127
0
135
0
145
0
108
0
37
0
1
0
1
0
2
0
7
0
16
0
4
0
2
0
7
0
1
0
1
0
20
0
28
0
12
0
1
0
6
0
1
0
15
0
65
0
106
0
125
0
128
0
128
0
129
0
123
0
118
0
116
0
112
0
96
0
70
0
51
0
22
0
12
0
14
0
31
0
47
0
54
0
64
0
76
0
80
0
95
0
101
0
87
0
67
0
43
0
14
0
2
0
6
0
18
0
44
0
70
0
70
0
57
0
59
0
71
0
89
0
90
0
92
0
99
0
108
0
110
0
96
0
79
0
47
0
71
0
90
0
88
0
84
0
88
0
93
0
91
0
85
0
82
0
74
0
43
0
62
0
110
0
113
0
115
0
111
0
112
0
102
0
73
0
35
0
6
0
1
0
8
0
2
0
2
0
2
0
1
0
1
0
1
0
0
0
0
0
0
0
0
0
0
0
0
0
0
0
0
0
0
0
0
0
0
0
0
0
0
0
0
0
0
0
0
0
0
0
0
0
0
0
0
0
0
0
0
0
0
0
0
0
0
0
0
0
0
0
0
0
0
0
0
0
0
0
0
0
0
0
0
0
2
0
2
0
9
0
6
0
1
0
1
0
11
0
10
0
17
0
15
0
14
0
23
0
38
0
51
0
58
0
59
0
77
0
81
0
87
0
91
0
91
0
89
0
88
0
88
0
91
0
91
0
93
0
93
0
94
0
94
0
94
0
94
0
92
0
91
0
89
0
85
0
82
0
79
0
78
0
77
0
70
0
68
0
61
0
45
0
24
0
4
0
0
0
1
0
0
0
0
0
3
0
3
0
2
0
3
0
6
0
9
0
6
0
2
0
1
0
2
0
0
0
0
0
0
0
4
0
1
0
1
0
1
0
1
0
1
0
1
0
1
0
1
0
1
0
2
0
3
0
1
0
0
0
13
0
0
0
0
0
0
0
0
0
0
0
0
0
0
0
0
0
0
0
0
0
0
0
0
0
0
0
0
0
0
0
0
0
0
0
0
0
0
0
0
0
0
0
0
0
0
0
0
0
0
0
0
0
0
0
0
0
0
0
0
0
0
0
0
0
0
0
0
0
0
0
0
0
0
0
0
0
0
0
0
0
0
0
0
0
0
0
0
0
0
0
0
0
0
0
0
0
0
0
0
0
0
0
0
0
0
0
0
0
0
0
0
0
0
0
0
0
0
0
0
0
0
0
0
0
0
0
0
0
0
0
0
0
0
0
0
0
0
0
0
0
0
0
0
0
0
0
0
0
0
0
0
0
0
0
0
0
0
0
0
0
0
0
0
0
0
0
0
0
0
0
0
0
0
0
0
0
0
0
0
0
0
0
0
0
0
0
0
0
0
0
0
0
0
0
0
0
0
0
0
0
0
0
0
0
0
0
0
0
0
0
0
0
0
0
0
0
0
0
0
0
0
0
0
0
0
0
0
0
0
0
0
0
0
0
0
0
0
0
0
0
0
0
0
0
0
0
0
0
0
0
0
0
0
0
0
0
0
0
0
0
0
0
0
0
0
0
0
0
0
0
0
0
0
0
0
0
0
0
0
0
0
0
0
0
0
0
0
0
0
0
0
0
0
0
0
0
0
0
0
0
0
0
0
0
0
0
0
0
0
0
0
0
0
0
0
0
0
0
0
0
0
0
0
0
0
0
0
0
0
0
0
0
0
0
0
0
0
0
0
0
0
0
0
0
0
0
0
0
0
0
0
0
0
0
0
0
0
0
0
0
0
0
0
0
0
0
0
0
0
0
0
0
0
0
0
0
0
0
0
0
0
0
0
0
0
0
0
0
0
0
0
0
0
0
0
0
0
0
0
0
0
0
0
0
0
0
0
0
0
0
0
0
0
0
0
0
0
0
0
0
0
0
0
0
0
0
0
0
0
0
0
0
0
0
0
0
0
0
0
0
0
0
0
0
7
0
65
0
106
0
94
0
91
0
107
0
73
0
25
0
2
0
0
0
33
0
58
0
64
0
65
0
71
0
98
0
136
0
158
0
108
0
65
0
34
0
1
0
2
0
3
0
3
0
0
0
3
0
1
0
1
0
6
0
5
0
1
0
2
0
2
0
1
0
5
0
47
0
91
0
109
0
112
0
118
0
127
0
118
0
112
0
112
0
119
0
122
0
118
0
112
0
105
0
76
0
46
0
28
0
21
0
28
0
52
0
77
0
68
0
69
0
70
0
73
0
87
0
92
0
76
0
53
0
22
0
7
0
5
0
25
0
38
0
45
0
58
0
74
0
75
0
71
0
70
0
75
0
88
0
99
0
100
0
95
0
67
0
95
0
117
0
118
0
114
0
118
0
122
0
120
0
123
0
114
0
112
0
74
0
71
0
112
0
117
0
113
0
120
0
100
0
68
0
32
0
4
0
1
0
1
0
4
0
2
0
2
0
1
0
1
0
0
0
0
0
0
0
0
0
0
0
0
0
0
0
0
0
0
0
0
0
0
0
0
0
0
0
0
0
0
0
0
0
0
0
0
0
0
0
0
0
0
0
0
0
0
0
0
0
0
0
0
0
0
0
0
0
0
0
0
0
0
0
0
0
0
0
0
0
0
0
0
0
3
0
0
0
3
0
1
0
2
0
20
0
40
0
41
0
49
0
47
0
46
0
53
0
67
0
79
0
84
0
86
0
84
0
86
0
88
0
90
0
88
0
88
0
89
0
90
0
92
0
92
0
92
0
93
0
91
0
90
0
89
0
88
0
88
0
86
0
85
0
81
0
79
0
77
0
77
0
77
0
75
0
65
0
64
0
65
0
46
0
12
0
0
0
2
0
1
0
0
0
0
0
3
0
1
0
2
0
18
0
43
0
19
0
8
0
0
0
0
0
0
0
0
0
0
0
2
0
1
0
1
0
1
0
1
0
1
0
1
0
1
0
1
0
1
0
2
0
3
0
1
0
1
0
16
0
0
0
0
0
0
0
0
0
0
0
0
0
0
0
0
0
0
0
0
0
0
0
0
0
0
0
0
0
0
0
0
0
0
0
0
0
0
0
0
0
0
0
0
0
0
0
0
0
0
0
0
0
0
0
0
0
0
0
0
0
0
0
0
0
0
0
0
0
0
0
0
0
0
0
0
0
0
0
0
0
0
0
0
0
0
0
0
0
0
0
0
0
0
0
0
0
0
0
0
0
0
0
0
0
0
0
0
0
0
0
0
0
0
0
0
0
0
0
0
0
0
0
0
0
0
0
0
0
0
0
0
0
0
0
0
0
0
0
0
0
0
0
0
0
0
0
0
0
0
0
0
0
0
0
0
0
0
0
0
0
0
0
0
0
0
0
0
0
0
0
0
0
0
0
0
0
0
0
0
0
0
0
0
0
0
0
0
0
0
0
0
0
0
0
0
0
0
0
0
0
0
0
0
0
0
0
0
0
0
0
0
0
0
0
0
0
0
0
0
0
0
0
0
0
0
0
0
0
0
0
0
0
0
0
0
0
0
0
0
0
0
0
0
0
0
0
0
0
0
0
0
0
0
0
0
0
0
0
0
0
0
0
0
0
0
0
0
0
0
0
0
0
0
0
0
0
0
0
0
0
0
0
0
0
0
0
0
0
0
0
0
0
0
0
0
0
0
0
0
0
0
0
0
0
0
0
0
0
0
0
0
0
0
0
0
0
0
0
0
0
0
0
0
0
0
0
0
0
0
0
0
0
0
0
0
0
0
0
0
0
0
0
0
0
0
0
0
0
0
0
0
0
0
0
0
0
0
0
0
0
0
0
0
0
0
0
0
0
0
0
0
0
0
0
0
0
0
0
0
0
0
0
0
0
0
0
0
0
0
0
0
0
0
0
0
0
0
0
0
0
0
0
0
0
0
0
0
0
0
0
0
0
0
0
0
0
0
0
0
0
0
0
0
0
0
0
0
0
0
0
0
0
0
0
0
0
0
0
0
0
0
0
0
0
9
0
66
0
92
0
90
0
113
0
137
0
98
0
42
0
6
0
7
0
1
0
3
0
3
0
11
0
14
0
27
0
55
0
84
0
105
0
112
0
86
0
41
0
5
0
2
0
17
0
1
0
5
0
2
0
1
0
4
0
0
0
1
0
7
0
3
0
2
0
2
0
26
0
62
0
79
0
86
0
104
0
104
0
107
0
108
0
105
0
101
0
103
0
112
0
120
0
130
0
129
0
119
0
89
0
51
0
27
0
32
0
49
0
80
0
75
0
63
0
47
0
44
0
60
0
83
0
99
0
88
0
58
0
22
0
1
0
1
0
6
0
25
0
40
0
60
0
67
0
74
0
77
0
78
0
82
0
89
0
95
0
57
0
81
0
103
0
107
0
101
0
101
0
103
0
101
0
108
0
107
0
117
0
92
0
69
0
95
0
122
0
127
0
107
0
72
0
27
0
6
0
5
0
6
0
3
0
2
0
1
0
1
0
1
0
0
0
0
0
0
0
0
0
0
0
0
0
0
0
0
0
0
0
0
0
0
0
0
0
0
0
0
0
0
0
0
0
0
0
0
0
0
0
0
0
0
0
0
0
0
0
0
0
0
0
0
0
0
0
0
0
0
0
0
0
0
0
0
0
0
0
0
0
0
0
0
0
0
0
2
0
0
0
2
0
2
0
11
0
43
0
72
0
78
0
80
0
75
0
73
0
75
0
80
0
85
0
86
0
86
0
77
0
78
0
79
0
81
0
81
0
83
0
85
0
88
0
81
0
82
0
84
0
85
0
86
0
86
0
86
0
85
0
83
0
82
0
81
0
79
0
78
0
77
0
77
0
77
0
77
0
65
0
67
0
76
0
64
0
32
0
8
0
6
0
6
0
0
0
0
0
0
0
0
0
15
0
47
0
79
0
29
0
13
0
0
0
0
0
3
0
3
0
0
0
0
0
1
0
1
0
1
0
1
0
1
0
1
0
1
0
1
0
1
0
2
0
2
0
1
0
1
0
17
0
0
0
0
0
0
0
0
0
0
0
0
0
0
0
0
0
0
0
0
0
0
0
0
0
0
0
0
0
0
0
0
0
0
0
0
0
0
0
0
0
0
0
0
0
0
0
0
0
0
0
0
0
0
0
0
0
0
0
0
0
0
0
0
0
0
0
0
0
0
0
0
0
0
0
0
0
0
0
0
0
0
0
0
0
0
0
0
0
0
0
0
0
0
0
0
0
0
0
0
0
0
0
0
0
0
0
0
0
0
0
0
0
0
0
0
0
0
0
0
0
0
0
0
0
0
0
0
0
0
0
0
0
0
0
0
0
0
0
0
0
0
0
0
0
0
0
0
0
0
0
0
0
0
0
0
0
0
0
0
0
0
0
0
0
0
0
0
0
0
0
0
0
0
0
0
0
0
0
0
0
0
0
0
0
0
0
0
0
0
0
0
0
0
0
0
0
0
0
0
0
0
0
0
0
0
0
0
0
0
0
0
0
0
0
0
0
0
0
0
0
0
0
0
0
0
0
0
0
0
0
0
0
0
0
0
0
0
0
0
0
0
0
0
0
0
0
0
0
0
0
0
0
0
0
0
0
0
0
0
0
0
0
0
0
0
0
0
0
0
0
0
0
0
0
0
0
0
0
0
0
0
0
0
0
0
0
0
0
0
0
0
0
0
0
0
0
0
0
0
0
0
0
0
0
0
0
0
0
0
0
0
0
0
0
0
0
0
0
0
0
0
0
0
0
0
0
0
0
0
0
0
0
0
0
0
0
0
0
0
0
0
0
0
0
0
0
0
0
0
0
0
0
0
0
0
0
0
0
0
0
0
0
0
0
0
0
0
0
0
0
0
0
0
0
0
0
0
0
0
0
0
0
0
0
0
0
0
0
0
0
0
0
0
0
0
0
0
0
0
0
0
0
0
0
0
0
0
0
0
0
0
0
0
0
0
0
0
0
0
0
0
0
0
0
0
0
0
0
0
0
0
0
0
0
0
0
0
0
0
0
0
0
0
0
11
0
53
0
84
0
96
0
121
0
139
0
112
0
61
0
11
0
18
0
11
0
3
0
1
0
12
0
5
0
0
0
3
0
39
0
96
0
124
0
121
0
108
0
63
0
8
0
1
0
0
0
8
0
5
0
2
0
7
0
2
0
1
0
4
0
5
0
7
0
0
0
1
0
21
0
30
0
43
0
73
0
71
0
83
0
96
0
101
0
97
0
92
0
91
0
94
0
98
0
99
0
101
0
107
0
112
0
100
0
68
0
38
0
56
0
71
0
87
0
85
0
63
0
42
0
39
0
46
0
90
0
87
0
72
0
43
0
22
0
11
0
8
0
8
0
16
0
29
0
47
0
61
0
67
0
73
0
82
0
91
0
70
0
88
0
109
0
118
0
116
0
111
0
111
0
114
0
111
0
109
0
117
0
115
0
76
0
72
0
106
0
106
0
56
0
31
0
3
0
2
0
3
0
10
0
8
0
2
0
1
0
1
0
0
0
0
0
0
0
0
0
0
0
0
0
0
0
0
0
0
0
0
0
0
0
0
0
0
0
0
0
0
0
0
0
0
0
0
0
0
0
0
0
0
0
0
0
0
0
0
0
0
0
0
0
0
0
0
0
0
0
0
0
0
0
0
0
0
0
0
0
0
0
0
0
0
0
0
0
0
0
1
0
6
0
3
0
8
0
45
0
82
0
91
0
86
0
83
0
81
0
80
0
81
0
80
0
81
0
81
0
78
0
80
0
81
0
78
0
77
0
77
0
79
0
80
0
70
0
72
0
74
0
77
0
80
0
82
0
83
0
84
0
79
0
79
0
80
0
79
0
79
0
79
0
79
0
79
0
77
0
74
0
72
0
73
0
72
0
58
0
31
0
8
0
1
0
4
0
0
0
0
0
4
0
40
0
69
0
79
0
20
0
8
0
1
0
1
0
3
0
1
0
0
0
0
0
1
0
1
0
1
0
1
0
1
0
1
0
1
0
1
0
2
0
2
0
1
0
1
0
2
0
19
0
0
0
0
0
0
0
0
0
0
0
0
0
0
0
0
0
0
0
0
0
0
0
0
0
0
0
0
0
0
0
0
0
0
0
0
0
0
0
0
0
0
0
0
0
0
0
0
0
0
0
0
0
0
0
0
0
0
0
0
0
0
0
0
0
0
0
0
0
0
0
0
0
0
0
0
0
0
0
0
0
0
0
0
0
0
0
0
0
0
0
0
0
0
0
0
0
0
0
0
0
0
0
0
0
0
0
0
0
0
0
0
0
0
0
0
0
0
0
0
0
0
0
0
0
0
0
0
0
0
0
0
0
0
0
0
0
0
0
0
0
0
0
0
0
0
0
0
0
0
0
0
0
0
0
0
0
0
0
0
0
0
0
0
0
0
0
0
0
0
0
0
0
0
0
0
0
0
0
0
0
0
0
0
0
0
0
0
0
0
0
0
0
0
0
0
0
0
0
0
0
0
0
0
0
0
0
0
0
0
0
0
0
0
0
0
0
0
0
0
0
0
0
0
0
0
0
0
0
0
0
0
0
0
0
0
0
0
0
0
0
0
0
0
0
0
0
0
0
0
0
0
0
0
0
0
0
0
0
0
0
0
0
0
0
0
0
0
0
0
0
0
0
0
0
0
0
0
0
0
0
0
0
0
0
0
0
0
0
0
0
0
0
0
0
0
0
0
0
0
0
0
0
0
0
0
0
0
0
0
0
0
0
0
0
0
0
0
0
0
0
0
0
0
0
0
0
0
0
0
0
0
0
0
0
0
0
0
0
0
0
0
0
0
0
0
0
0
0
0
0
0
0
0
0
0
0
0
0
0
0
0
0
0
0
0
0
0
0
0
0
0
0
0
0
0
0
0
0
0
0
0
0
0
0
0
0
0
0
0
0
0
0
0
0
0
0
0
0
0
0
0
0
0
0
0
0
0
0
0
0
0
0
0
0
0
0
0
0
0
0
0
0
0
0
0
0
0
0
0
0
0
0
0
0
0
0
0
0
0
0
0
0
0
0
12
0
56
0
104
0
121
0
125
0
136
0
136
0
99
0
28
0
4
0
17
0
13
0
3
0
5
0
5
0
1
0
4
0
5
0
55
0
81
0
119
0
181
0
165
0
73
0
17
0
0
0
8
0
6
0
2
0
7
0
13
0
3
0
1
0
2
0
8
0
1
0
1
0
3
0
1
0
1
0
27
0
38
0
43
0
56
0
73
0
88
0
94
0
89
0
83
0
92
0
99
0
99
0
95
0
98
0
104
0
101
0
91
0
62
0
53
0
60
0
82
0
94
0
79
0
52
0
35
0
24
0
63
0
98
0
98
0
71
0
43
0
18
0
8
0
5
0
0
0
2
0
13
0
31
0
47
0
59
0
66
0
51
0
65
0
88
0
105
0
106
0
100
0
102
0
109
0
105
0
98
0
99
0
117
0
79
0
57
0
83
0
67
0
9
0
8
0
5
0
2
0
4
0
4
0
1
0
7
0
1
0
1
0
0
0
0
0
0
0
0
0
0
0
0
0
0
0
0
0
0
0
0
0
0
0
0
0
0
0
0
0
0
0
0
0
0
0
0
0
0
0
0
0
0
0
0
0
0
0
0
0
0
0
0
0
0
0
0
0
0
0
0
0
0
0
0
0
0
0
0
0
0
0
0
0
0
0
0
0
0
0
2
0
9
0
2
0
2
0
35
0
73
0
85
0
76
0
77
0
78
0
79
0
78
0
78
0
79
0
81
0
79
0
81
0
83
0
83
0
80
0
77
0
77
0
77
0
78
0
79
0
79
0
79
0
79
0
78
0
78
0
77
0
79
0
79
0
81
0
81
0
81
0
81
0
80
0
80
0
76
0
83
0
78
0
69
0
73
0
77
0
50
0
9
0
1
0
9
0
8
0
0
0
13
0
58
0
74
0
58
0
1
0
1
0
1
0
1
0
2
0
0
0
0
0
1
0
1
0
1
0
1
0
1
0
1
0
1
0
1
0
1
0
4
0
2
0
1
0
1
0
3
0
20
0
0
0
0
0
0
0
0
0
0
0
0
0
0
0
0
0
0
0
0
0
0
0
0
0
0
0
0
0
0
0
0
0
0
0
0
0
0
0
0
0
0
0
0
0
0
0
0
0
0
0
0
0
0
0
0
0
0
0
0
0
0
0
0
0
0
0
0
0
0
0
0
0
0
0
0
0
0
0
0
0
0
0
0
0
0
0
0
0
0
0
0
0
0
0
0
0
0
0
0
0
0
0
0
0
0
0
0
0
0
0
0
0
0
0
0
0
0
0
0
0
0
0
0
0
0
0
0
0
0
0
0
0
0
0
0
0
0
0
0
0
0
0
0
0
0
0
0
0
0
0
0
0
0
0
0
0
0
0
0
0
0
0
0
0
0
0
0
0
0
0
0
0
0
0
0
0
0
0
0
0
0
0
0
0
0
0
0
0
0
0
0
0
0
0
0
0
0
0
0
0
0
0
0
0
0
0
0
0
0
0
0
0
0
0
0
0
0
0
0
0
0
0
0
0
0
0
0
0
0
0
0
0
0
0
0
0
0
0
0
0
0
0
0
0
0
0
0
0
0
0
0
0
0
0
0
0
0
0
0
0
0
0
0
0
0
0
0
0
0
0
0
0
0
0
0
0
0
0
0
0
0
0
0
0
0
0
0
0
0
0
0
0
0
0
0
0
0
0
0
0
0
0
0
0
0
0
0
0
0
0
0
0
0
0
0
0
0
0
0
0
0
0
0
0
0
0
0
0
0
0
0
0
0
0
0
0
0
0
0
0
0
0
0
0
0
0
0
0
0
0
0
0
0
0
0
0
0
0
0
0
0
0
0
0
0
0
0
0
0
0
0
0
0
0
0
0
0
0
0
0
0
0
0
0
0
0
0
0
0
0
0
0
0
0
0
0
0
0
0
0
0
0
0
0
0
0
0
0
0
0
0
0
0
0
0
0
0
0
0
0
0
0
0
0
0
0
0
0
0
0
0
0
0
0
0
0
0
0
0
0
0
0
0
0
30
0
76
0
112
0
122
0
124
0
127
0
125
0
105
0
58
0
4
0
9
0
4
0
12
0
20
0
5
0
1
0
6
0
9
0
48
0
80
0
104
0
150
0
188
0
159
0
97
0
37
0
1
0
6
0
21
0
2
0
1
0
3
0
4
0
10
0
4
0
3
0
10
0
0
0
0
0
29
0
16
0
28
0
45
0
44
0
40
0
57
0
74
0
76
0
74
0
75
0
82
0
87
0
88
0
90
0
94
0
101
0
104
0
98
0
89
0
73
0
62
0
66
0
82
0
89
0
87
0
42
0
31
0
40
0
77
0
103
0
98
0
78
0
65
0
33
0
12
0
2
0
1
0
7
0
10
0
15
0
25
0
22
0
33
0
55
0
80
0
92
0
98
0
107
0
118
0
114
0
108
0
105
0
102
0
86
0
58
0
40
0
37
0
1
0
0
0
0
0
0
0
0
0
0
0
0
0
0
0
0
0
0
0
0
0
0
0
0
0
0
0
0
0
0
0
0
0
0
0
0
0
0
0
0
0
0
0
0
0
0
0
0
0
0
0
0
0
0
0
0
0
0
0
0
0
0
0
0
0
0
0
0
0
0
0
0
0
0
0
0
0
0
0
0
0
0
0
0
0
0
0
0
0
0
0
0
0
0
0
1
0
1
0
3
0
3
0
0
0
7
0
45
0
88
0
83
0
81
0
78
0
77
0
78
0
79
0
78
0
78
0
81
0
82
0
82
0
83
0
82
0
79
0
77
0
74
0
78
0
79
0
79
0
75
0
71
0
72
0
78
0
83
0
88
0
83
0
77
0
73
0
72
0
71
0
69
0
67
0
59
0
56
0
54
0
55
0
57
0
57
0
53
0
51
0
1
0
2
0
4
0
1
0
25
0
77
0
76
0
18
0
2
0
2
0
1
0
1
0
1
0
0
0
0
0
0
0
4
0
1
0
0
0
9
0
2
0
0
0
6
0
8
0
5
0
1
0
0
0
1
0
2
0
6
0
0
0
0
0
0
0
0
0
0
0
0
0
0
0
0
0
0
0
0
0
0
0
0
0
0
0
0
0
0
0
0
0
0
0
0
0
0
0
0
0
0
0
0
0
0
0
0
0
0
0
0
0
0
0
0
0
0
0
0
0
0
0
0
0
0
0
0
0
0
0
0
0
0
0
0
0
0
0
0
0
0
0
0
0
0
0
0
0
0
0
0
0
0
0
0
0
0
0
0
0
0
0
0
0
0
0
0
0
0
0
0
0
0
0
0
0
0
0
0
0
0
0
0
0
0
0
0
0
0
0
0
0
0
0
0
0
0
0
0
0
0
0
0
0
0
0
0
0
0
0
0
0
0
0
0
0
0
0
0
0
0
0
0
0
0
0
0
0
0
0
0
0
0
0
0
0
0
0
0
0
0
0
0
0
0
0
0
0
0
0
0
0
0
0
0
0
0
0
0
0
0
0
0
0
0
0
0
0
0
0
0
0
0
0
0
0
0
0
0
0
0
0
0
0
0
0
0
0
0
0
0
0
0
0
0
0
0
0
0
0
0
0
0
0
0
0
0
0
0
0
0
0
0
0
0
0
0
0
0
0
0
0
0
0
0
0
0
0
0
0
0
0
0
0
0
0
0
0
0
0
0
0
0
0
0
0
0
0
0
0
0
0
0
0
0
0
0
0
0
0
0
0
0
0
0
0
0
0
0
0
0
0
0
0
0
0
0
0
0
0
0
0
0
0
0
0
0
0
0
0
0
0
0
0
0
0
0
0
0
0
0
0
0
0
0
0
0
0
0
0
0
0
0
0
0
0
0
0
0
0
0
0
0
0
0
0
0
0
0
0
0
0
0
0
0
0
0
0
0
0
0
0
0
0
0
0
0
0
0
0
0
0
0
0
0
0
0
0
0
0
0
0
0
0
0
0
0
0
0
0
0
0
0
0
0
0
0
0
0
0
0
0
0
0
0
0
0
0
0
0
0
0
0
0
0
0
0
0
0
0
0
0
0
0
41
0
94
0
115
0
118
0
124
0
130
0
130
0
121
0
89
0
17
0
14
0
5
0
6
0
3
0
1
0
5
0
3
0
1
0
16
0
58
0
92
0
132
0
170
0
186
0
180
0
78
0
14
0
3
0
2
0
3
0
8
0
11
0
7
0
1
0
0
0
0
0
13
0
7
0
18
0
57
0
49
0
44
0
56
0
50
0
39
0
45
0
52
0
55
0
61
0
59
0
64
0
71
0
77
0
82
0
89
0
94
0
97
0
103
0
99
0
87
0
75
0
76
0
86
0
97
0
100
0
101
0
63
0
33
0
36
0
60
0
80
0
90
0
93
0
69
0
53
0
24
0
1
0
1
0
2
0
3
0
11
0
5
0
6
0
14
0
25
0
38
0
52
0
70
0
85
0
95
0
96
0
102
0
101
0
78
0
43
0
17
0
10
0
1
0
1
0
1
0
1
0
0
0
0
0
0
0
0
0
0
0
0
0
0
0
0
0
0
0
0
0
0
0
0
0
0
0
0
0
0
0
0
0
0
0
0
0
0
0
0
0
0
0
0
0
0
0
0
0
0
0
0
0
0
0
0
0
0
0
0
0
0
0
0
0
0
0
0
0
0
0
0
0
0
0
0
0
0
0
0
0
0
0
0
0
0
0
0
0
2
0
1
0
3
0
3
0
0
0
4
0
32
0
67
0
76
0
77
0
79
0
80
0
80
0
81
0
81
0
81
0
82
0
82
0
81
0
82
0
83
0
84
0
85
0
86
0
83
0
84
0
87
0
87
0
85
0
80
0
72
0
67
0
55
0
50
0
44
0
42
0
42
0
45
0
47
0
46
0
63
0
65
0
66
0
69
0
70
0
66
0
59
0
52
0
11
0
7
0
2
0
8
0
39
0
70
0
51
0
1
0
2
0
2
0
1
0
1
0
1
0
0
0
0
0
0
0
4
0
0
0
1
0
3
0
0
0
1
0
1
0
1
0
9
0
3
0
4
0
7
0
1
0
2
0
0
0
0
0
0
0
0
0
0
0
0
0
0
0
0
0
0
0
0
0
0
0
0
0
0
0
0
0
0
0
0
0
0
0
0
0
0
0
0
0
0
0
0
0
0
0
0
0
0
0
0
0
0
0
0
0
0
0
0
0
0
0
0
0
0
0
0
0
0
0
0
0
0
0
0
0
0
0
0
0
0
0
0
0
0
0
0
0
0
0
0
0
0
0
0
0
0
0
0
0
0
0
0
0
0
0
0
0
0
0
0
0
0
0
0
0
0
0
0
0
0
0
0
0
0
0
0
0
0
0
0
0
0
0
0
0
0
0
0
0
0
0
0
0
0
0
0
0
0
0
0
0
0
0
0
0
0
0
0
0
0
0
0
0
0
0
0
0
0
0
0
0
0
0
0
0
0
0
0
0
0
0
0
0
0
0
0
0
0
0
0
0
0
0
0
0
0
0
0
0
0
0
0
0
0
0
0
0
0
0
0
0
0
0
0
0
0
0
0
0
0
0
0
0
0
0
0
0
0
0
0
0
0
0
0
0
0
0
0
0
0
0
0
0
0
0
0
0
0
0
0
0
0
0
0
0
0
0
0
0
0
0
0
0
0
0
0
0
0
0
0
0
0
0
0
0
0
0
0
0
0
0
0
0
0
0
0
0
0
0
0
0
0
0
0
0
0
0
0
0
0
0
0
0
0
0
0
0
0
0
0
0
0
0
0
0
0
0
0
0
0
0
0
0
0
0
0
0
0
0
0
0
0
0
0
0
0
0
0
0
0
0
0
0
0
0
0
0
0
0
0
0
0
0
0
0
0
0
0
0
0
0
0
0
0
0
0
0
0
0
0
0
0
0
0
0
0
0
0
0
0
0
0
0
0
0
0
0
0
0
0
0
0
0
0
0
0
0
0
0
0
0
0
0
0
0
0
0
0
0
0
0
0
0
0
0
0
0
0
0
0
0
0
0
0
0
0
0
0
0
0
0
0
0
0
0
0
0
0
0
0
0
0
0
57
0
106
0
115
0
117
0
133
0
135
0
121
0
116
0
101
0
13
0
2
0
10
0
10
0
4
0
25
0
38
0
38
0
73
0
63
0
46
0
33
0
38
0
71
0
126
0
173
0
147
0
82
0
22
0
6
0
12
0
14
0
4
0
1
0
2
0
5
0
1
0
1
0
1
0
16
0
68
0
82
0
67
0
75
0
70
0
60
0
56
0
49
0
49
0
61
0
43
0
44
0
50
0
59
0
67
0
74
0
77
0
78
0
88
0
92
0
91
0
87
0
84
0
90
0
95
0
96
0
102
0
89
0
70
0
51
0
43
0
52
0
71
0
86
0
103
0
101
0
79
0
40
0
15
0
13
0
15
0
12
0
10
0
9
0
4
0
1
0
4
0
11
0
22
0
27
0
44
0
51
0
65
0
69
0
51
0
20
0
2
0
0
0
2
0
2
0
2
0
2
0
1
0
1
0
1
0
0
0
0
0
0
0
0
0
0
0
0
0
0
0
0
0
0
0
0
0
0
0
0
0
0
0
0
0
0
0
0
0
0
0
0
0
0
0
0
0
0
0
0
0
0
0
0
0
0
0
0
0
0
0
0
0
0
0
0
0
0
0
0
0
0
0
0
0
0
0
0
0
0
0
0
0
0
0
0
0
0
0
2
0
1
0
2
0
4
0
1
0
0
0
16
0
37
0
73
0
79
0
86
0
88
0
86
0
82
0
82
0
82
0
79
0
79
0
80
0
81
0
81
0
81
0
82
0
82
0
76
0
66
0
55
0
47
0
45
0
41
0
34
0
29
0
38
0
39
0
42
0
49
0
57
0
64
0
68
0
69
0
59
0
56
0
52
0
48
0
43
0
35
0
27
0
21
0
4
0
0
0
1
0
17
0
53
0
58
0
27
0
0
0
2
0
2
0
1
0
1
0
1
0
0
0
0
0
0
0
1
0
0
0
1
0
0
0
0
0
9
0
14
0
3
0
0
0
0
0
1
0
6
0
0
0
0
0
0
0
0
0
0
0
0
0
0
0
0
0
0
0
0
0
0
0
0
0
0
0
0
0
0
0
0
0
0
0
0
0
0
0
0
0
0
0
0
0
0
0
0
0
0
0
0
0
0
0
0
0
0
0
0
0
0
0
0
0
0
0
0
0
0
0
0
0
0
0
0
0
0
0
0
0
0
0
0
0
0
0
0
0
0
0
0
0
0
0
0
0
0
0
0
0
0
0
0
0
0
0
0
0
0
0
0
0
0
0
0
0
0
0
0
0
0
0
0
0
0
0
0
0
0
0
0
0
0
0
0
0
0
0
0
0
0
0
0
0
0
0
0
0
0
0
0
0
0
0
0
0
0
0
0
0
0
0
0
0
0
0
0
0
0
0
0
0
0
0
0
0
0
0
0
0
0
0
0
0
0
0
0
0
0
0
0
0
0
0
0
0
0
0
0
0
0
0
0
0
0
0
0
0
0
0
0
0
0
0
0
0
0
0
0
0
0
0
0
0
0
0
0
0
0
0
0
0
0
0
0
0
0
0
0
0
0
0
0
0
0
0
0
0
0
0
0
0
0
0
0
0
0
0
0
0
0
0
0
0
0
0
0
0
0
0
0
0
0
0
0
0
0
0
0
0
0
0
0
0
0
0
0
0
0
0
0
0
0
0
0
0
0
0
0
0
0
0
0
0
0
0
0
0
0
0
0
0
0
0
0
0
0
0
0
0
0
0
0
0
0
0
0
0
0
0
0
0
0
0
0
0
0
0
0
0
0
0
0
0
0
0
0
0
0
0
0
0
0
0
0
0
0
0
0
0
0
0
0
0
0
0
0
0
0
0
0
0
0
0
0
0
0
0
0
0
0
0
0
0
0
0
0
0
0
0
0
0
0
0
0
0
0
0
0
0
0
0
0
0
0
0
0
0
0
0
0
0
0
0
0
0
0
0
0
0
0
0
0
0
0
0
0
0
0
0
0
0
0
0
0
0
0
0
0
0
0
0
0
0
0
0
0
0
72
0
105
0
113
0
120
0
139
0
128
0
95
0
91
0
92
0
50
0
27
0
57
0
74
0
76
0
102
0
106
0
108
0
122
0
121
0
123
0
125
0
107
0
75
0
52
0
48
0
83
0
67
0
29
0
3
0
0
0
1
0
2
0
6
0
9
0
7
0
2
0
1
0
1
0
3
0
47
0
84
0
77
0
84
0
82
0
79
0
75
0
59
0
50
0
59
0
46
0
41
0
40
0
47
0
55
0
60
0
62
0
63
0
64
0
72
0
82
0
90
0
93
0
93
0
89
0
86
0
74
0
90
0
100
0
88
0
67
0
51
0
42
0
38
0
76
0
90
0
97
0
89
0
75
0
64
0
53
0
43
0
46
0
42
0
28
0
11
0
5
0
6
0
4
0
1
0
3
0
6
0
16
0
21
0
16
0
3
0
1
0
6
0
3
0
3
0
3
0
2
0
2
0
2
0
1
0
1
0
0
0
0
0
0
0
0
0
0
0
0
0
0
0
0
0
0
0
0
0
0
0
0
0
0
0
0
0
0
0
0
0
0
0
0
0
0
0
0
0
0
0
0
0
0
0
0
0
0
0
0
0
0
0
0
0
0
0
0
0
0
0
0
0
0
0
0
0
0
0
0
0
0
0
0
0
0
0
0
0
2
0
1
0
2
0
5
0
2
0
1
0
4
0
14
0
62
0
71
0
79
0
80
0
76
0
69
0
65
0
65
0
63
0
64
0
62
0
59
0
55
0
49
0
44
0
40
0
26
0
22
0
20
0
23
0
30
0
39
0
46
0
49
0
54
0
54
0
57
0
57
0
52
0
44
0
33
0
28
0
28
0
20
0
12
0
3
0
0
0
0
0
1
0
1
0
8
0
14
0
16
0
37
0
60
0
40
0
7
0
8
0
2
0
2
0
1
0
1
0
1
0
0
0
0
0
0
0
1
0
0
0
2
0
0
0
7
0
37
0
51
0
36
0
7
0
0
0
0
0
5
0
4
0
0
0
0
0
0
0
0
0
0
0
0
0
0
0
0
0
0
0
0
0
0
0
0
0
0
0
0
0
0
0
0
0
0
0
0
0
0
0
0
0
0
0
0
0
0
0
0
0
0
0
0
0
0
0
0
0
0
0
0
0
0
0
0
0
0
0
0
0
0
0
0
0
0
0
0
0
0
0
0
0
0
0
0
0
0
0
0
0
0
0
0
0
0
0
0
0
0
0
0
0
0
0
0
0
0
0
0
0
0
0
0
0
0
0
0
0
0
0
0
0
0
0
0
0
0
0
0
0
0
0
0
0
0
0
0
0
0
0
0
0
0
0
0
0
0
0
0
0
0
0
0
0
0
0
0
0
0
0
0
0
0
0
0
0
0
0
0
0
0
0
0
0
0
0
0
0
0
0
0
0
0
0
0
0
0
0
0
0
0
0
0
0
0
0
0
0
0
0
0
0
0
0
0
0
0
0
0
0
0
0
0
0
0
0
0
0
0
0
0
0
0
0
0
0
0
0
0
0
0
0
0
0
0
0
0
0
0
0
0
0
0
0
0
0
0
0
0
0
0
0
0
0
0
0
0
0
0
0
0
0
0
0
0
0
0
0
0
0
0
0
0
0
0
0
0
0
0
0
0
0
0
0
0
0
0
0
0
0
0
0
0
0
0
0
0
0
0
0
0
0
0
0
0
0
0
0
0
0
0
0
0
0
0
0
0
0
0
0
0
0
0
0
0
0
0
0
0
0
0
0
0
0
0
0
0
0
0
0
0
0
0
0
0
0
0
0
0
0
0
0
0
0
0
0
0
0
0
0
0
0
0
0
0
0
0
0
0
0
0
0
0
0
0
0
0
0
0
0
0
0
0
0
0
0
0
0
0
0
0
0
0
0
0
0
0
0
0
0
0
0
0
0
0
0
0
0
0
0
0
0
0
0
0
0
0
0
0
0
0
0
0
0
0
0
0
0
0
0
0
0
0
0
0
0
0
0
0
0
0
0
0
0
0
0
0
0
77
0
104
0
110
0
115
0
124
0
104
0
75
0
85
0
101
0
95
0
59
0
96
0
131
0
134
0
140
0
132
0
136
0
139
0
138
0
140
0
145
0
148
0
142
0
125
0
113
0
28
0
56
0
53
0
20
0
6
0
3
0
3
0
3
0
4
0
4
0
4
0
15
0
10
0
0
0
24
0
75
0
85
0
87
0
80
0
77
0
76
0
58
0
44
0
46
0
56
0
45
0
38
0
41
0
44
0
45
0
47
0
52
0
55
0
57
0
65
0
79
0
90
0
93
0
88
0
83
0
85
0
86
0
86
0
89
0
91
0
82
0
54
0
28
0
31
0
43
0
68
0
95
0
104
0
95
0
83
0
81
0
71
0
54
0
27
0
6
0
1
0
6
0
9
0
9
0
6
0
0
0
1
0
1
0
2
0
1
0
1
0
3
0
3
0
3
0
3
0
2
0
2
0
2
0
1
0
1
0
0
0
0
0
0
0
0
0
0
0
0
0
0
0
0
0
0
0
0
0
0
0
0
0
0
0
0
0
0
0
0
0
0
0
0
0
0
0
0
0
0
0
0
0
0
0
0
0
0
0
0
0
0
0
0
0
0
0
0
0
0
0
0
0
0
0
0
0
0
0
0
0
0
0
0
0
0
0
0
0
1
0
0
0
1
0
5
0
5
0
2
0
1
0
3
0
31
0
40
0
50
0
52
0
46
0
38
0
35
0
34
0
40
0
36
0
28
0
22
0
19
0
20
0
23
0
25
0
35
0
44
0
54
0
63
0
62
0
59
0
55
0
53
0
38
0
38
0
33
0
26
0
16
0
5
0
0
0
0
0
1
0
0
0
1
0
1
0
6
0
17
0
27
0
34
0
45
0
57
0
60
0
65
0
56
0
15
0
1
0
13
0
2
0
2
0
1
0
1
0
1
0
0
0
0
0
0
0
0
0
2
0
3
0
0
0
16
0
61
0
87
0
78
0
33
0
11
0
0
0
4
0
8
0
2
0
0
0
0
0
0
0
0
0
0
0
0
0
0
0
0
0
0
0
0
0
0
0
0
0
0
0
0
0
0
0
0
0
0
0
0
0
0
0
0
0
0
0
0
0
0
0
0
0
0
0
0
0
0
0
0
0
0
0
0
0
0
0
0
0
0
0
0
0
0
0
0
0
0
0
0
0
0
0
0
0
0
0
0
0
0
0
0
0
0
0
0
0
0
0
0
0
0
0
0
0
0
0
0
0
0
0
0
0
0
0
0
0
0
0
0
0
0
0
0
0
0
0
0
0
0
0
0
0
0
0
0
0
0
0
0
0
0
0
0
0
0
0
0
0
0
0
0
0
0
0
0
0
0
0
0
0
0
0
0
0
0
0
0
0
0
0
0
0
0
0
0
0
0
0
0
0
0
0
0
0
0
0
0
0
0
0
0
0
0
0
0
0
0
0
0
0
0
0
0
0
0
0
0
0
0
0
0
0
0
0
0
0
0
0
0
0
0
0
0
0
0
0
0
0
0
0
0
0
0
0
0
0
0
0
0
0
0
0
0
0
0
0
0
0
0
0
0
0
0
0
0
0
0
0
0
0
0
0
0
0
0
0
0
0
0
0
0
0
0
0
0
0
0
0
0
0
0
0
0
0
0
0
0
0
0
0
0
0
0
0
0
0
0
0
0
0
0
0
0
0
0
0
0
0
0
0
0
0
0
0
0
0
0
0
0
0
0
0
0
0
0
0
0
0
0
0
0
0
0
0
0
0
0
0
0
0
0
0
0
0
0
0
0
0
0
0
0
0
0
0
0
0
0
0
0
0
0
0
0
0
0
0
0
0
0
0
0
0
0
0
0
0
0
0
0
0
0
0
0
0
0
0
0
0
0
0
0
0
0
0
0
0
0
0
0
0
0
0
0
0
0
0
0
0
0
0
0
0
0
0
0
0
0
0
0
0
0
0
0
0
0
0
0
0
0
0
0
0
0
0
0
0
0
0
0
0
0
0
0
0
0
0
0
0
74
0
109
0
110
0
98
0
95
0
84
0
80
0
109
0
131
0
115
0
71
0
88
0
127
0
138
0
130
0
121
0
129
0
113
0
121
0
130
0
138
0
148
0
152
0
151
0
148
0
87
0
108
0
115
0
93
0
73
0
64
0
49
0
26
0
19
0
3
0
1
0
3
0
3
0
0
0
16
0
79
0
107
0
108
0
94
0
84
0
80
0
67
0
52
0
50
0
56
0
43
0
33
0
32
0
30
0
25
0
26
0
32
0
48
0
40
0
39
0
47
0
61
0
69
0
70
0
72
0
81
0
79
0
82
0
89
0
97
0
94
0
82
0
71
0
47
0
44
0
57
0
83
0
97
0
93
0
91
0
98
0
48
0
27
0
6
0
1
0
3
0
5
0
6
0
7
0
10
0
4
0
0
0
1
0
2
0
4
0
1
0
1
0
2
0
2
0
2
0
2
0
1
0
1
0
1
0
0
0
0
0
0
0
0
0
0
0
0
0
0
0
0
0
0
0
0
0
0
0
0
0
0
0
0
0
0
0
0
0
0
0
0
0
0
0
0
0
0
0
0
0
0
0
0
0
0
0
0
0
0
0
0
0
0
0
0
0
0
0
0
0
0
0
0
0
0
0
0
0
0
0
0
0
0
0
0
0
0
0
0
0
0
0
1
0
3
0
4
0
3
0
2
0
1
0
4
0
11
0
20
0
23
0
21
0
16
0
14
0
13
0
16
0
10
0
4
0
4
0
14
0
33
0
54
0
67
0
69
0
71
0
69
0
57
0
41
0
24
0
14
0
10
0
7
0
4
0
1
0
1
0
1
0
1
0
4
0
10
0
9
0
18
0
29
0
41
0
51
0
59
0
66
0
71
0
66
0
81
0
86
0
72
0
39
0
0
0
0
0
12
0
2
0
2
0
1
0
1
0
1
0
0
0
0
0
0
0
3
0
2
0
2
0
0
0
17
0
65
0
101
0
102
0
48
0
14
0
1
0
1
0
6
0
6
0
0
0
0
0
0
0
0
0
0
0
0
0
0
0
0
0
0
0
0
0
0
0
0
0
0
0
0
0
0
0
0
0
0
0
0
0
0
0
0
0
0
0
0
0
0
0
0
0
0
0
0
0
0
0
0
0
0
0
0
0
0
0
0
0
0
0
0
0
0
0
0
0
0
0
0
0
0
0
0
0
0
0
0
0
0
0
0
0
0
0
0
0
0
0
0
0
0
0
0
0
0
0
0
0
0
0
0
0
0
0
0
0
0
0
0
0
0
0
0
0
0
0
0
0
0
0
0
0
0
0
0
0
0
0
0
0
0
0
0
0
0
0
0
0
0
0
0
0
0
0
0
0
0
0
0
0
0
0
0
0
0
0
0
0
0
0
0
0
0
0
0
0
0
0
0
0
0
0
0
0
0
0
0
0
0
0
0
0
0
0
0
0
0
0
0
0
0
0
0
0
0
0
0
0
0
0
0
0
0
0
0
0
0
0
0
0
0
0
0
0
0
0
0
0
0
0
0
0
0
0
0
0
0
0
0
0
0
0
0
0
0
0
0
0
0
0
0
0
0
0
0
0
0
0
0
0
0
0
0
0
0
0
0
0
0
0
0
0
0
0
0
0
0
0
0
0
0
0
0
0
0
0
0
0
0
0
0
0
0
0
0
0
0
0
0
0
0
0
0
0
0
0
0
0
0
0
0
0
0
0
0
0
0
0
0
0
0
0
0
0
0
0
0
0
0
0
0
0
0
0
0
0
0
0
0
0
0
0
0
0
0
0
0
0
0
0
0
0
0
0
0
0
0
0
0
0
0
0
0
0
0
0
0
0
0
0
0
0
0
0
0
0
0
0
0
0
0
0
0
0
0
0
0
0
0
0
0
0
0
0
0
0
0
0
0
0
0
0
0
0
0
0
0
0
0
0
0
0
0
0
0
0
0
0
0
0
0
0
0
0
0
0
0
0
0
0
0
0
0
0
0
0
0
0
0
0
0
0
0
0
0
0
0
0
67
0
110
0
106
0
82
0
77
0
87
0
106
0
135
0
138
0
126
0
93
0
79
0
112
0
134
0
125
0
128
0
134
0
132
0
130
0
130
0
132
0
138
0
143
0
146
0
148
0
116
0
106
0
119
0
133
0
127
0
125
0
119
0
102
0
87
0
64
0
41
0
8
0
2
0
2
0
6
0
59
0
112
0
126
0
121
0
108
0
103
0
93
0
76
0
69
0
61
0
48
0
40
0
35
0
24
0
8
0
5
0
12
0
24
0
16
0
11
0
16
0
22
0
25
0
29
0
37
0
36
0
46
0
65
0
79
0
76
0
70
0
78
0
93
0
82
0
78
0
77
0
81
0
86
0
89
0
90
0
91
0
43
0
16
0
2
0
5
0
11
0
4
0
1
0
2
0
3
0
3
0
2
0
2
0
3
0
5
0
3
0
0
0
1
0
1
0
1
0
1
0
0
0
0
0
0
0
0
0
0
0
0
0
0
0
0
0
0
0
0
0
0
0
0
0
0
0
0
0
0
0
0
0
0
0
0
0
0
0
0
0
0
0
0
0
0
0
0
0
0
0
0
0
0
0
0
0
0
0
0
0
0
0
0
0
0
0
0
0
0
0
0
0
0
0
0
0
0
0
0
0
0
0
0
0
0
0
0
0
1
0
1
0
0
0
0
0
1
0
2
0
2
0
1
0
1
0
1
0
5
0
8
0
8
0
7
0
4
0
3
0
3
0
0
0
1
0
4
0
17
0
36
0
55
0
67
0
32
0
26
0
16
0
6
0
0
0
0
0
0
0
3
0
5
0
4
0
0
0
1
0
2
0
8
0
19
0
28
0
49
0
57
0
67
0
74
0
76
0
77
0
77
0
77
0
71
0
77
0
84
0
61
0
19
0
1
0
1
0
2
0
2
0
2
0
1
0
1
0
1
0
0
0
0
0
0
0
3
0
0
0
1
0
1
0
15
0
61
0
99
0
108
0
69
0
29
0
2
0
0
0
3
0
4
0
0
0
0
0
0
0
0
0
0
0
0
0
0
0
0
0
0
0
0
0
0
0
0
0
0
0
0
0
0
0
0
0
0
0
0
0
0
0
0
0
0
0
0
0
0
0
0
0
0
0
0
0
0
0
0
0
0
0
0
0
0
0
0
0
0
0
0
0
0
0
0
0
0
0
0
0
0
0
0
0
0
0
0
0
0
0
0
0
0
0
0
0
0
0
0
0
0
0
0
0
0
0
0
0
0
0
0
0
0
0
0
0
0
0
0
0
0
0
0
0
0
0
0
0
0
0
0
0
0
0
0
0
0
0
0
0
0
0
0
0
0
0
0
0
0
0
0
0
0
0
0
0
0
0
0
0
0
0
0
0
0
0
0
0
0
0
0
0
0
0
0
0
0
0
0
0
0
0
0
0
0
0
0
0
0
0
0
0
0
0
0
0
0
0
0
0
0
0
0
0
0
0
0
0
0
0
0
0
0
0
0
0
0
0
0
0
0
0
0
0
0
0
0
0
0
0
0
0
0
0
0
0
0
0
0
0
0
0
0
0
0
0
0
0
0
0
0
0
0
0
0
0
0
0
0
0
0
0
0
0
0
0
0
0
0
0
0
0
0
0
0
0
0
0
0
0
0
0
0
0
0
0
0
0
0
0
0
0
0
0
0
0
0
0
0
0
0
0
0
0
0
0
0
0
0
0
0
0
0
0
0
0
0
0
0
0
0
0
0
0
0
0
0
0
0
0
0
0
0
0
0
0
0
0
0
0
0
0
0
0
0
0
0
0
0
0
0
0
0
0
0
0
0
0
0
0
0
0
0
0
0
0
0
0
0
0
0
0
0
0
0
0
0
0
0
0
0
0
0
0
0
0
0
0
0
0
0
0
0
0
0
0
0
0
0
0
0
0
0
0
0
0
0
0
0
0
0
0
0
0
0
0
0
0
0
0
0
0
0
0
0
0
0
0
0
0
0
0
0
0
0
0
0
0
0
0
0
0
0
0
0
0
0
0
61
0
104
0
101
0
77
0
77
0
102
0
130
0
140
0
121
0
129
0
108
0
74
0
97
0
125
0
119
0
129
0
128
0
136
0
123
0
118
0
130
0
142
0
144
0
143
0
146
0
143
0
107
0
116
0
146
0
140
0
131
0
136
0
131
0
143
0
129
0
102
0
46
0
27
0
18
0
2
0
12
0
90
0
121
0
132
0
124
0
120
0
111
0
90
0
77
0
77
0
65
0
57
0
50
0
31
0
7
0
1
0
3
0
1
0
1
0
1
0
3
0
2
0
2
0
2
0
2
0
4
0
4
0
16
0
37
0
45
0
43
0
53
0
69
0
77
0
88
0
90
0
83
0
82
0
90
0
89
0
81
0
80
0
38
0
8
0
6
0
7
0
0
0
1
0
7
0
7
0
9
0
8
0
4
0
1
0
1
0
2
0
4
0
1
0
0
0
0
0
0
0
0
0
0
0
0
0
0
0
0
0
0
0
0
0
0
0
0
0
0
0
0
0
0
0
0
0
0
0
0
0
0
0
0
0
0
0
0
0
0
0
0
0
0
0
0
0
0
0
0
0
0
0
0
0
0
0
0
0
0
0
0
0
0
0
0
0
0
0
0
0
0
0
0
0
0
0
0
0
0
0
0
0
0
0
0
0
0
0
1
0
2
0
0
0
0
0
1
0
1
0
2
0
1
0
2
0
1
0
1
0
2
0
3
0
1
0
0
0
0
0
1
0
2
0
3
0
3
0
3
0
3
0
2
0
2
0
5
0
2
0
1
0
1
0
6
0
7
0
5
0
3
0
0
0
7
0
18
0
29
0
41
0
55
0
69
0
78
0
75
0
78
0
82
0
81
0
78
0
76
0
78
0
79
0
81
0
80
0
81
0
55
0
11
0
2
0
6
0
1
0
2
0
2
0
1
0
1
0
1
0
0
0
0
0
0
0
1
0
0
0
1
0
3
0
16
0
56
0
95
0
108
0
107
0
63
0
20
0
6
0
5
0
1
0
0
0
0
0
0
0
0
0
0
0
0
0
0
0
0
0
0
0
0
0
0
0
0
0
0
0
0
0
0
0
0
0
0
0
0
0
0
0
0
0
0
0
0
0
0
0
0
0
0
0
0
0
0
0
0
0
0
0
0
0
0
0
0
0
0
0
0
0
0
0
0
0
0
0
0
0
0
0
0
0
0
0
0
0
0
0
0
0
0
0
0
0
0
0
0
0
0
0
0
0
0
0
0
0
0
0
0
0
0
0
0
0
0
0
0
0
0
0
0
0
0
0
0
0
0
0
0
0
0
0
0
0
0
0
0
0
0
0
0
0
0
0
0
0
0
0
0
0
0
0
0
0
0
0
0
0
0
0
0
0
0
0
0
0
0
0
0
0
0
0
0
0
0
0
0
0
0
0
0
0
0
0
0
0
0
0
0
0
0
0
0
0
0
0
0
0
0
0
0
0
0
0
0
0
0
0
0
0
0
0
0
0
0
0
0
0
0
0
0
0
0
0
0
0
0
0
0
0
0
0
0
0
0
0
0
0
0
0
0
0
0
0
0
0
0
0
0
0
0
0
0
0
0
0
0
0
0
0
0
0
0
0
0
0
0
0
0
0
0
0
0
0
0
0
0
0
0
0
0
0
0
0
0
0
0
0
0
0
0
0
0
0
0
0
0
0
0
0
0
0
0
0
0
0
0
0
0
0
0
0
0
0
0
0
0
0
0
0
0
0
0
0
0
0
0
0
0
0
0
0
0
0
0
0
0
0
0
0
0
0
0
0
0
0
0
0
0
0
0
0
0
0
0
0
0
0
0
0
0
0
0
0
0
0
0
0
0
0
0
0
0
0
0
0
0
0
0
0
0
0
0
0
0
0
0
0
0
0
0
0
0
0
0
0
0
0
0
0
0
0
0
0
0
0
0
0
0
0
0
0
0
0
0
0
0
0
0
0
0
0
0
0
0
0
0
0
0
0
0
0
0
0
0
0
0
0
0
0
0
0
0
0
0
0
37
0
89
0
65
0
71
0
105
0
125
0
129
0
128
0
125
0
127
0
133
0
92
0
57
0
120
0
118
0
112
0
139
0
119
0
134
0
140
0
132
0
129
0
138
0
143
0
141
0
150
0
142
0
85
0
128
0
148
0
135
0
134
0
139
0
136
0
146
0
137
0
129
0
100
0
34
0
59
0
47
0
37
0
100
0
120
0
130
0
117
0
135
0
116
0
105
0
109
0
99
0
82
0
67
0
55
0
40
0
15
0
0
0
6
0
5
0
4
0
2
0
1
0
1
0
3
0
4
0
0
0
0
0
1
0
0
0
0
0
4
0
13
0
19
0
47
0
67
0
85
0
86
0
87
0
89
0
86
0
78
0
85
0
76
0
58
0
36
0
14
0
2
0
1
0
1
0
2
0
2
0
1
0
1
0
1
0
1
0
1
0
3
0
0
0
0
0
0
0
0
0
0
0
0
0
0
0
0
0
0
0
0
0
0
0
0
0
0
0
0
0
0
0
0
0
0
0
0
0
0
0
0
0
0
0
0
0
0
0
0
0
0
0
0
0
0
0
0
0
0
0
0
0
0
0
0
0
0
0
0
0
0
0
0
0
0
0
0
0
0
0
0
0
0
0
0
0
0
0
0
0
0
0
0
0
0
0
0
0
0
0
0
0
0
0
0
0
0
0
0
0
0
0
0
0
1
0
1
0
1
0
1
0
1
0
1
0
1
0
1
0
0
0
0
0
0
0
0
0
0
0
0
0
1
0
2
0
5
0
9
0
4
0
0
0
1
0
2
0
8
0
30
0
45
0
50
0
59
0
68
0
77
0
80
0
81
0
82
0
78
0
81
0
83
0
82
0
84
0
87
0
81
0
72
0
69
0
64
0
43
0
26
0
5
0
0
0
1
0
3
0
0
0
0
0
0
0
1
0
1
0
1
0
2
0
2
0
0
0
1
0
5
0
1
0
2
0
44
0
96
0
109
0
142
0
148
0
110
0
35
0
1
0
4
0
0
0
0
0
0
0
0
0
0
0
0
0
0
0
0
0
0
0
0
0
0
0
0
0
0
0
0
0
0
0
0
0
0
0
0
0
0
0
0
0
0
0
0
0
0
0
0
0
0
0
0
0
0
0
0
0
0
0
0
0
0
0
0
0
0
0
0
0
0
0
0
0
0
0
0
0
0
0
0
0
0
0
0
0
0
0
0
0
0
0
0
0
0
0
0
0
0
0
0
0
0
0
0
0
0
0
0
0
0
0
0
0
0
0
0
0
0
0
0
0
0
0
0
0
0
0
0
0
0
0
0
0
0
0
0
0
0
0
0
0
0
0
0
0
0
0
0
0
0
0
0
0
0
0
0
0
0
0
0
0
0
0
0
0
0
0
0
0
0
0
0
0
0
0
0
0
0
0
0
0
0
0
0
0
0
0
0
0
0
0
0
0
0
0
0
0
0
0
0
0
0
0
0
0
0
0
0
0
0
0
0
0
0
0
0
0
0
0
0
0
0
0
0
0
0
0
0
0
0
0
0
0
0
0
0
0
0
0
0
0
0
0
0
0
0
0
0
0
0
0
0
0
0
0
0
0
0
0
0
0
0
0
0
0
0
0
0
0
0
0
0
0
0
0
0
0
0
0
0
0
0
0
0
0
0
0
0
0
0
0
0
0
0
0
0
0
0
0
0
0
0
0
0
0
0
0
0
0
0
0
0
0
0
0
0
0
0
0
0
0
0
0
0
0
0
0
0
0
0
0
0
0
0
0
0
0
0
0
0
0
0
0
0
0
0
0
0
0
0
0
0
0
0
0
0
0
0
0
0
0
0
0
0
0
0
0
0
0
0
0
0
0
0
0
0
0
0
0
0
0
0
0
0
0
0
0
0
0
0
0
0
0
0
0
0
0
0
0
0
0
0
0
0
0
0
0
0
0
0
0
0
0
0
0
0
0
0
0
0
0
0
0
0
0
0
0
0
0
0
0
0
0
0
0
0
0
0
0
0
0
0
0
0
0
40
0
65
0
60
0
78
0
106
0
119
0
124
0
127
0
125
0
128
0
130
0
108
0
92
0
81
0
131
0
142
0
124
0
141
0
120
0
103
0
99
0
95
0
88
0
90
0
100
0
105
0
113
0
91
0
108
0
128
0
104
0
108
0
108
0
94
0
107
0
128
0
131
0
114
0
75
0
67
0
68
0
28
0
9
0
105
0
118
0
125
0
108
0
127
0
119
0
116
0
108
0
96
0
84
0
76
0
62
0
40
0
20
0
0
0
0
0
2
0
3
0
1
0
1
0
1
0
3
0
1
0
2
0
3
0
1
0
0
0
3
0
8
0
13
0
23
0
48
0
73
0
82
0
82
0
80
0
81
0
82
0
85
0
86
0
83
0
75
0
62
0
45
0
31
0
24
0
4
0
11
0
17
0
16
0
9
0
3
0
1
0
2
0
0
0
0
0
0
0
0
0
0
0
0
0
0
0
0
0
0
0
0
0
0
0
0
0
0
0
0
0
0
0
0
0
0
0
0
0
0
0
0
0
0
0
0
0
0
0
0
0
0
0
0
0
0
0
0
0
0
0
0
0
0
0
0
0
0
0
0
0
0
0
0
0
0
0
0
0
0
0
0
0
0
0
0
0
0
0
0
0
0
0
0
0
0
0
0
0
0
0
0
0
0
0
0
0
0
0
0
0
0
0
0
0
1
0
1
0
1
0
1
0
1
0
1
0
1
0
1
0
2
0
1
0
0
0
0
0
0
0
0
0
0
0
0
0
3
0
5
0
13
0
22
0
26
0
34
0
50
0
64
0
77
0
78
0
80
0
81
0
80
0
77
0
73
0
70
0
86
0
90
0
82
0
64
0
54
0
53
0
50
0
44
0
21
0
28
0
11
0
1
0
0
0
8
0
8
0
1
0
0
0
0
0
0
0
1
0
1
0
1
0
2
0
2
0
0
0
2
0
4
0
1
0
11
0
53
0
98
0
114
0
147
0
170
0
153
0
90
0
28
0
2
0
0
0
0
0
0
0
0
0
0
0
0
0
0
0
0
0
0
0
0
0
0
0
0
0
0
0
0
0
0
0
0
0
0
0
0
0
0
0
0
0
0
0
0
0
0
0
0
0
0
0
0
0
0
0
0
0
0
0
0
0
0
0
0
0
0
0
0
0
0
0
0
0
0
0
0
0
0
0
0
0
0
0
0
0
0
0
0
0
0
0
0
0
0
0
0
0
0
0
0
0
0
0
0
0
0
0
0
0
0
0
0
0
0
0
0
0
0
0
0
0
0
0
0
0
0
0
0
0
0
0
0
0
0
0
0
0
0
0
0
0
0
0
0
0
0
0
0
0
0
0
0
0
0
0
0
0
0
0
0
0
0
0
0
0
0
0
0
0
0
0
0
0
0
0
0
0
0
0
0
0
0
0
0
0
0
0
0
0
0
0
0
0
0
0
0
0
0
0
0
0
0
0
0
0
0
0
0
0
0
0
0
0
0
0
0
0
0
0
0
0
0
0
0
0
0
0
0
0
0
0
0
0
0
0
0
0
0
0
0
0
0
0
0
0
0
0
0
0
0
0
0
0
0
0
0
0
0
0
0
0
0
0
0
0
0
0
0
0
0
0
0
0
0
0
0
0
0
0
0
0
0
0
0
0
0
0
0
0
0
0
0
0
0
0
0
0
0
0
0
0
0
0
0
0
0
0
0
0
0
0
0
0
0
0
0
0
0
0
0
0
0
0
0
0
0
0
0
0
0
0
0
0
0
0
0
0
0
0
0
0
0
0
0
0
0
0
0
0
0
0
0
0
0
0
0
0
0
0
0
0
0
0
0
0
0
0
0
0
0
0
0
0
0
0
0
0
0
0
0
0
0
0
0
0
0
0
0
0
0
0
0
0
0
0
0
0
0
0
0
0
0
0
0
0
0
0
0
0
0
0
0
0
0
0
0
0
0
0
0
0
0
0
0
0
0
0
0
0
0
0
0
0
0
0
0
0
0
0
0
0
0
0
0
0
48
0
34
0
55
0
90
0
110
0
111
0
116
0
125
0
124
0
127
0
118
0
135
0
123
0
52
0
103
0
147
0
129
0
86
0
77
0
77
0
89
0
97
0
95
0
94
0
100
0
70
0
72
0
65
0
34
0
57
0
56
0
76
0
75
0
90
0
63
0
77
0
84
0
102
0
124
0
76
0
82
0
90
0
33
0
27
0
96
0
114
0
112
0
115
0
122
0
114
0
111
0
103
0
95
0
91
0
82
0
64
0
45
0
0
0
0
0
1
0
3
0
4
0
4
0
3
0
2
0
3
0
4
0
4
0
3
0
1
0
1
0
3
0
6
0
3
0
26
0
59
0
80
0
82
0
77
0
80
0
90
0
81
0
83
0
88
0
91
0
87
0
79
0
66
0
58
0
51
0
56
0
56
0
43
0
24
0
7
0
2
0
2
0
0
0
0
0
0
0
0
0
0
0
0
0
0
0
0
0
0
0
0
0
0
0
0
0
0
0
0
0
0
0
0
0
0
0
0
0
0
0
0
0
0
0
0
0
0
0
0
0
0
0
0
0
0
0
0
0
0
0
0
0
0
0
0
0
0
0
0
0
0
0
0
0
0
0
0
0
0
0
0
0
0
0
0
0
0
0
0
0
0
0
0
0
0
0
0
0
0
0
0
0
0
0
0
0
0
0
0
0
0
0
0
0
1
0
1
0
1
0
1
0
1
0
1
0
1
0
1
0
5
0
4
0
2
0
1
0
0
0
0
0
0
0
0
0
2
0
2
0
31
0
58
0
62
0
73
0
87
0
83
0
71
0
71
0
72
0
71
0
69
0
68
0
66
0
65
0
55
0
54
0
45
0
31
0
20
0
14
0
9
0
4
0
5
0
1
0
0
0
8
0
13
0
8
0
2
0
3
0
0
0
0
0
0
0
1
0
1
0
1
0
2
0
2
0
0
0
7
0
1
0
1
0
27
0
66
0
99
0
120
0
152
0
185
0
185
0
148
0
92
0
25
0
0
0
0
0
0
0
0
0
0
0
0
0
0
0
0
0
0
0
0
0
0
0
0
0
0
0
0
0
0
0
0
0
0
0
0
0
0
0
0
0
0
0
0
0
0
0
0
0
0
0
0
0
0
0
0
0
0
0
0
0
0
0
0
0
0
0
0
0
0
0
0
0
0
0
0
0
0
0
0
0
0
0
0
0
0
0
0
0
0
0
0
0
0
0
0
0
0
0
0
0
0
0
0
0
0
0
0
0
0
0
0
0
0
0
0
0
0
0
0
0
0
0
0
0
0
0
0
0
0
0
0
0
0
0
0
0
0
0
0
0
0
0
0
0
0
0
0
0
0
0
0
0
0
0
0
0
0
0
0
0
0
0
0
0
0
0
0
0
0
0
0
0
0
0
0
0
0
0
0
0
0
0
0
0
0
0
0
0
0
0
0
0
0
0
0
0
0
0
0
0
0
0
0
0
0
0
0
0
0
0
0
0
0
0
0
0
0
0
0
0
0
0
0
0
0
0
0
0
0
0
0
0
0
0
0
0
0
0
0
0
0
0
0
0
0
0
0
0
0
0
0
0
0
0
0
0
0
0
0
0
0
0
0
0
0
0
0
0
0
0
0
0
0
0
0
0
0
0
0
0
0
0
0
0
0
0
0
0
0
0
0
0
0
0
0
0
0
0
0
0
0
0
0
0
0
0
0
0
0
0
0
0
0
0
0
0
0
0
0
0
0
0
0
0
0
0
0
0
0
0
0
0
0
0
0
0
0
0
0
0
0
0
0
0
0
0
0
0
0
0
0
0
0
0
0
0
0
0
0
0
0
0
0
0
0
0
0
0
0
0
0
0
0
0
0
0
0
0
0
0
0
0
0
0
0
0
0
0
0
0
0
0
0
0
0
0
0
0
0
0
0
0
0
0
0
0
0
0
0
0
0
0
0
0
0
0
0
0
0
0
0
0
0
0
0
0
0
0
0
0
0
0
0
0
0
0
0
0
0
0
0
0
0
0
58
0
16
0
55
0
102
0
116
0
106
0
109
0
120
0
119
0
143
0
113
0
133
0
119
0
88
0
72
0
105
0
94
0
52
0
80
0
104
0
112
0
119
0
132
0
140
0
139
0
140
0
132
0
114
0
66
0
80
0
113
0
131
0
128
0
142
0
112
0
101
0
72
0
47
0
74
0
52
0
83
0
111
0
102
0
6
0
54
0
113
0
120
0
108
0
113
0
108
0
108
0
106
0
102
0
99
0
92
0
77
0
63
0
19
0
10
0
2
0
0
0
4
0
7
0
6
0
2
0
3
0
3
0
4
0
4
0
3
0
1
0
1
0
1
0
1
0
8
0
36
0
68
0
83
0
80
0
81
0
87
0
80
0
77
0
75
0
79
0
83
0
86
0
84
0
82
0
81
0
75
0
60
0
38
0
17
0
3
0
1
0
2
0
0
0
0
0
0
0
0
0
0
0
0
0
0
0
0
0
0
0
0
0
0
0
0
0
0
0
0
0
0
0
0
0
0
0
0
0
0
0
0
0
0
0
0
0
0
0
0
0
0
0
0
0
0
0
0
0
0
0
0
0
0
0
0
0
0
0
0
0
0
0
0
0
0
0
0
0
0
0
0
0
0
0
0
0
0
0
0
0
0
0
0
0
0
0
0
0
0
0
0
0
0
0
0
0
0
0
0
0
0
0
0
0
1
0
1
0
1
0
1
0
1
0
1
0
1
0
1
0
4
0
3
0
2
0
1
0
1
0
1
0
2
0
3
0
2
0
1
0
41
0
78
0
74
0
77
0
81
0
58
0
80
0
76
0
69
0
60
0
51
0
43
0
37
0
34
0
12
0
5
0
3
0
6
0
2
0
0
0
0
0
0
0
1
0
4
0
23
0
13
0
0
0
0
0
0
0
8
0
0
0
0
0
0
0
1
0
1
0
1
0
2
0
2
0
1
0
9
0
0
0
1
0
40
0
77
0
101
0
126
0
149
0
180
0
186
0
176
0
153
0
88
0
0
0
0
0
0
0
0
0
0
0
0
0
0
0
0
0
0
0
0
0
0
0
0
0
0
0
0
0
0
0
0
0
0
0
0
0
0
0
0
0
0
0
0
0
0
0
0
0
0
0
0
0
0
0
0
0
0
0
0
0
0
0
0
0
0
0
0
0
0
0
0
0
0
0
0
0
0
0
0
0
0
0
0
0
0
0
0
0
0
0
0
0
0
0
0
0
0
0
0
0
0
0
0
0
0
0
0
0
0
0
0
0
0
0
0
0
0
0
0
0
0
0
0
0
0
0
0
0
0
0
0
0
0
0
0
0
0
0
0
0
0
0
0
0
0
0
0
0
0
0
0
0
0
0
0
0
0
0
0
0
0
0
0
0
0
0
0
0
0
0
0
0
0
0
0
0
0
0
0
0
0
0
0
0
0
0
0
0
0
0
0
0
0
0
0
0
0
0
0
0
0
0
0
0
0
0
0
0
0
0
0
0
0
0
0
0
0
0
0
0
0
0
0
0
0
0
0
0
0
0
0
0
0
0
0
0
0
0
0
0
0
0
0
0
0
0
0
0
0
0
0
0
0
0
0
0
0
0
0
0
0
0
0
0
0
0
0
0
0
0
0
0
0
0
0
0
0
0
0
0
0
0
0
0
0
0
0
0
0
0
0
0
0
0
0
0
0
0
0
0
0
0
0
0
0
0
0
0
0
0
0
0
0
0
0
0
0
0
0
0
0
0
0
0
0
0
0
0
0
0
0
0
0
0
0
0
0
0
0
0
0
0
0
0
0
0
0
0
0
0
0
0
0
0
0
0
0
0
0
0
0
0
0
0
0
0
0
0
0
0
0
0
0
0
0
0
0
0
0
0
0
0
0
0
0
0
0
0
0
0
0
0
0
0
0
0
0
0
0
0
0
0
0
0
0
0
0
0
0
0
0
0
0
0
0
0
0
0
0
0
0
0
0
0
0
0
0
0
0
0
0
0
0
0
0
0
0
0
0
0
0
0
0
0
69
0
18
0
54
0
101
0
117
0
105
0
106
0
115
0
116
0
121
0
141
0
142
0
115
0
106
0
36
0
26
0
72
0
116
0
131
0
137
0
126
0
122
0
129
0
140
0
141
0
147
0
151
0
142
0
113
0
96
0
135
0
137
0
138
0
115
0
133
0
144
0
148
0
127
0
102
0
46
0
24
0
65
0
90
0
61
0
11
0
95
0
115
0
123
0
109
0
108
0
111
0
111
0
107
0
104
0
100
0
89
0
78
0
52
0
31
0
7
0
0
0
1
0
6
0
5
0
1
0
1
0
1
0
1
0
2
0
3
0
3
0
1
0
0
0
1
0
2
0
11
0
47
0
78
0
86
0
83
0
83
0
84
0
83
0
81
0
83
0
85
0
84
0
81
0
76
0
44
0
33
0
18
0
4
0
0
0
1
0
1
0
3
0
0
0
0
0
0
0
0
0
0
0
0
0
0
0
0
0
0
0
0
0
0
0
0
0
0
0
0
0
0
0
0
0
0
0
0
0
0
0
0
0
0
0
0
0
0
0
0
0
0
0
0
0
0
0
0
0
0
0
0
0
0
0
0
0
0
0
0
0
0
0
0
0
0
0
0
0
0
0
0
0
0
0
0
0
0
0
0
0
0
0
0
0
0
0
0
0
0
0
0
0
0
0
0
0
0
0
0
0
0
0
0
0
1
0
1
0
1
0
1
0
1
0
1
0
1
0
1
0
0
0
0
0
0
0
1
0
2
0
3
0
5
0
6
0
3
0
1
0
28
0
57
0
47
0
45
0
43
0
18
0
21
0
18
0
12
0
4
0
1
0
1
0
1
0
1
0
5
0
0
0
1
0
4
0
1
0
1
0
37
0
86
0
139
0
175
0
167
0
60
0
0
0
14
0
12
0
3
0
0
0
0
0
0
0
1
0
1
0
1
0
2
0
2
0
2
0
6
0
0
0
5
0
51
0
86
0
106
0
128
0
138
0
168
0
181
0
180
0
180
0
140
0
0
0
0
0
0
0
0
0
0
0
0
0
0
0
0
0
0
0
0
0
0
0
0
0
0
0
0
0
0
0
0
0
0
0
0
0
0
0
0
0
0
0
0
0
0
0
0
0
0
0
0
0
0
0
0
0
0
0
0
0
0
0
0
0
0
0
0
0
0
0
0
0
0
0
0
0
0
0
0
0
0
0
0
0
0
0
0
0
0
0
0
0
0
0
0
0
0
0
0
0
0
0
0
0
0
0
0
0
0
0
0
0
0
0
0
0
0
0
0
0
0
0
0
0
0
0
0
0
0
0
0
0
0
0
0
0
0
0
0
0
0
0
0
0
0
0
0
0
0
0
0
0
0
0
0
0
0
0
0
0
0
0
0
0
0
0
0
0
0
0
0
0
0
0
0
0
0
0
0
0
0
0
0
0
0
0
0
0
0
0
0
0
0
0
0
0
0
0
0
0
0
0
0
0
0
0
0
0
0
0
0
0
0
0
0
0
0
0
0
0
0
0
0
0
0
0
0
0
0
0
0
0
0
0
0
0
0
0
0
0
0
0
0
0
0
0
0
0
0
0
0
0
0
0
0
0
0
0
0
0
0
0
0
0
0
0
0
0
0
0
0
0
0
0
0
0
0
0
0
0
0
0
0
0
0
0
0
0
0
0
0
0
0
0
0
0
0
0
0
0
0
0
0
0
0
0
0
0
0
0
0
0
0
0
0
0
0
0
0
0
0
0
0
0
0
0
0
0
0
0
0
0
0
0
0
0
0
0
0
0
0
0
0
0
0
0
0
0
0
0
0
0
0
0
0
0
0
0
0
0
0
0
0
0
0
0
0
0
0
0
0
0
0
0
0
0
0
0
0
0
0
0
0
0
0
0
0
0
0
0
0
0
0
0
0
0
0
0
0
0
0
0
0
0
0
0
0
0
0
0
0
0
0
0
0
0
0
0
0
0
0
0
0
0
0
0
0
0
0
0
0
0
0
0
0
0
0
0
0
0
0
0
0
0
73
0
31
0
47
0
84
0
109
0
109
0
106
0
111
0
113
0
100
0
147
0
115
0
93
0
87
0
54
0
19
0
83
0
142
0
138
0
131
0
132
0
128
0
119
0
120
0
129
0
128
0
149
0
147
0
141
0
94
0
110
0
124
0
136
0
132
0
133
0
113
0
133
0
141
0
138
0
110
0
65
0
46
0
52
0
87
0
18
0
18
0
122
0
122
0
108
0
105
0
110
0
112
0
108
0
105
0
101
0
94
0
86
0
79
0
55
0
24
0
4
0
0
0
1
0
0
0
0
0
0
0
0
0
0
0
0
0
2
0
3
0
1
0
0
0
3
0
0
0
0
0
29
0
64
0
85
0
87
0
82
0
82
0
87
0
92
0
94
0
86
0
70
0
51
0
36
0
5
0
0
0
0
0
0
0
1
0
2
0
2
0
3
0
0
0
0
0
0
0
0
0
0
0
0
0
0
0
0
0
0
0
0
0
0
0
0
0
0
0
0
0
0
0
0
0
0
0
0
0
0
0
0
0
0
0
0
0
0
0
0
0
0
0
0
0
0
0
0
0
0
0
0
0
0
0
0
0
0
0
0
0
0
0
0
0
0
0
0
0
0
0
0
0
0
0
0
0
0
0
0
0
0
0
0
0
0
0
0
0
0
0
0
0
0
0
0
0
0
0
0
0
0
0
0
0
1
0
1
0
1
0
1
0
1
0
1
0
1
0
1
0
0
0
0
0
0
0
0
0
1
0
4
0
6
0
7
0
5
0
1
0
5
0
18
0
8
0
7
0
11
0
1
0
0
0
0
0
1
0
2
0
5
0
8
0
12
0
14
0
4
0
3
0
3
0
1
0
3
0
43
0
132
0
214
0
254
0
255
0
217
0
70
0
0
0
5
0
0
0
0
0
0
0
0
0
0
0
1
0
1
0
1
0
2
0
2
0
2
0
2
0
3
0
22
0
65
0
97
0
114
0
126
0
126
0
158
0
183
0
183
0
178
0
160
0
0
0
0
0
0
0
0
0
0
0
0
0
0
0
0
0
0
0
0
0
0
0
0
0
0
0
0
0
0
0
0
0
0
0
0
0
0
0
0
0
0
0
0
0
0
0
0
0
0
0
0
0
0
0
0
0
0
0
0
0
0
0
0
0
0
0
0
0
0
0
0
0
0
0
0
0
0
0
0
0
0
0
0
0
0
0
0
0
0
0
0
0
0
0
0
0
0
0
0
0
0
0
0
0
0
0
0
0
0
0
0
0
0
0
0
0
0
0
0
0
0
0
0
0
0
0
0
0
0
0
0
0
0
0
0
0
0
0
0
0
0
0
0
0
0
0
0
0
0
0
0
0
0
0
0
0
0
0
0
0
0
0
0
0
0
0
0
0
0
0
0
0
0
0
0
0
0
0
0
0
0
0
0
0
0
0
0
0
0
0
0
0
0
0
0
0
0
0
0
0
0
0
0
0
0
0
0
0
0
0
0
0
0
0
0
0
0
0
0
0
0
0
0
0
0
0
0
0
0
0
0
0
0
0
0
0
0
0
0
0
0
0
0
0
0
0
0
0
0
0
0
0
0
0
0
0
0
0
0
0
0
0
0
0
0
0
0
0
0
0
0
0
0
0
0
0
0
0
0
0
0
0
0
0
0
0
0
0
0
0
0
0
0
0
0
0
0
0
0
0
0
0
0
0
0
0
0
0
0
0
0
0
0
0
0
0
0
0
0
0
0
0
0
0
0
0
0
0
0
0
0
0
0
0
0
0
0
0
0
0
0
0
0
0
0
0
0
0
0
0
0
0
0
0
0
0
0
0
0
0
0
0
0
0
0
0
0
0
0
0
0
0
0
0
0
0
0
0
0
0
0
0
0
0
0
0
0
0
0
0
0
0
0
0
0
0
0
0
0
0
0
0
0
0
0
0
0
0
0
0
0
0
0
0
0
0
0
0
0
0
0
0
0
0
0
0
0
0
0
0
0
0
0
0
0
0
0
0
0
0
0
0
0
0
73
0
42
0
33
0
56
0
97
0
112
0
109
0
109
0
112
0
115
0
100
0
66
0
79
0
104
0
128
0
87
0
62
0
123
0
117
0
121
0
131
0
133
0
126
0
125
0
132
0
124
0
138
0
140
0
148
0
106
0
84
0
123
0
139
0
134
0
139
0
129
0
123
0
127
0
120
0
123
0
102
0
70
0
69
0
80
0
54
0
4
0
86
0
103
0
117
0
103
0
108
0
110
0
106
0
102
0
100
0
96
0
92
0
95
0
79
0
53
0
28
0
9
0
0
0
0
0
0
0
3
0
0
0
0
0
0
0
1
0
2
0
0
0
0
0
4
0
1
0
1
0
11
0
35
0
61
0
74
0
74
0
73
0
78
0
81
0
76
0
60
0
37
0
15
0
2
0
5
0
4
0
4
0
4
0
5
0
5
0
3
0
1
0
0
0
0
0
0
0
0
0
0
0
0
0
0
0
0
0
0
0
0
0
0
0
0
0
0
0
0
0
0
0
0
0
0
0
0
0
0
0
0
0
0
0
0
0
0
0
0
0
0
0
0
0
0
0
0
0
0
0
0
0
0
0
0
0
0
0
0
0
0
0
0
0
0
0
0
0
0
0
0
0
0
0
0
0
0
0
0
0
0
0
0
0
0
0
0
0
0
0
0
0
0
0
0
0
0
0
0
0
0
0
0
0
1
0
1
0
1
0
1
0
1
0
1
0
1
0
1
0
0
0
0
0
0
0
0
0
0
0
2
0
3
0
4
0
6
0
0
0
0
0
0
0
0
0
0
0
1
0
3
0
6
0
5
0
4
0
2
0
1
0
1
0
0
0
0
0
0
0
4
0
0
0
0
0
35
0
124
0
217
0
255
0
254
0
238
0
198
0
73
0
1
0
7
0
0
0
17
0
0
0
0
0
0
0
1
0
1
0
1
0
2
0
2
0
3
0
0
0
17
0
49
0
81
0
110
0
125
0
122
0
120
0
139
0
175
0
186
0
175
0
169
0
0
0
0
0
0
0
0
0
0
0
0
0
0
0
0
0
0
0
0
0
0
0
0
0
0
0
0
0
0
0
0
0
0
0
0
0
0
0
0
0
0
0
0
0
0
0
0
0
0
0
0
0
0
0
0
0
0
0
0
0
0
0
0
0
0
0
0
0
0
0
0
0
0
0
0
0
0
0
0
0
0
0
0
0
0
0
0
0
0
0
0
0
0
0
0
0
0
0
0
0
0
0
0
0
0
0
0
0
0
0
0
0
0
0
0
0
0
0
0
0
0
0
0
0
0
0
0
0
0
0
0
0
0
0
0
0
0
0
0
0
0
0
0
0
0
0
0
0
0
0
0
0
0
0
0
0
0
0
0
0
0
0
0
0
0
0
0
0
0
0
0
0
0
0
0
0
0
0
0
0
0
0
0
0
0
0
0
0
0
0
0
0
0
0
0
0
0
0
0
0
0
0
0
0
0
0
0
0
0
0
0
0
0
0
0
0
0
0
0
0
0
0
0
0
0
0
0
0
0
0
0
0
0
0
0
0
0
0
0
0
0
0
0
0
0
0
0
0
0
0
0
0
0
0
0
0
0
0
0
0
0
0
0
0
0
0
0
0
0
0
0
0
0
0
0
0
0
0
0
0
0
0
0
0
0
0
0
0
0
0
0
0
0
0
0
0
0
0
0
0
0
0
0
0
0
0
0
0
0
0
0
0
0
0
0
0
0
0
0
0
0
0
0
0
0
0
0
0
0
0
0
0
0
0
0
0
0
0
0
0
0
0
0
0
0
0
0
0
0
0
0
0
0
0
0
0
0
0
0
0
0
0
0
0
0
0
0
0
0
0
0
0
0
0
0
0
0
0
0
0
0
0
0
0
0
0
0
0
0
0
0
0
0
0
0
0
0
0
0
0
0
0
0
0
0
0
0
0
0
0
0
0
0
0
0
0
0
0
0
0
0
0
0
0
0
0
0
0
0
0
0
0
0
0
0
0
0
0
0
0
0
0
0
0
71
0
48
0
23
0
36
0
87
0
113
0
112
0
109
0
113
0
89
0
47
0
91
0
124
0
130
0
130
0
128
0
55
0
110
0
129
0
138
0
127
0
119
0
124
0
133
0
135
0
123
0
126
0
136
0
154
0
137
0
80
0
127
0
126
0
136
0
133
0
134
0
118
0
139
0
137
0
131
0
104
0
73
0
110
0
99
0
89
0
62
0
4
0
96
0
132
0
104
0
110
0
111
0
108
0
103
0
102
0
102
0
99
0
101
0
95
0
78
0
50
0
19
0
2
0
0
0
4
0
6
0
2
0
0
0
0
0
0
0
0
0
0
0
0
0
1
0
2
0
1
0
1
0
3
0
28
0
49
0
56
0
70
0
68
0
60
0
45
0
25
0
8
0
2
0
3
0
10
0
11
0
9
0
6
0
2
0
0
0
1
0
2
0
0
0
0
0
0
0
0
0
0
0
0
0
0
0
0
0
0
0
0
0
0
0
0
0
0
0
0
0
0
0
0
0
0
0
0
0
0
0
0
0
0
0
0
0
0
0
0
0
0
0
0
0
0
0
0
0
0
0
0
0
0
0
0
0
0
0
0
0
0
0
0
0
0
0
0
0
0
0
0
0
0
0
0
0
0
0
0
0
0
0
0
0
0
0
0
0
0
0
0
0
0
0
0
0
0
0
0
0
0
0
0
0
1
0
1
0
1
0
1
0
1
0
1
0
1
0
1
0
0
0
0
0
0
0
0
0
0
0
0
0
1
0
1
0
6
0
9
0
5
0
4
0
7
0
1
0
1
0
9
0
1
0
1
0
2
0
3
0
3
0
2
0
1
0
1
0
0
0
8
0
1
0
1
0
75
0
191
0
253
0
251
0
252
0
254
0
229
0
83
0
1
0
9
0
0
0
0
0
0
0
0
0
0
0
1
0
1
0
1
0
2
0
2
0
3
0
1
0
27
0
69
0
93
0
118
0
132
0
119
0
121
0
120
0
158
0
184
0
178
0
183
0
0
0
0
0
0
0
0
0
0
0
0
0
0
0
0
0
0
0
0
0
0
0
0
0
0
0
0
0
0
0
0
0
0
0
0
0
0
0
0
0
0
0
0
0
0
0
0
0
0
0
0
0
0
0
0
0
0
0
0
0
0
0
0
0
0
0
0
0
0
0
0
0
0
0
0
0
0
0
0
0
0
0
0
0
0
0
0
0
0
0
0
0
0
0
0
0
0
0
0
0
0
0
0
0
0
0
0
0
0
0
0
0
0
0
0
0
0
0
0
0
0
0
0
0
0
0
0
0
0
0
0
0
0
0
0
0
0
0
0
0
0
0
0
0
0
0
0
0
0
0
0
0
0
0
0
0
0
0
0
0
0
0
0
0
0
0
0
0
0
0
0
0
0
0
0
0
0
0
0
0
0
0
0
0
0
0
0
0
0
0
0
0
0
0
0
0
0
0
0
0
0
0
0
0
0
0
0
0
0
0
0
0
0
0
0
0
0
0
0
0
0
0
0
0
0
0
0
0
0
0
0
0
0
0
0
0
0
0
0
0
0
0
0
0
0
0
0
0
0
0
0
0
0
0
0
0
0
0
0
0
0
0
0
0
0
0
0
0
0
0
0
0
0
0
0
0
0
0
0
0
0
0
0
0
0
0
0
0
0
0
0
0
0
0
0
0
0
0
0
0
0
0
0
0
0
0
0
0
0
0
0
0
0
0
0
0
0
0
0
0
0
0
0
0
0
0
0
0
0
0
0
0
0
0
0
0
0
0
0
0
0
0
0
0
0
0
0
0
0
0
0
0
0
0
0
0
0
0
0
0
0
0
0
0
0
0
0
0
0
0
0
0
0
0
0
0
0
0
0
0
0
0
0
0
0
0
0
0
0
0
0
0
0
0
0
0
0
0
0
0
0
0
0
0
0
0
0
0
0
0
0
0
0
0
0
0
0
0
0
0
0
0
0
0
0
0
0
0
0
0
0
0
0
0
0
0
0
0
0
0
0
0
0
0
66
0
31
0
39
0
30
0
52
0
109
0
123
0
105
0
107
0
55
0
80
0
105
0
113
0
117
0
125
0
131
0
130
0
20
0
122
0
134
0
120
0
115
0
130
0
135
0
135
0
123
0
140
0
136
0
144
0
158
0
121
0
97
0
124
0
129
0
120
0
130
0
139
0
131
0
132
0
134
0
123
0
74
0
85
0
81
0
96
0
83
0
17
0
63
0
109
0
112
0
115
0
111
0
100
0
96
0
101
0
103
0
100
0
101
0
89
0
90
0
93
0
69
0
24
0
2
0
3
0
5
0
4
0
5
0
5
0
4
0
2
0
0
0
0
0
1
0
1
0
1
0
1
0
1
0
1
0
1
0
1
0
2
0
2
0
2
0
2
0
2
0
2
0
2
0
2
0
1
0
1
0
1
0
1
0
1
0
1
0
1
0
1
0
0
0
0
0
0
0
0
0
0
0
0
0
0
0
0
0
0
0
0
0
0
0
0
0
0
0
0
0
0
0
0
0
0
0
0
0
0
0
0
0
0
0
0
0
0
0
0
0
0
0
0
0
0
0
0
0
0
0
0
0
0
0
0
0
0
0
0
0
0
0
0
0
0
0
0
0
0
0
0
0
0
0
0
0
0
0
0
0
0
0
0
0
0
0
0
0
0
0
0
0
0
0
0
0
0
0
0
0
0
0
0
0
0
0
0
0
0
0
0
0
0
0
0
0
0
0
0
0
0
0
0
0
0
0
0
0
0
0
0
0
0
0
0
0
3
0
3
0
3
0
3
0
3
0
3
0
3
0
3
0
0
0
10
0
7
0
0
0
0
0
2
0
0
0
0
0
2
0
4
0
0
0
61
0
192
0
255
0
252
0
255
0
255
0
252
0
225
0
93
0
3
0
4
0
2
0
3
0
0
0
0
0
0
0
0
0
0
0
2
0
3
0
4
0
2
0
8
0
55
0
88
0
110
0
120
0
111
0
119
0
126
0
121
0
133
0
164
0
172
0
178
0
0
0
0
0
0
0
0
0
0
0
0
0
0
0
0
0
0
0
0
0
0
0
0
0
0
0
0
0
0
0
0
0
0
0
0
0
0
0
0
0
0
0
0
0
0
0
0
0
0
0
0
0
0
0
0
0
0
0
0
0
0
0
0
0
0
0
0
0
0
0
0
0
0
0
0
0
0
0
0
0
0
0
0
0
0
0
0
0
0
0
0
0
0
0
0
0
0
0
0
0
0
0
0
0
0
0
0
0
0
0
0
0
0
0
0
0
0
0
0
0
0
0
0
0
0
0
0
0
0
0
0
0
0
0
0
0
0
0
0
0
0
0
0
0
0
0
0
0
0
0
0
0
0
0
0
0
0
0
0
0
0
0
0
0
0
0
0
0
0
0
0
0
0
0
0
0
0
0
0
0
0
0
0
0
0
0
0
0
0
0
0
0
0
0
0
0
0
0
0
0
0
0
0
0
0
0
0
0
0
0
0
0
0
0
0
0
0
0
0
0
0
0
0
0
0
0
0
0
0
0
0
0
0
0
0
0
0
0
0
0
0
0
0
0
0
0
0
0
0
0
0
0
0
0
0
0
0
0
0
0
0
0
0
0
0
0
0
0
0
0
0
0
0
0
0
0
0
0
0
0
0
0
0
0
0
0
0
0
0
0
0
0
0
0
0
0
0
0
0
0
0
0
0
0
0
0
0
0
0
0
0
0
0
0
0
0
0
0
0
0
0
0
0
0
0
0
0
0
0
0
0
0
0
0
0
0
0
0
0
0
0
0
0
0
0
0
0
0
0
0
0
0
0
0
0
0
0
0
0
0
0
0
0
0
0
0
0
0
0
0
0
0
0
0
0
0
0
0
0
0
0
0
0
0
0
0
0
0
0
0
0
0
0
0
0
0
0
0
0
0
0
0
0
0
0
0
0
0
0
0
0
0
0
0
0
0
0
0
0
0
0
0
0
0
0
0
0
0
0
0
0
0
0
0
0
0
0
0
0
0
0
0
0
0
65
0
34
0
65
0
52
0
42
0
85
0
114
0
96
0
77
0
78
0
96
0
109
0
113
0
116
0
124
0
127
0
123
0
99
0
68
0
118
0
137
0
137
0
135
0
127
0
131
0
125
0
124
0
110
0
111
0
124
0
111
0
100
0
123
0
142
0
131
0
131
0
137
0
133
0
128
0
133
0
137
0
97
0
86
0
99
0
91
0
93
0
50
0
37
0
107
0
114
0
113
0
106
0
100
0
96
0
97
0
98
0
96
0
93
0
95
0
98
0
96
0
83
0
54
0
21
0
1
0
3
0
3
0
3
0
1
0
1
0
0
0
0
0
1
0
1
0
1
0
1
0
1
0
1
0
1
0
1
0
1
0
2
0
2
0
2
0
2
0
2
0
2
0
2
0
2
0
1
0
1
0
1
0
1
0
1
0
1
0
1
0
1
0
0
0
0
0
0
0
0
0
0
0
0
0
0
0
0
0
0
0
0
0
0
0
0
0
0
0
0
0
0
0
0
0
0
0
0
0
0
0
0
0
0
0
0
0
0
0
0
0
0
0
0
0
0
0
0
0
0
0
0
0
0
0
0
0
0
0
0
0
0
0
0
0
0
0
0
0
0
0
0
0
0
0
0
0
0
0
0
0
0
0
0
0
0
0
0
0
0
0
0
0
0
0
0
0
0
0
0
0
0
0
0
0
0
0
0
0
0
0
0
0
0
0
0
0
0
0
0
0
0
0
0
0
0
0
0
0
0
0
0
0
0
0
0
0
2
0
2
0
2
0
2
0
2
0
2
0
2
0
2
0
11
0
2
0
0
0
0
0
7
0
2
0
0
0
2
0
8
0
2
0
48
0
155
0
242
0
255
0
247
0
246
0
255
0
250
0
227
0
98
0
0
0
0
0
0
0
1
0
0
0
0
0
0
0
0
0
0
0
2
0
3
0
4
0
3
0
20
0
68
0
93
0
112
0
124
0
115
0
120
0
117
0
111
0
117
0
146
0
161
0
175
0
0
0
0
0
0
0
0
0
0
0
0
0
0
0
0
0
0
0
0
0
0
0
0
0
0
0
0
0
0
0
0
0
0
0
0
0
0
0
0
0
0
0
0
0
0
0
0
0
0
0
0
0
0
0
0
0
0
0
0
0
0
0
0
0
0
0
0
0
0
0
0
0
0
0
0
0
0
0
0
0
0
0
0
0
0
0
0
0
0
0
0
0
0
0
0
0
0
0
0
0
0
0
0
0
0
0
0
0
0
0
0
0
0
0
0
0
0
0
0
0
0
0
0
0
0
0
0
0
0
0
0
0
0
0
0
0
0
0
0
0
0
0
0
0
0
0
0
0
0
0
0
0
0
0
0
0
0
0
0
0
0
0
0
0
0
0
0
0
0
0
0
0
0
0
0
0
0
0
0
0
0
0
0
0
0
0
0
0
0
0
0
0
0
0
0
0
0
0
0
0
0
0
0
0
0
0
0
0
0
0
0
0
0
0
0
0
0
0
0
0
0
0
0
0
0
0
0
0
0
0
0
0
0
0
0
0
0
0
0
0
0
0
0
0
0
0
0
0
0
0
0
0
0
0
0
0
0
0
0
0
0
0
0
0
0
0
0
0
0
0
0
0
0
0
0
0
0
0
0
0
0
0
0
0
0
0
0
0
0
0
0
0
0
0
0
0
0
0
0
0
0
0
0
0
0
0
0
0
0
0
0
0
0
0
0
0
0
0
0
0
0
0
0
0
0
0
0
0
0
0
0
0
0
0
0
0
0
0
0
0
0
0
0
0
0
0
0
0
0
0
0
0
0
0
0
0
0
0
0
0
0
0
0
0
0
0
0
0
0
0
0
0
0
0
0
0
0
0
0
0
0
0
0
0
0
0
0
0
0
0
0
0
0
0
0
0
0
0
0
0
0
0
0
0
0
0
0
0
0
0
0
0
0
0
0
0
0
0
0
0
0
0
0
0
0
0
0
0
0
0
0
0
0
0
0
0
0
0
0
0
0
0
0
0
63
0
28
0
81
0
72
0
34
0
59
0
100
0
89
0
65
0
102
0
109
0
112
0
109
0
112
0
120
0
122
0
119
0
139
0
64
0
95
0
115
0
136
0
125
0
102
0
82
0
64
0
60
0
60
0
72
0
85
0
81
0
68
0
60
0
104
0
92
0
79
0
79
0
86
0
90
0
109
0
138
0
80
0
66
0
111
0
99
0
113
0
93
0
13
0
84
0
116
0
110
0
105
0
104
0
102
0
99
0
99
0
101
0
95
0
104
0
105
0
96
0
94
0
90
0
63
0
28
0
2
0
1
0
0
0
1
0
1
0
0
0
1
0
1
0
1
0
1
0
1
0
1
0
1
0
1
0
1
0
1
0
2
0
2
0
2
0
2
0
2
0
2
0
2
0
2
0
1
0
1
0
1
0
1
0
1
0
1
0
1
0
1
0
0
0
0
0
0
0
0
0
0
0
0
0
0
0
0
0
0
0
0
0
0
0
0
0
0
0
0
0
0
0
0
0
0
0
0
0
0
0
0
0
0
0
0
0
0
0
0
0
0
0
0
0
0
0
0
0
0
0
0
0
0
0
0
0
0
0
0
0
0
0
0
0
0
0
0
0
0
0
0
0
0
0
0
0
0
0
0
0
0
0
0
0
0
0
0
0
0
0
0
0
0
0
0
0
0
0
0
0
0
0
0
0
0
0
0
0
0
0
0
0
0
0
0
0
0
0
0
0
0
0
0
0
0
0
0
0
0
0
0
0
0
0
0
0
1
0
1
0
1
0
1
0
1
0
1
0
1
0
1
0
2
0
3
0
0
0
2
0
7
0
0
0
0
0
8
0
0
0
27
0
129
0
238
0
255
0
255
0
253
0
250
0
254
0
252
0
234
0
111
0
0
0
0
0
0
0
1
0
0
0
0
0
0
0
0
0
0
0
2
0
3
0
4
0
6
0
32
0
79
0
96
0
109
0
127
0
117
0
118
0
118
0
109
0
107
0
131
0
147
0
166
0
0
0
0
0
0
0
0
0
0
0
0
0
0
0
0
0
0
0
0
0
0
0
0
0
0
0
0
0
0
0
0
0
0
0
0
0
0
0
0
0
0
0
0
0
0
0
0
0
0
0
0
0
0
0
0
0
0
0
0
0
0
0
0
0
0
0
0
0
0
0
0
0
0
0
0
0
0
0
0
0
0
0
0
0
0
0
0
0
0
0
0
0
0
0
0
0
0
0
0
0
0
0
0
0
0
0
0
0
0
0
0
0
0
0
0
0
0
0
0
0
0
0
0
0
0
0
0
0
0
0
0
0
0
0
0
0
0
0
0
0
0
0
0
0
0
0
0
0
0
0
0
0
0
0
0
0
0
0
0
0
0
0
0
0
0
0
0
0
0
0
0
0
0
0
0
0
0
0
0
0
0
0
0
0
0
0
0
0
0
0
0
0
0
0
0
0
0
0
0
0
0
0
0
0
0
0
0
0
0
0
0
0
0
0
0
0
0
0
0
0
0
0
0
0
0
0
0
0
0
0
0
0
0
0
0
0
0
0
0
0
0
0
0
0
0
0
0
0
0
0
0
0
0
0
0
0
0
0
0
0
0
0
0
0
0
0
0
0
0
0
0
0
0
0
0
0
0
0
0
0
0
0
0
0
0
0
0
0
0
0
0
0
0
0
0
0
0
0
0
0
0
0
0
0
0
0
0
0
0
0
0
0
0
0
0
0
0
0
0
0
0
0
0
0
0
0
0
0
0
0
0
0
0
0
0
0
0
0
0
0
0
0
0
0
0
0
0
0
0
0
0
0
0
0
0
0
0
0
0
0
0
0
0
0
0
0
0
0
0
0
0
0
0
0
0
0
0
0
0
0
0
0
0
0
0
0
0
0
0
0
0
0
0
0
0
0
0
0
0
0
0
0
0
0
0
0
0
0
0
0
0
0
0
0
0
0
0
0
0
0
0
0
0
0
0
0
0
0
0
0
0
0
0
0
0
0
0
0
0
0
0
0
0
0
61
0
25
0
80
0
78
0
41
0
47
0
67
0
70
0
76
0
110
0
112
0
111
0
107
0
107
0
113
0
119
0
120
0
133
0
98
0
65
0
113
0
139
0
58
0
54
0
99
0
116
0
112
0
123
0
130
0
121
0
105
0
74
0
37
0
41
0
65
0
76
0
79
0
81
0
63
0
51
0
63
0
57
0
46
0
84
0
97
0
105
0
103
0
2
0
58
0
110
0
105
0
102
0
105
0
106
0
101
0
101
0
105
0
98
0
104
0
98
0
87
0
93
0
104
0
92
0
67
0
14
0
7
0
1
0
0
0
3
0
4
0
2
0
1
0
1
0
1
0
1
0
1
0
1
0
1
0
1
0
1
0
1
0
1
0
1
0
1
0
1
0
1
0
1
0
1
0
1
0
1
0
1
0
1
0
1
0
1
0
1
0
1
0
0
0
0
0
0
0
0
0
0
0
0
0
0
0
0
0
0
0
0
0
0
0
0
0
0
0
0
0
0
0
0
0
0
0
0
0
0
0
0
0
0
0
0
0
0
0
0
0
0
0
0
0
0
0
0
0
0
0
0
0
0
0
0
0
0
0
0
0
0
0
0
0
0
0
0
0
0
0
0
0
0
0
0
0
0
0
0
0
0
0
0
0
0
0
0
0
0
0
0
0
0
0
0
0
0
0
0
0
0
0
0
0
0
0
0
0
0
0
0
0
0
0
0
0
0
0
0
0
0
0
0
0
0
0
0
0
0
0
0
0
0
0
0
0
0
0
0
0
0
0
0
0
0
0
0
0
0
0
0
0
0
0
6
0
9
0
5
0
7
0
4
0
0
0
6
0
33
0
118
0
219
0
255
0
253
0
248
0
255
0
255
0
255
0
255
0
244
0
129
0
1
0
0
0
0
0
4
0
0
0
0
0
0
0
0
0
0
0
2
0
3
0
4
0
2
0
33
0
82
0
94
0
104
0
124
0
116
0
114
0
121
0
118
0
108
0
121
0
130
0
142
0
0
0
0
0
0
0
0
0
0
0
0
0
0
0
0
0
0
0
0
0
0
0
0
0
0
0
0
0
0
0
0
0
0
0
0
0
0
0
0
0
0
0
0
0
0
0
0
0
0
0
0
0
0
0
0
0
0
0
0
0
0
0
0
0
0
0
0
0
0
0
0
0
0
0
0
0
0
0
0
0
0
0
0
0
0
0
0
0
0
0
0
0
0
0
0
0
0
0
0
0
0
0
0
0
0
0
0
0
0
0
0
0
0
0
0
0
0
0
0
0
0
0
0
0
0
0
0
0
0
0
0
0
0
0
0
0
0
0
0
0
0
0
0
0
0
0
0
0
0
0
0
0
0
0
0
0
0
0
0
0
0
0
0
0
0
0
0
0
0
0
0
0
0
0
0
0
0
0
0
0
0
0
0
0
0
0
0
0
0
0
0
0
0
0
0
0
0
0
0
0
0
0
0
0
0
0
0
0
0
0
0
0
0
0
0
0
0
0
0
0
0
0
0
0
0
0
0
0
0
0
0
0
0
0
0
0
0
0
0
0
0
0
0
0
0
0
0
0
0
0
0
0
0
0
0
0
0
0
0
0
0
0
0
0
0
0
0
0
0
0
0
0
0
0
0
0
0
0
0
0
0
0
0
0
0
0
0
0
0
0
0
0
0
0
0
0
0
0
0
0
0
0
0
0
0
0
0
0
0
0
0
0
0
0
0
0
0
0
0
0
0
0
0
0
0
0
0
0
0
0
0
0
0
0
0
0
0
0
0
0
0
0
0
0
0
0
0
0
0
0
0
0
0
0
0
0
0
0
0
0
0
0
0
0
0
0
0
0
0
0
0
0
0
0
0
0
0
0
0
0
0
0
0
0
0
0
0
0
0
0
0
0
0
0
0
0
0
0
0
0
0
0
0
0
0
0
0
0
0
0
0
0
0
0
0
0
0
0
0
0
0
0
0
0
0
0
0
0
0
0
0
0
0
0
0
0
0
0
0
0
0
0
0
0
60
0
40
0
74
0
78
0
62
0
48
0
27
0
36
0
85
0
108
0
111
0
111
0
107
0
104
0
107
0
115
0
121
0
107
0
142
0
103
0
83
0
69
0
74
0
104
0
134
0
118
0
114
0
128
0
138
0
131
0
136
0
135
0
109
0
76
0
122
0
144
0
144
0
143
0
128
0
106
0
103
0
86
0
53
0
40
0
75
0
74
0
76
0
44
0
34
0
99
0
99
0
103
0
105
0
104
0
98
0
97
0
99
0
100
0
95
0
88
0
86
0
89
0
94
0
93
0
89
0
54
0
34
0
11
0
1
0
1
0
3
0
2
0
1
0
1
0
1
0
1
0
1
0
1
0
1
0
1
0
1
0
1
0
1
0
1
0
1
0
1
0
1
0
1
0
1
0
1
0
1
0
1
0
1
0
1
0
1
0
1
0
1
0
0
0
0
0
0
0
0
0
0
0
0
0
0
0
0
0
0
0
0
0
0
0
0
0
0
0
0
0
0
0
0
0
0
0
0
0
0
0
0
0
0
0
0
0
0
0
0
0
0
0
0
0
0
0
0
0
0
0
0
0
0
0
0
0
0
0
0
0
0
0
0
0
0
0
0
0
0
0
0
0
0
0
0
0
0
0
0
0
0
0
0
0
0
0
0
0
0
0
0
0
0
0
0
0
0
0
0
0
0
0
0
0
0
0
0
0
0
0
0
0
0
0
0
0
0
0
0
0
0
0
0
0
0
0
0
0
0
0
0
0
0
0
0
0
0
0
0
0
0
0
0
0
0
0
0
0
0
0
0
0
3
0
0
0
0
0
0
0
6
0
0
0
6
0
33
0
135
0
228
0
255
0
253
0
249
0
249
0
247
0
255
0
255
0
255
0
250
0
145
0
1
0
2
0
0
0
4
0
0
0
0
0
0
0
0
0
0
0
2
0
3
0
4
0
1
0
29
0
77
0
91
0
103
0
123
0
115
0
113
0
114
0
120
0
111
0
114
0
112
0
115
0
0
0
0
0
0
0
0
0
0
0
0
0
0
0
0
0
0
0
0
0
0
0
0
0
0
0
0
0
0
0
0
0
0
0
0
0
0
0
0
0
0
0
0
0
0
0
0
0
0
0
0
0
0
0
0
0
0
0
0
0
0
0
0
0
0
0
0
0
0
0
0
0
0
0
0
0
0
0
0
0
0
0
0
0
0
0
0
0
0
0
0
0
0
0
0
0
0
0
0
0
0
0
0
0
0
0
0
0
0
0
0
0
0
0
0
0
0
0
0
0
0
0
0
0
0
0
0
0
0
0
0
0
0
0
0
0
0
0
0
0
0
0
0
0
0
0
0
0
0
0
0
0
0
0
0
0
0
0
0
0
0
0
0
0
0
0
0
0
0
0
0
0
0
0
0
0
0
0
0
0
0
0
0
0
0
0
0
0
0
0
0
0
0
0
0
0
0
0
0
0
0
0
0
0
0
0
0
0
0
0
0
0
0
0
0
0
0
0
0
0
0
0
0
0
0
0
0
0
0
0
0
0
0
0
0
0
0
0
0
0
0
0
0
0
0
0
0
0
0
0
0
0
0
0
0
0
0
0
0
0
0
0
0
0
0
0
0
0
0
0
0
0
0
0
0
0
0
0
0
0
0
0
0
0
0
0
0
0
0
0
0
0
0
0
0
0
0
0
0
0
0
0
0
0
0
0
0
0
0
0
0
0
0
0
0
0
0
0
0
0
0
0
0
0
0
0
0
0
0
0
0
0
0
0
0
0
0
0
0
0
0
0
0
0
0
0
0
0
0
0
0
0
0
0
0
0
0
0
0
0
0
0
0
0
0
0
0
0
0
0
0
0
0
0
0
0
0
0
0
0
0
0
0
0
0
0
0
0
0
0
0
0
0
0
0
0
0
0
0
0
0
0
0
0
0
0
0
0
0
0
0
0
0
0
0
0
0
0
0
0
0
0
0
0
0
0
0
0
0
0
0
0
0
0
0
0
0
0
0
0
0
0
0
0
61
0
46
0
68
0
73
0
73
0
59
0
20
0
24
0
81
0
99
0
105
0
109
0
110
0
106
0
105
0
111
0
115
0
107
0
103
0
100
0
39
0
3
0
126
0
143
0
117
0
144
0
135
0
139
0
137
0
125
0
132
0
142
0
134
0
92
0
118
0
132
0
134
0
134
0
137
0
140
0
140
0
129
0
92
0
29
0
65
0
70
0
61
0
67
0
3
0
89
0
101
0
110
0
108
0
102
0
98
0
97
0
95
0
101
0
93
0
92
0
99
0
98
0
89
0
87
0
92
0
94
0
70
0
34
0
8
0
1
0
1
0
0
0
3
0
1
0
1
0
1
0
1
0
1
0
1
0
1
0
1
0
0
0
0
0
0
0
0
0
0
0
0
0
0
0
0
0
1
0
1
0
1
0
1
0
1
0
1
0
1
0
1
0
0
0
0
0
0
0
0
0
0
0
0
0
0
0
0
0
0
0
0
0
0
0
0
0
0
0
0
0
0
0
0
0
0
0
0
0
0
0
0
0
0
0
0
0
0
0
0
0
0
0
0
0
0
0
0
0
0
0
0
0
0
0
0
0
0
0
0
0
0
0
0
0
0
0
0
0
0
0
0
0
0
0
0
0
0
0
0
0
0
0
0
0
0
0
0
0
0
0
0
0
0
0
0
0
0
0
0
0
0
0
0
0
0
0
0
0
0
0
0
0
0
0
0
0
0
0
0
0
0
0
0
0
0
0
0
0
0
0
0
0
0
0
0
0
0
0
0
0
0
0
0
0
0
0
0
0
0
0
0
0
4
0
0
0
0
0
7
0
0
0
0
0
38
0
130
0
224
0
255
0
255
0
244
0
255
0
255
0
238
0
254
0
253
0
254
0
250
0
156
0
0
0
3
0
0
0
1
0
0
0
0
0
0
0
0
0
0
0
2
0
3
0
4
0
0
0
23
0
72
0
90
0
106
0
123
0
114
0
116
0
109
0
122
0
112
0
112
0
109
0
105
0
0
0
0
0
0
0
0
0
0
0
0
0
0
0
0
0
0
0
0
0
0
0
0
0
0
0
0
0
0
0
0
0
0
0
0
0
0
0
0
0
0
0
0
0
0
0
0
0
0
0
0
0
0
0
0
0
0
0
0
0
0
0
0
0
0
0
0
0
0
0
0
0
0
0
0
0
0
0
0
0
0
0
0
0
0
0
0
0
0
0
0
0
0
0
0
0
0
0
0
0
0
0
0
0
0
0
0
0
0
0
0
0
0
0
0
0
0
0
0
0
0
0
0
0
0
0
0
0
0
0
0
0
0
0
0
0
0
0
0
0
0
0
0
0
0
0
0
0
0
0
0
0
0
0
0
0
0
0
0
0
0
0
0
0
0
0
0
0
0
0
0
0
0
0
0
0
0
0
0
0
0
0
0
0
0
0
0
0
0
0
0
0
0
0
0
0
0
0
0
0
0
0
0
0
0
0
0
0
0
0
0
0
0
0
0
0
0
0
0
0
0
0
0
0
0
0
0
0
0
0
0
0
0
0
0
0
0
0
0
0
0
0
0
0
0
0
0
0
0
0
0
0
0
0
0
0
0
0
0
0
0
0
0
0
0
0
0
0
0
0
0
0
0
0
0
0
0
0
0
0
0
0
0
0
0
0
0
0
0
0
0
0
0
0
0
0
0
0
0
0
0
0
0
0
0
0
0
0
0
0
0
0
0
0
0
0
0
0
0
0
0
0
0
0
0
0
0
0
0
0
0
0
0
0
0
0
0
0
0
0
0
0
0
0
0
0
0
0
0
0
0
0
0
0
0
0
0
0
0
0
0
0
0
0
0
0
0
0
0
0
0
0
0
0
0
0
0
0
0
0
0
0
0
0
0
0
0
0
0
0
0
0
0
0
0
0
0
0
0
0
0
0
0
0
0
0
0
0
0
0
0
0
0
0
0
0
0
0
0
0
0
0
0
0
0
0
0
0
0
0
0
0
0
0
0
0
0
0
0
0
0
0
0
0
61
0
38
0
70
0
72
0
66
0
69
0
49
0
35
0
56
0
86
0
91
0
100
0
108
0
109
0
107
0
105
0
105
0
114
0
34
0
54
0
80
0
60
0
93
0
120
0
130
0
126
0
124
0
130
0
135
0
131
0
134
0
141
0
142
0
101
0
99
0
115
0
133
0
134
0
129
0
120
0
110
0
139
0
120
0
53
0
68
0
91
0
75
0
83
0
4
0
66
0
93
0
110
0
104
0
97
0
99
0
99
0
92
0
99
0
95
0
95
0
100
0
100
0
93
0
88
0
89
0
101
0
89
0
67
0
37
0
12
0
0
0
0
0
3
0
1
0
1
0
1
0
1
0
1
0
1
0
1
0
1
0
0
0
0
0
0
0
0
0
0
0
0
0
0
0
0
0
1
0
1
0
1
0
1
0
1
0
1
0
1
0
1
0
0
0
0
0
0
0
0
0
0
0
0
0
0
0
0
0
0
0
0
0
0
0
0
0
0
0
0
0
0
0
0
0
0
0
0
0
0
0
0
0
0
0
0
0
0
0
0
0
0
0
0
0
0
0
0
0
0
0
0
0
0
0
0
0
0
0
0
0
0
0
0
0
0
0
0
0
0
0
0
0
0
0
0
0
0
0
0
0
0
0
0
0
0
0
0
0
0
0
0
0
0
0
0
0
0
0
0
0
0
0
0
0
0
0
0
0
0
0
0
0
0
0
0
0
0
0
0
0
0
0
0
0
0
0
0
0
0
0
0
0
0
0
0
0
0
0
0
0
0
0
0
0
0
0
0
0
0
0
0
0
0
0
1
0
6
0
8
0
7
0
31
0
123
0
230
0
255
0
255
0
244
0
245
0
255
0
255
0
246
0
250
0
253
0
252
0
251
0
166
0
3
0
7
0
0
0
0
0
0
0
0
0
0
0
0
0
0
0
2
0
3
0
4
0
0
0
17
0
63
0
89
0
108
0
119
0
110
0
115
0
108
0
121
0
109
0
110
0
115
0
109
0
0
0
0
0
0
0
0
0
0
0
0
0
0
0
0
0
0
0
0
0
0
0
0
0
0
0
0
0
0
0
0
0
0
0
0
0
0
0
0
0
0
0
0
0
0
0
0
0
0
0
0
0
0
0
0
0
0
0
0
0
0
0
0
0
0
0
0
0
0
0
0
0
0
0
0
0
0
0
0
0
0
0
0
0
0
0
0
0
0
0
0
0
0
0
0
0
0
0
0
0
0
0
0
0
0
0
0
0
0
0
0
0
0
0
0
0
0
0
0
0
0
0
0
0
0
0
0
0
0
0
0
0
0
0
0
0
0
0
0
0
0
0
0
0
0
0
0
0
0
0
0
0
0
0
0
0
0
0
0
0
0
0
0
0
0
0
0
0
0
0
0
0
0
0
0
0
0
0
0
0
0
0
0
0
0
0
0
0
0
0
0
0
0
0
0
0
0
0
0
0
0
0
0
0
0
0
0
0
0
0
0
0
0
0
0
0
0
0
0
0
0
0
0
0
0
0
0
0
0
0
0
0
0
0
0
0
0
0
0
0
0
0
0
0
0
0
0
0
0
0
0
0
0
0
0
0
0
0
0
0
0
0
0
0
0
0
0
0
0
0
0
0
0
0
0
0
0
0
0
0
0
0
0
0
0
0
0
0
0
0
0
0
0
0
0
0
0
0
0
0
0
0
0
0
0
0
0
0
0
0
0
0
0
0
0
0
0
0
0
0
0
0
0
0
0
0
0
0
0
0
0
0
0
0
0
0
0
0
0
0
0
0
0
0
0
0
0
0
0
0
0
0
0
0
0
0
0
0
0
0
0
0
0
0
0
0
0
0
0
0
0
0
0
0
0
0
0
0
0
0
0
0
0
0
0
0
0
0
0
0
0
0
0
0
0
0
0
0
0
0
0
0
0
0
0
0
0
0
0
0
0
0
0
0
0
0
0
0
0
0
0
0
0
0
0
0
0
0
0
0
0
0
0
0
0
0
0
0
0
0
0
0
0
0
62
0
37
0
82
0
79
0
55
0
73
0
77
0
44
0
24
0
72
0
77
0
89
0
103
0
112
0
111
0
103
0
99
0
41
0
93
0
119
0
113
0
106
0
76
0
118
0
131
0
129
0
125
0
127
0
129
0
125
0
120
0
124
0
133
0
116
0
83
0
89
0
122
0
131
0
129
0
131
0
126
0
129
0
128
0
77
0
63
0
100
0
92
0
103
0
58
0
38
0
74
0
98
0
91
0
84
0
93
0
96
0
87
0
90
0
88
0
85
0
86
0
90
0
92
0
90
0
85
0
86
0
92
0
90
0
68
0
34
0
7
0
0
0
1
0
1
0
1
0
1
0
1
0
1
0
1
0
1
0
1
0
0
0
0
0
0
0
0
0
0
0
0
0
0
0
0
0
1
0
1
0
1
0
1
0
1
0
1
0
1
0
1
0
0
0
0
0
0
0
0
0
0
0
0
0
0
0
0
0
0
0
0
0
0
0
0
0
0
0
0
0
0
0
0
0
0
0
0
0
0
0
0
0
0
0
0
0
0
0
0
0
0
0
0
0
0
0
0
0
0
0
0
0
0
0
0
0
0
0
0
0
0
0
0
0
0
0
0
0
0
0
0
0
0
0
0
0
0
0
0
0
0
0
0
0
0
0
0
0
0
0
0
0
0
0
0
0
0
0
0
0
0
0
0
0
0
0
0
0
0
0
0
0
0
0
0
0
0
0
0
0
0
0
0
0
0
0
0
0
0
0
0
0
0
0
0
0
1
0
1
0
1
0
1
0
1
0
1
0
1
0
1
0
0
0
9
0
0
0
0
0
41
0
130
0
214
0
255
0
255
0
251
0
255
0
254
0
243
0
251
0
255
0
242
0
255
0
254
0
253
0
173
0
6
0
13
0
0
0
2
0
0
0
0
0
0
0
0
0
0
0
2
0
3
0
4
0
0
0
11
0
57
0
86
0
107
0
114
0
104
0
111
0
107
0
118
0
102
0
104
0
115
0
110
0
0
0
0
0
0
0
0
0
0
0
0
0
0
0
0
0
0
0
0
0
0
0
0
0
0
0
0
0
0
0
0
0
0
0
0
0
0
0
0
0
0
0
0
0
0
0
0
0
0
0
0
0
0
0
0
0
0
0
0
0
0
0
0
0
0
0
0
0
0
0
0
0
0
0
0
0
0
0
0
0
0
0
0
0
0
0
0
0
0
0
0
0
0
0
0
0
0
0
0
0
0
0
0
0
0
0
0
0
0
0
0
0
0
0
0
0
0
0
0
0
0
0
0
0
0
0
0
0
0
0
0
0
0
0
0
0
0
0
0
0
0
0
0
0
0
0
0
0
0
0
0
0
0
0
0
0
0
0
0
0
0
0
0
0
0
0
0
0
0
0
0
0
0
0
0
0
0
0
0
0
0
0
0
0
0
0
0
0
0
0
0
0
0
0
0
0
0
0
0
0
0
0
0
0
0
0
0
0
0
0
0
0
0
0
0
0
0
0
0
0
0
0
0
0
0
0
0
0
0
0
0
0
0
0
0
0
0
0
0
0
0
0
0
0
0
0
0
0
0
0
0
0
0
0
0
0
0
0
0
0
0
0
0
0
0
0
0
0
0
0
0
0
0
0
0
0
0
0
0
0
0
0
0
0
0
0
0
0
0
0
0
0
0
0
0
0
0
0
0
0
0
0
0
0
0
0
0
0
0
0
0
0
0
0
0
0
0
0
0
0
0
0
0
0
0
0
0
0
0
0
0
0
0
0
0
0
0
0
0
0
0
0
0
0
0
0
0
0
0
0
0
0
0
0
0
0
0
0
0
0
0
0
0
0
0
0
0
0
0
0
0
0
0
0
0
0
0
0
0
0
0
0
0
0
0
0
0
0
0
0
0
0
0
0
0
0
0
0
0
0
0
0
0
0
0
0
0
0
0
0
0
0
0
0
0
0
0
0
0
0
0
0
0
0
0
0
0
0
0
0
0
0
0
0
0
0
0
0
0
0
0
0
0
0
54
0
46
0
58
0
77
0
76
0
66
0
76
0
65
0
26
0
47
0
73
0
67
0
81
0
98
0
107
0
70
0
58
0
108
0
112
0
104
0
108
0
113
0
85
0
85
0
129
0
134
0
124
0
125
0
135
0
133
0
132
0
126
0
112
0
135
0
110
0
83
0
102
0
142
0
142
0
119
0
127
0
117
0
132
0
105
0
50
0
79
0
99
0
92
0
92
0
0
0
70
0
72
0
85
0
86
0
83
0
63
0
82
0
79
0
79
0
80
0
81
0
82
0
83
0
84
0
85
0
91
0
85
0
88
0
87
0
54
0
8
0
0
0
10
0
2
0
2
0
1
0
1
0
1
0
0
0
0
0
0
0
0
0
0
0
0
0
0
0
0
0
0
0
0
0
0
0
0
0
0
0
0
0
0
0
0
0
0
0
0
0
0
0
0
0
0
0
0
0
0
0
0
0
0
0
0
0
0
0
0
0
0
0
0
0
0
0
0
0
0
0
0
0
0
0
0
0
0
0
0
0
0
0
0
0
0
0
0
0
0
0
0
0
0
0
0
0
0
0
0
0
0
0
0
0
0
0
0
0
0
0
0
0
0
0
0
0
0
0
0
0
0
0
0
0
0
0
0
0
0
0
0
0
0
0
0
0
0
0
0
0
0
0
0
0
0
0
0
0
0
0
0
0
0
0
0
0
0
0
0
0
0
0
0
0
0
0
0
0
0
0
1
0
0
0
0
0
0
0
0
0
1
0
2
0
3
0
10
0
0
0
0
0
8
0
0
0
0
0
5
0
1
0
10
0
0
0
5
0
59
0
156
0
238
0
255
0
245
0
254
0
254
0
254
0
254
0
254
0
254
0
254
0
254
0
255
0
254
0
250
0
207
0
42
0
2
0
0
0
8
0
0
0
0
0
0
0
1
0
1
0
1
0
2
0
2
0
3
0
9
0
47
0
90
0
109
0
113
0
112
0
105
0
109
0
110
0
110
0
111
0
112
0
110
0
0
0
0
0
0
0
0
0
0
0
0
0
0
0
0
0
0
0
0
0
0
0
0
0
0
0
0
0
0
0
0
0
0
0
0
0
0
0
0
0
0
0
0
0
0
0
0
0
0
0
0
0
0
0
0
0
0
0
0
0
0
0
0
0
0
0
0
0
0
0
0
0
0
0
0
0
0
0
0
0
0
0
0
0
0
0
0
0
0
0
0
0
0
0
0
0
0
0
0
0
0
0
0
0
0
0
0
0
0
0
0
0
0
0
0
0
0
0
0
0
0
0
0
0
0
0
0
0
0
0
0
0
0
0
0
0
0
0
0
0
0
0
0
0
0
0
0
0
0
0
0
0
0
0
0
0
0
0
0
0
0
0
0
0
0
0
0
0
0
0
0
0
0
0
0
0
0
0
0
0
0
0
0
0
0
0
0
0
0
0
0
0
0
0
0
0
0
0
0
0
0
0
0
0
0
0
0
0
0
0
0
0
0
0
0
0
0
0
0
0
0
0
0
0
0
0
0
0
0
0
0
0
0
0
0
0
0
0
0
0
0
0
0
0
0
0
0
0
0
0
0
0
0
0
0
0
0
0
0
0
0
0
0
0
0
0
0
0
0
0
0
0
0
0
0
0
0
0
0
0
0
0
0
0
0
0
0
0
0
0
0
0
0
0
0
0
0
0
0
0
0
0
0
0
0
0
0
0
0
0
0
0
0
0
0
0
0
0
0
0
0
0
0
0
0
0
0
0
0
0
0
0
0
0
0
0
0
0
0
0
0
0
0
0
0
0
0
0
0
0
0
0
0
0
0
0
0
0
0
0
0
0
0
0
0
0
0
0
0
0
0
0
0
0
0
0
0
0
0
0
0
0
0
0
0
0
0
0
0
0
0
0
0
0
0
0
0
0
0
0
0
0
0
0
0
0
0
0
0
0
0
0
0
0
0
0
0
0
0
0
0
0
0
0
0
0
0
0
0
0
0
0
0
0
0
0
0
0
0
0
0
0
0
0
40
0
48
0
57
0
73
0
73
0
70
0
80
0
68
0
29
0
37
0
58
0
67
0
84
0
86
0
67
0
63
0
97
0
105
0
113
0
109
0
113
0
122
0
98
0
84
0
108
0
116
0
134
0
141
0
128
0
110
0
95
0
85
0
82
0
63
0
75
0
60
0
50
0
72
0
83
0
70
0
66
0
95
0
81
0
99
0
47
0
74
0
114
0
97
0
83
0
12
0
68
0
84
0
77
0
77
0
85
0
69
0
82
0
74
0
74
0
75
0
76
0
77
0
78
0
78
0
79
0
88
0
85
0
93
0
96
0
67
0
18
0
0
0
3
0
2
0
2
0
1
0
1
0
1
0
0
0
0
0
0
0
0
0
0
0
0
0
0
0
0
0
0
0
0
0
0
0
0
0
0
0
0
0
0
0
0
0
0
0
0
0
0
0
0
0
0
0
0
0
0
0
0
0
0
0
0
0
0
0
0
0
0
0
0
0
0
0
0
0
0
0
0
0
0
0
0
0
0
0
0
0
0
0
0
0
0
0
0
0
0
0
0
0
0
0
0
0
0
0
0
0
0
0
0
0
0
0
0
0
0
0
0
0
0
0
0
0
0
0
0
0
0
0
0
0
0
0
0
0
0
0
0
0
0
0
0
0
0
0
0
0
0
0
0
0
0
0
0
0
0
0
0
0
0
0
0
0
0
0
0
0
0
0
0
0
0
0
0
0
0
0
1
0
0
0
0
0
0
0
0
0
1
0
2
0
3
0
0
0
2
0
10
0
5
0
0
0
4
0
10
0
1
0
0
0
34
0
108
0
175
0
227
0
255
0
255
0
247
0
254
0
254
0
254
0
254
0
254
0
254
0
254
0
254
0
253
0
249
0
253
0
220
0
53
0
5
0
0
0
0
0
0
0
0
0
0
0
1
0
1
0
1
0
2
0
2
0
1
0
2
0
38
0
82
0
102
0
108
0
107
0
102
0
109
0
110
0
110
0
112
0
113
0
111
0
0
0
0
0
0
0
0
0
0
0
0
0
0
0
0
0
0
0
0
0
0
0
0
0
0
0
0
0
0
0
0
0
0
0
0
0
0
0
0
0
0
0
0
0
0
0
0
0
0
0
0
0
0
0
0
0
0
0
0
0
0
0
0
0
0
0
0
0
0
0
0
0
0
0
0
0
0
0
0
0
0
0
0
0
0
0
0
0
0
0
0
0
0
0
0
0
0
0
0
0
0
0
0
0
0
0
0
0
0
0
0
0
0
0
0
0
0
0
0
0
0
0
0
0
0
0
0
0
0
0
0
0
0
0
0
0
0
0
0
0
0
0
0
0
0
0
0
0
0
0
0
0
0
0
0
0
0
0
0
0
0
0
0
0
0
0
0
0
0
0
0
0
0
0
0
0
0
0
0
0
0
0
0
0
0
0
0
0
0
0
0
0
0
0
0
0
0
0
0
0
0
0
0
0
0
0
0
0
0
0
0
0
0
0
0
0
0
0
0
0
0
0
0
0
0
0
0
0
0
0
0
0
0
0
0
0
0
0
0
0
0
0
0
0
0
0
0
0
0
0
0
0
0
0
0
0
0
0
0
0
0
0
0
0
0
0
0
0
0
0
0
0
0
0
0
0
0
0
0
0
0
0
0
0
0
0
0
0
0
0
0
0
0
0
0
0
0
0
0
0
0
0
0
0
0
0
0
0
0
0
0
0
0
0
0
0
0
0
0
0
0
0
0
0
0
0
0
0
0
0
0
0
0
0
0
0
0
0
0
0
0
0
0
0
0
0
0
0
0
0
0
0
0
0
0
0
0
0
0
0
0
0
0
0
0
0
0
0
0
0
0
0
0
0
0
0
0
0
0
0
0
0
0
0
0
0
0
0
0
0
0
0
0
0
0
0
0
0
0
0
0
0
0
0
0
0
0
0
0
0
0
0
0
0
0
0
0
0
0
0
0
0
0
0
0
0
0
0
0
0
0
0
0
0
0
0
0
0
0
0
0
0
0
0
20
0
47
0
55
0
65
0
67
0
70
0
81
0
67
0
33
0
34
0
41
0
60
0
79
0
78
0
37
0
55
0
116
0
111
0
122
0
116
0
112
0
120
0
104
0
81
0
79
0
118
0
136
0
118
0
84
0
75
0
82
0
91
0
109
0
87
0
109
0
96
0
52
0
46
0
83
0
106
0
100
0
104
0
74
0
90
0
64
0
47
0
80
0
96
0
78
0
21
0
46
0
93
0
75
0
75
0
82
0
66
0
68
0
64
0
64
0
65
0
65
0
66
0
67
0
67
0
68
0
70
0
67
0
73
0
80
0
59
0
20
0
0
0
1
0
2
0
2
0
1
0
1
0
1
0
0
0
0
0
0
0
0
0
0
0
0
0
0
0
0
0
0
0
0
0
0
0
0
0
0
0
0
0
0
0
0
0
0
0
0
0
0
0
0
0
0
0
0
0
0
0
0
0
0
0
0
0
0
0
0
0
0
0
0
0
0
0
0
0
0
0
0
0
0
0
0
0
0
0
0
0
0
0
0
0
0
0
0
0
0
0
0
0
0
0
0
0
0
0
0
0
0
0
0
0
0
0
0
0
0
0
0
0
0
0
0
0
0
0
0
0
0
0
0
0
0
0
0
0
0
0
0
0
0
0
0
0
0
0
0
0
0
0
0
0
0
0
0
0
0
0
0
0
0
0
0
0
0
0
0
0
0
0
0
0
0
0
0
0
0
0
1
0
0
0
0
0
0
0
0
0
1
0
2
0
3
0
0
0
3
0
3
0
4
0
9
0
5
0
0
0
1
0
48
0
123
0
209
0
254
0
255
0
253
0
252
0
252
0
254
0
254
0
254
0
254
0
254
0
254
0
254
0
254
0
254
0
246
0
255
0
238
0
70
0
8
0
0
0
0
0
0
0
0
0
0
0
1
0
1
0
1
0
2
0
2
0
1
0
2
0
33
0
76
0
99
0
108
0
109
0
104
0
109
0
110
0
111
0
112
0
113
0
113
0
0
0
0
0
0
0
0
0
0
0
0
0
0
0
0
0
0
0
0
0
0
0
0
0
0
0
0
0
0
0
0
0
0
0
0
0
0
0
0
0
0
0
0
0
0
0
0
0
0
0
0
0
0
0
0
0
0
0
0
0
0
0
0
0
0
0
0
0
0
0
0
0
0
0
0
0
0
0
0
0
0
0
0
0
0
0
0
0
0
0
0
0
0
0
0
0
0
0
0
0
0
0
0
0
0
0
0
0
0
0
0
0
0
0
0
0
0
0
0
0
0
0
0
0
0
0
0
0
0
0
0
0
0
0
0
0
0
0
0
0
0
0
0
0
0
0
0
0
0
0
0
0
0
0
0
0
0
0
0
0
0
0
0
0
0
0
0
0
0
0
0
0
0
0
0
0
0
0
0
0
0
0
0
0
0
0
0
0
0
0
0
0
0
0
0
0
0
0
0
0
0
0
0
0
0
0
0
0
0
0
0
0
0
0
0
0
0
0
0
0
0
0
0
0
0
0
0
0
0
0
0
0
0
0
0
0
0
0
0
0
0
0
0
0
0
0
0
0
0
0
0
0
0
0
0
0
0
0
0
0
0
0
0
0
0
0
0
0
0
0
0
0
0
0
0
0
0
0
0
0
0
0
0
0
0
0
0
0
0
0
0
0
0
0
0
0
0
0
0
0
0
0
0
0
0
0
0
0
0
0
0
0
0
0
0
0
0
0
0
0
0
0
0
0
0
0
0
0
0
0
0
0
0
0
0
0
0
0
0
0
0
0
0
0
0
0
0
0
0
0
0
0
0
0
0
0
0
0
0
0
0
0
0
0
0
0
0
0
0
0
0
0
0
0
0
0
0
0
0
0
0
0
0
0
0
0
0
0
0
0
0
0
0
0
0
0
0
0
0
0
0
0
0
0
0
0
0
0
0
0
0
0
0
0
0
0
0
0
0
0
0
0
0
0
0
0
0
0
0
0
0
0
0
0
0
0
0
0
0
0
0
0
0
0
5
0
40
0
52
0
62
0
62
0
68
0
77
0
62
0
36
0
52
0
42
0
50
0
59
0
75
0
37
0
49
0
92
0
108
0
122
0
118
0
110
0
117
0
114
0
92
0
80
0
106
0
102
0
80
0
69
0
85
0
108
0
122
0
130
0
127
0
136
0
128
0
92
0
66
0
89
0
132
0
138
0
118
0
115
0
91
0
93
0
42
0
22
0
81
0
74
0
24
0
11
0
86
0
79
0
78
0
69
0
43
0
41
0
21
0
22
0
22
0
23
0
23
0
24
0
24
0
24
0
35
0
29
0
30
0
35
0
27
0
7
0
1
0
3
0
2
0
2
0
1
0
1
0
1
0
0
0
0
0
0
0
0
0
0
0
0
0
0
0
0
0
0
0
0
0
0
0
0
0
0
0
0
0
0
0
0
0
0
0
0
0
0
0
0
0
0
0
0
0
0
0
0
0
0
0
0
0
0
0
0
0
0
0
0
0
0
0
0
0
0
0
0
0
0
0
0
0
0
0
0
0
0
0
0
0
0
0
0
0
0
0
0
0
0
0
0
0
0
0
0
0
0
0
0
0
0
0
0
0
0
0
0
0
0
0
0
0
0
0
0
0
0
0
0
0
0
0
0
0
0
0
0
0
0
0
0
0
0
0
0
0
0
0
0
0
0
0
0
0
0
0
0
0
0
0
0
0
0
0
0
0
0
0
0
0
0
0
0
0
0
0
1
0
0
0
0
0
0
0
0
0
1
0
2
0
3
0
2
0
2
0
2
0
14
0
12
0
0
0
2
0
65
0
179
0
215
0
250
0
255
0
252
0
247
0
251
0
255
0
254
0
254
0
254
0
254
0
254
0
254
0
254
0
254
0
255
0
247
0
255
0
250
0
83
0
4
0
6
0
0
0
0
0
0
0
0
0
1
0
1
0
1
0
2
0
2
0
1
0
1
0
27
0
68
0
94
0
106
0
111
0
106
0
109
0
110
0
111
0
112
0
112
0
113
0
0
0
0
0
0
0
0
0
0
0
0
0
0
0
0
0
0
0
0
0
0
0
0
0
0
0
0
0
0
0
0
0
0
0
0
0
0
0
0
0
0
0
0
0
0
0
0
0
0
0
0
0
0
0
0
0
0
0
0
0
0
0
0
0
0
0
0
0
0
0
0
0
0
0
0
0
0
0
0
0
0
0
0
0
0
0
0
0
0
0
0
0
0
0
0
0
0
0
0
0
0
0
0
0
0
0
0
0
0
0
0
0
0
0
0
0
0
0
0
0
0
0
0
0
0
0
0
0
0
0
0
0
0
0
0
0
0
0
0
0
0
0
0
0
0
0
0
0
0
0
0
0
0
0
0
0
0
0
0
0
0
0
0
0
0
0
0
0
0
0
0
0
0
0
0
0
0
0
0
0
0
0
0
0
0
0
0
0
0
0
0
0
0
0
0
0
0
0
0
0
0
0
0
0
0
0
0
0
0
0
0
0
0
0
0
0
0
0
0
0
0
0
0
0
0
0
0
0
0
0
0
0
0
0
0
0
0
0
0
0
0
0
0
0
0
0
0
0
0
0
0
0
0
0
0
0
0
0
0
0
0
0
0
0
0
0
0
0
0
0
0
0
0
0
0
0
0
0
0
0
0
0
0
0
0
0
0
0
0
0
0
0
0
0
0
0
0
0
0
0
0
0
0
0
0
0
0
0
0
0
0
0
0
0
0
0
0
0
0
0
0
0
0
0
0
0
0
0
0
0
0
0
0
0
0
0
0
0
0
0
0
0
0
0
0
0
0
0
0
0
0
0
0
0
0
0
0
0
0
0
0
0
0
0
0
0
0
0
0
0
0
0
0
0
0
0
0
0
0
0
0
0
0
0
0
0
0
0
0
0
0
0
0
0
0
0
0
0
0
0
0
0
0
0
0
0
0
0
0
0
0
0
0
0
0
0
0
0
0
0
0
0
0
0
0
0
0
0
0
0
0
0
0
0
0
0
0
0
0
0
0
0
0
0
1
0
30
0
49
0
62
0
62
0
68
0
72
0
58
0
42
0
69
0
59
0
49
0
38
0
63
0
45
0
50
0
65
0
83
0
103
0
112
0
111
0
118
0
124
0
113
0
100
0
56
0
57
0
82
0
119
0
132
0
132
0
124
0
114
0
130
0
118
0
127
0
133
0
107
0
86
0
107
0
142
0
122
0
124
0
113
0
133
0
90
0
35
0
65
0
81
0
44
0
3
0
67
0
76
0
70
0
42
0
14
0
18
0
0
0
0
0
0
0
0
0
0
0
0
0
0
0
0
0
6
0
1
0
1
0
3
0
4
0
1
0
1
0
4
0
2
0
2
0
1
0
1
0
1
0
0
0
0
0
0
0
0
0
0
0
0
0
0
0
0
0
0
0
0
0
0
0
0
0
0
0
0
0
0
0
0
0
0
0
0
0
0
0
0
0
0
0
0
0
0
0
0
0
0
0
0
0
0
0
0
0
0
0
0
0
0
0
0
0
0
0
0
0
0
0
0
0
0
0
0
0
0
0
0
0
0
0
0
0
0
0
0
0
0
0
0
0
0
0
0
0
0
0
0
0
0
0
0
0
0
0
0
0
0
0
0
0
0
0
0
0
0
0
0
0
0
0
0
0
0
0
0
0
0
0
0
0
0
0
0
0
0
0
0
0
0
0
0
0
0
0
0
0
0
0
0
0
0
0
0
0
0
0
0
0
0
0
0
0
0
0
1
0
0
0
0
0
0
0
0
0
1
0
2
0
3
0
0
0
6
0
7
0
8
0
0
0
0
0
75
0
189
0
246
0
251
0
255
0
255
0
255
0
255
0
255
0
254
0
254
0
254
0
254
0
254
0
254
0
254
0
254
0
254
0
255
0
248
0
255
0
251
0
94
0
0
0
6
0
4
0
0
0
0
0
0
0
1
0
1
0
1
0
2
0
2
0
1
0
1
0
17
0
58
0
85
0
101
0
108
0
104
0
109
0
110
0
111
0
111
0
111
0
111
0
0
0
0
0
0
0
0
0
0
0
0
0
0
0
0
0
0
0
0
0
0
0
0
0
0
0
0
0
0
0
0
0
0
0
0
0
0
0
0
0
0
0
0
0
0
0
0
0
0
0
0
0
0
0
0
0
0
0
0
0
0
0
0
0
0
0
0
0
0
0
0
0
0
0
0
0
0
0
0
0
0
0
0
0
0
0
0
0
0
0
0
0
0
0
0
0
0
0
0
0
0
0
0
0
0
0
0
0
0
0
0
0
0
0
0
0
0
0
0
0
0
0
0
0
0
0
0
0
0
0
0
0
0
0
0
0
0
0
0
0
0
0
0
0
0
0
0
0
0
0
0
0
0
0
0
0
0
0
0
0
0
0
0
0
0
0
0
0
0
0
0
0
0
0
0
0
0
0
0
0
0
0
0
0
0
0
0
0
0
0
0
0
0
0
0
0
0
0
0
0
0
0
0
0
0
0
0
0
0
0
0
0
0
0
0
0
0
0
0
0
0
0
0
0
0
0
0
0
0
0
0
0
0
0
0
0
0
0
0
0
0
0
0
0
0
0
0
0
0
0
0
0
0
0
0
0
0
0
0
0
0
0
0
0
0
0
0
0
0
0
0
0
0
0
0
0
0
0
0
0
0
0
0
0
0
0
0
0
0
0
0
0
0
0
0
0
0
0
0
0
0
0
0
0
0
0
0
0
0
0
0
0
0
0
0
0
0
0
0
0
0
0
0
0
0
0
0
0
0
0
0
0
0
0
0
0
0
0
0
0
0
0
0
0
0
0
0
0
0
0
0
0
0
0
0
0
0
0
0
0
0
0
0
0
0
0
0
0
0
0
0
0
0
0
0
0
0
0
0
0
0
0
0
0
0
0
0
0
0
0
0
0
0
0
0
0
0
0
0
0
0
0
0
0
0
0
0
0
0
0
0
0
0
0
0
0
0
0
0
0
0
0
0
0
0
0
0
0
0
0
0
0
0
0
0
0
0
0
0
0
0
0
0
0
2
0
19
0
46
0
59
0
63
0
72
0
72
0
56
0
48
0
73
0
77
0
58
0
35
0
46
0
46
0
50
0
67
0
62
0
80
0
101
0
109
0
111
0
110
0
104
0
95
0
39
0
49
0
96
0
138
0
141
0
128
0
124
0
119
0
141
0
113
0
109
0
126
0
110
0
73
0
85
0
133
0
138
0
127
0
131
0
137
0
126
0
96
0
49
0
93
0
78
0
20
0
42
0
57
0
43
0
16
0
0
0
9
0
4
0
4
0
4
0
4
0
5
0
5
0
5
0
5
0
0
0
0
0
0
0
1
0
3
0
3
0
2
0
1
0
2
0
2
0
1
0
1
0
1
0
0
0
0
0
0
0
0
0
0
0
0
0
0
0
0
0
0
0
0
0
0
0
0
0
0
0
0
0
0
0
0
0
0
0
0
0
0
0
0
0
0
0
0
0
0
0
0
0
0
0
0
0
0
0
0
0
0
0
0
0
0
0
0
0
0
0
0
0
0
0
0
0
0
0
0
0
0
0
0
0
0
0
0
0
0
0
0
0
0
0
0
0
0
0
0
0
0
0
0
0
0
0
0
0
0
0
0
0
0
0
0
0
0
0
0
0
0
0
0
0
0
0
0
0
0
0
0
0
0
0
0
0
0
0
0
0
0
0
0
0
0
0
0
0
0
0
0
0
0
0
0
0
0
0
0
0
0
0
0
0
0
0
0
0
0
0
1
0
0
0
0
0
0
0
0
0
1
0
2
0
3
0
4
0
0
0
0
0
0
0
35
0
98
0
186
0
255
0
253
0
253
0
254
0
255
0
255
0
255
0
253
0
251
0
254
0
254
0
254
0
254
0
254
0
254
0
254
0
254
0
253
0
250
0
254
0
247
0
114
0
0
0
2
0
4
0
0
0
0
0
0
0
1
0
1
0
1
0
2
0
2
0
5
0
1
0
11
0
50
0
80
0
100
0
108
0
104
0
106
0
107
0
109
0
110
0
110
0
109
0
0
0
0
0
0
0
0
0
0
0
0
0
0
0
0
0
0
0
0
0
0
0
0
0
0
0
0
0
0
0
0
0
0
0
0
0
0
0
0
0
0
0
0
0
0
0
0
0
0
0
0
0
0
0
0
0
0
0
0
0
0
0
0
0
0
0
0
0
0
0
0
0
0
0
0
0
0
0
0
0
0
0
0
0
0
0
0
0
0
0
0
0
0
0
0
0
0
0
0
0
0
0
0
0
0
0
0
0
0
0
0
0
0
0
0
0
0
0
0
0
0
0
0
0
0
0
0
0
0
0
0
0
0
0
0
0
0
0
0
0
0
0
0
0
0
0
0
0
0
0
0
0
0
0
0
0
0
0
0
0
0
0
0
0
0
0
0
0
0
0
0
0
0
0
0
0
0
0
0
0
0
0
0
0
0
0
0
0
0
0
0
0
0
0
0
0
0
0
0
0
0
0
0
0
0
0
0
0
0
0
0
0
0
0
0
0
0
0
0
0
0
0
0
0
0
0
0
0
0
0
0
0
0
0
0
0
0
0
0
0
0
0
0
0
0
0
0
0
0
0
0
0
0
0
0
0
0
0
0
0
0
0
0
0
0
0
0
0
0
0
0
0
0
0
0
0
0
0
0
0
0
0
0
0
0
0
0
0
0
0
0
0
0
0
0
0
0
0
0
0
0
0
0
0
0
0
0
0
0
0
0
0
0
0
0
0
0
0
0
0
0
0
0
0
0
0
0
0
0
0
0
0
0
0
0
0
0
0
0
0
0
0
0
0
0
0
0
0
0
0
0
0
0
0
0
0
0
0
0
0
0
0
0
0
0
0
0
0
0
0
0
0
0
0
0
0
0
0
0
0
0
0
0
0
0
0
0
0
0
0
0
0
0
0
0
0
0
0
0
0
0
0
0
0
0
0
0
0
0
0
0
0
0
0
0
0
0
0
0
0
0
0
0
0
0
0
0
0
0
0
0
0
0
0
0
0
0
0
0
0
0
0
0
0
2
0
4
0
33
0
48
0
59
0
76
0
74
0
55
0
47
0
70
0
81
0
67
0
56
0
47
0
35
0
39
0
70
0
63
0
68
0
87
0
100
0
93
0
83
0
80
0
79
0
76
0
72
0
83
0
108
0
126
0
128
0
123
0
117
0
110
0
99
0
83
0
84
0
84
0
62
0
61
0
89
0
122
0
111
0
106
0
96
0
111
0
111
0
39
0
79
0
98
0
50
0
21
0
29
0
12
0
4
0
2
0
7
0
0
0
0
0
0
0
0
0
0
0
0
0
0
0
0
0
0
0
3
0
3
0
2
0
2
0
3
0
2
0
0
0
2
0
2
0
1
0
1
0
1
0
0
0
0
0
0
0
0
0
0
0
0
0
0
0
0
0
0
0
0
0
0
0
0
0
0
0
0
0
0
0
0
0
0
0
0
0
0
0
0
0
0
0
0
0
0
0
0
0
0
0
0
0
0
0
0
0
0
0
0
0
0
0
0
0
0
0
0
0
0
0
0
0
0
0
0
0
0
0
0
0
0
0
0
0
0
0
0
0
0
0
0
0
0
0
0
0
0
0
0
0
0
0
0
0
0
0
0
0
0
0
0
0
0
0
0
0
0
0
0
0
0
0
0
0
0
0
0
0
0
0
0
0
0
0
0
0
0
0
0
0
0
0
0
0
0
0
0
0
0
0
0
0
0
0
0
0
0
0
0
0
0
0
0
0
0
0
1
0
0
0
0
0
0
0
0
0
1
0
2
0
3
0
8
0
0
0
12
0
69
0
143
0
213
0
253
0
255
0
253
0
254
0
254
0
252
0
247
0
245
0
249
0
255
0
254
0
254
0
254
0
254
0
254
0
254
0
254
0
254
0
253
0
254
0
248
0
249
0
146
0
14
0
1
0
0
0
0
0
0
0
0
0
1
0
1
0
1
0
2
0
2
0
10
0
1
0
8
0
44
0
76
0
98
0
109
0
104
0
104
0
105
0
107
0
108
0
108
0
107
0
0
0
0
0
0
0
0
0
0
0
0
0
0
0
0
0
0
0
0
0
0
0
0
0
0
0
0
0
0
0
0
0
0
0
0
0
0
0
0
0
0
0
0
0
0
0
0
0
0
0
0
0
0
0
0
0
0
0
0
0
0
0
0
0
0
0
0
0
0
0
0
0
0
0
0
0
0
0
0
0
0
0
0
0
0
0
0
0
0
0
0
0
0
0
0
0
0
0
0
0
0
0
0
0
0
0
0
0
0
0
0
0
0
0
0
0
0
0
0
0
0
0
0
0
0
0
0
0
0
0
0
0
0
0
0
0
0
0
0
0
0
0
0
0
0
0
0
0
0
0
0
0
0
0
0
0
0
0
0
0
0
0
0
0
0
0
0
0
0
0
0
0
0
0
0
0
0
0
0
0
0
0
0
0
0
0
0
0
0
0
0
0
0
0
0
0
0
0
0
0
0
0
0
0
0
0
0
0
0
0
0
0
0
0
0
0
0
0
0
0
0
0
0
0
0
0
0
0
0
0
0
0
0
0
0
0
0
0
0
0
0
0
0
0
0
0
0
0
0
0
0
0
0
0
0
0
0
0
0
0
0
0
0
0
0
0
0
0
0
0
0
0
0
0
0
0
0
0
0
0
0
0
0
0
0
0
0
0
0
0
0
0
0
0
0
0
0
0
0
0
0
0
0
0
0
0
0
0
0
0
0
0
0
0
0
0
0
0
0
0
0
0
0
0
0
0
0
0
0
0
0
0
0
0
0
0
0
0
0
0
0
0
0
0
0
0
0
0
0
0
0
0
0
0
0
0
0
0
0
0
0
0
0
0
0
0
0
0
0
0
0
0
0
0
0
0
0
0
0
0
0
0
0
0
0
0
0
0
0
0
0
0
0
0
0
0
0
0
0
0
0
0
0
0
0
0
0
0
0
0
0
0
0
0
0
0
0
0
0
0
0
0
0
0
0
0
0
0
0
0
0
0
0
0
0
0
0
0
0
0
0
0
0
0
1
0
1
0
22
0
37
0
52
0
77
0
75
0
52
0
43
0
68
0
77
0
69
0
82
0
59
0
37
0
26
0
69
0
73
0
65
0
78
0
92
0
84
0
72
0
76
0
83
0
108
0
88
0
70
0
82
0
131
0
136
0
105
0
72
0
64
0
98
0
103
0
98
0
109
0
94
0
57
0
48
0
62
0
82
0
62
0
62
0
80
0
85
0
35
0
45
0
101
0
66
0
6
0
12
0
1
0
6
0
4
0
6
0
3
0
3
0
3
0
2
0
2
0
2
0
2
0
2
0
3
0
5
0
1
0
1
0
1
0
0
0
2
0
1
0
2
0
2
0
1
0
1
0
1
0
0
0
0
0
0
0
0
0
0
0
0
0
0
0
0
0
0
0
0
0
0
0
0
0
0
0
0
0
0
0
0
0
0
0
0
0
0
0
0
0
0
0
0
0
0
0
0
0
0
0
0
0
0
0
0
0
0
0
0
0
0
0
0
0
0
0
0
0
0
0
0
0
0
0
0
0
0
0
0
0
0
0
0
0
0
0
0
0
0
0
0
0
0
0
0
0
0
0
0
0
0
0
0
0
0
0
0
0
0
0
0
0
0
0
0
0
0
0
0
0
0
0
0
0
0
0
0
0
0
0
0
0
0
0
0
0
0
0
0
0
0
0
0
0
0
0
0
0
0
0
0
0
0
0
0
0
0
0
0
0
0
0
0
0
0
0
1
0
0
0
0
0
0
0
0
0
1
0
2
0
3
0
0
0
3
0
78
0
184
0
245
0
255
0
255
0
248
0
251
0
253
0
255
0
255
0
255
0
255
0
255
0
255
0
254
0
254
0
254
0
254
0
254
0
254
0
254
0
254
0
255
0
255
0
246
0
255
0
174
0
32
0
3
0
0
0
0
0
0
0
0
0
1
0
1
0
1
0
2
0
2
0
6
0
1
0
1
0
37
0
68
0
90
0
103
0
99
0
103
0
104
0
105
0
107
0
107
0
106
0
0
0
0
0
0
0
0
0
0
0
0
0
0
0
0
0
0
0
0
0
0
0
0
0
0
0
0
0
0
0
0
0
0
0
0
0
0
0
0
0
0
0
0
0
0
0
0
0
0
0
0
0
0
0
0
0
0
0
0
0
0
0
0
0
0
0
0
0
0
0
0
0
0
0
0
0
0
0
0
0
0
0
0
0
0
0
0
0
0
0
0
0
0
0
0
0
0
0
0
0
0
0
0
0
0
0
0
0
0
0
0
0
0
0
0
0
0
0
0
0
0
0
0
0
0
0
0
0
0
0
0
0
0
0
0
0
0
0
0
0
0
0
0
0
0
0
0
0
0
0
0
0
0
0
0
0
0
0
0
0
0
0
0
0
0
0
0
0
0
0
0
0
0
0
0
0
0
0
0
0
0
0
0
0
0
0
0
0
0
0
0
0
0
0
0
0
0
0
0
0
0
0
0
0
0
0
0
0
0
0
0
0
0
0
0
0
0
0
0
0
0
0
0
0
0
0
0
0
0
0
0
0
0
0
0
0
0
0
0
0
0
0
0
0
0
0
0
0
0
0
0
0
0
0
0
0
0
0
0
0
0
0
0
0
0
0
0
0
0
0
0
0
0
0
0
0
0
0
0
0
0
0
0
0
0
0
0
0
0
0
0
0
0
0
0
0
0
0
0
0
0
0
0
0
0
0
0
0
0
0
0
0
0
0
0
0
0
0
0
0
0
0
0
0
0
0
0
0
0
0
0
0
0
0
0
0
0
0
0
0
0
0
0
0
0
0
0
0
0
0
0
0
0
0
0
0
0
0
0
0
0
0
0
0
0
0
0
0
0
0
0
0
0
0
0
0
0
0
0
0
0
0
0
0
0
0
0
0
0
0
0
0
0
0
0
0
0
0
0
0
0
0
0
0
0
0
0
0
0
0
0
0
0
0
0
0
0
0
0
0
0
0
0
0
0
0
0
0
0
0
0
0
0
0
0
0
0
0
0
0
0
0
0
0
0
0
3
0
6
0
18
0
38
0
65
0
77
0
66
0
48
0
64
0
65
0
78
0
77
0
68
0
24
0
32
0
37
0
60
0
61
0
71
0
63
0
45
0
65
0
104
0
117
0
133
0
112
0
83
0
81
0
99
0
95
0
85
0
94
0
128
0
121
0
126
0
130
0
127
0
132
0
122
0
92
0
62
0
100
0
114
0
106
0
113
0
110
0
52
0
36
0
43
0
95
0
73
0
7
0
8
0
29
0
1
0
12
0
0
0
0
0
0
0
0
0
0
0
0
0
0
0
0
0
2
0
2
0
2
0
1
0
1
0
1
0
1
0
1
0
0
0
0
0
0
0
0
0
1
0
1
0
2
0
2
0
0
0
0
0
0
0
0
0
0
0
0
0
0
0
0
0
0
0
0
0
0
0
0
0
0
0
0
0
0
0
0
0
0
0
0
0
0
0
0
0
0
0
0
0
0
0
0
0
0
0
0
0
0
0
0
0
0
0
0
0
0
0
0
0
0
0
0
0
0
0
0
0
0
0
0
0
0
0
0
0
0
0
0
0
0
0
0
0
0
0
0
0
0
0
0
0
0
0
0
0
0
0
0
0
0
0
0
0
0
0
0
0
0
0
0
0
0
0
0
0
0
0
0
0
0
0
0
0
0
0
0
0
0
0
0
0
0
0
0
0
0
0
0
0
10
0
1
0
0
0
0
0
2
0
0
0
0
0
2
0
1
0
6
0
0
0
1
0
9
0
0
0
0
0
10
0
23
0
102
0
192
0
239
0
250
0
253
0
255
0
255
0
255
0
255
0
255
0
255
0
255
0
255
0
255
0
255
0
255
0
255
0
255
0
255
0
255
0
255
0
255
0
255
0
255
0
253
0
250
0
254
0
208
0
42
0
6
0
11
0
1
0
10
0
7
0
2
0
5
0
5
0
3
0
4
0
8
0
2
0
4
0
15
0
49
0
82
0
101
0
106
0
114
0
93
0
103
0
122
0
116
0
111
0
0
0
0
0
0
0
0
0
0
0
0
0
0
0
0
0
0
0
0
0
0
0
0
0
0
0
0
0
0
0
0
0
0
0
0
0
0
0
0
0
0
0
0
0
0
0
0
0
0
0
0
0
0
0
0
0
0
0
0
0
0
0
0
0
0
0
0
0
0
0
0
0
0
0
0
0
0
0
0
0
0
0
0
0
0
0
0
0
0
0
0
0
0
0
0
0
0
0
0
0
0
0
0
0
0
0
0
0
0
0
0
0
0
0
0
0
0
0
0
0
0
0
0
0
0
0
0
0
0
0
0
0
0
0
0
0
0
0
0
0
0
0
0
0
0
0
0
0
0
0
0
0
0
0
0
0
0
0
0
0
0
0
0
0
0
0
0
0
0
0
0
0
0
0
0
0
0
0
0
0
0
0
0
0
0
0
0
0
0
0
0
0
0
0
0
0
0
0
0
0
0
0
0
0
0
0
0
0
0
0
0
0
0
0
0
0
0
0
0
0
0
0
0
0
0
0
0
0
0
0
0
0
0
0
0
0
0
0
0
0
0
0
0
0
0
0
0
0
0
0
0
0
0
0
0
0
0
0
0
0
0
0
0
0
0
0
0
0
0
0
0
0
0
0
0
0
0
0
0
0
0
0
0
0
0
0
0
0
0
0
0
0
0
0
0
0
0
0
0
0
0
0
0
0
0
0
0
0
0
0
0
0
0
0
0
0
0
0
0
0
0
0
0
0
0
0
0
0
0
0
0
0
0
0
0
0
0
0
0
0
0
0
0
0
0
0
0
0
0
0
0
0
0
0
0
0
0
0
0
0
0
0
0
0
0
0
0
0
0
0
0
0
0
0
0
0
0
0
0
0
0
0
0
0
0
0
0
0
0
0
0
0
0
0
0
0
0
0
0
0
0
0
0
0
0
0
0
0
0
0
0
0
0
0
0
0
0
0
0
0
0
0
0
0
0
0
0
0
0
0
0
0
0
0
0
0
0
0
0
0
0
0
0
0
1
0
4
0
7
0
5
0
16
0
55
0
87
0
81
0
57
0
78
0
79
0
73
0
70
0
64
0
33
0
55
0
57
0
40
0
52
0
67
0
58
0
41
0
60
0
98
0
112
0
118
0
127
0
111
0
76
0
58
0
68
0
96
0
124
0
124
0
120
0
119
0
117
0
110
0
108
0
105
0
97
0
57
0
86
0
107
0
116
0
122
0
115
0
100
0
90
0
43
0
56
0
69
0
16
0
3
0
1
0
8
0
3
0
0
0
0
0
0
0
0
0
0
0
0
0
0
0
0
0
0
0
0
0
0
0
0
0
0
0
1
0
3
0
3
0
8
0
7
0
4
0
2
0
1
0
1
0
1
0
1
0
0
0
0
0
0
0
0
0
0
0
0
0
0
0
0
0
0
0
0
0
0
0
0
0
0
0
0
0
0
0
0
0
0
0
0
0
0
0
0
0
0
0
0
0
0
0
0
0
0
0
0
0
0
0
0
0
0
0
0
0
0
0
0
0
0
0
0
0
0
0
0
0
0
0
0
0
0
0
0
0
0
0
0
0
0
0
0
0
0
0
0
0
0
0
0
0
0
0
0
0
0
0
0
0
0
0
0
0
0
0
0
0
0
0
0
0
0
0
0
0
0
0
0
0
0
0
0
0
1
0
1
0
1
0
1
0
1
0
0
0
0
0
0
0
0
0
0
0
2
0
7
0
8
0
5
0
5
0
6
0
0
0
6
0
7
0
0
0
0
0
2
0
22
0
48
0
158
0
202
0
245
0
255
0
255
0
255
0
255
0
255
0
255
0
255
0
255
0
255
0
255
0
255
0
255
0
255
0
255
0
255
0
255
0
255
0
255
0
255
0
255
0
255
0
255
0
250
0
251
0
254
0
222
0
69
0
2
0
3
0
1
0
4
0
1
0
0
0
3
0
2
0
0
0
2
0
6
0
5
0
7
0
20
0
45
0
72
0
86
0
92
0
107
0
84
0
67
0
57
0
43
0
39
0
0
0
0
0
0
0
0
0
0
0
0
0
0
0
0
0
0
0
0
0
0
0
0
0
0
0
0
0
0
0
0
0
0
0
0
0
0
0
0
0
0
0
0
0
0
0
0
0
0
0
0
0
0
0
0
0
0
0
0
0
0
0
0
0
0
0
0
0
0
0
0
0
0
0
0
0
0
0
0
0
0
0
0
0
0
0
0
0
0
0
0
0
0
0
0
0
0
0
0
0
0
0
0
0
0
0
0
0
0
0
0
0
0
0
0
0
0
0
0
0
0
0
0
0
0
0
0
0
0
0
0
0
0
0
0
0
0
0
0
0
0
0
0
0
0
0
0
0
0
0
0
0
0
0
0
0
0
0
0
0
0
0
0
0
0
0
0
0
0
0
0
0
0
0
0
0
0
0
0
0
0
0
0
0
0
0
0
0
0
0
0
0
0
0
0
0
0
0
0
0
0
0
0
0
0
0
0
0
0
0
0
0
0
0
0
0
0
0
0
0
0
0
0
0
0
0
0
0
0
0
0
0
0
0
0
0
0
0
0
0
0
0
0
0
0
0
0
0
0
0
0
0
0
0
0
0
0
0
0
0
0
0
0
0
0
0
0
0
0
0
0
0
0
0
0
0
0
0
0
0
0
0
0
0
0
0
0
0
0
0
0
0
0
0
0
0
0
0
0
0
0
0
0
0
0
0
0
0
0
0
0
0
0
0
0
0
0
0
0
0
0
0
0
0
0
0
0
0
0
0
0
0
0
0
0
0
0
0
0
0
0
0
0
0
0
0
0
0
0
0
0
0
0
0
0
0
0
0
0
0
0
0
0
0
0
0
0
0
0
0
0
0
0
0
0
0
0
0
0
0
0
0
0
0
0
0
0
0
0
0
0
0
0
0
0
0
0
0
0
0
0
0
0
0
0
0
0
0
0
0
0
0
0
0
0
0
0
0
0
0
0
0
0
0
0
0
0
0
0
0
0
0
0
0
0
0
0
0
0
0
0
0
0
0
4
0
3
0
11
0
6
0
2
0
34
0
80
0
87
0
67
0
79
0
91
0
74
0
75
0
69
0
40
0
69
0
63
0
57
0
54
0
49
0
37
0
38
0
67
0
86
0
82
0
85
0
111
0
124
0
90
0
42
0
41
0
73
0
98
0
71
0
69
0
56
0
50
0
53
0
53
0
52
0
57
0
24
0
31
0
42
0
49
0
52
0
59
0
88
0
132
0
90
0
48
0
29
0
25
0
27
0
7
0
7
0
8
0
0
0
0
0
0
0
0
0
0
0
0
0
0
0
0
0
1
0
0
0
0
0
0
0
0
0
0
0
1
0
1
0
1
0
1
0
1
0
0
0
0
0
0
0
1
0
1
0
0
0
0
0
0
0
0
0
0
0
0
0
0
0
0
0
0
0
0
0
0
0
0
0
0
0
0
0
0
0
0
0
0
0
0
0
0
0
0
0
0
0
0
0
0
0
0
0
0
0
0
0
0
0
0
0
0
0
0
0
0
0
0
0
0
0
0
0
0
0
0
0
0
0
0
0
0
0
0
0
0
0
0
0
0
0
0
0
0
0
0
0
0
0
0
0
0
0
0
0
0
0
0
0
0
0
0
0
0
0
0
0
0
0
0
0
0
0
0
0
0
0
0
0
0
0
0
0
3
0
2
0
2
0
1
0
1
0
0
0
0
0
0
0
0
0
1
0
6
0
3
0
0
0
0
0
0
0
0
0
17
0
0
0
0
0
16
0
1
0
4
0
85
0
180
0
247
0
255
0
255
0
255
0
252
0
255
0
255
0
252
0
255
0
255
0
255
0
255
0
255
0
255
0
255
0
255
0
255
0
255
0
255
0
255
0
255
0
255
0
255
0
255
0
255
0
248
0
254
0
255
0
240
0
111
0
0
0
0
0
8
0
6
0
3
0
8
0
8
0
9
0
5
0
8
0
1
0
1
0
4
0
15
0
31
0
45
0
53
0
56
0
33
0
43
0
44
0
43
0
50
0
58
0
0
0
0
0
0
0
0
0
0
0
0
0
0
0
0
0
0
0
0
0
0
0
0
0
0
0
0
0
0
0
0
0
0
0
0
0
0
0
0
0
0
0
0
0
0
0
0
0
0
0
0
0
0
0
0
0
0
0
0
0
0
0
0
0
0
0
0
0
0
0
0
0
0
0
0
0
0
0
0
0
0
0
0
0
0
0
0
0
0
0
0
0
0
0
0
0
0
0
0
0
0
0
0
0
0
0
0
0
0
0
0
0
0
0
0
0
0
0
0
0
0
0
0
0
0
0
0
0
0
0
0
0
0
0
0
0
0
0
0
0
0
0
0
0
0
0
0
0
0
0
0
0
0
0
0
0
0
0
0
0
0
0
0
0
0
0
0
0
0
0
0
0
0
0
0
0
0
0
0
0
0
0
0
0
0
0
0
0
0
0
0
0
0
0
0
0
0
0
0
0
0
0
0
0
0
0
0
0
0
0
0
0
0
0
0
0
0
0
0
0
0
0
0
0
0
0
0
0
0
0
0
0
0
0
0
0
0
0
0
0
0
0
0
0
0
0
0
0
0
0
0
0
0
0
0
0
0
0
0
0
0
0
0
0
0
0
0
0
0
0
0
0
0
0
0
0
0
0
0
0
0
0
0
0
0
0
0
0
0
0
0
0
0
0
0
0
0
0
0
0
0
0
0
0
0
0
0
0
0
0
0
0
0
0
0
0
0
0
0
0
0
0
0
0
0
0
0
0
0
0
0
0
0
0
0
0
0
0
0
0
0
0
0
0
0
0
0
0
0
0
0
0
0
0
0
0
0
0
0
0
0
0
0
0
0
0
0
0
0
0
0
0
0
0
0
0
0
0
0
0
0
0
0
0
0
0
0
0
0
0
0
0
0
0
0
0
0
0
0
0
0
0
0
0
0
0
0
0
0
0
0
0
0
0
0
0
0
0
0
0
0
0
0
0
0
0
0
0
0
0
0
0
0
0
0
0
0
0
0
0
0
0
0
0
2
0
0
0
7
0
7
0
1
0
11
0
46
0
64
0
62
0
73
0
98
0
81
0
78
0
67
0
32
0
74
0
64
0
77
0
66
0
43
0
21
0
29
0
61
0
77
0
70
0
109
0
80
0
65
0
55
0
33
0
28
0
38
0
47
0
81
0
83
0
61
0
51
0
78
0
94
0
87
0
86
0
65
0
57
0
46
0
50
0
61
0
53
0
40
0
38
0
103
0
94
0
26
0
35
0
36
0
10
0
1
0
19
0
1
0
1
0
1
0
1
0
1
0
1
0
1
0
1
0
0
0
0
0
0
0
1
0
1
0
1
0
1
0
1
0
1
0
1
0
1
0
0
0
1
0
1
0
2
0
2
0
1
0
1
0
1
0
1
0
1
0
1
0
1
0
1
0
0
0
0
0
0
0
0
0
0
0
0
0
0
0
0
0
0
0
0
0
0
0
0
0
0
0
0
0
0
0
0
0
0
0
0
0
0
0
0
0
0
0
0
0
0
0
0
0
0
0
0
0
0
0
0
0
0
0
0
0
0
0
0
0
0
0
0
0
0
0
0
0
0
0
0
0
0
0
0
0
0
0
0
0
0
0
0
0
0
0
0
0
0
0
0
0
0
0
0
0
0
0
0
0
0
0
0
0
0
0
0
0
2
0
2
0
1
0
0
0
0
0
0
0
0
0
0
0
1
0
5
0
3
0
0
0
0
0
0
0
1
0
0
0
7
0
5
0
4
0
0
0
11
0
105
0
210
0
252
0
249
0
252
0
251
0
247
0
250
0
255
0
255
0
253
0
255
0
255
0
255
0
255
0
255
0
255
0
255
0
255
0
255
0
255
0
255
0
255
0
255
0
255
0
255
0
255
0
254
0
248
0
255
0
250
0
251
0
152
0
7
0
2
0
2
0
1
0
0
0
6
0
0
0
1
0
2
0
2
0
4
0
7
0
15
0
29
0
43
0
51
0
53
0
52
0
41
0
78
0
96
0
100
0
114
0
118
0
0
0
0
0
0
0
0
0
0
0
0
0
0
0
0
0
0
0
0
0
0
0
0
0
0
0
0
0
0
0
0
0
0
0
0
0
0
0
0
0
0
0
0
0
0
0
0
0
0
0
0
0
0
0
0
0
0
0
0
0
0
0
0
0
0
0
0
0
0
0
0
0
0
0
0
0
0
0
0
0
0
0
0
0
0
0
0
0
0
0
0
0
0
0
0
0
0
0
0
0
0
0
0
0
0
0
0
0
0
0
0
0
0
0
0
0
0
0
0
0
0
0
0
0
0
0
0
0
0
0
0
0
0
0
0
0
0
0
0
0
0
0
0
0
0
0
0
0
0
0
0
0
0
0
0
0
0
0
0
0
0
0
0
0
0
0
0
0
0
0
0
0
0
0
0
0
0
0
0
0
0
0
0
0
0
0
0
0
0
0
0
0
0
0
0
0
0
0
0
0
0
0
0
0
0
0
0
0
0
0
0
0
0
0
0
0
0
0
0
0
0
0
0
0
0
0
0
0
0
0
0
0
0
0
0
0
0
0
0
0
0
0
0
0
0
0
0
0
0
0
0
0
0
0
0
0
0
0
0
0
0
0
0
0
0
0
0
0
0
0
0
0
0
0
0
0
0
0
0
0
0
0
0
0
0
0
0
0
0
0
0
0
0
0
0
0
0
0
0
0
0
0
0
0
0
0
0
0
0
0
0
0
0
0
0
0
0
0
0
0
0
0
0
0
0
0
0
0
0
0
0
0
0
0
0
0
0
0
0
0
0
0
0
0
0
0
0
0
0
0
0
0
0
0
0
0
0
0
0
0
0
0
0
0
0
0
0
0
0
0
0
0
0
0
0
0
0
0
0
0
0
0
0
0
0
0
0
0
0
0
0
0
0
0
0
0
0
0
0
0
0
0
0
0
0
0
0
0
0
0
0
0
0
0
0
0
0
0
0
0
0
0
0
0
0
0
0
0
0
0
0
0
0
0
0
0
0
0
0
0
0
0
0
0
0
0
3
0
1
0
1
0
2
0
5
0
13
0
27
0
35
0
61
0
93
0
86
0
80
0
62
0
25
0
76
0
76
0
65
0
72
0
58
0
29
0
23
0
42
0
65
0
76
0
51
0
13
0
7
0
41
0
74
0
98
0
102
0
86
0
106
0
126
0
114
0
98
0
121
0
148
0
147
0
141
0
146
0
130
0
90
0
76
0
107
0
125
0
83
0
28
0
48
0
96
0
70
0
63
0
32
0
13
0
4
0
4
0
1
0
1
0
1
0
1
0
1
0
1
0
1
0
1
0
0
0
0
0
0
0
3
0
5
0
4
0
3
0
2
0
2
0
3
0
4
0
5
0
4
0
1
0
1
0
0
0
1
0
1
0
1
0
1
0
1
0
1
0
1
0
1
0
0
0
0
0
0
0
0
0
0
0
0
0
0
0
0
0
0
0
0
0
0
0
0
0
0
0
0
0
0
0
0
0
0
0
0
0
0
0
0
0
0
0
0
0
0
0
0
0
0
0
0
0
0
0
0
0
0
0
0
0
0
0
0
0
0
0
0
0
0
0
0
0
0
0
0
0
0
0
0
0
0
0
0
0
0
0
0
0
0
0
0
0
0
0
0
0
0
0
0
0
0
0
0
0
0
0
0
0
0
0
0
0
0
0
0
0
0
0
0
0
0
0
0
0
0
0
0
0
0
0
1
0
0
0
0
0
0
0
5
0
6
0
4
0
0
0
0
0
8
0
45
0
116
0
217
0
255
0
254
0
249
0
251
0
252
0
252
0
255
0
255
0
255
0
255
0
255
0
255
0
255
0
255
0
255
0
255
0
255
0
255
0
255
0
255
0
255
0
255
0
255
0
255
0
255
0
255
0
252
0
252
0
255
0
247
0
253
0
183
0
26
0
12
0
26
0
20
0
14
0
31
0
9
0
23
0
25
0
28
0
42
0
44
0
54
0
73
0
93
0
104
0
101
0
95
0
82
0
117
0
129
0
122
0
128
0
128
0
0
0
0
0
0
0
0
0
0
0
0
0
0
0
0
0
0
0
0
0
0
0
0
0
0
0
0
0
0
0
0
0
0
0
0
0
0
0
0
0
0
0
0
0
0
0
0
0
0
0
0
0
0
0
0
0
0
0
0
0
0
0
0
0
0
0
0
0
0
0
0
0
0
0
0
0
0
0
0
0
0
0
0
0
0
0
0
0
0
0
0
0
0
0
0
0
0
0
0
0
0
0
0
0
0
0
0
0
0
0
0
0
0
0
0
0
0
0
0
0
0
0
0
0
0
0
0
0
0
0
0
0
0
0
0
0
0
0
0
0
0
0
0
0
0
0
0
0
0
0
0
0
0
0
0
0
0
0
0
0
0
0
0
0
0
0
0
0
0
0
0
0
0
0
0
0
0
0
0
0
0
0
0
0
0
0
0
0
0
0
0
0
0
0
0
0
0
0
0
0
0
0
0
0
0
0
0
0
0
0
0
0
0
0
0
0
0
0
0
0
0
0
0
0
0
0
0
0
0
0
0
0
0
0
0
0
0
0
0
0
0
0
0
0
0
0
0
0
0
0
0
0
0
0
0
0
0
0
0
0
0
0
0
0
0
0
0
0
0
0
0
0
0
0
0
0
0
0
0
0
0
0
0
0
0
0
0
0
0
0
0
0
0
0
0
0
0
0
0
0
0
0
0
0
0
0
0
0
0
0
0
0
0
0
0
0
0
0
0
0
0
0
0
0
0
0
0
0
0
0
0
0
0
0
0
0
0
0
0
0
0
0
0
0
0
0
0
0
0
0
0
0
0
0
0
0
0
0
0
0
0
0
0
0
0
0
0
0
0
0
0
0
0
0
0
0
0
0
0
0
0
0
0
0
0
0
0
0
0
0
0
0
0
0
0
0
0
0
0
0
0
0
0
0
0
0
0
0
0
0
0
0
0
0
0
0
0
0
0
0
0
0
0
0
0
0
0
0
0
0
0
0
0
0
0
0
0
0
0
0
0
0
0
0
0
0
9
0
2
0
2
0
3
0
11
0
6
0
2
0
3
0
23
0
61
0
81
0
86
0
76
0
36
0
74
0
74
0
67
0
71
0
58
0
41
0
42
0
45
0
45
0
50
0
18
0
44
0
74
0
83
0
79
0
87
0
91
0
83
0
93
0
124
0
130
0
109
0
104
0
123
0
140
0
145
0
142
0
146
0
118
0
77
0
96
0
137
0
139
0
109
0
52
0
33
0
63
0
79
0
48
0
2
0
20
0
4
0
2
0
2
0
2
0
2
0
2
0
2
0
2
0
2
0
2
0
2
0
1
0
0
0
1
0
1
0
1
0
1
0
1
0
1
0
1
0
1
0
1
0
1
0
1
0
1
0
2
0
2
0
2
0
2
0
2
0
2
0
2
0
2
0
0
0
0
0
0
0
0
0
0
0
0
0
0
0
0
0
0
0
0
0
0
0
0
0
0
0
0
0
0
0
0
0
0
0
0
0
0
0
0
0
0
0
0
0
0
0
0
0
0
0
0
0
0
0
0
0
0
0
0
0
0
0
0
0
0
0
0
0
0
0
0
0
0
0
0
0
0
0
0
0
0
0
0
0
0
0
0
0
0
0
0
0
0
0
0
0
0
0
0
0
0
0
0
0
0
0
0
0
0
0
0
0
0
0
0
0
0
0
0
0
0
0
0
0
0
0
0
0
1
0
0
0
1
0
4
0
2
0
0
0
0
0
0
0
0
0
11
0
83
0
187
0
245
0
252
0
251
0
255
0
255
0
255
0
255
0
254
0
254
0
255
0
255
0
255
0
255
0
255
0
255
0
255
0
255
0
255
0
255
0
255
0
255
0
255
0
255
0
255
0
255
0
255
0
255
0
255
0
252
0
254
0
255
0
248
0
253
0
207
0
55
0
18
0
64
0
63
0
57
0
69
0
35
0
61
0
66
0
67
0
84
0
81
0
85
0
101
0
120
0
128
0
121
0
111
0
74
0
103
0
121
0
120
0
120
0
123
0
0
0
0
0
0
0
0
0
0
0
0
0
0
0
0
0
0
0
0
0
0
0
0
0
0
0
0
0
0
0
0
0
0
0
0
0
0
0
0
0
0
0
0
0
0
0
0
0
0
0
0
0
0
0
0
0
0
0
0
0
0
0
0
0
0
0
0
0
0
0
0
0
0
0
0
0
0
0
0
0
0
0
0
0
0
0
0
0
0
0
0
0
0
0
0
0
0
0
0
0
0
0
0
0
0
0
0
0
0
0
0
0
0
0
0
0
0
0
0
0
0
0
0
0
0
0
0
0
0
0
0
0
0
0
0
0
0
0
0
0
0
0
0
0
0
0
0
0
0
0
0
0
0
0
0
0
0
0
0
0
0
0
0
0
0
0
0
0
0
0
0
0
0
0
0
0
0
0
0
0
0
0
0
0
0
0
0
0
0
0
0
0
0
0
0
0
0
0
0
0
0
0
0
0
0
0
0
0
0
0
0
0
0
0
0
0
0
0
0
0
0
0
0
0
0
0
0
0
0
0
0
0
0
0
0
0
0
0
0
0
0
0
0
0
0
0
0
0
0
0
0
0
0
0
0
0
0
0
0
0
0
0
0
0
0
0
0
0
0
0
0
0
0
0
0
0
0
0
0
0
0
0
0
0
0
0
0
0
0
0
0
0
0
0
0
0
0
0
0
0
0
0
0
0
0
0
0
0
0
0
0
0
0
0
0
0
0
0
0
0
0
0
0
0
0
0
0
0
0
0
0
0
0
0
0
0
0
0
0
0
0
0
0
0
0
0
0
0
0
0
0
0
0
0
0
0
0
0
0
0
0
0
0
0
0
0
0
0
0
0
0
0
0
0
0
0
0
0
0
0
0
0
0
0
0
0
0
0
0
0
0
0
0
0
0
0
0
0
0
0
0
0
0
0
0
0
0
0
0
0
0
0
0
0
0
0
0
0
0
0
0
0
0
0
0
0
0
0
0
0
0
0
0
0
0
0
0
0
0
0
0
0
0
0
1
0
11
0
6
0
3
0
3
0
5
0
5
0
1
0
1
0
1
0
18
0
50
0
73
0
79
0
45
0
65
0
68
0
80
0
69
0
47
0
47
0
68
0
61
0
34
0
19
0
13
0
68
0
103
0
86
0
52
0
49
0
77
0
112
0
106
0
123
0
136
0
121
0
96
0
103
0
132
0
149
0
122
0
155
0
147
0
105
0
96
0
119
0
126
0
117
0
104
0
22
0
37
0
76
0
71
0
18
0
14
0
6
0
2
0
2
0
2
0
2
0
2
0
2
0
2
0
2
0
7
0
4
0
0
0
1
0
2
0
6
0
11
0
15
0
17
0
12
0
5
0
1
0
0
0
1
0
2
0
6
0
2
0
2
0
2
0
2
0
2
0
2
0
2
0
2
0
0
0
0
0
0
0
0
0
0
0
0
0
0
0
0
0
0
0
0
0
0
0
0
0
0
0
0
0
0
0
0
0
0
0
0
0
0
0
0
0
0
0
0
0
0
0
0
0
0
0
0
0
0
0
0
0
0
0
0
0
0
0
0
0
0
0
0
0
0
0
0
0
0
0
0
0
0
0
0
0
0
0
0
0
0
0
0
0
0
0
0
0
0
0
0
0
0
0
0
0
0
0
0
0
0
0
0
0
0
0
0
0
0
0
0
0
1
0
2
0
3
0
3
0
4
0
4
0
6
0
1
0
4
0
8
0
0
0
0
0
0
0
23
0
57
0
141
0
217
0
247
0
255
0
255
0
255
0
245
0
255
0
252
0
250
0
251
0
253
0
254
0
255
0
255
0
255
0
255
0
255
0
255
0
255
0
255
0
255
0
255
0
255
0
255
0
255
0
255
0
255
0
255
0
255
0
255
0
253
0
254
0
250
0
252
0
254
0
224
0
84
0
17
0
69
0
74
0
67
0
74
0
34
0
66
0
76
0
74
0
87
0
84
0
86
0
100
0
115
0
122
0
117
0
110
0
75
0
95
0
121
0
129
0
120
0
117
0
0
0
0
0
0
0
0
0
0
0
0
0
0
0
0
0
0
0
0
0
0
0
0
0
0
0
0
0
0
0
0
0
0
0
0
0
0
0
0
0
0
0
0
0
0
0
0
0
0
0
0
0
0
0
0
0
0
0
0
0
0
0
0
0
0
0
0
0
0
0
0
0
0
0
0
0
0
0
0
0
0
0
0
0
0
0
0
0
0
0
0
0
0
0
0
0
0
0
0
0
0
0
0
0
0
0
0
0
0
0
0
0
0
0
0
0
0
0
0
0
0
0
0
0
0
0
0
0
0
0
0
0
0
0
0
0
0
0
0
0
0
0
0
0
0
0
0
0
0
0
0
0
0
0
0
0
0
0
0
0
0
0
0
0
0
0
0
0
0
0
0
0
0
0
0
0
0
0
0
0
0
0
0
0
0
0
0
0
0
0
0
0
0
0
0
0
0
0
0
0
0
0
0
0
0
0
0
0
0
0
0
0
0
0
0
0
0
0
0
0
0
0
0
0
0
0
0
0
0
0
0
0
0
0
0
0
0
0
0
0
0
0
0
0
0
0
0
0
0
0
0
0
0
0
0
0
0
0
0
0
0
0
0
0
0
0
0
0
0
0
0
0
0
0
0
0
0
0
0
0
0
0
0
0
0
0
0
0
0
0
0
0
0
0
0
0
0
0
0
0
0
0
0
0
0
0
0
0
0
0
0
0
0
0
0
0
0
0
0
0
0
0
0
0
0
0
0
0
0
0
0
0
0
0
0
0
0
0
0
0
0
0
0
0
0
0
0
0
0
0
0
0
0
0
0
0
0
0
0
0
0
0
0
0
0
0
0
0
0
0
0
0
0
0
0
0
0
0
0
0
0
0
0
0
0
0
0
0
0
0
0
0
0
0
0
0
0
0
0
0
0
0
0
0
0
0
0
0
0
0
0
0
0
0
0
0
0
0
0
0
0
0
0
0
0
0
0
0
0
0
0
0
0
0
0
0
0
0
0
0
0
0
0
0
0
0
9
0
19
0
22
0
7
0
2
0
1
0
6
0
5
0
8
0
1
0
14
0
31
0
52
0
39
0
64
0
78
0
72
0
64
0
49
0
55
0
77
0
64
0
37
0
30
0
49
0
77
0
105
0
111
0
105
0
82
0
83
0
118
0
131
0
124
0
133
0
128
0
99
0
96
0
127
0
148
0
146
0
155
0
135
0
102
0
103
0
121
0
124
0
118
0
112
0
73
0
56
0
71
0
75
0
64
0
2
0
6
0
2
0
2
0
2
0
2
0
2
0
2
0
2
0
2
0
2
0
1
0
0
0
4
0
17
0
37
0
55
0
67
0
56
0
45
0
28
0
10
0
0
0
1
0
2
0
2
0
2
0
2
0
2
0
2
0
2
0
2
0
2
0
2
0
0
0
0
0
0
0
0
0
0
0
0
0
0
0
0
0
0
0
0
0
0
0
0
0
0
0
0
0
0
0
0
0
0
0
0
0
0
0
0
0
0
0
0
0
0
0
0
0
0
0
0
0
0
0
0
0
0
0
0
0
0
0
0
0
0
0
0
0
0
0
0
0
0
0
0
0
0
0
0
0
0
0
0
0
0
0
0
0
0
0
0
0
0
0
0
0
0
0
0
0
0
0
0
0
0
0
0
0
0
0
0
0
1
0
2
0
3
0
4
0
5
0
6
0
7
0
8
0
7
0
0
0
3
0
9
0
1
0
0
0
31
0
76
0
182
0
232
0
253
0
247
0
253
0
253
0
249
0
255
0
255
0
255
0
254
0
255
0
255
0
255
0
255
0
253
0
255
0
255
0
255
0
255
0
255
0
255
0
255
0
255
0
255
0
255
0
255
0
255
0
255
0
255
0
255
0
255
0
253
0
254
0
243
0
254
0
254
0
235
0
102
0
14
0
70
0
80
0
72
0
75
0
31
0
66
0
79
0
76
0
73
0
73
0
79
0
92
0
107
0
117
0
118
0
115
0
82
0
91
0
118
0
130
0
118
0
120
0
0
0
0
0
0
0
0
0
0
0
0
0
0
0
0
0
0
0
0
0
0
0
0
0
0
0
0
0
0
0
0
0
0
0
0
0
0
0
0
0
0
0
0
0
0
0
0
0
0
0
0
0
0
0
0
0
0
0
0
0
0
0
0
0
0
0
0
0
0
0
0
0
0
0
0
0
0
0
0
0
0
0
0
0
0
0
0
0
0
0
0
0
0
0
0
0
0
0
0
0
0
0
0
0
0
0
0
0
0
0
0
0
0
0
0
0
0
0
0
0
0
0
0
0
0
0
0
0
0
0
0
0
0
0
0
0
0
0
0
0
0
0
0
0
0
0
0
0
0
0
0
0
0
0
0
0
0
0
0
0
0
0
0
0
0
0
0
0
0
0
0
0
0
0
0
0
0
0
0
0
0
0
0
0
0
0
0
0
0
0
0
0
0
0
0
0
0
0
0
0
0
0
0
0
0
0
0
0
0
0
0
0
0
0
0
0
0
0
0
0
0
0
0
0
0
0
0
0
0
0
0
0
0
0
0
0
0
0
0
0
0
0
0
0
0
0
0
0
0
0
0
0
0
0
0
0
0
0
0
0
0
0
0
0
0
0
0
0
0
0
0
0
0
0
0
0
0
0
0
0
0
0
0
0
0
0
0
0
0
0
0
0
0
0
0
0
0
0
0
0
0
0
0
0
0
0
0
0
0
0
0
0
0
0
0
0
0
0
0
0
0
0
0
0
0
0
0
0
0
0
0
0
0
0
0
0
0
0
0
0
0
0
0
0
0
0
0
0
0
0
0
0
0
0
0
0
0
0
0
0
0
0
0
0
0
0
0
0
0
0
0
0
0
0
0
0
0
0
0
0
0
0
0
0
0
0
0
0
0
0
0
0
0
0
0
0
0
0
0
0
0
0
0
0
0
0
0
0
0
0
0
0
0
0
0
0
0
0
0
0
0
0
0
0
0
0
0
0
0
0
0
0
0
0
0
0
0
0
0
0
0
0
0
0
2
0
2
0
21
0
66
0
78
0
69
0
61
0
38
0
27
0
3
0
2
0
13
0
1
0
7
0
20
0
68
0
81
0
81
0
66
0
36
0
58
0
22
0
6
0
21
0
25
0
78
0
118
0
129
0
122
0
129
0
127
0
108
0
99
0
128
0
123
0
121
0
131
0
136
0
73
0
127
0
146
0
139
0
146
0
143
0
132
0
76
0
143
0
141
0
117
0
119
0
112
0
65
0
110
0
84
0
54
0
63
0
12
0
1
0
10
0
1
0
2
0
6
0
1
0
3
0
5
0
4
0
13
0
31
0
48
0
61
0
70
0
77
0
80
0
86
0
82
0
72
0
59
0
46
0
30
0
8
0
2
0
1
0
1
0
3
0
3
0
1
0
0
0
1
0
3
0
0
0
0
0
0
0
0
0
0
0
0
0
0
0
0
0
0
0
0
0
0
0
0
0
0
0
0
0
0
0
0
0
0
0
0
0
0
0
0
0
0
0
0
0
0
0
0
0
0
0
0
0
0
0
0
0
0
0
0
0
0
0
0
0
0
0
0
0
0
0
0
0
0
0
0
0
0
0
0
0
0
0
0
0
0
0
0
0
0
0
0
0
0
0
0
0
2
0
0
0
0
0
0
0
1
0
2
0
0
0
0
0
0
0
1
0
0
0
0
0
5
0
11
0
8
0
0
0
6
0
9
0
2
0
0
0
0
0
60
0
158
0
234
0
250
0
250
0
251
0
252
0
253
0
254
0
255
0
255
0
255
0
255
0
255
0
255
0
255
0
255
0
255
0
255
0
255
0
255
0
255
0
255
0
255
0
255
0
255
0
255
0
255
0
255
0
255
0
255
0
255
0
255
0
255
0
255
0
255
0
252
0
255
0
250
0
255
0
253
0
143
0
1
0
62
0
83
0
64
0
69
0
51
0
47
0
91
0
67
0
79
0
84
0
85
0
93
0
111
0
120
0
120
0
125
0
98
0
69
0
122
0
118
0
127
0
132
0
0
0
0
0
0
0
0
0
0
0
0
0
0
0
0
0
0
0
0
0
0
0
0
0
0
0
0
0
0
0
0
0
0
0
0
0
0
0
0
0
0
0
0
0
0
0
0
0
0
0
0
0
0
0
0
0
0
0
0
0
0
0
0
0
0
0
0
0
0
0
0
0
0
0
0
0
0
0
0
0
0
0
0
0
0
0
0
0
0
0
0
0
0
0
0
0
0
0
0
0
0
0
0
0
0
0
0
0
0
0
0
0
0
0
0
0
0
0
0
0
0
0
0
0
0
0
0
0
0
0
0
0
0
0
0
0
0
0
0
0
0
0
0
0
0
0
0
0
0
0
0
0
0
0
0
0
0
0
0
0
0
0
0
0
0
0
0
0
0
0
0
0
0
0
0
0
0
0
0
0
0
0
0
0
0
0
0
0
0
0
0
0
0
0
0
0
0
0
0
0
0
0
0
0
0
0
0
0
0
0
0
0
0
0
0
0
0
0
0
0
0
0
0
0
0
0
0
0
0
0
0
0
0
0
0
0
0
0
0
0
0
0
0
0
0
0
0
0
0
0
0
0
0
0
0
0
0
0
0
0
0
0
0
0
0
0
0
0
0
0
0
0
0
0
0
0
0
0
0
0
0
0
0
0
0
0
0
0
0
0
0
0
0
0
0
0
0
0
0
0
0
0
0
0
0
0
0
0
0
0
0
0
0
0
0
0
0
0
0
0
0
0
0
0
0
0
0
0
0
0
0
0
0
0
0
0
0
0
0
0
0
0
0
0
0
0
0
0
0
0
0
0
0
0
0
0
0
0
0
0
0
0
0
0
0
0
0
0
0
0
0
0
0
0
0
0
0
0
0
0
0
0
0
0
0
0
0
0
0
0
0
0
0
0
0
0
0
0
0
0
0
0
0
0
0
0
0
0
0
0
0
0
0
0
0
0
0
0
0
0
0
0
0
0
0
0
0
0
0
0
0
0
0
0
0
0
0
0
0
0
0
0
0
0
1
0
28
0
13
0
32
0
38
0
33
0
28
0
22
0
32
0
5
0
12
0
13
0
6
0
6
0
4
0
27
0
36
0
22
0
18
0
9
0
26
0
68
0
88
0
117
0
137
0
80
0
101
0
122
0
142
0
152
0
138
0
109
0
91
0
111
0
122
0
125
0
125
0
125
0
71
0
127
0
142
0
142
0
148
0
143
0
129
0
71
0
140
0
143
0
125
0
121
0
113
0
66
0
120
0
109
0
78
0
86
0
51
0
7
0
3
0
0
0
12
0
21
0
10
0
12
0
25
0
51
0
59
0
66
0
73
0
79
0
81
0
83
0
86
0
82
0
83
0
80
0
76
0
74
0
71
0
59
0
45
0
17
0
11
0
2
0
1
0
1
0
0
0
3
0
4
0
0
0
0
0
0
0
0
0
0
0
0
0
0
0
0
0
0
0
0
0
0
0
0
0
0
0
0
0
0
0
0
0
0
0
0
0
0
0
0
0
0
0
0
0
0
0
0
0
0
0
0
0
0
0
0
0
0
0
0
0
0
0
0
0
0
0
0
0
0
0
0
0
0
0
0
0
0
0
0
0
0
0
0
0
0
0
0
0
0
0
0
0
0
0
0
0
3
0
1
0
0
0
0
0
0
0
0
0
0
0
0
0
0
0
0
0
2
0
6
0
7
0
3
0
0
0
0
0
0
0
0
0
10
0
71
0
153
0
220
0
249
0
253
0
251
0
251
0
252
0
252
0
253
0
254
0
255
0
255
0
255
0
255
0
255
0
255
0
255
0
255
0
255
0
255
0
255
0
255
0
255
0
255
0
255
0
255
0
255
0
255
0
255
0
255
0
255
0
255
0
255
0
255
0
255
0
255
0
253
0
251
0
254
0
251
0
253
0
254
0
165
0
17
0
42
0
78
0
77
0
73
0
58
0
29
0
72
0
76
0
72
0
76
0
75
0
83
0
103
0
113
0
113
0
119
0
117
0
82
0
105
0
108
0
115
0
125
0
0
0
0
0
0
0
0
0
0
0
0
0
0
0
0
0
0
0
0
0
0
0
0
0
0
0
0
0
0
0
0
0
0
0
0
0
0
0
0
0
0
0
0
0
0
0
0
0
0
0
0
0
0
0
0
0
0
0
0
0
0
0
0
0
0
0
0
0
0
0
0
0
0
0
0
0
0
0
0
0
0
0
0
0
0
0
0
0
0
0
0
0
0
0
0
0
0
0
0
0
0
0
0
0
0
0
0
0
0
0
0
0
0
0
0
0
0
0
0
0
0
0
0
0
0
0
0
0
0
0
0
0
0
0
0
0
0
0
0
0
0
0
0
0
0
0
0
0
0
0
0
0
0
0
0
0
0
0
0
0
0
0
0
0
0
0
0
0
0
0
0
0
0
0
0
0
0
0
0
0
0
0
0
0
0
0
0
0
0
0
0
0
0
0
0
0
0
0
0
0
0
0
0
0
0
0
0
0
0
0
0
0
0
0
0
0
0
0
0
0
0
0
0
0
0
0
0
0
0
0
0
0
0
0
0
0
0
0
0
0
0
0
0
0
0
0
0
0
0
0
0
0
0
0
0
0
0
0
0
0
0
0
0
0
0
0
0
0
0
0
0
0
0
0
0
0
0
0
0
0
0
0
0
0
0
0
0
0
0
0
0
0
0
0
0
0
0
0
0
0
0
0
0
0
0
0
0
0
0
0
0
0
0
0
0
0
0
0
0
0
0
0
0
0
0
0
0
0
0
0
0
0
0
0
0
0
0
0
0
0
0
0
0
0
0
0
0
0
0
0
0
0
0
0
0
0
0
0
0
0
0
0
0
0
0
0
0
0
0
0
0
0
0
0
0
0
0
0
0
0
0
0
0
0
0
0
0
0
0
0
0
0
0
0
0
0
0
0
0
0
0
0
0
0
0
0
0
0
0
0
0
0
0
0
0
0
0
0
0
0
0
0
0
0
0
0
0
0
0
0
0
0
0
0
0
0
0
0
0
0
0
0
0
0
0
0
10
0
6
0
39
0
53
0
58
0
63
0
57
0
61
0
47
0
59
0
50
0
47
0
47
0
45
0
33
0
44
0
74
0
76
0
75
0
64
0
131
0
149
0
150
0
155
0
131
0
112
0
117
0
143
0
149
0
133
0
110
0
93
0
91
0
120
0
126
0
121
0
114
0
72
0
131
0
142
0
146
0
150
0
143
0
128
0
67
0
137
0
147
0
135
0
122
0
114
0
66
0
116
0
130
0
102
0
106
0
88
0
35
0
7
0
1
0
38
0
64
0
59
0
56
0
70
0
77
0
80
0
81
0
82
0
81
0
79
0
80
0
80
0
76
0
78
0
78
0
79
0
83
0
86
0
82
0
74
0
59
0
40
0
16
0
0
0
0
0
2
0
2
0
1
0
0
0
0
0
0
0
0
0
0
0
0
0
0
0
0
0
0
0
0
0
0
0
0
0
0
0
0
0
0
0
0
0
0
0
0
0
0
0
0
0
0
0
0
0
0
0
0
0
0
0
0
0
0
0
0
0
0
0
0
0
0
0
0
0
0
0
0
0
0
0
0
0
0
0
0
0
0
0
0
0
0
0
0
0
0
0
0
0
0
0
0
0
0
0
0
0
0
0
0
0
0
0
0
0
4
0
6
0
6
0
5
0
3
0
0
0
1
0
5
0
1
0
0
0
1
0
14
0
0
0
50
0
125
0
191
0
232
0
251
0
255
0
255
0
251
0
252
0
252
0
253
0
254
0
254
0
255
0
255
0
255
0
255
0
255
0
255
0
255
0
255
0
255
0
255
0
255
0
255
0
255
0
255
0
255
0
255
0
255
0
255
0
255
0
255
0
255
0
255
0
255
0
255
0
255
0
255
0
253
0
255
0
251
0
255
0
255
0
255
0
206
0
54
0
22
0
74
0
87
0
80
0
73
0
28
0
54
0
83
0
76
0
79
0
77
0
86
0
106
0
116
0
117
0
122
0
100
0
81
0
87
0
121
0
128
0
128
0
0
0
0
0
0
0
0
0
0
0
0
0
0
0
0
0
0
0
0
0
0
0
0
0
0
0
0
0
0
0
0
0
0
0
0
0
0
0
0
0
0
0
0
0
0
0
0
0
0
0
0
0
0
0
0
0
0
0
0
0
0
0
0
0
0
0
0
0
0
0
0
0
0
0
0
0
0
0
0
0
0
0
0
0
0
0
0
0
0
0
0
0
0
0
0
0
0
0
0
0
0
0
0
0
0
0
0
0
0
0
0
0
0
0
0
0
0
0
0
0
0
0
0
0
0
0
0
0
0
0
0
0
0
0
0
0
0
0
0
0
0
0
0
0
0
0
0
0
0
0
0
0
0
0
0
0
0
0
0
0
0
0
0
0
0
0
0
0
0
0
0
0
0
0
0
0
0
0
0
0
0
0
0
0
0
0
0
0
0
0
0
0
0
0
0
0
0
0
0
0
0
0
0
0
0
0
0
0
0
0
0
0
0
0
0
0
0
0
0
0
0
0
0
0
0
0
0
0
0
0
0
0
0
0
0
0
0
0
0
0
0
0
0
0
0
0
0
0
0
0
0
0
0
0
0
0
0
0
0
0
0
0
0
0
0
0
0
0
0
0
0
0
0
0
0
0
0
0
0
0
0
0
0
0
0
0
0
0
0
0
0
0
0
0
0
0
0
0
0
0
0
0
0
0
0
0
0
0
0
0
0
0
0
0
0
0
0
0
0
0
0
0
0
0
0
0
0
0
0
0
0
0
0
0
0
0
0
0
0
0
0
0
0
0
0
0
0
0
0
0
0
0
0
0
0
0
0
0
0
0
0
0
0
0
0
0
0
0
0
0
0
0
0
0
0
0
0
0
0
0
0
0
0
0
0
0
0
0
0
0
0
0
0
0
0
0
0
0
0
0
0
0
0
0
0
0
0
0
0
0
0
0
0
0
0
0
0
0
0
0
0
0
0
0
0
0
0
0
0
0
0
0
0
0
0
0
0
0
0
0
0
0
0
0
1
0
13
0
52
0
100
0
117
0
130
0
138
0
121
0
115
0
94
0
115
0
111
0
117
0
114
0
109
0
74
0
91
0
128
0
125
0
133
0
104
0
133
0
159
0
144
0
137
0
165
0
122
0
109
0
123
0
125
0
119
0
110
0
91
0
81
0
111
0
115
0
118
0
111
0
75
0
132
0
145
0
145
0
150
0
144
0
129
0
66
0
134
0
147
0
142
0
124
0
122
0
74
0
100
0
131
0
116
0
115
0
104
0
69
0
24
0
13
0
48
0
81
0
90
0
78
0
79
0
75
0
78
0
83
0
85
0
84
0
84
0
86
0
87
0
85
0
86
0
83
0
77
0
76
0
76
0
72
0
65
0
63
0
44
0
19
0
3
0
0
0
2
0
2
0
0
0
0
0
0
0
0
0
0
0
0
0
0
0
0
0
0
0
0
0
0
0
0
0
0
0
0
0
0
0
0
0
0
0
0
0
0
0
0
0
0
0
0
0
0
0
0
0
0
0
0
0
0
0
0
0
0
0
0
0
0
0
0
0
0
0
0
0
0
0
0
0
0
0
0
0
0
0
0
0
0
0
1
0
1
0
1
0
1
0
1
0
1
0
1
0
1
0
2
0
1
0
0
0
0
0
0
0
0
0
0
0
0
0
3
0
2
0
8
0
14
0
6
0
0
0
5
0
27
0
144
0
179
0
226
0
255
0
255
0
253
0
246
0
243
0
252
0
253
0
253
0
253
0
254
0
255
0
255
0
255
0
255
0
255
0
255
0
255
0
255
0
255
0
255
0
255
0
255
0
255
0
255
0
255
0
255
0
255
0
255
0
255
0
255
0
255
0
255
0
255
0
255
0
255
0
255
0
255
0
255
0
255
0
249
0
255
0
255
0
255
0
238
0
98
0
9
0
70
0
82
0
82
0
76
0
48
0
45
0
85
0
81
0
84
0
81
0
87
0
105
0
115
0
117
0
122
0
121
0
105
0
78
0
114
0
117
0
116
0
0
0
0
0
0
0
0
0
0
0
0
0
0
0
0
0
0
0
0
0
0
0
0
0
0
0
0
0
0
0
0
0
0
0
0
0
0
0
0
0
0
0
0
0
0
0
0
0
0
0
0
0
0
0
0
0
0
0
0
0
0
0
0
0
0
0
0
0
0
0
0
0
0
0
0
0
0
0
0
0
0
0
0
0
0
0
0
0
0
0
0
0
0
0
0
0
0
0
0
0
0
0
0
0
0
0
0
0
0
0
0
0
0
0
0
0
0
0
0
0
0
0
0
0
0
0
0
0
0
0
0
0
0
0
0
0
0
0
0
0
0
0
0
0
0
0
0
0
0
0
0
0
0
0
0
0
0
0
0
0
0
0
0
0
0
0
0
0
0
0
0
0
0
0
0
0
0
0
0
0
0
0
0
0
0
0
0
0
0
0
0
0
0
0
0
0
0
0
0
0
0
0
0
0
0
0
0
0
0
0
0
0
0
0
0
0
0
0
0
0
0
0
0
0
0
0
0
0
0
0
0
0
0
0
0
0
0
0
0
0
0
0
0
0
0
0
0
0
0
0
0
0
0
0
0
0
0
0
0
0
0
0
0
0
0
0
0
0
0
0
0
0
0
0
0
0
0
0
0
0
0
0
0
0
0
0
0
0
0
0
0
0
0
0
0
0
0
0
0
0
0
0
0
0
0
0
0
0
0
0
0
0
0
0
0
0
0
0
0
0
0
0
0
0
0
0
0
0
0
0
0
0
0
0
0
0
0
0
0
0
0
0
0
0
0
0
0
0
0
0
0
0
0
0
0
0
0
0
0
0
0
0
0
0
0
0
0
0
0
0
0
0
0
0
0
0
0
0
0
0
0
0
0
0
0
0
0
0
0
0
0
0
0
0
0
0
0
0
0
0
0
0
0
0
0
0
0
0
0
0
0
0
0
0
0
0
0
0
0
0
0
0
0
0
0
0
0
0
0
0
0
0
0
0
0
0
0
0
0
0
0
0
0
0
3
0
33
0
87
0
127
0
118
0
133
0
157
0
148
0
143
0
100
0
125
0
137
0
147
0
144
0
139
0
95
0
120
0
148
0
136
0
149
0
127
0
97
0
146
0
152
0
145
0
137
0
107
0
98
0
104
0
107
0
111
0
102
0
75
0
78
0
98
0
92
0
110
0
106
0
76
0
128
0
144
0
140
0
145
0
142
0
129
0
67
0
133
0
146
0
141
0
129
0
135
0
89
0
81
0
122
0
128
0
124
0
111
0
88
0
47
0
42
0
44
0
47
0
54
0
40
0
36
0
39
0
44
0
52
0
57
0
59
0
59
0
58
0
59
0
62
0
60
0
54
0
45
0
39
0
37
0
32
0
25
0
21
0
13
0
4
0
0
0
0
0
2
0
4
0
5
0
0
0
0
0
0
0
0
0
0
0
0
0
0
0
0
0
0
0
0
0
0
0
0
0
0
0
0
0
0
0
0
0
0
0
0
0
0
0
0
0
0
0
0
0
0
0
0
0
0
0
0
0
0
0
0
0
0
0
0
0
0
0
0
0
0
0
0
0
0
0
0
0
0
0
0
0
0
0
0
0
1
0
1
0
1
0
1
0
1
0
1
0
1
0
1
0
0
0
0
0
4
0
7
0
7
0
5
0
2
0
1
0
0
0
0
0
2
0
0
0
0
0
27
0
120
0
208
0
248
0
250
0
253
0
255
0
255
0
255
0
254
0
249
0
254
0
254
0
254
0
254
0
254
0
255
0
255
0
255
0
255
0
255
0
255
0
255
0
255
0
255
0
255
0
255
0
255
0
255
0
255
0
255
0
255
0
255
0
255
0
255
0
255
0
255
0
255
0
255
0
255
0
255
0
255
0
255
0
252
0
255
0
244
0
255
0
252
0
254
0
250
0
143
0
0
0
56
0
70
0
79
0
54
0
58
0
33
0
76
0
81
0
84
0
80
0
83
0
100
0
108
0
111
0
118
0
108
0
104
0
72
0
114
0
129
0
134
0
0
0
0
0
0
0
0
0
0
0
0
0
0
0
0
0
0
0
0
0
0
0
0
0
0
0
0
0
0
0
0
0
0
0
0
0
0
0
0
0
0
0
0
0
0
0
0
0
0
0
0
0
0
0
0
0
0
0
0
0
0
0
0
0
0
0
0
0
0
0
0
0
0
0
0
0
0
0
0
0
0
0
0
0
0
0
0
0
0
0
0
0
0
0
0
0
0
0
0
0
0
0
0
0
0
0
0
0
0
0
0
0
0
0
0
0
0
0
0
0
0
0
0
0
0
0
0
0
0
0
0
0
0
0
0
0
0
0
0
0
0
0
0
0
0
0
0
0
0
0
0
0
0
0
0
0
0
0
0
0
0
0
0
0
0
0
0
0
0
0
0
0
0
0
0
0
0
0
0
0
0
0
0
0
0
0
0
0
0
0
0
0
0
0
0
0
0
0
0
0
0
0
0
0
0
0
0
0
0
0
0
0
0
0
0
0
0
0
0
0
0
0
0
0
0
0
0
0
0
0
0
0
0
0
0
0
0
0
0
0
0
0
0
0
0
0
0
0
0
0
0
0
0
0
0
0
0
0
0
0
0
0
0
0
0
0
0
0
0
0
0
0
0
0
0
0
0
0
0
0
0
0
0
0
0
0
0
0
0
0
0
0
0
0
0
0
0
0
0
0
0
0
0
0
0
0
0
0
0
0
0
0
0
0
0
0
0
0
0
0
0
0
0
0
0
0
0
0
0
0
0
0
0
0
0
0
0
0
0
0
0
0
0
0
0
0
0
0
0
0
0
0
0
0
0
0
0
0
0
0
0
0
0
0
0
0
0
0
0
0
0
0
0
0
0
0
0
0
0
0
0
0
0
0
0
0
0
0
0
0
0
0
0
0
0
0
0
0
0
0
0
0
0
0
0
0
0
0
0
0
0
0
0
0
0
0
0
0
0
0
0
0
0
0
0
0
0
0
0
0
0
0
0
0
0
0
0
0
0
0
0
0
0
0
1
0
45
0
101
0
123
0
95
0
116
0
161
0
161
0
162
0
112
0
128
0
158
0
163
0
163
0
155
0
115
0
138
0
168
0
159
0
171
0
159
0
87
0
118
0
135
0
125
0
121
0
104
0
90
0
86
0
94
0
104
0
92
0
66
0
78
0
89
0
72
0
95
0
95
0
75
0
121
0
135
0
131
0
136
0
134
0
126
0
64
0
128
0
139
0
135
0
130
0
134
0
99
0
68
0
109
0
130
0
127
0
112
0
93
0
65
0
78
0
58
0
20
0
17
0
6
0
13
0
3
0
3
0
8
0
11
0
11
0
9
0
7
0
7
0
13
0
14
0
11
0
4
0
2
0
2
0
1
0
1
0
2
0
2
0
1
0
0
0
0
0
1
0
2
0
4
0
0
0
0
0
0
0
0
0
0
0
0
0
0
0
0
0
0
0
0
0
0
0
0
0
0
0
0
0
0
0
0
0
0
0
0
0
0
0
0
0
0
0
0
0
0
0
0
0
0
0
0
0
0
0
0
0
0
0
0
0
0
0
0
0
0
0
0
0
0
0
0
0
0
0
0
0
0
0
0
0
2
0
2
0
2
0
2
0
2
0
2
0
2
0
2
0
0
0
1
0
5
0
7
0
5
0
1
0
0
0
0
0
5
0
0
0
26
0
97
0
177
0
227
0
242
0
240
0
250
0
255
0
255
0
255
0
244
0
242
0
252
0
255
0
255
0
255
0
255
0
255
0
255
0
255
0
255
0
255
0
255
0
255
0
255
0
255
0
255
0
255
0
255
0
255
0
255
0
255
0
255
0
255
0
255
0
255
0
255
0
255
0
255
0
255
0
255
0
255
0
255
0
255
0
255
0
255
0
254
0
255
0
248
0
255
0
254
0
254
0
254
0
196
0
6
0
31
0
61
0
76
0
42
0
51
0
26
0
55
0
57
0
62
0
59
0
60
0
72
0
80
0
85
0
96
0
117
0
117
0
82
0
94
0
97
0
79
0
0
0
0
0
0
0
0
0
0
0
0
0
0
0
0
0
0
0
0
0
0
0
0
0
0
0
0
0
0
0
0
0
0
0
0
0
0
0
0
0
0
0
0
0
0
0
0
0
0
0
0
0
0
0
0
0
0
0
0
0
0
0
0
0
0
0
0
0
0
0
0
0
0
0
0
0
0
0
0
0
0
0
0
0
0
0
0
0
0
0
0
0
0
0
0
0
0
0
0
0
0
0
0
0
0
0
0
0
0
0
0
0
0
0
0
0
0
0
0
0
0
0
0
0
0
0
0
0
0
0
0
0
0
0
0
0
0
0
0
0
0
0
0
0
0
0
0
0
0
0
0
0
0
0
0
0
0
0
0
0
0
0
0
0
0
0
0
0
0
0
0
0
0
0
0
0
0
0
0
0
0
0
0
0
0
0
0
0
0
0
0
0
0
0
0
0
0
0
0
0
0
0
0
0
0
0
0
0
0
0
0
0
0
0
0
0
0
0
0
0
0
0
0
0
0
0
0
0
0
0
0
0
0
0
0
0
0
0
0
0
0
0
0
0
0
0
0
0
0
0
0
0
0
0
0
0
0
0
0
0
0
0
0
0
0
0
0
0
0
0
0
0
0
0
0
0
0
0
0
0
0
0
0
0
0
0
0
0
0
0
0
0
0
0
0
0
0
0
0
0
0
0
0
0
0
0
0
0
0
0
0
0
0
0
0
0
0
0
0
0
0
0
0
0
0
0
0
0
0
0
0
0
0
0
0
0
0
0
0
0
0
0
0
0
0
0
0
0
0
0
0
0
0
0
0
0
0
0
0
0
0
0
0
0
0
0
0
0
0
0
0
0
0
0
0
0
0
0
0
0
0
0
0
0
0
0
0
0
0
0
0
0
0
0
0
0
0
0
0
0
0
0
0
0
0
0
0
0
0
0
0
0
0
0
0
0
0
0
0
0
0
0
0
0
0
0
0
0
0
0
0
0
0
0
0
0
0
0
0
0
0
0
0
0
1
0
54
0
100
0
111
0
85
0
113
0
158
0
155
0
159
0
126
0
120
0
163
0
162
0
165
0
158
0
126
0
139
0
151
0
149
0
154
0
145
0
92
0
85
0
109
0
103
0
129
0
112
0
85
0
74
0
88
0
94
0
79
0
64
0
77
0
93
0
66
0
80
0
80
0
74
0
119
0
123
0
123
0
125
0
123
0
118
0
58
0
122
0
133
0
127
0
129
0
122
0
100
0
65
0
104
0
126
0
125
0
113
0
101
0
68
0
96
0
87
0
46
0
26
0
0
0
14
0
1
0
1
0
2
0
2
0
0
0
1
0
1
0
1
0
0
0
4
0
4
0
1
0
1
0
5
0
6
0
4
0
3
0
4
0
5
0
5
0
3
0
1
0
0
0
0
0
0
0
0
0
0
0
0
0
0
0
0
0
0
0
0
0
0
0
0
0
0
0
0
0
0
0
0
0
0
0
0
0
0
0
0
0
0
0
0
0
0
0
0
0
0
0
0
0
0
0
0
0
0
0
0
0
0
0
0
0
0
0
0
0
0
0
0
0
0
0
0
0
0
0
0
0
0
0
0
0
2
0
2
0
2
0
2
0
2
0
2
0
2
0
2
0
10
0
6
0
0
0
0
0
0
0
7
0
23
0
34
0
101
0
145
0
201
0
236
0
245
0
247
0
255
0
255
0
255
0
255
0
254
0
255
0
255
0
255
0
255
0
251
0
255
0
255
0
255
0
255
0
255
0
255
0
255
0
255
0
255
0
255
0
255
0
255
0
255
0
255
0
255
0
255
0
255
0
255
0
255
0
255
0
255
0
255
0
255
0
255
0
255
0
255
0
255
0
255
0
255
0
255
0
255
0
255
0
255
0
255
0
254
0
255
0
255
0
255
0
252
0
245
0
65
0
11
0
62
0
78
0
64
0
57
0
31
0
34
0
36
0
44
0
44
0
44
0
53
0
60
0
70
0
85
0
64
0
63
0
35
0
26
0
59
0
78
0
0
0
0
0
0
0
0
0
0
0
0
0
0
0
0
0
0
0
0
0
0
0
0
0
0
0
0
0
0
0
0
0
0
0
0
0
0
0
0
0
0
0
0
0
0
0
0
0
0
0
0
0
0
0
0
0
0
0
0
0
0
0
0
0
0
0
0
0
0
0
0
0
0
0
0
0
0
0
0
0
0
0
0
0
0
0
0
0
0
0
0
0
0
0
0
0
0
0
0
0
0
0
0
0
0
0
0
0
0
0
0
0
0
0
0
0
0
0
0
0
0
0
0
0
0
0
0
0
0
0
0
0
0
0
0
0
0
0
0
0
0
0
0
0
0
0
0
0
0
0
0
0
0
0
0
0
0
0
0
0
0
0
0
0
0
0
0
0
0
0
0
0
0
0
0
0
0
0
0
0
0
0
0
0
0
0
0
0
0
0
0
0
0
0
0
0
0
0
0
0
0
0
0
0
0
0
0
0
0
0
0
0
0
0
0
0
0
0
0
0
0
0
0
0
0
0
0
0
0
0
0
0
0
0
0
0
0
0
0
0
0
0
0
0
0
0
0
0
0
0
0
0
0
0
0
0
0
0
0
0
0
0
0
0
0
0
0
0
0
0
0
0
0
0
0
0
0
0
0
0
0
0
0
0
0
0
0
0
0
0
0
0
0
0
0
0
0
0
0
0
0
0
0
0
0
0
0
0
0
0
0
0
0
0
0
0
0
0
0
0
0
0
0
0
0
0
0
0
0
0
0
0
0
0
0
0
0
0
0
0
0
0
0
0
0
0
0
0
0
0
0
0
0
0
0
0
0
0
0
0
0
0
0
0
0
0
0
0
0
0
0
0
0
0
0
0
0
0
0
0
0
0
0
0
0
0
0
0
0
0
0
0
0
0
0
0
0
0
0
0
0
0
0
0
0
0
0
0
0
0
0
0
0
0
0
0
0
0
0
0
0
0
0
0
0
0
0
0
0
0
0
0
0
0
0
0
0
0
0
0
0
0
0
0
1
0
67
0
97
0
94
0
68
0
98
0
138
0
133
0
141
0
118
0
96
0
144
0
139
0
149
0
139
0
114
0
117
0
149
0
150
0
135
0
114
0
98
0
70
0
107
0
115
0
121
0
105
0
77
0
75
0
96
0
93
0
67
0
58
0
78
0
101
0
69
0
74
0
70
0
76
0
119
0
115
0
119
0
119
0
115
0
111
0
52
0
117
0
128
0
123
0
135
0
117
0
105
0
73
0
107
0
124
0
124
0
116
0
116
0
66
0
92
0
102
0
74
0
45
0
2
0
4
0
4
0
6
0
6
0
4
0
2
0
2
0
3
0
5
0
0
0
2
0
3
0
1
0
1
0
3
0
3
0
1
0
4
0
1
0
1
0
1
0
2
0
3
0
2
0
1
0
0
0
0
0
0
0
0
0
0
0
0
0
0
0
0
0
0
0
0
0
0
0
0
0
0
0
0
0
0
0
0
0
0
0
0
0
0
0
0
0
0
0
0
0
0
0
0
0
0
0
0
0
0
0
0
0
0
0
0
0
0
0
0
0
0
0
0
0
0
0
0
0
0
0
0
0
0
0
0
0
2
0
2
0
2
0
2
0
2
0
2
0
2
0
2
0
0
0
0
0
0
0
7
0
42
0
96
0
154
0
192
0
230
0
244
0
255
0
255
0
255
0
255
0
252
0
245
0
250
0
253
0
255
0
255
0
253
0
252
0
253
0
255
0
255
0
255
0
255
0
255
0
255
0
255
0
255
0
255
0
255
0
255
0
255
0
255
0
255
0
255
0
255
0
255
0
255
0
255
0
255
0
255
0
255
0
255
0
255
0
255
0
255
0
255
0
255
0
255
0
255
0
255
0
255
0
255
0
252
0
255
0
254
0
248
0
255
0
255
0
245
0
255
0
132
0
5
0
67
0
85
0
102
0
74
0
45
0
18
0
65
0
74
0
75
0
76
0
83
0
91
0
103
0
120
0
132
0
126
0
106
0
73
0
99
0
107
0
0
0
0
0
0
0
0
0
0
0
0
0
0
0
0
0
0
0
0
0
0
0
0
0
0
0
0
0
0
0
0
0
0
0
0
0
0
0
0
0
0
0
0
0
0
0
0
0
0
0
0
0
0
0
0
0
0
0
0
0
0
0
0
0
0
0
0
0
0
0
0
0
0
0
0
0
0
0
0
0
0
0
0
0
0
0
0
0
0
0
0
0
0
0
0
0
0
0
0
0
0
0
0
0
0
0
0
0
0
0
0
0
0
0
0
0
0
0
0
0
0
0
0
0
0
0
0
0
0
0
0
0
0
0
0
0
0
0
0
0
0
0
0
0
0
0
0
0
0
0
0
0
0
0
0
0
0
0
0
0
0
0
0
0
0
0
0
0
0
0
0
0
0
0
0
0
0
0
0
0
0
0
0
0
0
0
0
0
0
0
0
0
0
0
0
0
0
0
0
0
0
0
0
0
0
0
0
0
0
0
0
0
0
0
0
0
0
0
0
0
0
0
0
0
0
0
0
0
0
0
0
0
0
0
0
0
0
0
0
0
0
0
0
0
0
0
0
0
0
0
0
0
0
0
0
0
0
0
0
0
0
0
0
0
0
0
0
0
0
0
0
0
0
0
0
0
0
0
0
0
0
0
0
0
0
0
0
0
0
0
0
0
0
0
0
0
0
0
0
0
0
0
0
0
0
0
0
0
0
0
0
0
0
0
0
0
0
0
0
0
0
0
0
0
0
0
0
0
0
0
0
0
0
0
0
0
0
0
0
0
0
0
0
0
0
0
0
0
0
0
0
0
0
0
0
0
0
0
0
0
0
0
0
0
0
0
0
0
0
0
0
0
0
0
0
0
0
0
0
0
0
0
0
0
0
0
0
0
0
0
0
0
0
0
0
0
0
0
0
0
0
0
0
0
0
0
0
0
0
0
0
0
0
0
0
0
0
0
0
0
0
0
0
0
0
0
0
0
0
0
0
0
0
0
0
0
0
0
0
0
0
0
0
0
2
0
50
0
83
0
80
0
65
0
90
0
109
0
109
0
118
0
77
0
92
0
114
0
112
0
114
0
112
0
93
0
99
0
120
0
113
0
124
0
119
0
93
0
64
0
109
0
101
0
94
0
114
0
83
0
55
0
69
0
52
0
17
0
4
0
54
0
47
0
71
0
78
0
50
0
97
0
120
0
116
0
112
0
120
0
123
0
98
0
57
0
108
0
127
0
121
0
119
0
112
0
100
0
69
0
121
0
112
0
121
0
126
0
109
0
62
0
93
0
75
0
75
0
90
0
90
0
11
0
2
0
14
0
6
0
1
0
5
0
3
0
1
0
6
0
1
0
1
0
1
0
3
0
8
0
1
0
0
0
8
0
0
0
0
0
0
0
0
0
0
0
0
0
1
0
2
0
0
0
2
0
3
0
3
0
1
0
0
0
1
0
2
0
0
0
0
0
0
0
0
0
0
0
0
0
0
0
0
0
0
0
0
0
0
0
0
0
1
0
1
0
1
0
1
0
0
0
0
0
1
0
2
0
2
0
1
0
0
0
0
0
3
0
1
0
0
0
1
0
2
0
1
0
0
0
0
0
0
0
1
0
5
0
5
0
0
0
0
0
0
0
2
0
7
0
70
0
143
0
191
0
219
0
241
0
254
0
255
0
253
0
253
0
253
0
253
0
253
0
253
0
253
0
253
0
255
0
255
0
255
0
255
0
255
0
255
0
255
0
255
0
255
0
255
0
255
0
255
0
255
0
255
0
255
0
255
0
255
0
255
0
255
0
255
0
255
0
255
0
255
0
255
0
255
0
255
0
255
0
255
0
255
0
255
0
255
0
255
0
255
0
255
0
255
0
255
0
255
0
255
0
255
0
255
0
255
0
255
0
255
0
255
0
255
0
253
0
252
0
251
0
214
0
29
0
14
0
95
0
87
0
94
0
63
0
30
0
59
0
85
0
84
0
71
0
75
0
82
0
95
0
118
0
117
0
120
0
129
0
84
0
68
0
118
0
0
0
0
0
0
0
0
0
0
0
0
0
0
0
0
0
0
0
0
0
0
0
0
0
0
0
0
0
0
0
0
0
0
0
0
0
0
0
0
0
0
0
0
0
0
0
0
0
0
0
0
0
0
0
0
0
0
0
0
0
0
0
0
0
0
0
0
0
0
0
0
0
0
0
0
0
0
0
0
0
0
0
0
0
0
0
0
0
0
0
0
0
0
0
0
0
0
0
0
0
0
0
0
0
0
0
0
0
0
0
0
0
0
0
0
0
0
0
0
0
0
0
0
0
0
0
0
0
0
0
0
0
0
0
0
0
0
0
0
0
0
0
0
0
0
0
0
0
0
0
0
0
0
0
0
0
0
0
0
0
0
0
0
0
0
0
0
0
0
0
0
0
0
0
0
0
0
0
0
0
0
0
0
0
0
0
0
0
0
0
0
0
0
0
0
0
0
0
0
0
0
0
0
0
0
0
0
0
0
0
0
0
0
0
0
0
0
0
0
0
0
0
0
0
0
0
0
0
0
0
0
0
0
0
0
0
0
0
0
0
0
0
0
0
0
0
0
0
0
0
0
0
0
0
0
0
0
0
0
0
0
0
0
0
0
0
0
0
0
0
0
0
0
0
0
0
0
0
0
0
0
0
0
0
0
0
0
0
0
0
0
0
0
0
0
0
0
0
0
0
0
0
0
0
0
0
0
0
0
0
0
0
0
0
0
0
0
0
0
0
0
0
0
0
0
0
0
0
0
0
0
0
0
0
0
0
0
0
0
0
0
0
0
0
0
0
0
0
0
0
0
0
0
0
0
0
0
0
0
0
0
0
0
0
0
0
0
0
0
0
0
0
0
0
0
0
0
0
0
0
0
0
0
0
0
0
0
0
0
0
0
0
0
0
0
0
0
0
0
0
0
0
0
0
0
0
0
0
0
0
0
0
0
0
0
0
0
0
0
0
0
0
0
0
0
0
0
0
0
0
0
0
0
0
0
0
0
0
0
0
0
0
0
0
4
0
22
0
63
0
69
0
58
0
74
0
87
0
89
0
103
0
71
0
92
0
121
0
124
0
125
0
116
0
88
0
86
0
103
0
103
0
116
0
111
0
85
0
62
0
98
0
90
0
98
0
80
0
36
0
11
0
21
0
18
0
17
0
38
0
48
0
45
0
68
0
74
0
51
0
99
0
122
0
119
0
111
0
121
0
125
0
98
0
65
0
112
0
125
0
120
0
124
0
114
0
94
0
67
0
121
0
112
0
115
0
114
0
106
0
64
0
105
0
84
0
63
0
72
0
106
0
77
0
8
0
6
0
2
0
2
0
4
0
3
0
1
0
10
0
1
0
3
0
0
0
1
0
7
0
2
0
1
0
5
0
6
0
4
0
2
0
3
0
6
0
7
0
6
0
4
0
0
0
0
0
0
0
0
0
0
0
0
0
0
0
0
0
0
0
0
0
0
0
0
0
0
0
0
0
0
0
0
0
0
0
0
0
0
0
0
0
0
0
1
0
1
0
2
0
0
0
0
0
0
0
0
0
0
0
0
0
0
0
1
0
0
0
0
0
0
0
0
0
0
0
0
0
1
0
6
0
3
0
2
0
4
0
13
0
38
0
78
0
124
0
154
0
209
0
235
0
255
0
255
0
252
0
252
0
250
0
244
0
253
0
253
0
253
0
253
0
253
0
253
0
253
0
253
0
255
0
255
0
255
0
255
0
255
0
255
0
255
0
255
0
255
0
255
0
255
0
255
0
255
0
255
0
255
0
255
0
255
0
255
0
255
0
255
0
255
0
255
0
255
0
255
0
255
0
255
0
255
0
255
0
255
0
255
0
255
0
255
0
255
0
255
0
255
0
255
0
255
0
255
0
255
0
255
0
255
0
255
0
255
0
255
0
255
0
253
0
252
0
251
0
238
0
88
0
6
0
82
0
88
0
90
0
66
0
49
0
46
0
72
0
78
0
71
0
77
0
81
0
91
0
112
0
116
0
124
0
128
0
93
0
73
0
107
0
0
0
0
0
0
0
0
0
0
0
0
0
0
0
0
0
0
0
0
0
0
0
0
0
0
0
0
0
0
0
0
0
0
0
0
0
0
0
0
0
0
0
0
0
0
0
0
0
0
0
0
0
0
0
0
0
0
0
0
0
0
0
0
0
0
0
0
0
0
0
0
0
0
0
0
0
0
0
0
0
0
0
0
0
0
0
0
0
0
0
0
0
0
0
0
0
0
0
0
0
0
0
0
0
0
0
0
0
0
0
0
0
0
0
0
0
0
0
0
0
0
0
0
0
0
0
0
0
0
0
0
0
0
0
0
0
0
0
0
0
0
0
0
0
0
0
0
0
0
0
0
0
0
0
0
0
0
0
0
0
0
0
0
0
0
0
0
0
0
0
0
0
0
0
0
0
0
0
0
0
0
0
0
0
0
0
0
0
0
0
0
0
0
0
0
0
0
0
0
0
0
0
0
0
0
0
0
0
0
0
0
0
0
0
0
0
0
0
0
0
0
0
0
0
0
0
0
0
0
0
0
0
0
0
0
0
0
0
0
0
0
0
0
0
0
0
0
0
0
0
0
0
0
0
0
0
0
0
0
0
0
0
0
0
0
0
0
0
0
0
0
0
0
0
0
0
0
0
0
0
0
0
0
0
0
0
0
0
0
0
0
0
0
0
0
0
0
0
0
0
0
0
0
0
0
0
0
0
0
0
0
0
0
0
0
0
0
0
0
0
0
0
0
0
0
0
0
0
0
0
0
0
0
0
0
0
0
0
0
0
0
0
0
0
0
0
0
0
0
0
0
0
0
0
0
0
0
0
0
0
0
0
0
0
0
0
0
0
0
0
0
0
0
0
0
0
0
0
0
0
0
0
0
0
0
0
0
0
0
0
0
0
0
0
0
0
0
0
0
0
0
0
0
0
0
0
0
0
0
0
0
0
0
0
0
0
0
0
0
0
0
0
0
0
0
0
0
0
0
0
0
0
0
0
0
0
0
0
0
0
0
0
0
0
3
0
3
0
40
0
52
0
53
0
74
0
85
0
88
0
97
0
58
0
81
0
110
0
115
0
118
0
111
0
85
0
85
0
107
0
107
0
113
0
101
0
80
0
72
0
104
0
99
0
84
0
47
0
29
0
44
0
51
0
29
0
49
0
78
0
66
0
64
0
83
0
83
0
59
0
103
0
119
0
114
0
111
0
123
0
123
0
92
0
72
0
114
0
123
0
117
0
123
0
117
0
100
0
74
0
122
0
115
0
116
0
119
0
101
0
65
0
113
0
88
0
45
0
47
0
116
0
134
0
56
0
17
0
4
0
8
0
3
0
6
0
3
0
1
0
1
0
4
0
1
0
1
0
4
0
4
0
1
0
1
0
5
0
2
0
0
0
2
0
5
0
4
0
0
0
0
0
18
0
13
0
5
0
0
0
0
0
0
0
1
0
7
0
0
0
0
0
0
0
0
0
0
0
0
0
0
0
0
0
5
0
3
0
1
0
0
0
0
0
0
0
0
0
0
0
1
0
0
0
0
0
0
0
0
0
2
0
5
0
6
0
0
0
9
0
22
0
31
0
38
0
53
0
76
0
94
0
132
0
148
0
172
0
197
0
219
0
239
0
255
0
255
0
255
0
255
0
255
0
254
0
252
0
255
0
255
0
255
0
253
0
253
0
253
0
253
0
253
0
253
0
253
0
253
0
255
0
255
0
255
0
255
0
255
0
255
0
255
0
255
0
255
0
255
0
255
0
255
0
255
0
255
0
255
0
255
0
255
0
255
0
255
0
255
0
255
0
255
0
255
0
255
0
255
0
255
0
255
0
255
0
255
0
255
0
255
0
255
0
255
0
255
0
255
0
255
0
255
0
255
0
255
0
255
0
255
0
255
0
255
0
255
0
255
0
253
0
252
0
251
0
254
0
167
0
20
0
56
0
90
0
96
0
72
0
68
0
36
0
59
0
72
0
75
0
78
0
79
0
84
0
98
0
114
0
127
0
124
0
106
0
81
0
89
0
0
0
0
0
0
0
0
0
0
0
0
0
0
0
0
0
0
0
0
0
0
0
0
0
0
0
0
0
0
0
0
0
0
0
0
0
0
0
0
0
0
0
0
0
0
0
0
0
0
0
0
0
0
0
0
0
0
0
0
0
0
0
0
0
0
0
0
0
0
0
0
0
0
0
0
0
0
0
0
0
0
0
0
0
0
0
0
0
0
0
0
0
0
0
0
0
0
0
0
0
0
0
0
0
0
0
0
0
0
0
0
0
0
0
0
0
0
0
0
0
0
0
0
0
0
0
0
0
0
0
0
0
0
0
0
0
0
0
0
0
0
0
0
0
0
0
0
0
0
0
0
0
0
0
0
0
0
0
0
0
0
0
0
0
0
0
0
0
0
0
0
0
0
0
0
0
0
0
0
0
0
0
0
0
0
0
0
0
0
0
0
0
0
0
0
0
0
0
0
0
0
0
0
0
0
0
0
0
0
0
0
0
0
0
0
0
0
0
0
0
0
0
0
0
0
0
0
0
0
0
0
0
0
0
0
0
0
0
0
0
0
0
0
0
0
0
0
0
0
0
0
0
0
0
0
0
0
0
0
0
0
0
0
0
0
0
0
0
0
0
0
0
0
0
0
0
0
0
0
0
0
0
0
0
0
0
0
0
0
0
0
0
0
0
0
0
0
0
0
0
0
0
0
0
0
0
0
0
0
0
0
0
0
0
0
0
0
0
0
0
0
0
0
0
0
0
0
0
0
0
0
0
0
0
0
0
0
0
0
0
0
0
0
0
0
0
0
0
0
0
0
0
0
0
0
0
0
0
0
0
0
0
0
0
0
0
0
0
0
0
0
0
0
0
0
0
0
0
0
0
0
0
0
0
0
0
0
0
0
0
0
0
0
0
0
0
0
0
0
0
0
0
0
0
0
0
0
0
0
0
0
0
0
0
0
0
0
0
0
0
0
0
0
0
0
0
0
0
0
0
0
0
0
0
0
0
0
0
0
0
0
0
0
0
4
0
3
0
20
0
27
0
43
0
77
0
97
0
98
0
101
0
53
0
69
0
91
0
89
0
92
0
91
0
73
0
79
0
96
0
100
0
103
0
89
0
69
0
69
0
87
0
82
0
40
0
25
0
50
0
85
0
83
0
44
0
63
0
83
0
83
0
82
0
95
0
89
0
65
0
106
0
117
0
110
0
112
0
122
0
115
0
80
0
79
0
117
0
120
0
115
0
108
0
112
0
95
0
74
0
114
0
111
0
113
0
123
0
104
0
61
0
103
0
78
0
37
0
44
0
123
0
143
0
97
0
34
0
5
0
12
0
2
0
6
0
3
0
3
0
0
0
7
0
2
0
1
0
4
0
7
0
0
0
1
0
6
0
5
0
2
0
1
0
2
0
4
0
7
0
9
0
0
0
0
0
0
0
12
0
30
0
52
0
74
0
88
0
116
0
116
0
116
0
116
0
116
0
116
0
116
0
116
0
110
0
107
0
102
0
96
0
92
0
90
0
90
0
90
0
87
0
91
0
99
0
110
0
123
0
136
0
147
0
152
0
169
0
178
0
187
0
191
0
193
0
202
0
219
0
233
0
240
0
247
0
255
0
255
0
255
0
255
0
253
0
252
0
248
0
250
0
249
0
245
0
248
0
255
0
255
0
255
0
254
0
254
0
254
0
254
0
254
0
254
0
254
0
254
0
255
0
255
0
255
0
255
0
255
0
255
0
255
0
255
0
255
0
255
0
255
0
255
0
255
0
255
0
255
0
255
0
255
0
255
0
255
0
255
0
255
0
255
0
255
0
255
0
255
0
255
0
255
0
255
0
255
0
255
0
255
0
255
0
255
0
255
0
255
0
255
0
255
0
255
0
255
0
255
0
255
0
255
0
255
0
255
0
255
0
253
0
252
0
251
0
253
0
225
0
71
0
18
0
83
0
111
0
82
0
74
0
37
0
53
0
68
0
78
0
79
0
76
0
77
0
83
0
110
0
127
0
120
0
116
0
90
0
76
0
0
0
0
0
0
0
0
0
0
0
0
0
0
0
0
0
0
0
0
0
0
0
0
0
0
0
0
0
0
0
0
0
0
0
0
0
0
0
0
0
0
0
0
0
0
0
0
0
0
0
0
0
0
0
0
0
0
0
0
0
0
0
0
0
0
0
0
0
0
0
0
0
0
0
0
0
0
0
0
0
0
0
0
0
0
0
0
0
0
0
0
0
0
0
0
0
0
0
0
0
0
0
0
0
0
0
0
0
0
0
0
0
0
0
0
0
0
0
0
0
0
0
0
0
0
0
0
0
0
0
0
0
0
0
0
0
0
0
0
0
0
0
0
0
0
0
0
0
0
0
0
0
0
0
0
0
0
0
0
0
0
0
0
0
0
0
0
0
0
0
0
0
0
0
0
0
0
0
0
0
0
0
0
0
0
0
0
0
0
0
0
0
0
0
0
0
0
0
0
0
0
0
0
0
0
0
0
0
0
0
0
0
0
0
0
0
0
0
0
0
0
0
0
0
0
0
0
0
0
0
0
0
0
0
0
0
0
0
0
0
0
0
0
0
0
0
0
0
0
0
0
0
0
0
0
0
0
0
0
0
0
0
0
0
0
0
0
0
0
0
0
0
0
0
0
0
0
0
0
0
0
0
0
0
0
0
0
0
0
0
0
0
0
0
0
0
0
0
0
0
0
0
0
0
0
0
0
0
0
0
0
0
0
0
0
0
0
0
0
0
0
0
0
0
0
0
0
0
0
0
0
0
0
0
0
0
0
0
0
0
0
0
0
0
0
0
0
0
0
0
0
0
0
0
0
0
0
0
0
0
0
0
0
0
0
0
0
0
0
0
0
0
0
0
0
0
0
0
0
0
0
0
0
0
0
0
0
0
0
0
0
0
0
0
0
0
0
0
0
0
0
0
0
0
0
0
0
0
0
0
0
0
0
0
0
0
0
0
0
0
0
0
0
0
0
0
0
0
0
0
0
0
0
0
0
0
0
0
0
0
0
0
0
0
3
0
1
0
2
0
4
0
19
0
48
0
66
0
74
0
79
0
54
0
70
0
90
0
87
0
88
0
84
0
64
0
68
0
90
0
96
0
99
0
85
0
63
0
61
0
54
0
46
0
39
0
52
0
75
0
88
0
72
0
41
0
64
0
83
0
77
0
81
0
91
0
82
0
65
0
108
0
118
0
115
0
110
0
118
0
105
0
67
0
88
0
123
0
118
0
111
0
127
0
125
0
98
0
79
0
115
0
114
0
105
0
109
0
105
0
49
0
76
0
57
0
41
0
69
0
140
0
140
0
109
0
46
0
8
0
9
0
0
0
4
0
11
0
8
0
2
0
9
0
3
0
0
0
7
0
9
0
5
0
7
0
0
0
0
0
10
0
10
0
3
0
0
0
0
0
1
0
71
0
93
0
127
0
164
0
193
0
213
0
225
0
231
0
240
0
240
0
240
0
240
0
240
0
240
0
240
0
240
0
237
0
235
0
230
0
226
0
223
0
222
0
222
0
222
0
217
0
221
0
227
0
235
0
242
0
248
0
252
0
254
0
255
0
255
0
255
0
255
0
252
0
252
0
254
0
255
0
255
0
255
0
255
0
255
0
253
0
254
0
255
0
255
0
255
0
255
0
255
0
255
0
255
0
254
0
251
0
248
0
254
0
254
0
254
0
254
0
254
0
254
0
254
0
254
0
255
0
255
0
255
0
255
0
255
0
255
0
255
0
255
0
255
0
255
0
255
0
255
0
255
0
255
0
255
0
255
0
255
0
255
0
255
0
255
0
255
0
255
0
255
0
255
0
255
0
255
0
255
0
255
0
255
0
255
0
255
0
255
0
255
0
255
0
255
0
255
0
255
0
255
0
255
0
255
0
255
0
255
0
255
0
255
0
255
0
253
0
252
0
251
0
251
0
249
0
137
0
2
0
51
0
113
0
91
0
75
0
46
0
48
0
63
0
78
0
80
0
77
0
75
0
77
0
101
0
119
0
114
0
122
0
102
0
73
0
0
0
0
0
0
0
0
0
0
0
0
0
0
0
0
0
0
0
0
0
0
0
0
0
0
0
0
0
0
0
0
0
0
0
0
0
0
0
0
0
0
0
0
0
0
0
0
0
0
0
0
0
0
0
0
0
0
0
0
0
0
0
0
0
0
0
0
0
0
0
0
0
0
0
0
0
0
0
0
0
0
0
0
0
0
0
0
0
0
0
0
0
0
0
0
0
0
0
0
0
0
0
0
0
0
0
0
0
0
0
0
0
0
0
0
0
0
0
0
0
0
0
0
0
0
0
0
0
0
0
0
0
0
0
0
0
0
0
0
0
0
0
0
0
0
0
0
0
0
0
0
0
0
0
0
0
0
0
0
0
0
0
0
0
0
0
0
0
0
0
0
0
0
0
0
0
0
0
0
0
0
0
0
0
0
0
0
0
0
0
0
0
0
0
0
0
0
0
0
0
0
0
0
0
0
0
0
0
0
0
0
0
0
0
0
0
0
0
0
0
0
0
0
0
0
0
0
0
0
0
0
0
0
0
0
0
0
0
0
0
0
0
0
0
0
0
0
0
0
0
0
0
0
0
0
0
0
0
0
0
0
0
0
0
0
0
0
0
0
0
0
0
0
0
0
0
0
0
0
0
0
0
0
0
0
0
0
0
0
0
0
0
0
0
0
0
0
0
0
0
0
0
0
0
0
0
0
0
0
0
0
0
0
0
0
0
0
0
0
0
0
0
0
0
0
0
0
0
0
0
0
0
0
0
0
0
0
0
0
0
0
0
0
0
0
0
0
0
0
0
0
0
0
0
0
0
0
0
0
0
0
0
0
0
0
0
0
0
0
0
0
0
0
0
0
0
0
0
0
0
0
0
0
0
0
0
0
0
0
0
0
0
0
0
0
0
0
0
0
0
0
0
0
0
0
0
0
0
0
0
0
0
0
0
0
0
0
0
0
0
0
0
0
0
0
0
0
0
0
0
0
0
0
0
0
0
0
0
0
0
0
0
0
0
4
0
1
0
6
0
7
0
4
0
6
0
12
0
25
0
37
0
40
0
61
0
90
0
95
0
98
0
91
0
66
0
66
0
93
0
88
0
77
0
58
0
34
0
40
0
25
0
35
0
67
0
80
0
89
0
81
0
62
0
41
0
57
0
86
0
78
0
85
0
90
0
76
0
64
0
108
0
116
0
115
0
108
0
116
0
98
0
60
0
100
0
126
0
104
0
88
0
88
0
82
0
55
0
54
0
107
0
126
0
117
0
121
0
87
0
24
0
49
0
41
0
53
0
98
0
148
0
133
0
110
0
75
0
39
0
12
0
0
0
1
0
6
0
4
0
1
0
1
0
1
0
1
0
6
0
1
0
4
0
12
0
17
0
10
0
0
0
0
0
2
0
47
0
109
0
155
0
209
0
221
0
238
0
252
0
255
0
255
0
255
0
252
0
255
0
255
0
255
0
255
0
255
0
255
0
255
0
255
0
255
0
255
0
255
0
255
0
255
0
255
0
255
0
255
0
255
0
255
0
255
0
255
0
254
0
248
0
243
0
239
0
249
0
248
0
249
0
252
0
255
0
255
0
255
0
252
0
242
0
246
0
253
0
255
0
255
0
255
0
254
0
251
0
248
0
252
0
255
0
255
0
254
0
254
0
255
0
255
0
255
0
255
0
255
0
255
0
255
0
255
0
255
0
255
0
255
0
255
0
255
0
255
0
255
0
255
0
255
0
255
0
255
0
255
0
255
0
255
0
255
0
255
0
255
0
255
0
255
0
255
0
255
0
255
0
255
0
255
0
255
0
255
0
255
0
255
0
255
0
255
0
255
0
255
0
255
0
255
0
255
0
255
0
255
0
255
0
255
0
255
0
255
0
255
0
255
0
255
0
255
0
255
0
255
0
253
0
252
0
251
0
246
0
255
0
192
0
23
0
13
0
86
0
95
0
81
0
61
0
47
0
53
0
73
0
78
0
78
0
80
0
79
0
91
0
102
0
107
0
122
0
113
0
82
0
0
0
0
0
0
0
0
0
0
0
0
0
0
0
0
0
0
0
0
0
0
0
0
0
0
0
0
0
0
0
0
0
0
0
0
0
0
0
0
0
0
0
0
0
0
0
0
0
0
0
0
0
0
0
0
0
0
0
0
0
0
0
0
0
0
0
0
0
0
0
0
0
0
0
0
0
0
0
0
0
0
0
0
0
0
0
0
0
0
0
0
0
0
0
0
0
0
0
0
0
0
0
0
0
0
0
0
0
0
0
0
0
0
0
0
0
0
0
0
0
0
0
0
0
0
0
0
0
0
0
0
0
0
0
0
0
0
0
0
0
0
0
0
0
0
0
0
0
0
0
0
0
0
0
0
0
0
0
0
0
0
0
0
0
0
0
0
0
0
0
0
0
0
0
0
0
0
0
0
0
0
0
0
0
0
0
0
0
0
0
0
0
0
0
0
0
0
0
0
0
0
0
0
0
0
0
0
0
0
0
0
0
0
0
0
0
0
0
0
0
0
0
0
0
0
0
0
0
0
0
0
0
0
0
0
0
0
0
0
0
0
0
0
0
0
0
0
0
0
0
0
0
0
0
0
0
0
0
0
0
0
0
0
0
0
0
0
0
0
0
0
0
0
0
0
0
0
0
0
0
0
0
0
0
0
0
0
0
0
0
0
0
0
0
0
0
0
0
0
0
0
0
0
0
0
0
0
0
0
0
0
0
0
0
0
0
0
0
0
0
0
0
0
0
0
0
0
0
0
0
0
0
0
0
0
0
0
0
0
0
0
0
0
0
0
0
0
0
0
0
0
0
0
0
0
0
0
0
0
0
0
0
0
0
0
0
0
0
0
0
0
0
0
0
0
0
0
0
0
0
0
0
0
0
0
0
0
0
0
0
0
0
0
0
0
0
0
0
0
0
0
0
0
0
0
0
0
0
0
0
0
0
0
0
0
0
0
0
0
0
0
0
0
0
0
0
0
0
0
0
0
0
0
0
0
0
0
0
0
0
0
0
0
0
30
0
28
0
20
0
22
0
17
0
5
0
2
0
10
0
14
0
7
0
28
0
54
0
56
0
62
0
61
0
41
0
45
0
53
0
40
0
24
0
10
0
3
0
10
0
1
0
25
0
37
0
44
0
44
0
43
0
39
0
22
0
31
0
75
0
88
0
97
0
94
0
76
0
64
0
107
0
113
0
113
0
110
0
120
0
99
0
58
0
108
0
116
0
70
0
40
0
24
0
33
0
17
0
21
0
68
0
92
0
96
0
116
0
57
0
2
0
45
0
57
0
76
0
111
0
146
0
123
0
104
0
114
0
90
0
38
0
3
0
2
0
1
0
2
0
2
0
4
0
5
0
14
0
16
0
2
0
2
0
25
0
30
0
60
0
103
0
144
0
177
0
209
0
239
0
255
0
255
0
255
0
255
0
252
0
248
0
248
0
250
0
253
0
252
0
252
0
252
0
252
0
252
0
252
0
252
0
252
0
248
0
248
0
249
0
250
0
250
0
251
0
252
0
253
0
247
0
249
0
251
0
254
0
255
0
255
0
255
0
255
0
255
0
255
0
254
0
254
0
255
0
253
0
248
0
243
0
255
0
255
0
255
0
250
0
249
0
252
0
255
0
255
0
255
0
255
0
255
0
255
0
255
0
255
0
255
0
255
0
255
0
255
0
255
0
255
0
255
0
255
0
255
0
255
0
255
0
255
0
255
0
255
0
255
0
255
0
255
0
255
0
255
0
255
0
255
0
255
0
255
0
255
0
255
0
255
0
255
0
255
0
255
0
255
0
255
0
255
0
255
0
255
0
255
0
255
0
255
0
255
0
255
0
255
0
255
0
255
0
255
0
255
0
255
0
255
0
255
0
255
0
255
0
255
0
255
0
255
0
255
0
255
0
255
0
253
0
252
0
251
0
245
0
254
0
231
0
124
0
2
0
45
0
94
0
91
0
80
0
50
0
47
0
67
0
73
0
79
0
83
0
79
0
82
0
85
0
102
0
118
0
121
0
96
0
0
0
0
0
0
0
0
0
0
0
0
0
0
0
0
0
0
0
0
0
0
0
0
0
0
0
0
0
0
0
0
0
0
0
0
0
0
0
0
0
0
0
0
0
0
0
0
0
0
0
0
0
0
0
0
0
0
0
0
0
0
0
0
0
0
0
0
0
0
0
0
0
0
0
0
0
0
0
0
0
0
0
0
0
0
0
0
0
0
0
0
0
0
0
0
0
0
0
0
0
0
0
0
0
0
0
0
0
0
0
0
0
0
0
0
0
0
0
0
0
0
0
0
0
0
0
0
0
0
0
0
0
0
0
0
0
0
0
0
0
0
0
0
0
0
0
0
0
0
0
0
0
0
0
0
0
0
0
0
0
0
0
0
0
0
0
0
0
0
0
0
0
0
0
0
0
0
0
0
0
0
0
0
0
0
0
0
0
0
0
0
0
0
0
0
0
0
0
0
0
0
0
0
0
0
0
0
0
0
0
0
0
0
0
0
0
0
0
0
0
0
0
0
0
0
0
0
0
0
0
0
0
0
0
0
0
0
0
0
0
0
0
0
0
0
0
0
0
0
0
0
0
0
0
0
0
0
0
0
0
0
0
0
0
0
0
0
0
0
0
0
0
0
0
0
0
0
0
0
0
0
0
0
0
0
0
0
0
0
0
0
0
0
0
0
0
0
0
0
0
0
0
0
0
0
0
0
0
0
0
0
0
0
0
0
0
0
0
0
0
0
0
0
0
0
0
0
0
0
0
0
0
0
0
0
0
0
0
0
0
0
0
0
0
0
0
0
0
0
0
0
0
0
0
0
0
0
0
0
0
0
0
0
0
0
0
0
0
0
0
0
0
0
0
0
0
0
0
0
0
0
0
0
0
0
0
0
0
0
0
0
0
0
0
0
0
0
0
0
0
0
0
0
0
0
0
0
0
0
0
0
0
0
0
0
0
0
0
0
0
0
0
0
0
0
0
0
0
0
0
0
0
0
0
0
0
0
0
0
0
0
0
0
0
62
0
68
0
45
0
40
0
44
0
34
0
24
0
21
0
18
0
11
0
9
0
9
0
1
0
1
0
6
0
1
0
9
0
2
0
1
0
4
0
12
0
2
0
16
0
1
0
16
0
6
0
6
0
0
0
10
0
17
0
6
0
18
0
82
0
87
0
97
0
93
0
73
0
63
0
109
0
112
0
114
0
114
0
124
0
101
0
58
0
110
0
102
0
38
0
4
0
82
0
101
0
78
0
48
0
34
0
23
0
23
0
50
0
39
0
2
0
61
0
89
0
100
0
116
0
142
0
116
0
92
0
135
0
125
0
60
0
13
0
7
0
5
0
13
0
18
0
19
0
23
0
35
0
35
0
15
0
16
0
46
0
183
0
203
0
230
0
250
0
255
0
254
0
252
0
251
0
251
0
252
0
252
0
250
0
249
0
250
0
253
0
255
0
252
0
252
0
252
0
252
0
252
0
252
0
252
0
252
0
255
0
255
0
255
0
255
0
255
0
254
0
253
0
252
0
255
0
254
0
252
0
250
0
250
0
251
0
252
0
254
0
251
0
251
0
251
0
253
0
255
0
255
0
255
0
255
0
251
0
251
0
251
0
253
0
255
0
255
0
254
0
253
0
255
0
251
0
251
0
255
0
255
0
255
0
255
0
254
0
255
0
255
0
255
0
255
0
255
0
255
0
255
0
255
0
255
0
255
0
255
0
255
0
255
0
255
0
255
0
255
0
255
0
255
0
255
0
255
0
255
0
255
0
255
0
255
0
255
0
255
0
255
0
255
0
255
0
255
0
255
0
255
0
255
0
255
0
255
0
255
0
255
0
255
0
255
0
255
0
255
0
255
0
255
0
255
0
255
0
255
0
255
0
255
0
255
0
255
0
255
0
255
0
255
0
253
0
252
0
251
0
245
0
254
0
249
0
219
0
8
0
17
0
91
0
100
0
96
0
55
0
45
0
62
0
69
0
76
0
83
0
77
0
76
0
74
0
99
0
115
0
126
0
107
0
0
0
0
0
0
0
0
0
0
0
0
0
0
0
0
0
0
0
0
0
0
0
0
0
0
0
0
0
0
0
0
0
0
0
0
0
0
0
0
0
0
0
0
0
0
0
0
0
0
0
0
0
0
0
0
0
0
0
0
0
0
0
0
0
0
0
0
0
0
0
0
0
0
0
0
0
0
0
0
0
0
0
0
0
0
0
0
0
0
0
0
0
0
0
0
0
0
0
0
0
0
0
0
0
0
0
0
0
0
0
0
0
0
0
0
0
0
0
0
0
0
0
0
0
0
0
0
0
0
0
0
0
0
0
0
0
0
0
0
0
0
0
0
0
0
0
0
0
0
0
0
0
0
0
0
0
0
0
0
0
0
0
0
0
0
0
0
0
0
0
0
0
0
0
0
0
0
0
0
0
0
0
0
0
0
0
0
0
0
0
0
0
0
0
0
0
0
0
0
0
0
0
0
0
0
0
0
0
0
0
0
0
0
0
0
0
0
0
0
0
0
0
0
0
0
0
0
0
0
0
0
0
0
0
0
0
0
0
0
0
0
0
0
0
0
0
0
0
0
0
0
0
0
0
0
0
0
0
0
0
0
0
0
0
0
0
0
0
0
0
0
0
0
0
0
0
0
0
0
0
0
0
0
0
0
0
0
0
0
0
0
0
0
0
0
0
0
0
0
0
0
0
0
0
0
0
0
0
0
0
0
0
0
0
0
0
0
0
0
0
0
0
0
0
0
0
0
0
0
0
0
0
0
0
0
0
0
0
0
0
0
0
0
0
0
0
0
0
0
0
0
0
0
0
0
0
0
0
0
0
0
0
0
0
0
0
0
0
0
0
0
0
0
0
0
0
0
0
0
0
0
0
0
0
0
0
0
0
0
0
0
0
0
0
0
0
0
0
0
0
0
0
0
0
0
0
0
0
0
0
0
0
0
0
0
0
0
0
0
0
0
0
0
0
0
0
0
0
0
0
0
0
0
0
0
0
0
0
0
0
0
0
0
0
63
0
62
0
58
0
63
0
72
0
30
0
39
0
51
0
52
0
43
0
48
0
42
0
22
0
8
0
9
0
15
0
18
0
7
0
4
0
10
0
9
0
4
0
4
0
6
0
2
0
10
0
3
0
13
0
8
0
8
0
12
0
17
0
66
0
94
0
85
0
100
0
87
0
73
0
104
0
120
0
110
0
118
0
128
0
91
0
69
0
115
0
68
0
4
0
66
0
112
0
119
0
137
0
121
0
108
0
98
0
50
0
26
0
10
0
34
0
31
0
50
0
68
0
84
0
115
0
106
0
81
0
127
0
141
0
122
0
53
0
6
0
29
0
33
0
40
0
67
0
57
0
30
0
54
0
58
0
22
0
23
0
170
0
255
0
254
0
251
0
251
0
252
0
249
0
251
0
250
0
250
0
250
0
250
0
250
0
250
0
250
0
250
0
255
0
255
0
255
0
255
0
255
0
255
0
255
0
255
0
255
0
255
0
255
0
255
0
255
0
255
0
255
0
255
0
255
0
255
0
255
0
255
0
255
0
255
0
255
0
255
0
255
0
255
0
255
0
255
0
255
0
255
0
255
0
255
0
255
0
255
0
255
0
255
0
255
0
255
0
255
0
255
0
255
0
255
0
255
0
255
0
255
0
255
0
255
0
255
0
255
0
255
0
255
0
255
0
255
0
255
0
255
0
255
0
255
0
255
0
255
0
255
0
255
0
255
0
255
0
255
0
255
0
255
0
255
0
255
0
255
0
255
0
255
0
255
0
255
0
255
0
255
0
255
0
255
0
255
0
255
0
255
0
255
0
255
0
255
0
255
0
255
0
255
0
255
0
255
0
255
0
255
0
255
0
255
0
255
0
255
0
255
0
255
0
255
0
255
0
255
0
255
0
255
0
255
0
255
0
255
0
246
0
254
0
250
0
253
0
133
0
2
0
35
0
86
0
86
0
64
0
49
0
63
0
78
0
78
0
77
0
88
0
78
0
82
0
85
0
92
0
106
0
113
0
0
0
0
0
0
0
0
0
0
0
0
0
0
0
0
0
0
0
0
0
0
0
0
0
0
0
0
0
0
0
0
0
0
0
0
0
0
0
0
0
0
0
0
0
0
0
0
0
0
0
0
0
0
0
0
0
0
0
0
0
0
0
0
0
0
0
0
0
0
0
0
0
0
0
0
0
0
0
0
0
0
0
0
0
0
0
0
0
0
0
0
0
0
0
0
0
0
0
0
0
0
0
0
0
0
0
0
0
0
0
0
0
0
0
0
0
0
0
0
0
0
0
0
0
0
0
0
0
0
0
0
0
0
0
0
0
0
0
0
0
0
0
0
0
0
0
0
0
0
0
0
0
0
0
0
0
0
0
0
0
0
0
0
0
0
0
0
0
0
0
0
0
0
0
0
0
0
0
0
0
0
0
0
0
0
0
0
0
0
0
0
0
0
0
0
0
0
0
0
0
0
0
0
0
0
0
0
0
0
0
0
0
0
0
0
0
0
0
0
0
0
0
0
0
0
0
0
0
0
0
0
0
0
0
0
0
0
0
0
0
0
0
0
0
0
0
0
0
0
0
0
0
0
0
0
0
0
0
0
0
0
0
0
0
0
0
0
0
0
0
0
0
0
0
0
0
0
0
0
0
0
0
0
0
0
0
0
0
0
0
0
0
0
0
0
0
0
0
0
0
0
0
0
0
0
0
0
0
0
0
0
0
0
0
0
0
0
0
0
0
0
0
0
0
0
0
0
0
0
0
0
0
0
0
0
0
0
0
0
0
0
0
0
0
0
0
0
0
0
0
0
0
0
0
0
0
0
0
0
0
0
0
0
0
0
0
0
0
0
0
0
0
0
0
0
0
0
0
0
0
0
0
0
0
0
0
0
0
0
0
0
0
0
0
0
0
0
0
0
0
0
0
0
0
0
0
0
0
0
0
0
0
0
0
0
0
0
0
0
0
0
0
0
0
0
0
0
0
0
0
0
0
0
0
0
0
0
0
0
0
0
0
0
0
61
0
62
0
58
0
63
0
68
0
45
0
45
0
54
0
57
0
58
0
65
0
68
0
62
0
52
0
46
0
47
0
50
0
36
0
32
0
34
0
33
0
21
0
21
0
30
0
31
0
30
0
26
0
32
0
29
0
35
0
29
0
33
0
83
0
99
0
90
0
104
0
89
0
73
0
98
0
120
0
122
0
110
0
115
0
80
0
84
0
111
0
53
0
10
0
96
0
100
0
96
0
110
0
98
0
89
0
99
0
84
0
77
0
78
0
63
0
48
0
25
0
27
0
60
0
78
0
77
0
87
0
109
0
139
0
149
0
97
0
36
0
27
0
36
0
43
0
65
0
54
0
27
0
50
0
52
0
13
0
7
0
115
0
237
0
248
0
255
0
255
0
255
0
254
0
253
0
253
0
253
0
253
0
253
0
253
0
253
0
253
0
253
0
255
0
255
0
255
0
255
0
255
0
255
0
255
0
255
0
255
0
255
0
255
0
255
0
255
0
255
0
255
0
255
0
255
0
255
0
255
0
255
0
255
0
255
0
255
0
255
0
255
0
255
0
255
0
255
0
255
0
255
0
255
0
255
0
255
0
255
0
255
0
255
0
255
0
255
0
255
0
255
0
255
0
255
0
255
0
255
0
255
0
255
0
255
0
255
0
255
0
255
0
255
0
255
0
255
0
255
0
255
0
255
0
255
0
255
0
255
0
255
0
255
0
255
0
255
0
255
0
255
0
255
0
255
0
255
0
255
0
255
0
255
0
255
0
255
0
255
0
255
0
255
0
255
0
255
0
255
0
255
0
255
0
255
0
255
0
255
0
255
0
255
0
255
0
255
0
255
0
255
0
255
0
255
0
255
0
255
0
255
0
255
0
255
0
255
0
255
0
255
0
255
0
255
0
255
0
255
0
246
0
254
0
252
0
254
0
220
0
74
0
3
0
44
0
67
0
66
0
43
0
33
0
68
0
66
0
58
0
63
0
70
0
75
0
79
0
84
0
95
0
104
0
0
0
0
0
0
0
0
0
0
0
0
0
0
0
0
0
0
0
0
0
0
0
0
0
0
0
0
0
0
0
0
0
0
0
0
0
0
0
0
0
0
0
0
0
0
0
0
0
0
0
0
0
0
0
0
0
0
0
0
0
0
0
0
0
0
0
0
0
0
0
0
0
0
0
0
0
0
0
0
0
0
0
0
0
0
0
0
0
0
0
0
0
0
0
0
0
0
0
0
0
0
0
0
0
0
0
0
0
0
0
0
0
0
0
0
0
0
0
0
0
0
0
0
0
0
0
0
0
0
0
0
0
0
0
0
0
0
0
0
0
0
0
0
0
0
0
0
0
0
0
0
0
0
0
0
0
0
0
0
0
0
0
0
0
0
0
0
0
0
0
0
0
0
0
0
0
0
0
0
0
0
0
0
0
0
0
0
0
0
0
0
0
0
0
0
0
0
0
0
0
0
0
0
0
0
0
0
0
0
0
0
0
0
0
0
0
0
0
0
0
0
0
0
0
0
0
0
0
0
0
0
0
0
0
0
0
0
0
0
0
0
0
0
0
0
0
0
0
0
0
0
0
0
0
0
0
0
0
0
0
0
0
0
0
0
0
0
0
0
0
0
0
0
0
0
0
0
0
0
0
0
0
0
0
0
0
0
0
0
0
0
0
0
0
0
0
0
0
0
0
0
0
0
0
0
0
0
0
0
0
0
0
0
0
0
0
0
0
0
0
0
0
0
0
0
0
0
0
0
0
0
0
0
0
0
0
0
0
0
0
0
0
0
0
0
0
0
0
0
0
0
0
0
0
0
0
0
0
0
0
0
0
0
0
0
0
0
0
0
0
0
0
0
0
0
0
0
0
0
0
0
0
0
0
0
0
0
0
0
0
0
0
0
0
0
0
0
0
0
0
0
0
0
0
0
0
0
0
0
0
0
0
0
0
0
0
0
0
0
0
0
0
0
0
0
0
0
0
0
0
0
0
0
0
0
0
0
0
0
0
0
0
0
0
60
0
62
0
55
0
59
0
57
0
52
0
36
0
41
0
48
0
50
0
51
0
53
0
50
0
45
0
42
0
50
0
59
0
58
0
50
0
54
0
56
0
45
0
42
0
54
0
60
0
60
0
59
0
60
0
55
0
54
0
37
0
32
0
71
0
94
0
89
0
108
0
99
0
77
0
90
0
104
0
110
0
114
0
108
0
59
0
91
0
101
0
39
0
12
0
85
0
85
0
71
0
84
0
85
0
88
0
119
0
129
0
125
0
116
0
100
0
99
0
43
0
28
0
72
0
54
0
16
0
81
0
106
0
140
0
128
0
95
0
75
0
41
0
19
0
30
0
44
0
34
0
15
0
43
0
55
0
18
0
17
0
65
0
213
0
247
0
255
0
255
0
255
0
255
0
255
0
255
0
255
0
255
0
255
0
255
0
255
0
255
0
255
0
255
0
255
0
255
0
255
0
255
0
255
0
255
0
255
0
255
0
255
0
255
0
255
0
255
0
255
0
255
0
255
0
255
0
255
0
255
0
255
0
255
0
255
0
255
0
255
0
255
0
255
0
255
0
255
0
255
0
255
0
255
0
255
0
255
0
255
0
255
0
255
0
255
0
255
0
255
0
255
0
255
0
255
0
255
0
255
0
255
0
255
0
255
0
255
0
255
0
255
0
255
0
255
0
255
0
255
0
255
0
255
0
255
0
255
0
255
0
255
0
255
0
255
0
255
0
255
0
255
0
255
0
255
0
255
0
255
0
255
0
255
0
255
0
255
0
255
0
255
0
255
0
255
0
255
0
255
0
255
0
255
0
255
0
255
0
255
0
255
0
255
0
255
0
255
0
255
0
255
0
255
0
255
0
255
0
255
0
255
0
255
0
255
0
255
0
255
0
255
0
255
0
255
0
255
0
255
0
252
0
254
0
249
0
243
0
254
0
175
0
32
0
10
0
70
0
79
0
52
0
24
0
59
0
50
0
46
0
60
0
42
0
46
0
48
0
50
0
56
0
64
0
0
0
0
0
0
0
0
0
0
0
0
0
0
0
0
0
0
0
0
0
0
0
0
0
0
0
0
0
0
0
0
0
0
0
0
0
0
0
0
0
0
0
0
0
0
0
0
0
0
0
0
0
0
0
0
0
0
0
0
0
0
0
0
0
0
0
0
0
0
0
0
0
0
0
0
0
0
0
0
0
0
0
0
0
0
0
0
0
0
0
0
0
0
0
0
0
0
0
0
0
0
0
0
0
0
0
0
0
0
0
0
0
0
0
0
0
0
0
0
0
0
0
0
0
0
0
0
0
0
0
0
0
0
0
0
0
0
0
0
0
0
0
0
0
0
0
0
0
0
0
0
0
0
0
0
0
0
0
0
0
0
0
0
0
0
0
0
0
0
0
0
0
0
0
0
0
0
0
0
0
0
0
0
0
0
0
0
0
0
0
0
0
0
0
0
0
0
0
0
0
0
0
0
0
0
0
0
0
0
0
0
0
0
0
0
0
0
0
0
0
0
0
0
0
0
0
0
0
0
0
0
0
0
0
0
0
0
0
0
0
0
0
0
0
0
0
0
0
0
0
0
0
0
0
0
0
0
0
0
0
0
0
0
0
0
0
0
0
0
0
0
0
0
0
0
0
0
0
0
0
0
0
0
0
0
0
0
0
0
0
0
0
0
0
0
0
0
0
0
0
0
0
0
0
0
0
0
0
0
0
0
0
0
0
0
0
0
0
0
0
0
0
0
0
0
0
0
0
0
0
0
0
0
0
0
0
0
0
0
0
0
0
0
0
0
0
0
0
0
0
0
0
0
0
0
0
0
0
0
0
0
0
0
0
0
0
0
0
0
0
0
0
0
0
0
0
0
0
0
0
0
0
0
0
0
0
0
0
0
0
0
0
0
0
0
0
0
0
0
0
0
0
0
0
0
0
0
0
0
0
0
0
0
0
0
0
0
0
0
0
0
0
0
0
0
0
0
0
0
0
0
0
0
0
0
0
0
0
0
0
0
0
0
0
44
0
44
0
37
0
43
0
34
0
44
0
14
0
19
0
34
0
31
0
30
0
30
0
27
0
19
0
15
0
26
0
41
0
47
0
38
0
41
0
46
0
34
0
30
0
43
0
53
0
65
0
66
0
66
0
61
0
58
0
40
0
33
0
66
0
104
0
85
0
85
0
65
0
46
0
63
0
84
0
105
0
125
0
109
0
47
0
92
0
89
0
49
0
16
0
34
0
63
0
59
0
82
0
105
0
120
0
154
0
163
0
148
0
139
0
137
0
117
0
42
0
24
0
92
0
103
0
59
0
62
0
85
0
116
0
89
0
95
0
125
0
79
0
19
0
52
0
53
0
37
0
21
0
39
0
47
0
7
0
2
0
50
0
211
0
253
0
255
0
248
0
252
0
255
0
255
0
255
0
255
0
255
0
255
0
255
0
255
0
255
0
255
0
255
0
255
0
255
0
255
0
255
0
255
0
255
0
255
0
255
0
255
0
255
0
255
0
255
0
255
0
255
0
255
0
255
0
255
0
255
0
255
0
255
0
255
0
255
0
255
0
255
0
255
0
255
0
255
0
255
0
255
0
255
0
255
0
255
0
255
0
255
0
255
0
255
0
255
0
255
0
255
0
255
0
255
0
255
0
255
0
255
0
255
0
255
0
255
0
255
0
255
0
255
0
255
0
255
0
255
0
255
0
255
0
255
0
255
0
255
0
255
0
255
0
255
0
255
0
255
0
255
0
255
0
255
0
255
0
255
0
255
0
255
0
255
0
255
0
255
0
255
0
255
0
255
0
255
0
255
0
255
0
255
0
255
0
255
0
255
0
255
0
255
0
255
0
255
0
255
0
255
0
255
0
255
0
255
0
255
0
255
0
255
0
255
0
255
0
255
0
255
0
255
0
255
0
255
0
255
0
253
0
248
0
253
0
249
0
249
0
242
0
140
0
0
0
56
0
102
0
96
0
55
0
36
0
59
0
68
0
73
0
64
0
67
0
68
0
65
0
67
0
71
0
0
0
0
0
0
0
0
0
0
0
0
0
0
0
0
0
0
0
0
0
0
0
0
0
0
0
0
0
0
0
0
0
0
0
0
0
0
0
0
0
0
0
0
0
0
0
0
0
0
0
0
0
0
0
0
0
0
0
0
0
0
0
0
0
0
0
0
0
0
0
0
0
0
0
0
0
0
0
0
0
0
0
0
0
0
0
0
0
0
0
0
0
0
0
0
0
0
0
0
0
0
0
0
0
0
0
0
0
0
0
0
0
0
0
0
0
0
0
0
0
0
0
0
0
0
0
0
0
0
0
0
0
0
0
0
0
0
0
0
0
0
0
0
0
0
0
0
0
0
0
0
0
0
0
0
0
0
0
0
0
0
0
0
0
0
0
0
0
0
0
0
0
0
0
0
0
0
0
0
0
0
0
0
0
0
0
0
0
0
0
0
0
0
0
0
0
0
0
0
0
0
0
0
0
0
0
0
0
0
0
0
0
0
0
0
0
0
0
0
0
0
0
0
0
0
0
0
0
0
0
0
0
0
0
0
0
0
0
0
0
0
0
0
0
0
0
0
0
0
0
0
0
0
0
0
0
0
0
0
0
0
0
0
0
0
0
0
0
0
0
0
0
0
0
0
0
0
0
0
0
0
0
0
0
0
0
0
0
0
0
0
0
0
0
0
0
0
0
0
0
0
0
0
0
0
0
0
0
0
0
0
0
0
0
0
0
0
0
0
0
0
0
0
0
0
0
0
0
0
0
0
0
0
0
0
0
0
0
0
0
0
0
0
0
0
0
0
0
0
0
0
0
0
0
0
0
0
0
0
0
0
0
0
0
0
0
0
0
0
0
0
0
0
0
0
0
0
0
0
0
0
0
0
0
0
0
0
0
0
0
0
0
0
0
0
0
0
0
0
0
0
0
0
0
0
0
0
0
0
0
0
0
0
0
0
0
0
0
0
0
0
0
0
0
0
0
0
0
0
0
0
0
0
0
0
0
0
0
0
0
0
0
0
0
27
0
28
0
27
0
39
0
28
0
38
0
11
0
26
0
44
0
39
0
48
0
55
0
52
0
36
0
24
0
30
0
42
0
42
0
32
0
33
0
32
0
18
0
14
0
26
0
34
0
37
0
37
0
45
0
46
0
52
0
38
0
34
0
78
0
79
0
71
0
81
0
74
0
66
0
71
0
68
0
74
0
105
0
101
0
56
0
95
0
86
0
75
0
35
0
6
0
27
0
55
0
93
0
119
0
129
0
150
0
167
0
152
0
157
0
162
0
134
0
77
0
35
0
56
0
106
0
98
0
56
0
39
0
52
0
48
0
95
0
142
0
95
0
32
0
53
0
48
0
44
0
41
0
55
0
52
0
11
0
1
0
55
0
214
0
255
0
255
0
247
0
251
0
254
0
255
0
255
0
255
0
255
0
255
0
255
0
255
0
255
0
255
0
255
0
255
0
255
0
255
0
255
0
255
0
255
0
255
0
255
0
255
0
255
0
255
0
255
0
255
0
255
0
255
0
255
0
255
0
255
0
255
0
255
0
255
0
255
0
255
0
255
0
255
0
255
0
255
0
255
0
255
0
255
0
255
0
255
0
255
0
255
0
255
0
255
0
255
0
255
0
255
0
255
0
255
0
255
0
255
0
255
0
255
0
255
0
255
0
255
0
255
0
255
0
255
0
255
0
255
0
255
0
255
0
255
0
255
0
255
0
255
0
255
0
255
0
255
0
255
0
255
0
255
0
255
0
255
0
255
0
255
0
255
0
255
0
255
0
255
0
255
0
255
0
255
0
255
0
255
0
255
0
255
0
255
0
255
0
255
0
255
0
255
0
255
0
255
0
255
0
255
0
255
0
255
0
255
0
255
0
255
0
255
0
255
0
255
0
255
0
255
0
255
0
255
0
255
0
255
0
252
0
251
0
255
0
254
0
244
0
254
0
219
0
42
0
2
0
83
0
124
0
99
0
20
0
75
0
93
0
63
0
84
0
86
0
86
0
83
0
83
0
85
0
0
0
0
0
0
0
0
0
0
0
0
0
0
0
0
0
0
0
0
0
0
0
0
0
0
0
0
0
0
0
0
0
0
0
0
0
0
0
0
0
0
0
0
0
0
0
0
0
0
0
0
0
0
0
0
0
0
0
0
0
0
0
0
0
0
0
0
0
0
0
0
0
0
0
0
0
0
0
0
0
0
0
0
0
0
0
0
0
0
0
0
0
0
0
0
0
0
0
0
0
0
0
0
0
0
0
0
0
0
0
0
0
0
0
0
0
0
0
0
0
0
0
0
0
0
0
0
0
0
0
0
0
0
0
0
0
0
0
0
0
0
0
0
0
0
0
0
0
0
0
0
0
0
0
0
0
0
0
0
0
0
0
0
0
0
0
0
0
0
0
0
0
0
0
0
0
0
0
0
0
0
0
0
0
0
0
0
0
0
0
0
0
0
0
0
0
0
0
0
0
0
0
0
0
0
0
0
0
0
0
0
0
0
0
0
0
0
0
0
0
0
0
0
0
0
0
0
0
0
0
0
0
0
0
0
0
0
0
0
0
0
0
0
0
0
0
0
0
0
0
0
0
0
0
0
0
0
0
0
0
0
0
0
0
0
0
0
0
0
0
0
0
0
0
0
0
0
0
0
0
0
0
0
0
0
0
0
0
0
0
0
0
0
0
0
0
0
0
0
0
0
0
0
0
0
0
0
0
0
0
0
0
0
0
0
0
0
0
0
0
0
0
0
0
0
0
0
0
0
0
0
0
0
0
0
0
0
0
0
0
0
0
0
0
0
0
0
0
0
0
0
0
0
0
0
0
0
0
0
0
0
0
0
0
0
0
0
0
0
0
0
0
0
0
0
0
0
0
0
0
0
0
0
0
0
0
0
0
0
0
0
0
0
0
0
0
0
0
0
0
0
0
0
0
0
0
0
0
0
0
0
0
0
0
0
0
0
0
0
0
0
0
0
0
0
0
0
0
0
0
0
0
0
0
0
0
0
0
0
0
0
0
0
0
49
0
60
0
62
0
70
0
61
0
53
0
45
0
62
0
75
0
75
0
84
0
85
0
71
0
54
0
51
0
62
0
73
0
67
0
59
0
54
0
45
0
33
0
33
0
42
0
42
0
33
0
34
0
39
0
33
0
32
0
17
0
16
0
63
0
57
0
79
0
118
0
136
0
140
0
127
0
86
0
65
0
70
0
69
0
62
0
96
0
81
0
97
0
71
0
25
0
4
0
61
0
93
0
95
0
89
0
95
0
117
0
121
0
124
0
147
0
140
0
136
0
79
0
16
0
57
0
105
0
115
0
87
0
55
0
25
0
64
0
119
0
100
0
43
0
29
0
20
0
37
0
56
0
69
0
53
0
15
0
9
0
75
0
221
0
252
0
255
0
253
0
255
0
254
0
253
0
254
0
254
0
254
0
254
0
254
0
254
0
254
0
254
0
255
0
255
0
255
0
255
0
255
0
255
0
255
0
255
0
255
0
255
0
255
0
255
0
255
0
255
0
255
0
255
0
255
0
255
0
255
0
255
0
255
0
255
0
255
0
255
0
255
0
255
0
255
0
255
0
255
0
255
0
255
0
255
0
255
0
255
0
255
0
255
0
255
0
255
0
255
0
255
0
255
0
255
0
255
0
255
0
255
0
255
0
255
0
255
0
255
0
255
0
255
0
255
0
255
0
255
0
255
0
255
0
255
0
255
0
255
0
255
0
255
0
255
0
255
0
255
0
255
0
255
0
255
0
255
0
255
0
255
0
255
0
255
0
255
0
255
0
255
0
255
0
255
0
255
0
255
0
255
0
255
0
255
0
255
0
255
0
255
0
255
0
255
0
255
0
255
0
255
0
255
0
255
0
255
0
255
0
255
0
255
0
255
0
255
0
255
0
255
0
255
0
255
0
255
0
255
0
253
0
254
0
240
0
255
0
255
0
246
0
249
0
164
0
8
0
18
0
77
0
132
0
51
0
61
0
73
0
62
0
73
0
74
0
76
0
76
0
77
0
80
0
0
0
0
0
0
0
0
0
0
0
0
0
0
0
0
0
0
0
0
0
0
0
0
0
0
0
0
0
0
0
0
0
0
0
0
0
0
0
0
0
0
0
0
0
0
0
0
0
0
0
0
0
0
0
0
0
0
0
0
0
0
0
0
0
0
0
0
0
0
0
0
0
0
0
0
0
0
0
0
0
0
0
0
0
0
0
0
0
0
0
0
0
0
0
0
0
0
0
0
0
0
0
0
0
0
0
0
0
0
0
0
0
0
0
0
0
0
0
0
0
0
0
0
0
0
0
0
0
0
0
0
0
0
0
0
0
0
0
0
0
0
0
0
0
0
0
0
0
0
0
0
0
0
0
0
0
0
0
0
0
0
0
0
0
0
0
0
0
0
0
0
0
0
0
0
0
0
0
0
0
0
0
0
0
0
0
0
0
0
0
0
0
0
0
0
0
0
0
0
0
0
0
0
0
0
0
0
0
0
0
0
0
0
0
0
0
0
0
0
0
0
0
0
0
0
0
0
0
0
0
0
0
0
0
0
0
0
0
0
0
0
0
0
0
0
0
0
0
0
0
0
0
0
0
0
0
0
0
0
0
0
0
0
0
0
0
0
0
0
0
0
0
0
0
0
0
0
0
0
0
0
0
0
0
0
0
0
0
0
0
0
0
0
0
0
0
0
0
0
0
0
0
0
0
0
0
0
0
0
0
0
0
0
0
0
0
0
0
0
0
0
0
0
0
0
0
0
0
0
0
0
0
0
0
0
0
0
0
0
0
0
0
0
0
0
0
0
0
0
0
0
0
0
0
0
0
0
0
0
0
0
0
0
0
0
0
0
0
0
0
0
0
0
0
0
0
0
0
0
0
0
0
0
0
0
0
0
0
0
0
0
0
0
0
0
0
0
0
0
0
0
0
0
0
0
0
0
0
0
0
0
0
0
0
0
0
0
0
0
0
0
0
0
0
0
0
0
0
0
0
0
0
0
0
0
0
0
0
0
0
0
0
0
0
90
0
96
0
94
0
94
0
88
0
62
0
74
0
90
0
91
0
94
0
100
0
88
0
63
0
54
0
69
0
87
0
93
0
90
0
84
0
77
0
63
0
53
0
62
0
69
0
61
0
58
0
56
0
50
0
35
0
23
0
8
0
10
0
54
0
96
0
111
0
133
0
135
0
142
0
151
0
129
0
120
0
75
0
43
0
65
0
94
0
84
0
101
0
86
0
49
0
13
0
73
0
79
0
63
0
69
0
86
0
104
0
109
0
113
0
111
0
111
0
125
0
95
0
29
0
49
0
137
0
173
0
170
0
126
0
71
0
47
0
72
0
100
0
86
0
37
0
19
0
38
0
61
0
62
0
30
0
1
0
2
0
124
0
243
0
251
0
255
0
255
0
255
0
255
0
254
0
254
0
254
0
254
0
254
0
254
0
254
0
254
0
254
0
255
0
255
0
255
0
255
0
255
0
255
0
255
0
255
0
255
0
255
0
255
0
255
0
255
0
255
0
255
0
255
0
255
0
255
0
255
0
255
0
255
0
255
0
255
0
255
0
255
0
255
0
255
0
255
0
255
0
255
0
255
0
255
0
255
0
255
0
255
0
255
0
255
0
255
0
255
0
255
0
255
0
255
0
255
0
255
0
255
0
255
0
255
0
255
0
255
0
255
0
255
0
255
0
255
0
255
0
255
0
255
0
255
0
255
0
255
0
255
0
255
0
255
0
255
0
255
0
255
0
255
0
255
0
255
0
255
0
255
0
255
0
255
0
255
0
255
0
255
0
255
0
255
0
255
0
255
0
255
0
255
0
255
0
255
0
255
0
255
0
255
0
255
0
255
0
255
0
255
0
255
0
255
0
255
0
255
0
255
0
255
0
255
0
255
0
255
0
255
0
255
0
255
0
255
0
255
0
255
0
255
0
240
0
244
0
255
0
247
0
254
0
252
0
129
0
6
0
19
0
112
0
102
0
47
0
51
0
69
0
79
0
79
0
81
0
85
0
89
0
90
0
0
0
0
0
0
0
0
0
0
0
0
0
0
0
0
0
0
0
0
0
0
0
0
0
0
0
0
0
0
0
0
0
0
0
0
0
0
0
0
0
0
0
0
0
0
0
0
0
0
0
0
0
0
0
0
0
0
0
0
0
0
0
0
0
0
0
0
0
0
0
0
0
0
0
0
0
0
0
0
0
0
0
0
0
0
0
0
0
0
0
0
0
0
0
0
0
0
0
0
0
0
0
0
0
0
0
0
0
0
0
0
0
0
0
0
0
0
0
0
0
0
0
0
0
0
0
0
0
0
0
0
0
0
0
0
0
0
0
0
0
0
0
0
0
0
0
0
0
0
0
0
0
0
0
0
0
0
0
0
0
0
0
0
0
0
0
0
0
0
0
0
0
0
0
0
0
0
0
0
0
0
0
0
0
0
0
0
0
0
0
0
0
0
0
0
0
0
0
0
0
0
0
0
0
0
0
0
0
0
0
0
0
0
0
0
0
0
0
0
0
0
0
0
0
0
0
0
0
0
0
0
0
0
0
0
0
0
0
0
0
0
0
0
0
0
0
0
0
0
0
0
0
0
0
0
0
0
0
0
0
0
0
0
0
0
0
0
0
0
0
0
0
0
0
0
0
0
0
0
0
0
0
0
0
0
0
0
0
0
0
0
0
0
0
0
0
0
0
0
0
0
0
0
0
0
0
0
0
0
0
0
0
0
0
0
0
0
0
0
0
0
0
0
0
0
0
0
0
0
0
0
0
0
0
0
0
0
0
0
0
0
0
0
0
0
0
0
0
0
0
0
0
0
0
0
0
0
0
0
0
0
0
0
0
0
0
0
0
0
0
0
0
0
0
0
0
0
0
0
0
0
0
0
0
0
0
0
0
0
0
0
0
0
0
0
0
0
0
0
0
0
0
0
0
0
0
0
0
0
0
0
0
0
0
0
0
0
0
0
0
0
0
0
0
0
0
0
0
0
0
0
0
0
0
0
0
0
0
0
0
0
0
0
0
105
0
92
0
87
0
83
0
84
0
49
0
81
0
96
0
88
0
84
0
93
0
85
0
66
0
64
0
83
0
93
0
88
0
89
0
87
0
79
0
64
0
58
0
74
0
83
0
69
0
62
0
62
0
59
0
45
0
35
0
23
0
30
0
83
0
112
0
121
0
126
0
110
0
124
0
147
0
138
0
141
0
112
0
41
0
68
0
96
0
93
0
99
0
85
0
58
0
19
0
85
0
75
0
55
0
96
0
129
0
140
0
141
0
155
0
130
0
118
0
112
0
105
0
55
0
25
0
99
0
139
0
155
0
151
0
136
0
66
0
9
0
67
0
128
0
41
0
16
0
32
0
59
0
57
0
25
0
7
0
29
0
175
0
255
0
255
0
249
0
250
0
253
0
254
0
255
0
255
0
255
0
255
0
255
0
255
0
255
0
255
0
255
0
255
0
255
0
255
0
255
0
255
0
255
0
255
0
255
0
255
0
255
0
255
0
255
0
255
0
255
0
255
0
255
0
255
0
255
0
255
0
255
0
255
0
255
0
255
0
255
0
255
0
255
0
255
0
255
0
255
0
255
0
255
0
255
0
255
0
255
0
255
0
255
0
255
0
255
0
255
0
255
0
255
0
255
0
255
0
255
0
255
0
255
0
255
0
255
0
255
0
255
0
255
0
255
0
255
0
255
0
255
0
255
0
255
0
255
0
255
0
255
0
255
0
255
0
255
0
255
0
255
0
255
0
255
0
255
0
255
0
255
0
255
0
255
0
255
0
255
0
255
0
255
0
255
0
255
0
255
0
255
0
255
0
255
0
255
0
255
0
255
0
255
0
255
0
255
0
255
0
255
0
255
0
255
0
255
0
255
0
255
0
255
0
255
0
255
0
255
0
255
0
255
0
255
0
255
0
255
0
250
0
255
0
255
0
255
0
249
0
253
0
250
0
248
0
247
0
71
0
13
0
53
0
117
0
64
0
65
0
66
0
66
0
65
0
68
0
73
0
76
0
76
0
0
0
0
0
0
0
0
0
0
0
0
0
0
0
0
0
0
0
0
0
0
0
0
0
0
0
0
0
0
0
0
0
0
0
0
0
0
0
0
0
0
0
0
0
0
0
0
0
0
0
0
0
0
0
0
0
0
0
0
0
0
0
0
0
0
0
0
0
0
0
0
0
0
0
0
0
0
0
0
0
0
0
0
0
0
0
0
0
0
0
0
0
0
0
0
0
0
0
0
0
0
0
0
0
0
0
0
0
0
0
0
0
0
0
0
0
0
0
0
0
0
0
0
0
0
0
0
0
0
0
0
0
0
0
0
0
0
0
0
0
0
0
0
0
0
0
0
0
0
0
0
0
0
0
0
0
0
0
0
0
0
0
0
0
0
0
0
0
0
0
0
0
0
0
0
0
0
0
0
0
0
0
0
0
0
0
0
0
0
0
0
0
0
0
0
0
0
0
0
0
0
0
0
0
0
0
0
0
0
0
0
0
0
0
0
0
0
0
0
0
0
0
0
0
0
0
0
0
0
0
0
0
0
0
0
0
0
0
0
0
0
0
0
0
0
0
0
0
0
0
0
0
0
0
0
0
0
0
0
0
0
0
0
0
0
0
0
0
0
0
0
0
0
0
0
0
0
0
0
0
0
0
0
0
0
0
0
0
0
0
0
0
0
0
0
0
0
0
0
0
0
0
0
0
0
0
0
0
0
0
0
0
0
0
0
0
0
0
0
0
0
0
0
0
0
0
0
0
0
0
0
0
0
0
0
0
0
0
0
0
0
0
0
0
0
0
0
0
0
0
0
0
0
0
0
0
0
0
0
0
0
0
0
0
0
0
0
0
0
0
0
0
0
0
0
0
0
0
0
0
0
0
0
0
0
0
0
0
0
0
0
0
0
0
0
0
0
0
0
0
0
0
0
0
0
0
0
0
0
0
0
0
0
0
0
0
0
0
0
0
0
0
0
0
0
0
0
0
0
0
0
0
0
0
0
0
0
0
0
0
0
0
0
0
47
0
54
0
45
0
33
0
22
0
20
0
25
0
34
0
41
0
41
0
45
0
41
0
31
0
33
0
48
0
64
0
71
0
80
0
93
0
62
0
43
0
78
0
85
0
95
0
69
0
82
0
76
0
71
0
44
0
42
0
23
0
56
0
92
0
100
0
98
0
93
0
90
0
92
0
95
0
94
0
91
0
87
0
64
0
51
0
69
0
74
0
81
0
89
0
56
0
32
0
79
0
27
0
48
0
120
0
114
0
128
0
145
0
157
0
166
0
144
0
121
0
106
0
67
0
37
0
63
0
105
0
95
0
116
0
129
0
114
0
32
0
60
0
131
0
69
0
25
0
37
0
53
0
45
0
3
0
2
0
96
0
252
0
253
0
254
0
255
0
255
0
255
0
254
0
254
0
255
0
255
0
255
0
255
0
255
0
255
0
255
0
255
0
255
0
255
0
255
0
255
0
255
0
255
0
255
0
255
0
255
0
255
0
255
0
255
0
255
0
255
0
255
0
255
0
255
0
255
0
255
0
255
0
255
0
255
0
255
0
255
0
255
0
255
0
255
0
255
0
255
0
255
0
255
0
255
0
255
0
255
0
255
0
255
0
255
0
255
0
255
0
255
0
255
0
255
0
255
0
255
0
255
0
255
0
255
0
255
0
255
0
255
0
255
0
255
0
255
0
255
0
255
0
255
0
255
0
255
0
255
0
255
0
255
0
255
0
255
0
255
0
255
0
255
0
255
0
255
0
255
0
255
0
255
0
255
0
255
0
255
0
255
0
255
0
255
0
255
0
255
0
255
0
255
0
255
0
255
0
255
0
255
0
255
0
255
0
255
0
255
0
255
0
255
0
255
0
255
0
255
0
255
0
255
0
255
0
255
0
255
0
255
0
255
0
255
0
255
0
255
0
255
0
255
0
255
0
254
0
254
0
253
0
253
0
253
0
254
0
198
0
67
0
1
0
75
0
112
0
57
0
73
0
72
0
66
0
65
0
73
0
80
0
80
0
0
0
0
0
0
0
0
0
0
0
0
0
0
0
0
0
0
0
0
0
0
0
0
0
0
0
0
0
0
0
0
0
0
0
0
0
0
0
0
0
0
0
0
0
0
0
0
0
0
0
0
0
0
0
0
0
0
0
0
0
0
0
0
0
0
0
0
0
0
0
0
0
0
0
0
0
0
0
0
0
0
0
0
0
0
0
0
0
0
0
0
0
0
0
0
0
0
0
0
0
0
0
0
0
0
0
0
0
0
0
0
0
0
0
0
0
0
0
0
0
0
0
0
0
0
0
0
0
0
0
0
0
0
0
0
0
0
0
0
0
0
0
0
0
0
0
0
0
0
0
0
0
0
0
0
0
0
0
0
0
0
0
0
0
0
0
0
0
0
0
0
0
0
0
0
0
0
0
0
0
0
0
0
0
0
0
0
0
0
0
0
0
0
0
0
0
0
0
0
0
0
0
0
0
0
0
0
0
0
0
0
0
0
0
0
0
0
0
0
0
0
0
0
0
0
0
0
0
0
0
0
0
0
0
0
0
0
0
0
0
0
0
0
0
0
0
0
0
0
0
0
0
0
0
0
0
0
0
0
0
0
0
0
0
0
0
0
0
0
0
0
0
0
0
0
0
0
0
0
0
0
0
0
0
0
0
0
0
0
0
0
0
0
0
0
0
0
0
0
0
0
0
0
0
0
0
0
0
0
0
0
0
0
0
0
0
0
0
0
0
0
0
0
0
0
0
0
0
0
0
0
0
0
0
0
0
0
0
0
0
0
0
0
0
0
0
0
0
0
0
0
0
0
0
0
0
0
0
0
0
0
0
0
0
0
0
0
0
0
0
0
0
0
0
0
0
0
0
0
0
0
0
0
0
0
0
0
0
0
0
0
0
0
0
0
0
0
0
0
0
0
0
0
0
0
0
0
0
0
0
0
0
0
0
0
0
0
0
0
0
0
0
0
0
0
0
0
0
0
0
0
0
0
0
0
0
0
0
0
0
0
0
0
0
6
0
2
0
2
0
2
0
2
0
2
0
2
0
2
0
2
0
2
0
2
0
1
0
1
0
1
0
6
0
10
0
11
0
15
0
29
0
34
0
43
0
47
0
56
0
53
0
50
0
66
0
61
0
62
0
45
0
49
0
28
0
47
0
72
0
80
0
87
0
92
0
97
0
110
0
130
0
142
0
142
0
145
0
111
0
67
0
52
0
57
0
81
0
82
0
29
0
32
0
63
0
5
0
20
0
81
0
89
0
125
0
153
0
151
0
166
0
162
0
145
0
123
0
80
0
34
0
22
0
82
0
128
0
141
0
149
0
135
0
63
0
33
0
89
0
110
0
39
0
54
0
53
0
25
0
3
0
5
0
175
0
252
0
253
0
254
0
255
0
255
0
255
0
254
0
254
0
255
0
255
0
255
0
255
0
255
0
255
0
255
0
255
0
255
0
255
0
255
0
255
0
255
0
255
0
255
0
255
0
255
0
255
0
255
0
255
0
255
0
255
0
255
0
255
0
255
0
255
0
255
0
255
0
255
0
255
0
255
0
255
0
255
0
255
0
255
0
255
0
255
0
255
0
255
0
255
0
255
0
255
0
255
0
255
0
255
0
255
0
255
0
255
0
255
0
255
0
255
0
255
0
255
0
255
0
255
0
255
0
255
0
255
0
255
0
255
0
255
0
255
0
255
0
255
0
255
0
255
0
255
0
255
0
255
0
255
0
255
0
255
0
255
0
255
0
255
0
255
0
255
0
255
0
255
0
255
0
255
0
255
0
255
0
255
0
255
0
255
0
255
0
255
0
255
0
255
0
255
0
255
0
255
0
255
0
255
0
255
0
255
0
255
0
255
0
255
0
255
0
255
0
255
0
255
0
255
0
255
0
255
0
255
0
255
0
255
0
255
0
255
0
255
0
255
0
255
0
254
0
254
0
253
0
253
0
253
0
238
0
254
0
160
0
14
0
33
0
74
0
57
0
95
0
78
0
77
0
75
0
73
0
73
0
77
0
0
0
0
0
0
0
0
0
0
0
0
0
0
0
0
0
0
0
0
0
0
0
0
0
0
0
0
0
0
0
0
0
0
0
0
0
0
0
0
0
0
0
0
0
0
0
0
0
0
0
0
0
0
0
0
0
0
0
0
0
0
0
0
0
0
0
0
0
0
0
0
0
0
0
0
0
0
0
0
0
0
0
0
0
0
0
0
0
0
0
0
0
0
0
0
0
0
0
0
0
0
0
0
0
0
0
0
0
0
0
0
0
0
0
0
0
0
0
0
0
0
0
0
0
0
0
0
0
0
0
0
0
0
0
0
0
0
0
0
0
0
0
0
0
0
0
0
0
0
0
0
0
0
0
0
0
0
0
0
0
0
0
0
0
0
0
0
0
0
0
0
0
0
0
0
0
0
0
0
0
0
0
0
0
0
0
0
0
0
0
0
0
0
0
0
0
0
0
0
0
0
0
0
0
0
0
0
0
0
0
0
0
0
0
0
0
0
0
0
0
0
0
0
0
0
0
0
0
0
0
0
0
0
0
0
0
0
0
0
0
0
0
0
0
0
0
0
0
0
0
0
0
0
0
0
0
0
0
0
0
0
0
0
0
0
0
0
0
0
0
0
0
0
0
0
0
0
0
0
0
0
0
0
0
0
0
0
0
0
0
0
0
0
0
0
0
0
0
0
0
0
0
0
0
0
0
0
0
0
0
0
0
0
0
0
0
0
0
0
0
0
0
0
0
0
0
0
0
0
0
0
0
0
0
0
0
0
0
0
0
0
0
0
0
0
0
0
0
0
0
0
0
0
0
0
0
0
0
0
0
0
0
0
0
0
0
0
0
0
0
0
0
0
0
0
0
0
0
0
0
0
0
0
0
0
0
0
0
0
0
0
0
0
0
0
0
0
0
0
0
0
0
0
0
0
0
0
0
0
0
0
0
0
0
0
0
0
0
0
0
0
0
0
0
0
0
0
0
0
0
0
0
0
0
0
0
0
0
0
0
0
0
0
0
53
0
61
0
68
0
78
0
87
0
90
0
88
0
83
0
78
0
61
0
63
0
61
0
59
0
56
0
50
0
36
0
22
0
22
0
1
0
4
0
32
0
12
0
26
0
10
0
19
0
16
0
13
0
20
0
20
0
47
0
35
0
50
0
72
0
95
0
109
0
116
0
113
0
120
0
137
0
143
0
137
0
147
0
145
0
107
0
64
0
46
0
73
0
75
0
13
0
13
0
60
0
28
0
29
0
48
0
47
0
108
0
155
0
167
0
165
0
160
0
150
0
140
0
115
0
56
0
1
0
76
0
158
0
158
0
156
0
155
0
115
0
31
0
44
0
111
0
55
0
43
0
47
0
10
0
2
0
51
0
241
0
252
0
253
0
254
0
255
0
255
0
255
0
254
0
254
0
255
0
255
0
255
0
255
0
255
0
255
0
255
0
255
0
255
0
255
0
255
0
255
0
255
0
255
0
255
0
255
0
255
0
255
0
255
0
255
0
255
0
255
0
255
0
255
0
255
0
255
0
255
0
255
0
255
0
255
0
255
0
255
0
255
0
255
0
255
0
255
0
255
0
255
0
255
0
255
0
255
0
255
0
255
0
255
0
255
0
255
0
255
0
255
0
255
0
255
0
255
0
255
0
255
0
255
0
255
0
255
0
255
0
255
0
255
0
255
0
255
0
255
0
255
0
255
0
255
0
255
0
255
0
255
0
255
0
255
0
255
0
255
0
255
0
255
0
255
0
255
0
255
0
255
0
255
0
255
0
255
0
255
0
255
0
255
0
255
0
255
0
255
0
255
0
255
0
255
0
255
0
255
0
255
0
255
0
255
0
255
0
255
0
255
0
255
0
255
0
255
0
255
0
255
0
255
0
255
0
255
0
255
0
255
0
255
0
255
0
255
0
255
0
255
0
255
0
255
0
254
0
254
0
253
0
253
0
253
0
249
0
255
0
248
0
119
0
7
0
17
0
60
0
88
0
91
0
77
0
70
0
72
0
77
0
76
0
0
0
0
0
0
0
0
0
0
0
0
0
0
0
0
0
0
0
0
0
0
0
0
0
0
0
0
0
0
0
0
0
0
0
0
0
0
0
0
0
0
0
0
0
0
0
0
0
0
0
0
0
0
0
0
0
0
0
0
0
0
0
0
0
0
0
0
0
0
0
0
0
0
0
0
0
0
0
0
0
0
0
0
0
0
0
0
0
0
0
0
0
0
0
0
0
0
0
0
0
0
0
0
0
0
0
0
0
0
0
0
0
0
0
0
0
0
0
0
0
0
0
0
0
0
0
0
0
0
0
0
0
0
0
0
0
0
0
0
0
0
0
0
0
0
0
0
0
0
0
0
0
0
0
0
0
0
0
0
0
0
0
0
0
0
0
0
0
0
0
0
0
0
0
0
0
0
0
0
0
0
0
0
0
0
0
0
0
0
0
0
0
0
0
0
0
0
0
0
0
0
0
0
0
0
0
0
0
0
0
0
0
0
0
0
0
0
0
0
0
0
0
0
0
0
0
0
0
0
0
0
0
0
0
0
0
0
0
0
0
0
0
0
0
0
0
0
0
0
0
0
0
0
0
0
0
0
0
0
0
0
0
0
0
0
0
0
0
0
0
0
0
0
0
0
0
0
0
0
0
0
0
0
0
0
0
0
0
0
0
0
0
0
0
0
0
0
0
0
0
0
0
0
0
0
0
0
0
0
0
0
0
0
0
0
0
0
0
0
0
0
0
0
0
0
0
0
0
0
0
0
0
0
0
0
0
0
0
0
0
0
0
0
0
0
0
0
0
0
0
0
0
0
0
0
0
0
0
0
0
0
0
0
0
0
0
0
0
0
0
0
0
0
0
0
0
0
0
0
0
0
0
0
0
0
0
0
0
0
0
0
0
0
0
0
0
0
0
0
0
0
0
0
0
0
0
0
0
0
0
0
0
0
0
0
0
0
0
0
0
0
0
0
0
0
0
0
0
0
0
0
0
0
0
0
0
0
0
0
0
0
0
0
0
193
0
223
0
225
0
229
0
232
0
233
0
233
0
231
0
230
0
225
0
225
0
225
0
223
0
218
0
207
0
192
0
181
0
150
0
3
0
5
0
27
0
26
0
44
0
24
0
29
0
26
0
26
0
23
0
13
0
35
0
13
0
25
0
58
0
94
0
115
0
126
0
121
0
127
0
146
0
150
0
141
0
138
0
158
0
137
0
87
0
55
0
75
0
75
0
15
0
13
0
69
0
68
0
70
0
56
0
40
0
87
0
123
0
148
0
147
0
154
0
151
0
145
0
146
0
93
0
3
0
76
0
145
0
143
0
129
0
146
0
145
0
67
0
21
0
89
0
74
0
13
0
21
0
3
0
18
0
135
0
254
0
252
0
253
0
254
0
255
0
255
0
255
0
254
0
254
0
255
0
255
0
255
0
255
0
255
0
255
0
255
0
255
0
255
0
255
0
255
0
255
0
255
0
255
0
255
0
255
0
255
0
255
0
255
0
255
0
255
0
255
0
255
0
255
0
255
0
255
0
255
0
255
0
255
0
255
0
255
0
255
0
255
0
255
0
255
0
255
0
255
0
255
0
255
0
255
0
255
0
255
0
255
0
255
0
255
0
255
0
255
0
255
0
255
0
255
0
255
0
255
0
255
0
255
0
255
0
255
0
255
0
255
0
255
0
255
0
255
0
255
0
255
0
255
0
255
0
255
0
255
0
255
0
255
0
255
0
255
0
255
0
255
0
255
0
255
0
255
0
255
0
255
0
255
0
255
0
255
0
255
0
255
0
255
0
255
0
255
0
255
0
255
0
255
0
255
0
255
0
255
0
255
0
255
0
255
0
255
0
255
0
255
0
255
0
255
0
255
0
255
0
255
0
255
0
255
0
255
0
255
0
255
0
255
0
255
0
255
0
255
0
255
0
255
0
255
0
254
0
254
0
253
0
253
0
253
0
255
0
236
0
255
0
230
0
90
0
7
0
24
0
47
0
112
0
83
0
64
0
67
0
78
0
78
0
0
0
0
0
0
0
0
0
0
0
0
0
0
0
0
0
0
0
0
0
0
0
0
0
0
0
0
0
0
0
0
0
0
0
0
0
0
0
0
0
0
0
0
0
0
0
0
0
0
0
0
0
0
0
0
0
0
0
0
0
0
0
0
0
0
0
0
0
0
0
0
0
0
0
0
0
0
0
0
0
0
0
0
0
0
0
0
0
0
0
0
0
0
0
0
0
0
0
0
0
0
0
0
0
0
0
0
0
0
0
0
0
0
0
0
0
0
0
0
0
0
0
0
0
0
0
0
0
0
0
0
0
0
0
0
0
0
0
0
0
0
0
0
0
0
0
0
0
0
0
0
0
0
0
0
0
0
0
0
0
0
0
0
0
0
0
0
0
0
0
0
0
0
0
0
0
0
0
0
0
0
0
0
0
0
0
0
0
0
0
0
0
0
0
0
0
0
0
0
0
0
0
0
0
0
0
0
0
0
0
0
0
0
0
0
0
0
0
0
0
0
0
0
0
0
0
0
0
0
0
0
0
0
0
0
0
0
0
0
0
0
0
0
0
0
0
0
0
0
0
0
0
0
0
0
0
0
0
0
0
0
0
0
0
0
0
0
0
0
0
0
0
0
0
0
0
0
0
0
0
0
0
0
0
0
0
0
0
0
0
0
0
0
0
0
0
0
0
0
0
0
0
0
0
0
0
0
0
0
0
0
0
0
0
0
0
0
0
0
0
0
0
0
0
0
0
0
0
0
0
0
0
0
0
0
0
0
0
0
0
0
0
0
0
0
0
0
0
0
0
0
0
0
0
0
0
0
0
0
0
0
0
0
0
0
0
0
0
0
0
0
0
0
0
0
0
0
0
0
0
0
0
0
0
0
0
0
0
0
0
0
0
0
0
0
0
0
0
0
0
0
0
0
0
0
0
0
0
0
0
0
0
0
0
0
0
0
0
0
0
0
0
0
0
0
0
0
0
0
0
0
0
0
0
0
0
0
0
0
0
0
0
0
0
254
0
254
0
253
0
250
0
248
0
247
0
248
0
249
0
250
0
250
0
252
0
254
0
255
0
254
0
251
0
249
0
251
0
235
0
11
0
3
0
12
0
51
0
62
0
54
0
47
0
52
0
62
0
58
0
41
0
48
0
10
0
21
0
67
0
100
0
117
0
121
0
111
0
116
0
138
0
147
0
141
0
152
0
160
0
134
0
96
0
71
0
84
0
78
0
16
0
37
0
74
0
76
0
89
0
88
0
73
0
83
0
86
0
92
0
108
0
144
0
153
0
144
0
152
0
115
0
25
0
57
0
85
0
124
0
118
0
133
0
147
0
113
0
26
0
65
0
75
0
2
0
2
0
16
0
96
0
210
0
251
0
252
0
253
0
254
0
255
0
255
0
255
0
254
0
254
0
255
0
255
0
255
0
255
0
255
0
255
0
255
0
255
0
255
0
255
0
255
0
255
0
255
0
255
0
255
0
255
0
255
0
255
0
255
0
255
0
255
0
255
0
255
0
255
0
255
0
255
0
255
0
255
0
255
0
255
0
255
0
255
0
255
0
255
0
255
0
255
0
255
0
255
0
255
0
255
0
255
0
255
0
255
0
255
0
255
0
255
0
255
0
255
0
255
0
255
0
255
0
255
0
255
0
255
0
255
0
255
0
255
0
255
0
255
0
255
0
255
0
255
0
255
0
255
0
255
0
255
0
255
0
255
0
255
0
255
0
255
0
255
0
255
0
255
0
255
0
255
0
255
0
255
0
255
0
255
0
255
0
255
0
255
0
255
0
255
0
255
0
255
0
255
0
255
0
255
0
255
0
255
0
255
0
255
0
255
0
255
0
255
0
255
0
255
0
255
0
255
0
255
0
255
0
255
0
255
0
255
0
255
0
255
0
255
0
255
0
255
0
255
0
255
0
255
0
255
0
254
0
254
0
253
0
253
0
253
0
250
0
250
0
244
0
255
0
218
0
88
0
1
0
7
0
66
0
79
0
74
0
54
0
46
0
55
0
0
0
0
0
0
0
0
0
0
0
0
0
0
0
0
0
0
0
0
0
0
0
0
0
0
0
0
0
0
0
0
0
0
0
0
0
0
0
0
0
0
0
0
0
0
0
0
0
0
0
0
0
0
0
0
0
0
0
0
0
0
0
0
0
0
0
0
0
0
0
0
0
0
0
0
0
0
0
0
0
0
0
0
0
0
0
0
0
0
0
0
0
0
0
0
0
0
0
0
0
0
0
0
0
0
0
0
0
0
0
0
0
0
0
0
0
0
0
0
0
0
0
0
0
0
0
0
0
0
0
0
0
0
0
0
0
0
0
0
0
0
0
0
0
0
0
0
0
0
0
0
0
0
0
0
0
0
0
0
0
0
0
0
0
0
0
0
0
0
0
0
0
0
0
0
0
0
0
0
0
0
0
0
0
0
0
0
0
0
0
0
0
0
0
0
0
0
0
0
0
0
0
0
0
0
0
0
0
0
0
0
0
0
0
0
0
0
0
0
0
0
0
0
0
0
0
0
0
0
0
0
0
0
0
0
0
0
0
0
0
0
0
0
0
0
0
0
0
0
0
0
0
0
0
0
0
0
0
0
0
0
0
0
0
0
0
0
0
0
0
0
0
0
0
0
0
0
0
0
0
0
0
0
0
0
0
0
0
0
0
0
0
0
0
0
0
0
0
0
0
0
0
0
0
0
0
0
0
0
0
0
0
0
0
0
0
0
0
0
0
0
0
0
0
0
0
0
0
0
0
0
0
0
0
0
0
0
0
0
0
0
0
0
0
0
0
0
0
0
0
0
0
0
0
0
0
0
0
0
0
0
0
0
0
0
0
0
0
0
0
0
0
0
0
0
0
0
0
0
0
0
0
0
0
0
0
0
0
0
0
0
0
0
0
0
0
0
0
0
0
0
0
0
0
0
0
0
0
0
0
0
0
0
0
0
0
0
0
0
0
0
0
0
0
0
0
0
0
0
0
0
0
0
0
0
0
0
0
0
0
0
0
0
0
250
0
254
0
254
0
254
0
254
0
254
0
254
0
254
0
253
0
247
0
247
0
250
0
251
0
248
0
247
0
252
0
254
0
247
0
9
0
4
0
14
0
60
0
57
0
61
0
48
0
39
0
64
0
70
0
59
0
68
0
26
0
37
0
92
0
114
0
119
0
109
0
90
0
87
0
101
0
109
0
105
0
124
0
137
0
130
0
109
0
82
0
81
0
73
0
17
0
45
0
74
0
72
0
85
0
94
0
85
0
86
0
88
0
85
0
81
0
98
0
115
0
133
0
151
0
116
0
30
0
47
0
48
0
121
0
144
0
151
0
153
0
152
0
75
0
38
0
23
0
10
0
1
0
97
0
210
0
242
0
249
0
252
0
253
0
254
0
255
0
255
0
255
0
254
0
254
0
255
0
255
0
255
0
255
0
255
0
255
0
255
0
255
0
255
0
255
0
255
0
255
0
255
0
255
0
255
0
255
0
255
0
255
0
255
0
255
0
255
0
255
0
255
0
255
0
255
0
255
0
255
0
255
0
255
0
255
0
255
0
255
0
255
0
255
0
255
0
255
0
255
0
255
0
255
0
255
0
255
0
255
0
255
0
255
0
255
0
255
0
255
0
255
0
255
0
255
0
255
0
255
0
255
0
255
0
255
0
255
0
255
0
255
0
255
0
255
0
255
0
255
0
255
0
255
0
255
0
255
0
255
0
255
0
255
0
255
0
255
0
255
0
255
0
255
0
255
0
255
0
255
0
255
0
255
0
255
0
255
0
255
0
255
0
255
0
255
0
255
0
255
0
255
0
255
0
255
0
255
0
255
0
255
0
255
0
255
0
255
0
255
0
255
0
255
0
255
0
255
0
255
0
255
0
255
0
255
0
255
0
255
0
255
0
255
0
255
0
255
0
255
0
255
0
255
0
255
0
254
0
254
0
253
0
253
0
253
0
250
0
254
0
245
0
252
0
255
0
193
0
90
0
4
0
4
0
64
0
107
0
76
0
46
0
49
0
0
0
0
0
0
0
0
0
0
0
0
0
0
0
0
0
0
0
0
0
0
0
0
0
0
0
0
0
0
0
0
0
0
0
0
0
0
0
0
0
0
0
0
0
0
0
0
0
0
0
0
0
0
0
0
0
0
0
0
0
0
0
0
0
0
0
0
0
0
0
0
0
0
0
0
0
0
0
0
0
0
0
0
0
0
0
0
0
0
0
0
0
0
0
0
0
0
0
0
0
0
0
0
0
0
0
0
0
0
0
0
0
0
0
0
0
0
0
0
0
0
0
0
0
0
0
0
0
0
0
0
0
0
0
0
0
0
0
0
0
0
0
0
0
0
0
0
0
0
0
0
0
0
0
0
0
0
0
0
0
0
0
0
0
0
0
0
0
0
0
0
0
0
0
0
0
0
0
0
0
0
0
0
0
0
0
0
0
0
0
0
0
0
0
0
0
0
0
0
0
0
0
0
0
0
0
0
0
0
0
0
0
0
0
0
0
0
0
0
0
0
0
0
0
0
0
0
0
0
0
0
0
0
0
0
0
0
0
0
0
0
0
0
0
0
0
0
0
0
0
0
0
0
0
0
0
0
0
0
0
0
0
0
0
0
0
0
0
0
0
0
0
0
0
0
0
0
0
0
0
0
0
0
0
0
0
0
0
0
0
0
0
0
0
0
0
0
0
0
0
0
0
0
0
0
0
0
0
0
0
0
0
0
0
0
0
0
0
0
0
0
0
0
0
0
0
0
0
0
0
0
0
0
0
0
0
0
0
0
0
0
0
0
0
0
0
0
0
0
0
0
0
0
0
0
0
0
0
0
0
0
0
0
0
0
0
0
0
0
0
0
0
0
0
0
0
0
0
0
0
0
0
0
0
0
0
0
0
0
0
0
0
0
0
0
0
0
0
0
0
0
0
0
0
0
0
0
0
0
0
0
0
0
0
0
0
0
0
0
0
0
0
0
0
0
0
0
0
0
0
0
0
0
0
0
0
0
0
0
0
0
0
0
0
254
0
251
0
252
0
254
0
254
0
254
0
254
0
254
0
254
0
255
0
254
0
252
0
253
0
249
0
245
0
246
0
252
0
254
0
37
0
12
0
25
0
59
0
56
0
64
0
53
0
35
0
61
0
67
0
59
0
71
0
22
0
25
0
83
0
90
0
92
0
89
0
84
0
90
0
104
0
114
0
113
0
100
0
118
0
123
0
110
0
83
0
79
0
70
0
20
0
40
0
70
0
70
0
78
0
94
0
85
0
84
0
96
0
102
0
81
0
72
0
84
0
105
0
124
0
91
0
23
0
66
0
48
0
94
0
153
0
168
0
166
0
162
0
137
0
51
0
2
0
12
0
53
0
199
0
253
0
248
0
247
0
252
0
253
0
254
0
255
0
255
0
255
0
254
0
254
0
255
0
255
0
255
0
255
0
255
0
255
0
255
0
255
0
255
0
255
0
255
0
255
0
255
0
255
0
255
0
255
0
255
0
255
0
255
0
255
0
255
0
255
0
255
0
255
0
255
0
255
0
255
0
255
0
255
0
255
0
255
0
255
0
255
0
255
0
255
0
255
0
255
0
255
0
255
0
255
0
255
0
255
0
255
0
255
0
255
0
255
0
255
0
255
0
255
0
255
0
255
0
255
0
255
0
255
0
255
0
255
0
255
0
255
0
255
0
255
0
255
0
255
0
255
0
255
0
255
0
255
0
255
0
255
0
255
0
255
0
255
0
255
0
255
0
255
0
255
0
255
0
255
0
255
0
255
0
255
0
255
0
255
0
255
0
255
0
255
0
255
0
255
0
255
0
255
0
255
0
255
0
255
0
255
0
255
0
255
0
255
0
255
0
255
0
255
0
255
0
255
0
255
0
255
0
255
0
255
0
255
0
255
0
255
0
255
0
255
0
255
0
255
0
255
0
255
0
255
0
254
0
254
0
253
0
253
0
253
0
254
0
253
0
254
0
254
0
241
0
248
0
215
0
88
0
12
0
47
0
89
0
108
0
100
0
81
0
0
0
0
0
0
0
0
0
0
0
0
0
0
0
0
0
0
0
0
0
0
0
0
0
0
0
0
0
0
0
0
0
0
0
0
0
0
0
0
0
0
0
0
0
0
0
0
0
0
0
0
0
0
0
0
0
0
0
0
0
0
0
0
0
0
0
0
0
0
0
0
0
0
0
0
0
0
0
0
0
0
0
0
0
0
0
0
0
0
0
0
0
0
0
0
0
0
0
0
0
0
0
0
0
0
0
0
0
0
0
0
0
0
0
0
0
0
0
0
0
0
0
0
0
0
0
0
0
0
0
0
0
0
0
0
0
0
0
0
0
0
0
0
0
0
0
0
0
0
0
0
0
0
0
0
0
0
0
0
0
0
0
0
0
0
0
0
0
0
0
0
0
0
0
0
0
0
0
0
0
0
0
0
0
0
0
0
0
0
0
0
0
0
0
0
0
0
0
0
0
0
0
0
0
0
0
0
0
0
0
0
0
0
0
0
0
0
0
0
0
0
0
0
0
0
0
0
0
0
0
0
0
0
0
0
0
0
0
0
0
0
0
0
0
0
0
0
0
0
0
0
0
0
0
0
0
0
0
0
0
0
0
0
0
0
0
0
0
0
0
0
0
0
0
0
0
0
0
0
0
0
0
0
0
0
0
0
0
0
0
0
0
0
0
0
0
0
0
0
0
0
0
0
0
0
0
0
0
0
0
0
0
0
0
0
0
0
0
0
0
0
0
0
0
0
0
0
0
0
0
0
0
0
0
0
0
0
0
0
0
0
0
0
0
0
0
0
0
0
0
0
0
0
0
0
0
0
0
0
0
0
0
0
0
0
0
0
0
0
0
0
0
0
0
0
0
0
0
0
0
0
0
0
0
0
0
0
0
0
0
0
0
0
0
0
0
0
0
0
0
0
0
0
0
0
0
0
0
0
0
0
0
0
0
0
0
0
0
0
0
0
0
0
0
0
0
0
0
0
0
0
0
0
0
0
0
0
0
0
0
0
0
0
0
252
0
254
0
254
0
254
0
254
0
254
0
254
0
254
0
254
0
253
0
253
0
251
0
255
0
255
0
254
0
250
0
251
0
251
0
43
0
1
0
10
0
36
0
48
0
57
0
53
0
39
0
58
0
58
0
52
0
72
0
29
0
30
0
89
0
74
0
80
0
90
0
104
0
121
0
136
0
142
0
142
0
131
0
127
0
106
0
90
0
79
0
89
0
78
0
20
0
46
0
66
0
61
0
72
0
106
0
101
0
80
0
80
0
91
0
90
0
95
0
95
0
87
0
80
0
55
0
20
0
87
0
56
0
48
0
127
0
161
0
167
0
147
0
157
0
115
0
20
0
1
0
90
0
250
0
245
0
252
0
252
0
252
0
253
0
254
0
255
0
255
0
255
0
254
0
254
0
255
0
255
0
255
0
255
0
255
0
255
0
255
0
255
0
255
0
255
0
255
0
255
0
255
0
255
0
255
0
255
0
255
0
255
0
255
0
255
0
255
0
255
0
255
0
255
0
255
0
255
0
255
0
255
0
255
0
255
0
255
0
255
0
255
0
255
0
255
0
255
0
255
0
255
0
255
0
255
0
255
0
255
0
255
0
255
0
255
0
255
0
255
0
255
0
255
0
255
0
255
0
255
0
255
0
255
0
255
0
255
0
255
0
255
0
255
0
255
0
255
0
255
0
255
0
255
0
255
0
255
0
255
0
255
0
255
0
255
0
255
0
255
0
255
0
255
0
255
0
255
0
255
0
255
0
255
0
255
0
255
0
255
0
255
0
255
0
255
0
255
0
255
0
255
0
255
0
255
0
255
0
255
0
255
0
255
0
255
0
255
0
255
0
255
0
255
0
255
0
255
0
255
0
255
0
255
0
255
0
255
0
255
0
255
0
255
0
255
0
255
0
255
0
255
0
255
0
255
0
254
0
254
0
253
0
253
0
253
0
249
0
254
0
247
0
253
0
253
0
254
0
255
0
205
0
83
0
7
0
4
0
77
0
123
0
93
0
0
0
0
0
0
0
0
0
0
0
0
0
0
0
0
0
0
0
0
0
0
0
0
0
0
0
0
0
0
0
0
0
0
0
0
0
0
0
0
0
0
0
0
0
0
0
0
0
0
0
0
0
0
0
0
0
0
0
0
0
0
0
0
0
0
0
0
0
0
0
0
0
0
0
0
0
0
0
0
0
0
0
0
0
0
0
0
0
0
0
0
0
0
0
0
0
0
0
0
0
0
0
0
0
0
0
0
0
0
0
0
0
0
0
0
0
0
0
0
0
0
0
0
0
0
0
0
0
0
0
0
0
0
0
0
0
0
0
0
0
0
0
0
0
0
0
0
0
0
0
0
0
0
0
0
0
0
0
0
0
0
0
0
0
0
0
0
0
0
0
0
0
0
0
0
0
0
0
0
0
0
0
0
0
0
0
0
0
0
0
0
0
0
0
0
0
0
0
0
0
0
0
0
0
0
0
0
0
0
0
0
0
0
0
0
0
0
0
0
0
0
0
0
0
0
0
0
0
0
0
0
0
0
0
0
0
0
0
0
0
0
0
0
0
0
0
0
0
0
0
0
0
0
0
0
0
0
0
0
0
0
0
0
0
0
0
0
0
0
0
0
0
0
0
0
0
0
0
0
0
0
0
0
0
0
0
0
0
0
0
0
0
0
0
0
0
0
0
0
0
0
0
0
0
0
0
0
0
0
0
0
0
0
0
0
0
0
0
0
0
0
0
0
0
0
0
0
0
0
0
0
0
0
0
0
0
0
0
0
0
0
0
0
0
0
0
0
0
0
0
0
0
0
0
0
0
0
0
0
0
0
0
0
0
0
0
0
0
0
0
0
0
0
0
0
0
0
0
0
0
0
0
0
0
0
0
0
0
0
0
0
0
0
0
0
0
0
0
0
0
0
0
0
0
0
0
0
0
0
0
0
0
0
0
0
0
0
0
0
0
0
0
0
0
0
0
0
0
0
0
0
0
0
0
0
0
0
0
0
0
0
0
0
0
255
0
255
0
255
0
255
0
255
0
255
0
255
0
255
0
255
0
255
0
255
0
255
0
255
0
249
0
255
0
253
0
250
0
251
0
8
0
5
0
39
0
55
0
33
0
46
0
38
0
39
0
52
0
47
0
46
0
49
0
26
0
12
0
33
0
52
0
100
0
132
0
122
0
114
0
131
0
148
0
150
0
150
0
154
0
127
0
102
0
75
0
77
0
71
0
10
0
71
0
70
0
63
0
53
0
59
0
77
0
91
0
92
0
93
0
86
0
100
0
95
0
82
0
48
0
16
0
58
0
119
0
64
0
5
0
89
0
146
0
158
0
171
0
156
0
132
0
62
0
5
0
74
0
254
0
248
0
242
0
254
0
252
0
253
0
254
0
255
0
255
0
255
0
254
0
254
0
255
0
255
0
255
0
255
0
255
0
255
0
255
0
255
0
255
0
255
0
255
0
255
0
255
0
255
0
255
0
255
0
255
0
255
0
255
0
255
0
255
0
255
0
255
0
255
0
255
0
255
0
255
0
255
0
255
0
255
0
255
0
255
0
255
0
255
0
255
0
255
0
255
0
255
0
255
0
255
0
255
0
255
0
255
0
255
0
255
0
255
0
255
0
255
0
255
0
255
0
255
0
255
0
255
0
255
0
255
0
255
0
255
0
255
0
255
0
255
0
255
0
255
0
255
0
255
0
255
0
255
0
255
0
255
0
255
0
255
0
255
0
255
0
255
0
255
0
255
0
255
0
255
0
255
0
255
0
255
0
255
0
255
0
255
0
255
0
255
0
255
0
255
0
255
0
255
0
255
0
255
0
255
0
255
0
255
0
255
0
255
0
255
0
255
0
255
0
255
0
255
0
255
0
255
0
255
0
255
0
255
0
255
0
255
0
255
0
255
0
255
0
255
0
255
0
255
0
255
0
255
0
255
0
255
0
255
0
255
0
254
0
254
0
253
0
253
0
253
0
252
0
252
0
252
0
224
0
116
0
16
0
10
0
71
0
110
0
0
0
0
0
0
0
0
0
0
0
0
0
0
0
0
0
0
0
0
0
0
0
0
0
0
0
0
0
0
0
0
0
0
0
0
0
0
0
0
0
0
0
0
0
0
0
0
0
0
0
0
0
0
0
0
0
0
0
0
0
0
0
0
0
0
0
0
0
0
0
0
0
0
0
0
0
0
0
0
0
0
0
0
0
0
0
0
0
0
0
0
0
0
0
0
0
0
0
0
0
0
0
0
0
0
0
0
0
0
0
0
0
0
0
0
0
0
0
0
0
0
0
0
0
0
0
0
0
0
0
0
0
0
0
0
0
0
0
0
0
0
0
0
0
0
0
0
0
0
0
0
0
0
0
0
0
0
0
0
0
0
0
0
0
0
0
0
0
0
0
0
0
0
0
0
0
0
0
0
0
0
0
0
0
0
0
0
0
0
0
0
0
0
0
0
0
0
0
0
0
0
0
0
0
0
0
0
0
0
0
0
0
0
0
0
0
0
0
0
0
0
0
0
0
0
0
0
0
0
0
0
0
0
0
0
0
0
0
0
0
0
0
0
0
0
0
0
0
0
0
0
0
0
0
0
0
0
0
0
0
0
0
0
0
0
0
0
0
0
0
0
0
0
0
0
0
0
0
0
0
0
0
0
0
0
0
0
0
0
0
0
0
0
0
0
0
0
0
0
0
0
0
0
0
0
0
0
0
0
0
0
0
0
0
0
0
0
0
0
0
0
0
0
0
0
0
0
0
0
0
0
0
0
0
0
0
0
0
0
0
0
0
0
0
0
0
0
0
0
0
0
0
0
0
0
0
0
0
0
0
0
0
0
0
0
0
0
0
0
0
0
0
0
0
0
0
0
0
0
0
0
0
0
0
0
0
0
0
0
0
0
0
0
0
0
0
0
0
0
0
0
0
0
0
0
0
0
0
0
0
0
0
0
0
0
0
0
0
0
0
0
0
0
0
0
0
0
0
0
0
0
0
0
0
0
0
0
0
0
0
0
0
0
0
255
0
255
0
255
0
255
0
255
0
255
0
255
0
255
0
255
0
255
0
255
0
246
0
247
0
255
0
250
0
252
0
255
0
202
0
0
0
4
0
37
0
58
0
50
0
54
0
45
0
15
0
34
0
30
0
33
0
48
0
26
0
3
0
18
0
87
0
111
0
125
0
121
0
126
0
144
0
149
0
136
0
130
0
143
0
128
0
112
0
80
0
77
0
37
0
21
0
82
0
93
0
95
0
77
0
60
0
61
0
68
0
73
0
89
0
92
0
94
0
73
0
45
0
15
0
16
0
64
0
111
0
66
0
17
0
72
0
110
0
133
0
154
0
166
0
139
0
95
0
27
0
60
0
252
0
250
0
250
0
255
0
252
0
253
0
254
0
255
0
255
0
255
0
254
0
254
0
255
0
255
0
255
0
255
0
255
0
255
0
255
0
255
0
255
0
255
0
255
0
255
0
255
0
255
0
255
0
255
0
255
0
255
0
255
0
255
0
255
0
255
0
255
0
255
0
255
0
255
0
255
0
255
0
255
0
255
0
255
0
255
0
255
0
255
0
255
0
255
0
255
0
255
0
255
0
255
0
255
0
255
0
255
0
255
0
255
0
255
0
255
0
255
0
255
0
255
0
255
0
255
0
255
0
255
0
255
0
255
0
255
0
255
0
255
0
255
0
255
0
255
0
255
0
255
0
255
0
255
0
255
0
255
0
255
0
255
0
255
0
255
0
255
0
255
0
255
0
255
0
255
0
255
0
255
0
255
0
255
0
255
0
255
0
255
0
255
0
255
0
255
0
255
0
255
0
255
0
255
0
255
0
255
0
255
0
255
0
255
0
255
0
255
0
255
0
255
0
255
0
255
0
255
0
255
0
255
0
255
0
255
0
255
0
255
0
255
0
255
0
255
0
255
0
255
0
255
0
255
0
255
0
255
0
255
0
255
0
254
0
254
0
254
0
253
0
253
0
252
0
252
0
252
0
250
0
219
0
125
0
18
0
5
0
69
0
0
0
0
0
0
0
0
0
0
0
0
0
0
0
0
0
0
0
0
0
0
0
0
0
0
0
0
0
0
0
0
0
0
0
0
0
0
0
0
0
0
0
0
0
0
0
0
0
0
0
0
0
0
0
0
0
0
0
0
0
0
0
0
0
0
0
0
0
0
0
0
0
0
0
0
0
0
0
0
0
0
0
0
0
0
0
0
0
0
0
0
0
0
0
0
0
0
0
0
0
0
0
0
0
0
0
0
0
0
0
0
0
0
0
0
0
0
0
0
0
0
0
0
0
0
0
0
0
0
0
0
0
0
0
0
0
0
0
0
0
0
0
0
0
0
0
0
0
0
0
0
0
0
0
0
0
0
0
0
0
0
0
0
0
0
0
0
0
0
0
0
0
0
0
0
0
0
0
0
0
0
0
0
0
0
0
0
0
0
0
0
0
0
0
0
0
0
0
0
0
0
0
0
0
0
0
0
0
0
0
0
0
0
0
0
0
0
0
0
0
0
0
0
0
0
0
0
0
0
0
0
0
0
0
0
0
0
0
0
0
0
0
0
0
0
0
0
0
0
0
0
0
0
0
0
0
0
0
0
0
0
0
0
0
0
0
0
0
0
0
0
0
0
0
0
0
0
0
0
0
0
0
0
0
0
0
0
0
0
0
0
0
0
0
0
0
0
0
0
0
0
0
0
0
0
0
0
0
0
0
0
0
0
0
0
0
0
0
0
0
0
0
0
0
0
0
0
0
0
0
0
0
0
0
0
0
0
0
0
0
0
0
0
0
0
0
0
0
0
0
0
0
0
0
0
0
0
0
0
0
0
0
0
0
0
0
0
0
0
0
0
0
0
0
0
0
0
0
0
0
0
0
0
0
0
0
0
0
0
0
0
0
0
0
0
0
0
0
0
0
0
0
0
0
0
0
0
0
0
0
0
0
0
0
0
0
0
0
0
0
0
0
0
0
0
0
0
0
0
0
0
0
0
0
0
0
0
0
0
0
0
0
0
0
255
0
255
0
255
0
255
0
255
0
255
0
255
0
255
0
255
0
255
0
255
0
237
0
251
0
255
0
247
0
255
0
254
0
114
0
0
0
5
0
45
0
58
0
64
0
56
0
52
0
22
0
42
0
42
0
51
0
70
0
46
0
15
0
22
0
99
0
115
0
123
0
116
0
113
0
125
0
137
0
140
0
139
0
140
0
128
0
115
0
70
0
59
0
14
0
58
0
82
0
91
0
97
0
93
0
87
0
80
0
69
0
57
0
74
0
77
0
59
0
43
0
21
0
4
0
30
0
70
0
94
0
63
0
39
0
67
0
87
0
104
0
115
0
135
0
114
0
114
0
51
0
60
0
245
0
247
0
254
0
255
0
252
0
253
0
254
0
255
0
255
0
255
0
254
0
254
0
255
0
255
0
255
0
255
0
255
0
255
0
255
0
255
0
255
0
255
0
255
0
255
0
255
0
255
0
255
0
255
0
255
0
255
0
255
0
255
0
255
0
255
0
255
0
255
0
255
0
255
0
255
0
255
0
255
0
255
0
255
0
255
0
255
0
255
0
255
0
255
0
255
0
255
0
255
0
255
0
255
0
255
0
255
0
255
0
255
0
255
0
255
0
255
0
255
0
255
0
255
0
255
0
255
0
255
0
255
0
255
0
255
0
255
0
255
0
255
0
255
0
255
0
255
0
255
0
255
0
255
0
255
0
255
0
255
0
255
0
255
0
255
0
255
0
255
0
255
0
255
0
255
0
255
0
255
0
255
0
255
0
255
0
255
0
255
0
255
0
255
0
255
0
255
0
255
0
255
0
255
0
255
0
255
0
255
0
255
0
255
0
255
0
255
0
255
0
255
0
255
0
255
0
255
0
255
0
255
0
255
0
255
0
255
0
255
0
255
0
255
0
255
0
255
0
255
0
255
0
255
0
255
0
255
0
255
0
255
0
254
0
254
0
254
0
254
0
253
0
253
0
252
0
252
0
252
0
254
0
222
0
122
0
24
0
4
0
0
0
0
0
0
0
0
0
0
0
0
0
0
0
0
0
0
0
0
0
0
0
0
0
0
0
0
0
0
0
0
0
0
0
0
0
0
0
0
0
0
0
0
0
0
0
0
0
0
0
0
0
0
0
0
0
0
0
0
0
0
0
0
0
0
0
0
0
0
0
0
0
0
0
0
0
0
0
0
0
0
0
0
0
0
0
0
0
0
0
0
0
0
0
0
0
0
0
0
0
0
0
0
0
0
0
0
0
0
0
0
0
0
0
0
0
0
0
0
0
0
0
0
0
0
0
0
0
0
0
0
0
0
0
0
0
0
0
0
0
0
0
0
0
0
0
0
0
0
0
0
0
0
0
0
0
0
0
0
0
0
0
0
0
0
0
0
0
0
0
0
0
0
0
0
0
0
0
0
0
0
0
0
0
0
0
0
0
0
0
0
0
0
0
0
0
0
0
0
0
0
0
0
0
0
0
0
0
0
0
0
0
0
0
0
0
0
0
0
0
0
0
0
0
0
0
0
0
0
0
0
0
0
0
0
0
0
0
0
0
0
0
0
0
0
0
0
0
0
0
0
0
0
0
0
0
0
0
0
0
0
0
0
0
0
0
0
0
0
0
0
0
0
0
0
0
0
0
0
0
0
0
0
0
0
0
0
0
0
0
0
0
0
0
0
0
0
0
0
0
0
0
0
0
0
0
0
0
0
0
0
0
0
0
0
0
0
0
0
0
0
0
0
0
0
0
0
0
0
0
0
0
0
0
0
0
0
0
0
0
0
0
0
0
0
0
0
0
0
0
0
0
0
0
0
0
0
0
0
0
0
0
0
0
0
0
0
0
0
0
0
0
0
0
0
0
0
0
0
0
0
0
0
0
0
0
0
0
0
0
0
0
0
0
0
0
0
0
0
0
0
0
0
0
0
0
0
0
0
0
0
0
0
0
0
0
0
0
0
0
0
0
0
0
0
0
0
0
0
0
0
0
0
0
0
0
0
0
0
0
0
0
0
0
255
0
255
0
255
0
255
0
254
0
254
0
254
0
254
0
254
0
255
0
255
0
242
0
255
0
255
0
246
0
255
0
207
0
34
0
2
0
22
0
58
0
53
0
66
0
50
0
57
0
26
0
51
0
52
0
58
0
73
0
46
0
11
0
16
0
96
0
108
0
114
0
108
0
101
0
112
0
135
0
153
0
145
0
126
0
122
0
114
0
54
0
21
0
10
0
71
0
93
0
90
0
84
0
80
0
84
0
91
0
91
0
86
0
74
0
55
0
18
0
33
0
40
0
27
0
54
0
72
0
76
0
60
0
62
0
76
0
89
0
95
0
82
0
84
0
102
0
105
0
31
0
56
0
241
0
250
0
254
0
253
0
252
0
253
0
254
0
255
0
255
0
255
0
254
0
254
0
255
0
255
0
255
0
255
0
255
0
255
0
255
0
255
0
255
0
255
0
255
0
255
0
255
0
255
0
255
0
255
0
255
0
255
0
255
0
255
0
255
0
255
0
255
0
255
0
255
0
255
0
255
0
255
0
255
0
255
0
255
0
255
0
255
0
255
0
255
0
255
0
255
0
255
0
255
0
255
0
255
0
255
0
255
0
255
0
255
0
255
0
255
0
255
0
255
0
255
0
255
0
255
0
255
0
255
0
255
0
255
0
255
0
255
0
255
0
255
0
255
0
255
0
255
0
255
0
255
0
255
0
255
0
255
0
255
0
255
0
255
0
255
0
255
0
255
0
255
0
255
0
255
0
255
0
255
0
255
0
255
0
255
0
255
0
255
0
255
0
255
0
255
0
255
0
255
0
255
0
255
0
255
0
255
0
255
0
255
0
255
0
255
0
255
0
255
0
255
0
255
0
255
0
255
0
255
0
255
0
255
0
255
0
255
0
255
0
255
0
255
0
255
0
255
0
255
0
255
0
255
0
255
0
255
0
255
0
255
0
255
0
255
0
254
0
254
0
254
0
253
0
253
0
253
0
253
0
243
0
252
0
241
0
146
0
27
0
0
0
0
0
0
0
0
0
0
0
0
0
0
0
0
0
0
0
0
0
0
0
0
0
0
0
0
0
0
0
0
0
0
0
0
0
0
0
0
0
0
0
0
0
0
0
0
0
0
0
0
0
0
0
0
0
0
0
0
0
0
0
0
0
0
0
0
0
0
0
0
0
0
0
0
0
0
0
0
0
0
0
0
0
0
0
0
0
0
0
0
0
0
0
0
0
0
0
0
0
0
0
0
0
0
0
0
0
0
0
0
0
0
0
0
0
0
0
0
0
0
0
0
0
0
0
0
0
0
0
0
0
0
0
0
0
0
0
0
0
0
0
0
0
0
0
0
0
0
0
0
0
0
0
0
0
0
0
0
0
0
0
0
0
0
0
0
0
0
0
0
0
0
0
0
0
0
0
0
0
0
0
0
0
0
0
0
0
0
0
0
0
0
0
0
0
0
0
0
0
0
0
0
0
0
0
0
0
0
0
0
0
0
0
0
0
0
0
0
0
0
0
0
0
0
0
0
0
0
0
0
0
0
0
0
0
0
0
0
0
0
0
0
0
0
0
0
0
0
0
0
0
0
0
0
0
0
0
0
0
0
0
0
0
0
0
0
0
0
0
0
0
0
0
0
0
0
0
0
0
0
0
0
0
0
0
0
0
0
0
0
0
0
0
0
0
0
0
0
0
0
0
0
0
0
0
0
0
0
0
0
0
0
0
0
0
0
0
0
0
0
0
0
0
0
0
0
0
0
0
0
0
0
0
0
0
0
0
0
0
0
0
0
0
0
0
0
0
0
0
0
0
0
0
0
0
0
0
0
0
0
0
0
0
0
0
0
0
0
0
0
0
0
0
0
0
0
0
0
0
0
0
0
0
0
0
0
0
0
0
0
0
0
0
0
0
0
0
0
0
0
0
0
0
0
0
0
0
0
0
0
0
0
0
0
0
0
0
0
0
0
0
0
0
0
0
0
0
0
0
0
0
0
0
0
0
0
0
0
0
0
0
0
0
255
0
255
0
255
0
255
0
254
0
253
0
253
0
253
0
252
0
254
0
251
0
247
0
255
0
238
0
249
0
255
0
151
0
2
0
11
0
25
0
52
0
47
0
67
0
51
0
58
0
28
0
56
0
60
0
59
0
67
0
38
0
8
0
17
0
55
0
62
0
70
0
75
0
83
0
96
0
111
0
121
0
123
0
96
0
111
0
108
0
47
0
4
0
42
0
62
0
68
0
82
0
94
0
96
0
90
0
88
0
90
0
92
0
86
0
45
0
7
0
45
0
69
0
58
0
76
0
83
0
71
0
67
0
78
0
77
0
87
0
90
0
80
0
74
0
102
0
76
0
3
0
71
0
242
0
254
0
251
0
243
0
252
0
253
0
254
0
255
0
255
0
255
0
254
0
254
0
255
0
255
0
255
0
255
0
255
0
255
0
255
0
255
0
255
0
255
0
255
0
255
0
255
0
255
0
255
0
255
0
255
0
255
0
255
0
255
0
255
0
255
0
255
0
255
0
255
0
255
0
255
0
255
0
255
0
255
0
255
0
255
0
255
0
255
0
255
0
255
0
255
0
255
0
255
0
255
0
255
0
255
0
255
0
255
0
255
0
255
0
255
0
255
0
255
0
255
0
255
0
255
0
255
0
255
0
255
0
255
0
255
0
255
0
255
0
255
0
255
0
255
0
255
0
255
0
255
0
255
0
255
0
255
0
255
0
255
0
255
0
255
0
255
0
255
0
255
0
255
0
255
0
255
0
255
0
255
0
255
0
255
0
255
0
255
0
255
0
255
0
255
0
255
0
255
0
255
0
255
0
255
0
255
0
255
0
255
0
255
0
255
0
255
0
255
0
255
0
255
0
255
0
255
0
255
0
255
0
255
0
255
0
255
0
255
0
255
0
255
0
255
0
255
0
255
0
255
0
255
0
255
0
255
0
255
0
255
0
255
0
255
0
255
0
254
0
254
0
254
0
253
0
253
0
251
0
249
0
255
0
254
0
239
0
162
0
0
0
0
0
0
0
0
0
0
0
0
0
0
0
0
0
0
0
0
0
0
0
0
0
0
0
0
0
0
0
0
0
0
0
0
0
0
0
0
0
0
0
0
0
0
0
0
0
0
0
0
0
0
0
0
0
0
0
0
0
0
0
0
0
0
0
0
0
0
0
0
0
0
0
0
0
0
0
0
0
0
0
0
0
0
0
0
0
0
0
0
0
0
0
0
0
0
0
0
0
0
0
0
0
0
0
0
0
0
0
0
0
0
0
0
0
0
0
0
0
0
0
0
0
0
0
0
0
0
0
0
0
0
0
0
0
0
0
0
0
0
0
0
0
0
0
0
0
0
0
0
0
0
0
0
0
0
0
0
0
0
0
0
0
0
0
0
0
0
0
0
0
0
0
0
0
0
0
0
0
0
0
0
0
0
0
0
0
0
0
0
0
0
0
0
0
0
0
0
0
0
0
0
0
0
0
0
0
0
0
0
0
0
0
0
0
0
0
0
0
0
0
0
0
0
0
0
0
0
0
0
0
0
0
0
0
0
0
0
0
0
0
0
0
0
0
0
0
0
0
0
0
0
0
0
0
0
0
0
0
0
0
0
0
0
0
0
0
0
0
0
0
0
0
0
0
0
0
0
0
0
0
0
0
0
0
0
0
0
0
0
0
0
0
0
0
0
0
0
0
0
0
0
0
0
0
0
0
0
0
0
0
0
0
0
0
0
0
0
0
0
0
0
0
0
0
0
0
0
0
0
0
0
0
0
0
0
0
0
0
0
0
0
0
0
0
0
0
0
0
0
0
0
0
0
0
0
0
0
0
0
0
0
0
0
0
0
0
0
0
0
0
0
0
0
0
0
0
0
0
0
0
0
0
0
0
0
0
0
0
0
0
0
0
0
0
0
0
0
0
0
0
0
0
0
0
0
0
0
0
0
0
0
0
0
0
0
0
0
0
0
0
0
0
0
0
0
0
0
0
0
0
0
0
0
0
0
0
0
0
0
0
0
0
255
0
255
0
255
0
254
0
254
0
253
0
252
0
252
0
251
0
255
0
246
0
252
0
255
0
230
0
255
0
249
0
106
0
13
0
20
0
16
0
37
0
41
0
66
0
56
0
55
0
30
0
63
0
67
0
62
0
64
0
38
0
18
0
32
0
54
0
78
0
103
0
112
0
114
0
122
0
134
0
144
0
118
0
88
0
101
0
83
0
32
0
1
0
86
0
74
0
47
0
59
0
78
0
93
0
99
0
97
0
91
0
87
0
72
0
28
0
7
0
47
0
68
0
71
0
90
0
101
0
79
0
85
0
86
0
68
0
76
0
82
0
96
0
90
0
47
0
32
0
1
0
156
0
253
0
252
0
251
0
252
0
252
0
253
0
254
0
255
0
255
0
255
0
254
0
254
0
255
0
255
0
255
0
255
0
255
0
255
0
255
0
255
0
255
0
255
0
255
0
255
0
255
0
255
0
255
0
255
0
255
0
255
0
255
0
255
0
255
0
255
0
255
0
255
0
255
0
255
0
255
0
255
0
255
0
255
0
255
0
255
0
255
0
255
0
255
0
255
0
255
0
255
0
255
0
255
0
255
0
255
0
255
0
255
0
255
0
255
0
255
0
255
0
255
0
255
0
255
0
255
0
255
0
255
0
255
0
255
0
255
0
255
0
255
0
255
0
255
0
255
0
255
0
255
0
255
0
255
0
255
0
255
0
255
0
255
0
255
0
255
0
255
0
255
0
255
0
255
0
255
0
255
0
255
0
255
0
255
0
255
0
255
0
255
0
255
0
255
0
255
0
255
0
255
0
255
0
255
0
255
0
255
0
255
0
255
0
255
0
255
0
255
0
255
0
255
0
255
0
255
0
255
0
255
0
255
0
255
0
255
0
255
0
255
0
255
0
255
0
255
0
255
0
255
0
255
0
255
0
255
0
255
0
255
0
255
0
255
0
255
0
255
0
255
0
254
0
254
0
254
0
254
0
247
0
254
0
254
0
245
0
254
0
251
0
0
0
0
0
0
0
0
0
0
0
0
0
0
0
0
0
0
0
0
0
0
0
0
0
0
0
0
0
0
0
0
0
0
0
0
0
0
0
0
0
0
0
0
0
0
0
0
0
0
0
0
0
0
0
0
0
0
0
0
0
0
0
0
0
0
0
0
0
0
0
0
0
0
0
0
0
0
0
0
0
0
0
0
0
0
0
0
0
0
0
0
0
0
0
0
0
0
0
0
0
0
0
0
0
0
0
0
0
0
0
0
0
0
0
0
0
0
0
0
0
0
0
0
0
0
0
0
0
0
0
0
0
0
0
0
0
0
0
0
0
0
0
0
0
0
0
0
0
0
0
0
0
0
0
0
0
0
0
0
0
0
0
0
0
0
0
0
0
0
0
0
0
0
0
0
0
0
0
0
0
0
0
0
0
0
0
0
0
0
0
0
0
0
0
0
0
0
0
0
0
0
0
0
0
0
0
0
0
0
0
0
0
0
0
0
0
0
0
0
0
0
0
0
0
0
0
0
0
0
0
0
0
0
0
0
0
0
0
0
0
0
0
0
0
0
0
0
0
0
0
0
0
0
0
0
0
0
0
0
0
0
0
0
0
0
0
0
0
0
0
0
0
0
0
0
0
0
0
0
0
0
0
0
0
0
0
0
0
0
0
0
0
0
0
0
0
0
0
0
0
0
0
0
0
0
0
0
0
0
0
0
0
0
0
0
0
0
0
0
0
0
0
0
0
0
0
0
0
0
0
0
0
0
0
0
0
0
0
0
0
0
0
0
0
0
0
0
0
0
0
0
0
0
0
0
0
0
0
0
0
0
0
0
0
0
0
0
0
0
0
0
0
0
0
0
0
0
0
0
0
0
0
0
0
0
0
0
0
0
0
0
0
0
0
0
0
0
0
0
0
0
0
0
0
0
0
0
0
0
0
0
0
0
0
0
0
0
0
0
0
0
0
0
0
0
0
0
0
0
0
0
0
0
0
0
0
0
0
0
0
0
0
0
0
255
0
255
0
255
0
254
0
253
0
252
0
252
0
251
0
251
0
255
0
254
0
255
0
253
0
245
0
252
0
185
0
51
0
22
0
28
0
26
0
40
0
41
0
51
0
54
0
49
0
27
0
61
0
63
0
57
0
60
0
38
0
20
0
36
0
63
0
99
0
130
0
130
0
121
0
126
0
144
0
156
0
133
0
109
0
105
0
55
0
16
0
27
0
96
0
92
0
82
0
68
0
54
0
55
0
66
0
79
0
88
0
92
0
48
0
14
0
21
0
40
0
59
0
82
0
94
0
100
0
84
0
98
0
86
0
70
0
84
0
83
0
95
0
64
0
5
0
3
0
11
0
240
0
255
0
246
0
254
0
254
0
252
0
253
0
254
0
255
0
255
0
255
0
254
0
254
0
255
0
255
0
255
0
255
0
255
0
255
0
255
0
255
0
255
0
255
0
255
0
255
0
255
0
255
0
255
0
255
0
255
0
255
0
255
0
255
0
255
0
255
0
255
0
255
0
255
0
255
0
255
0
255
0
255
0
255
0
255
0
255
0
255
0
255
0
255
0
255
0
255
0
255
0
255
0
255
0
255
0
255
0
255
0
255
0
255
0
255
0
255
0
255
0
255
0
255
0
255
0
255
0
255
0
255
0
255
0
255
0
255
0
255
0
255
0
255
0
255
0
255
0
255
0
255
0
255
0
255
0
255
0
255
0
255
0
255
0
255
0
255
0
255
0
255
0
255
0
255
0
255
0
255
0
255
0
255
0
255
0
255
0
255
0
255
0
255
0
255
0
255
0
255
0
255
0
255
0
255
0
255
0
255
0
255
0
255
0
255
0
255
0
255
0
255
0
255
0
255
0
255
0
255
0
255
0
255
0
255
0
255
0
255
0
255
0
255
0
255
0
255
0
255
0
255
0
255
0
255
0
255
0
255
0
255
0
255
0
255
0
255
0
255
0
255
0
255
0
254
0
254
0
254
0
247
0
255
0
254
0
248
0
250
0
254
0
0
0
0
0
0
0
0
0
0
0
0
0
0
0
0
0
0
0
0
0
0
0
0
0
0
0
0
0
0
0
0
0
0
0
0
0
0
0
0
0
0
0
0
0
0
0
0
0
0
0
0
0
0
0
0
0
0
0
0
0
0
0
0
0
0
0
0
0
0
0
0
0
0
0
0
0
0
0
0
0
0
0
0
0
0
0
0
0
0
0
0
0
0
0
0
0
0
0
0
0
0
0
0
0
0
0
0
0
0
0
0
0
0
0
0
0
0
0
0
0
0
0
0
0
0
0
0
0
0
0
0
0
0
0
0
0
0
0
0
0
0
0
0
0
0
0
0
0
0
0
0
0
0
0
0
0
0
0
0
0
0
0
0
0
0
0
0
0
0
0
0
0
0
0
0
0
0
0
0
0
0
0
0
0
0
0
0
0
0
0
0
0
0
0
0
0
0
0
0
0
0
0
0
0
0
0
0
0
0
0
0
0
0
0
0
0
0
0
0
0
0
0
0
0
0
0
0
0
0
0
0
0
0
0
0
0
0
0
0
0
0
0
0
0
0
0
0
0
0
0
0
0
0
0
0
0
0
0
0
0
0
0
0
0
0
0
0
0
0
0
0
0
0
0
0
0
0
0
0
0
0
0
0
0
0
0
0
0
0
0
0
0
0
0
0
0
0
0
0
0
0
0
0
0
0
0
0
0
0
0
0
0
0
0
0
0
0
0
0
0
0
0
0
0
0
0
0
0
0
0
0
0
0
0
0
0
0
0
0
0
0
0
0
0
0
0
0
0
0
0
0
0
0
0
0
0
0
0
0
0
0
0
0
0
0
0
0
0
0
0
0
0
0
0
0
0
0
0
0
0
0
0
0
0
0
0
0
0
0
0
0
0
0
0
0
0
0
0
0
0
0
0
0
0
0
0
0
0
0
0
0
0
0
0
0
0
0
0
0
0
0
0
0
0
0
0
0
0
0
0
0
0
0
0
0
0
0
0
0
0
0
0
0
0
255
0
255
0
255
0
254
0
253
0
252
0
251
0
250
0
250
0
250
0
255
0
255
0
247
0
255
0
237
0
112
0
0
0
19
0
33
0
48
0
57
0
43
0
34
0
43
0
42
0
38
0
69
0
70
0
63
0
68
0
48
0
31
0
45
0
91
0
110
0
122
0
120
0
121
0
135
0
145
0
145
0
133
0
126
0
117
0
48
0
15
0
58
0
78
0
83
0
94
0
89
0
81
0
70
0
56
0
45
0
42
0
45
0
46
0
21
0
41
0
40
0
58
0
94
0
90
0
82
0
84
0
101
0
84
0
83
0
108
0
90
0
77
0
3
0
33
0
4
0
1
0
253
0
244
0
251
0
254
0
248
0
252
0
253
0
254
0
255
0
255
0
255
0
254
0
254
0
255
0
255
0
255
0
255
0
255
0
255
0
255
0
255
0
255
0
255
0
255
0
255
0
255
0
255
0
255
0
255
0
255
0
255
0
255
0
255
0
255
0
255
0
255
0
255
0
255
0
255
0
255
0
255
0
255
0
255
0
255
0
255
0
255
0
255
0
255
0
255
0
255
0
255
0
255
0
255
0
255
0
255
0
255
0
255
0
255
0
255
0
255
0
255
0
255
0
255
0
255
0
255
0
255
0
255
0
255
0
255
0
255
0
255
0
255
0
255
0
255
0
255
0
255
0
255
0
255
0
255
0
255
0
255
0
255
0
255
0
255
0
255
0
255
0
255
0
255
0
255
0
255
0
255
0
255
0
255
0
255
0
255
0
255
0
255
0
255
0
255
0
255
0
255
0
255
0
255
0
255
0
255
0
255
0
255
0
255
0
255
0
255
0
255
0
255
0
255
0
255
0
255
0
255
0
255
0
255
0
255
0
255
0
255
0
255
0
255
0
255
0
255
0
255
0
255
0
255
0
255
0
255
0
255
0
255
0
255
0
255
0
255
0
255
0
255
0
255
0
255
0
254
0
254
0
254
0
248
0
246
0
253
0
252
0
248
0
0
0
0
0
0
0
0
0
0
0
0
0
0
0
0
0
0
0
0
0
0
0
0
0
0
0
0
0
0
0
0
0
0
0
0
0
0
0
0
0
0
0
0
0
0
0
0
0
0
0
0
0
0
0
0
0
0
0
0
0
0
0
0
0
0
0
0
0
0
0
0
0
0
0
0
0
0
0
0
0
0
0
0
0
0
0
0
0
0
0
0
0
0
0
0
0
0
0
0
0
0
0
0
0
0
0
0
0
0
0
0
0
0
0
0
0
0
0
0
0
0
0
0
0
0
0
0
0
0
0
0
0
0
0
0
0
0
0
0
0
0
0
0
0
0
0
0
0
0
0
0
0
0
0
0
0
0
0
0
0
0
0
0
0
0
0
0
0
0
0
0
0
0
0
0
0
0
0
0
0
0
0
0
0
0
0
0
0
0
0
0
0
0
0
0
0
0
0
0
0
0
0
0
0
0
0
0
0
0
0
0
0
0
0
0
0
0
0
0
0
0
0
0
0
0
0
0
0
0
0
0
0
0
0
0
0
0
0
0
0
0
0
0
0
0
0
0
0
0
0
0
0
0
0
0
0
0
0
0
0
0
0
0
0
0
0
0
0
0
0
0
0
0
0
0
0
0
0
0
0
0
0
0
0
0
0
0
0
0
0
0
0
0
0
0
0
0
0
0
0
0
0
0
0
0
0
0
0
0
0
0
0
0
0
0
0
0
0
0
0
0
0
0
0
0
0
0
0
0
0
0
0
0
0
0
0
0
0
0
0
0
0
0
0
0
0
0
0
0
0
0
0
0
0
0
0
0
0
0
0
0
0
0
0
0
0
0
0
0
0
0
0
0
0
0
0
0
0
0
0
0
0
0
0
0
0
0
0
0
0
0
0
0
0
0
0
0
0
0
0
0
0
0
0
0
0
0
0
0
0
0
0
0
0
0
0
0
0
0
0
0
0
0
0
0
0
0
0
0
0
0
0
0
0
0
0
0
0
0
0
0
0
0
0
253
0
252
0
253
0
254
0
254
0
254
0
254
0
253
0
254
0
254
0
254
0
239
0
251
0
250
0
167
0
9
0
4
0
18
0
46
0
49
0
48
0
53
0
51
0
42
0
26
0
31
0
50
0
42
0
67
0
38
0
30
0
44
0
44
0
92
0
112
0
115
0
119
0
126
0
137
0
154
0
149
0
133
0
121
0
99
0
27
0
40
0
56
0
62
0
97
0
88
0
91
0
94
0
99
0
104
0
99
0
77
0
55
0
34
0
28
0
52
0
74
0
68
0
66
0
74
0
73
0
77
0
100
0
94
0
98
0
100
0
49
0
18
0
73
0
83
0
14
0
33
0
243
0
248
0
254
0
251
0
253
0
252
0
253
0
254
0
255
0
255
0
255
0
254
0
254
0
255
0
255
0
255
0
255
0
255
0
255
0
255
0
255
0
255
0
255
0
255
0
255
0
255
0
255
0
255
0
255
0
255
0
255
0
255
0
255
0
255
0
255
0
255
0
255
0
255
0
255
0
255
0
255
0
255
0
255
0
255
0
255
0
255
0
255
0
255
0
255
0
255
0
255
0
255
0
255
0
255
0
255
0
255
0
255
0
255
0
255
0
255
0
255
0
255
0
255
0
255
0
255
0
255
0
255
0
255
0
255
0
255
0
255
0
255
0
255
0
255
0
255
0
255
0
255
0
255
0
255
0
255
0
255
0
255
0
255
0
255
0
255
0
255
0
255
0
255
0
255
0
255
0
255
0
255
0
255
0
255
0
255
0
255
0
255
0
255
0
255
0
255
0
255
0
255
0
255
0
255
0
255
0
255
0
255
0
255
0
255
0
255
0
255
0
255
0
255
0
255
0
255
0
255
0
255
0
255
0
255
0
255
0
255
0
255
0
255
0
255
0
255
0
255
0
255
0
255
0
255
0
255
0
255
0
255
0
255
0
255
0
255
0
255
0
255
0
255
0
255
0
255
0
255
0
253
0
253
0
253
0
253
0
253
0
253
0
0
0
0
0
0
0
0
0
0
0
0
0
0
0
0
0
0
0
0
0
0
0
0
0
0
0
0
0
0
0
0
0
0
0
0
0
0
0
0
0
0
0
0
0
0
0
0
0
0
0
0
0
0
0
0
0
0
0
0
0
0
0
0
0
0
0
0
0
0
0
0
0
0
0
0
0
0
0
0
0
0
0
0
0
0
0
0
0
0
0
0
0
0
0
0
0
0
0
0
0
0
0
0
0
0
0
0
0
0
0
0
0
0
0
0
0
0
0
0
0
0
0
0
0
0
0
0
0
0
0
0
0
0
0
0
0
0
0
0
0
0
0
0
0
0
0
0
0
0
0
0
0
0
0
0
0
0
0
0
0
0
0
0
0
0
0
0
0
0
0
0
0
0
0
0
0
0
0
0
0
0
0
0
0
0
0
0
0
0
0
0
0
0
0
0
0
0
0
0
0
0
0
0
0
0
0
0
0
0
0
0
0
0
0
0
0
0
0
0
0
0
0
0
0
0
0
0
0
0
0
0
0
0
0
0
0
0
0
0
0
0
0
0
0
0
0
0
0
0
0
0
0
0
0
0
0
0
0
0
0
0
0
0
0
0
0
0
0
0
0
0
0
0
0
0
0
0
0
0
0
0
0
0
0
0
0
0
0
0
0
0
0
0
0
0
0
0
0
0
0
0
0
0
0
0
0
0
0
0
0
0
0
0
0
0
0
0
0
0
0
0
0
0
0
0
0
0
0
0
0
0
0
0
0
0
0
0
0
0
0
0
0
0
0
0
0
0
0
0
0
0
0
0
0
0
0
0
0
0
0
0
0
0
0
0
0
0
0
0
0
0
0
0
0
0
0
0
0
0
0
0
0
0
0
0
0
0
0
0
0
0
0
0
0
0
0
0
0
0
0
0
0
0
0
0
0
0
0
0
0
0
0
0
0
0
0
0
0
0
0
0
0
0
0
0
0
0
0
0
0
0
0
0
0
0
0
0
0
0
0
0
0
0
0
253
0
247
0
255
0
255
0
251
0
247
0
252
0
255
0
255
0
241
0
254
0
254
0
248
0
155
0
19
0
3
0
21
0
19
0
50
0
61
0
62
0
64
0
59
0
45
0
30
0
24
0
42
0
32
0
49
0
29
0
20
0
48
0
51
0
96
0
111
0
101
0
98
0
100
0
114
0
142
0
142
0
133
0
112
0
75
0
26
0
58
0
65
0
55
0
64
0
82
0
103
0
106
0
87
0
79
0
86
0
79
0
57
0
35
0
32
0
60
0
88
0
87
0
80
0
77
0
67
0
71
0
77
0
92
0
101
0
76
0
36
0
54
0
115
0
105
0
8
0
12
0
252
0
240
0
255
0
240
0
253
0
252
0
253
0
254
0
255
0
255
0
255
0
254
0
254
0
255
0
255
0
255
0
255
0
255
0
255
0
255
0
255
0
255
0
255
0
255
0
255
0
255
0
255
0
255
0
255
0
255
0
255
0
255
0
255
0
255
0
255
0
255
0
255
0
255
0
255
0
255
0
255
0
255
0
255
0
255
0
255
0
255
0
255
0
255
0
255
0
255
0
255
0
255
0
255
0
255
0
255
0
255
0
255
0
255
0
255
0
255
0
255
0
255
0
255
0
255
0
255
0
255
0
255
0
255
0
255
0
255
0
255
0
255
0
255
0
255
0
255
0
255
0
255
0
255
0
255
0
255
0
255
0
255
0
255
0
255
0
255
0
255
0
255
0
255
0
255
0
255
0
255
0
255
0
255
0
255
0
255
0
255
0
255
0
255
0
255
0
255
0
255
0
255
0
255
0
255
0
255
0
255
0
255
0
255
0
255
0
255
0
255
0
255
0
255
0
255
0
255
0
255
0
255
0
255
0
255
0
255
0
255
0
255
0
255
0
255
0
255
0
255
0
255
0
255
0
255
0
255
0
255
0
255
0
255
0
255
0
255
0
255
0
255
0
255
0
255
0
255
0
255
0
253
0
253
0
253
0
253
0
253
0
253
0
0
0
0
0
0
0
0
0
0
0
0
0
0
0
0
0
0
0
0
0
0
0
0
0
0
0
0
0
0
0
0
0
0
0
0
0
0
0
0
0
0
0
0
0
0
0
0
0
0
0
0
0
0
0
0
0
0
0
0
0
0
0
0
0
0
0
0
0
0
0
0
0
0
0
0
0
0
0
0
0
0
0
0
0
0
0
0
0
0
0
0
0
0
0
0
0
0
0
0
0
0
0
0
0
0
0
0
0
0
0
0
0
0
0
0
0
0
0
0
0
0
0
0
0
0
0
0
0
0
0
0
0
0
0
0
0
0
0
0
0
0
0
0
0
0
0
0
0
0
0
0
0
0
0
0
0
0
0
0
0
0
0
0
0
0
0
0
0
0
0
0
0
0
0
0
0
0
0
0
0
0
0
0
0
0
0
0
0
0
0
0
0
0
0
0
0
0
0
0
0
0
0
0
0
0
0
0
0
0
0
0
0
0
0
0
0
0
0
0
0
0
0
0
0
0
0
0
0
0
0
0
0
0
0
0
0
0
0
0
0
0
0
0
0
0
0
0
0
0
0
0
0
0
0
0
0
0
0
0
0
0
0
0
0
0
0
0
0
0
0
0
0
0
0
0
0
0
0
0
0
0
0
0
0
0
0
0
0
0
0
0
0
0
0
0
0
0
0
0
0
0
0
0
0
0
0
0
0
0
0
0
0
0
0
0
0
0
0
0
0
0
0
0
0
0
0
0
0
0
0
0
0
0
0
0
0
0
0
0
0
0
0
0
0
0
0
0
0
0
0
0
0
0
0
0
0
0
0
0
0
0
0
0
0
0
0
0
0
0
0
0
0
0
0
0
0
0
0
0
0
0
0
0
0
0
0
0
0
0
0
0
0
0
0
0
0
0
0
0
0
0
0
0
0
0
0
0
0
0
0
0
0
0
0
0
0
0
0
0
0
0
0
0
0
0
0
0
0
0
0
0
0
0
0
0
0
0
0
0
0
0
0
0
0
253
0
252
0
246
0
237
0
252
0
254
0
254
0
246
0
248
0
248
0
253
0
193
0
66
0
2
0
4
0
76
0
34
0
23
0
51
0
67
0
68
0
70
0
64
0
46
0
36
0
51
0
61
0
55
0
58
0
44
0
26
0
59
0
57
0
53
0
74
0
76
0
77
0
76
0
78
0
94
0
86
0
105
0
82
0
29
0
19
0
71
0
74
0
65
0
57
0
55
0
72
0
84
0
82
0
89
0
95
0
70
0
34
0
28
0
41
0
77
0
101
0
94
0
83
0
82
0
80
0
72
0
65
0
79
0
68
0
28
0
39
0
99
0
140
0
96
0
28
0
3
0
254
0
239
0
254
0
248
0
249
0
252
0
253
0
254
0
255
0
255
0
255
0
254
0
254
0
255
0
255
0
255
0
255
0
255
0
255
0
255
0
255
0
255
0
255
0
255
0
255
0
255
0
255
0
255
0
255
0
255
0
255
0
255
0
255
0
255
0
255
0
255
0
255
0
255
0
255
0
255
0
255
0
255
0
255
0
255
0
255
0
255
0
255
0
255
0
255
0
255
0
255
0
255
0
255
0
255
0
255
0
255
0
255
0
255
0
255
0
255
0
255
0
255
0
255
0
255
0
255
0
255
0
255
0
255
0
255
0
255
0
255
0
255
0
255
0
255
0
255
0
255
0
255
0
255
0
255
0
255
0
255
0
255
0
255
0
255
0
255
0
255
0
255
0
255
0
255
0
255
0
255
0
255
0
255
0
255
0
255
0
255
0
255
0
255
0
255
0
255
0
255
0
255
0
255
0
255
0
255
0
255
0
255
0
255
0
255
0
255
0
255
0
255
0
255
0
255
0
255
0
255
0
255
0
255
0
255
0
255
0
255
0
255
0
255
0
255
0
255
0
255
0
255
0
255
0
255
0
255
0
255
0
255
0
255
0
255
0
255
0
255
0
255
0
255
0
255
0
255
0
255
0
253
0
253
0
253
0
253
0
253
0
253
0
0
0
0
0
0
0
0
0
0
0
0
0
0
0
0
0
0
0
0
0
0
0
0
0
0
0
0
0
0
0
0
0
0
0
0
0
0
0
0
0
0
0
0
0
0
0
0
0
0
0
0
0
0
0
0
0
0
0
0
0
0
0
0
0
0
0
0
0
0
0
0
0
0
0
0
0
0
0
0
0
0
0
0
0
0
0
0
0
0
0
0
0
0
0
0
0
0
0
0
0
0
0
0
0
0
0
0
0
0
0
0
0
0
0
0
0
0
0
0
0
0
0
0
0
0
0
0
0
0
0
0
0
0
0
0
0
0
0
0
0
0
0
0
0
0
0
0
0
0
0
0
0
0
0
0
0
0
0
0
0
0
0
0
0
0
0
0
0
0
0
0
0
0
0
0
0
0
0
0
0
0
0
0
0
0
0
0
0
0
0
0
0
0
0
0
0
0
0
0
0
0
0
0
0
0
0
0
0
0
0
0
0
0
0
0
0
0
0
0
0
0
0
0
0
0
0
0
0
0
0
0
0
0
0
0
0
0
0
0
0
0
0
0
0
0
0
0
0
0
0
0
0
0
0
0
0
0
0
0
0
0
0
0
0
0
0
0
0
0
0
0
0
0
0
0
0
0
0
0
0
0
0
0
0
0
0
0
0
0
0
0
0
0
0
0
0
0
0
0
0
0
0
0
0
0
0
0
0
0
0
0
0
0
0
0
0
0
0
0
0
0
0
0
0
0
0
0
0
0
0
0
0
0
0
0
0
0
0
0
0
0
0
0
0
0
0
0
0
0
0
0
0
0
0
0
0
0
0
0
0
0
0
0
0
0
0
0
0
0
0
0
0
0
0
0
0
0
0
0
0
0
0
0
0
0
0
0
0
0
0
0
0
0
0
0
0
0
0
0
0
0
0
0
0
0
0
0
0
0
0
0
0
0
0
0
0
0
0
0
0
0
0
0
0
0
0
0
0
0
0
0
0
0
0
0
0
0
0
0
0
0
0
0
0
253
0
244
0
248
0
254
0
254
0
254
0
249
0
248
0
250
0
181
0
65
0
2
0
16
0
26
0
12
0
49
0
62
0
33
0
48
0
62
0
62
0
67
0
64
0
44
0
41
0
61
0
71
0
69
0
63
0
52
0
24
0
56
0
48
0
53
0
87
0
105
0
123
0
133
0
140
0
153
0
141
0
108
0
87
0
19
0
33
0
85
0
88
0
92
0
84
0
78
0
65
0
59
0
66
0
77
0
76
0
61
0
50
0
48
0
54
0
71
0
86
0
88
0
87
0
88
0
90
0
92
0
92
0
83
0
45
0
27
0
79
0
132
0
131
0
75
0
57
0
1
0
244
0
253
0
244
0
252
0
237
0
252
0
253
0
254
0
255
0
255
0
255
0
254
0
254
0
255
0
255
0
255
0
255
0
255
0
255
0
255
0
255
0
255
0
255
0
255
0
255
0
255
0
255
0
255
0
255
0
255
0
255
0
255
0
255
0
255
0
255
0
255
0
255
0
255
0
255
0
255
0
255
0
255
0
255
0
255
0
255
0
255
0
255
0
255
0
255
0
255
0
255
0
255
0
255
0
255
0
255
0
255
0
255
0
255
0
255
0
255
0
255
0
255
0
255
0
255
0
255
0
255
0
255
0
255
0
255
0
255
0
255
0
255
0
255
0
255
0
255
0
255
0
255
0
255
0
255
0
255
0
255
0
255
0
255
0
255
0
255
0
255
0
255
0
255
0
255
0
255
0
255
0
255
0
255
0
255
0
255
0
255
0
255
0
255
0
255
0
255
0
255
0
255
0
255
0
255
0
255
0
255
0
255
0
255
0
255
0
255
0
255
0
255
0
255
0
255
0
255
0
255
0
255
0
255
0
255
0
255
0
255
0
255
0
255
0
255
0
255
0
255
0
255
0
255
0
255
0
255
0
255
0
255
0
255
0
255
0
255
0
255
0
255
0
255
0
255
0
255
0
255
0
254
0
254
0
254
0
254
0
254
0
254
0
0
0
0
0
0
0
0
0
0
0
0
0
0
0
0
0
0
0
0
0
0
0
0
0
0
0
0
0
0
0
0
0
0
0
0
0
0
0
0
0
0
0
0
0
0
0
0
0
0
0
0
0
0
0
0
0
0
0
0
0
0
0
0
0
0
0
0
0
0
0
0
0
0
0
0
0
0
0
0
0
0
0
0
0
0
0
0
0
0
0
0
0
0
0
0
0
0
0
0
0
0
0
0
0
0
0
0
0
0
0
0
0
0
0
0
0
0
0
0
0
0
0
0
0
0
0
0
0
0
0
0
0
0
0
0
0
0
0
0
0
0
0
0
0
0
0
0
0
0
0
0
0
0
0
0
0
0
0
0
0
0
0
0
0
0
0
0
0
0
0
0
0
0
0
0
0
0
0
0
0
0
0
0
0
0
0
0
0
0
0
0
0
0
0
0
0
0
0
0
0
0
0
0
0
0
0
0
0
0
0
0
0
0
0
0
0
0
0
0
0
0
0
0
0
0
0
0
0
0
0
0
0
0
0
0
0
0
0
0
0
0
0
0
0
0
0
0
0
0
0
0
0
0
0
0
0
0
0
0
0
0
0
0
0
0
0
0
0
0
0
0
0
0
0
0
0
0
0
0
0
0
0
0
0
0
0
0
0
0
0
0
0
0
0
0
0
0
0
0
0
0
0
0
0
0
0
0
0
0
0
0
0
0
0
0
0
0
0
0
0
0
0
0
0
0
0
0
0
0
0
0
0
0
0
0
0
0
0
0
0
0
0
0
0
0
0
0
0
0
0
0
0
0
0
0
0
0
0
0
0
0
0
0
0
0
0
0
0
0
0
0
0
0
0
0
0
0
0
0
0
0
0
0
0
0
0
0
0
0
0
0
0
0
0
0
0
0
0
0
0
0
0
0
0
0
0
0
0
0
0
0
0
0
0
0
0
0
0
0
0
0
0
0
0
0
0
0
0
0
0
0
0
0
0
0
0
0
0
0
0
0
0
0
0
253
0
236
0
254
0
253
0
246
0
253
0
254
0
216
0
150
0
3
0
4
0
19
0
39
0
48
0
60
0
35
0
49
0
41
0
43
0
58
0
58
0
66
0
67
0
41
0
42
0
57
0
70
0
66
0
59
0
51
0
29
0
65
0
57
0
80
0
105
0
113
0
124
0
132
0
142
0
160
0
151
0
133
0
105
0
17
0
40
0
89
0
92
0
92
0
83
0
98
0
87
0
78
0
75
0
66
0
58
0
60
0
70
0
87
0
74
0
59
0
62
0
78
0
89
0
90
0
91
0
94
0
104
0
77
0
42
0
58
0
100
0
114
0
101
0
87
0
63
0
5
0
145
0
248
0
248
0
250
0
247
0
252
0
253
0
254
0
255
0
255
0
255
0
254
0
254
0
255
0
255
0
255
0
255
0
255
0
255
0
255
0
255
0
255
0
255
0
255
0
255
0
255
0
255
0
255
0
255
0
255
0
255
0
255
0
255
0
255
0
255
0
255
0
255
0
255
0
255
0
255
0
255
0
255
0
255
0
255
0
255
0
255
0
255
0
255
0
255
0
255
0
255
0
255
0
255
0
255
0
255
0
255
0
255
0
255
0
255
0
255
0
255
0
255
0
255
0
255
0
255
0
255
0
255
0
255
0
255
0
255
0
255
0
255
0
255
0
255
0
255
0
255
0
255
0
255
0
255
0
255
0
255
0
255
0
255
0
255
0
255
0
255
0
255
0
255
0
255
0
255
0
255
0
255
0
255
0
255
0
255
0
255
0
255
0
255
0
255
0
255
0
255
0
255
0
255
0
255
0
255
0
255
0
255
0
255
0
255
0
255
0
255
0
255
0
255
0
255
0
255
0
255
0
255
0
255
0
255
0
255
0
255
0
255
0
255
0
255
0
255
0
255
0
255
0
255
0
255
0
255
0
255
0
255
0
255
0
255
0
255
0
255
0
255
0
255
0
255
0
255
0
255
0
254
0
254
0
254
0
254
0
254
0
254
0
0
0
0
0
0
0
0
0
0
0
0
0
0
0
0
0
0
0
0
0
0
0
0
0
0
0
0
0
0
0
0
0
0
0
0
0
0
0
0
0
0
0
0
0
0
0
0
0
0
0
0
0
0
0
0
0
0
0
0
0
0
0
0
0
0
0
0
0
0
0
0
0
0
0
0
0
0
0
0
0
0
0
0
0
0
0
0
0
0
0
0
0
0
0
0
0
0
0
0
0
0
0
0
0
0
0
0
0
0
0
0
0
0
0
0
0
0
0
0
0
0
0
0
0
0
0
0
0
0
0
0
0
0
0
0
0
0
0
0
0
0
0
0
0
0
0
0
0
0
0
0
0
0
0
0
0
0
0
0
0
0
0
0
0
0
0
0
0
0
0
0
0
0
0
0
0
0
0
0
0
0
0
0
0
0
0
0
0
0
0
0
0
0
0
0
0
0
0
0
0
0
0
0
0
0
0
0
0
0
0
0
0
0
0
0
0
0
0
0
0
0
0
0
0
0
0
0
0
0
0
0
0
0
0
0
0
0
0
0
0
0
0
0
0
0
0
0
0
0
0
0
0
0
0
0
0
0
0
0
0
0
0
0
0
0
0
0
0
0
0
0
0
0
0
0
0
0
0
0
0
0
0
0
0
0
0
0
0
0
0
0
0
0
0
0
0
0
0
0
0
0
0
0
0
0
0
0
0
0
0
0
0
0
0
0
0
0
0
0
0
0
0
0
0
0
0
0
0
0
0
0
0
0
0
0
0
0
0
0
0
0
0
0
0
0
0
0
0
0
0
0
0
0
0
0
0
0
0
0
0
0
0
0
0
0
0
0
0
0
0
0
0
0
0
0
0
0
0
0
0
0
0
0
0
0
0
0
0
0
0
0
0
0
0
0
0
0
0
0
0
0
0
0
0
0
0
0
0
0
0
0
0
0
0
0
0
0
0
0
0
0
0
0
0
0
0
0
0
0
0
0
0
0
0
0
0
0
0
0
0
0
0
0
0
253
0
254
0
253
0
253
0
253
0
245
0
180
0
84
0
10
0
12
0
45
0
64
0
65
0
59
0
67
0
31
0
68
0
43
0
38
0
56
0
52
0
61
0
64
0
36
0
45
0
67
0
78
0
65
0
59
0
45
0
38
0
78
0
76
0
112
0
128
0
124
0
125
0
128
0
134
0
146
0
133
0
132
0
100
0
11
0
36
0
87
0
94
0
84
0
71
0
68
0
71
0
70
0
64
0
64
0
71
0
74
0
71
0
92
0
92
0
79
0
67
0
68
0
70
0
79
0
95
0
89
0
85
0
48
0
34
0
69
0
84
0
88
0
103
0
114
0
90
0
53
0
15
0
155
0
253
0
255
0
253
0
252
0
253
0
254
0
255
0
255
0
255
0
254
0
254
0
255
0
255
0
255
0
255
0
255
0
255
0
255
0
255
0
255
0
255
0
255
0
255
0
255
0
255
0
255
0
255
0
255
0
255
0
255
0
255
0
255
0
255
0
255
0
255
0
255
0
255
0
255
0
255
0
255
0
255
0
255
0
255
0
255
0
255
0
255
0
255
0
255
0
255
0
255
0
255
0
255
0
255
0
255
0
255
0
255
0
255
0
255
0
255
0
255
0
255
0
255
0
255
0
255
0
255
0
255
0
255
0
255
0
255
0
255
0
255
0
255
0
255
0
255
0
255
0
255
0
255
0
255
0
255
0
255
0
255
0
255
0
255
0
255
0
255
0
255
0
255
0
255
0
255
0
255
0
255
0
255
0
255
0
255
0
255
0
255
0
255
0
255
0
255
0
255
0
255
0
255
0
255
0
255
0
255
0
255
0
255
0
255
0
255
0
255
0
255
0
255
0
255
0
255
0
255
0
255
0
255
0
255
0
255
0
255
0
255
0
255
0
255
0
255
0
255
0
255
0
255
0
255
0
255
0
255
0
255
0
255
0
255
0
255
0
255
0
255
0
255
0
255
0
255
0
255
0
255
0
255
0
255
0
255
0
255
0
0
0
0
0
0
0
0
0
0
0
0
0
0
0
0
0
0
0
0
0
0
0
0
0
0
0
0
0
0
0
0
0
0
0
0
0
0
0
0
0
0
0
0
0
0
0
0
0
0
0
0
0
0
0
0
0
0
0
0
0
0
0
0
0
0
0
0
0
0
0
0
0
0
0
0
0
0
0
0
0
0
0
0
0
0
0
0
0
0
0
0
0
0
0
0
0
0
0
0
0
0
0
0
0
0
0
0
0
0
0
0
0
0
0
0
0
0
0
0
0
0
0
0
0
0
0
0
0
0
0
0
0
0
0
0
0
0
0
0
0
0
0
0
0
0
0
0
0
0
0
0
0
0
0
0
0
0
0
0
0
0
0
0
0
0
0
0
0
0
0
0
0
0
0
0
0
0
0
0
0
0
0
0
0
0
0
0
0
0
0
0
0
0
0
0
0
0
0
0
0
0
0
0
0
0
0
0
0
0
0
0
0
0
0
0
0
0
0
0
0
0
0
0
0
0
0
0
0
0
0
0
0
0
0
0
0
0
0
0
0
0
0
0
0
0
0
0
0
0
0
0
0
0
0
0
0
0
0
0
0
0
0
0
0
0
0
0
0
0
0
0
0
0
0
0
0
0
0
0
0
0
0
0
0
0
0
0
0
0
0
0
0
0
0
0
0
0
0
0
0
0
0
0
0
0
0
0
0
0
0
0
0
0
0
0
0
0
0
0
0
0
0
0
0
0
0
0
0
0
0
0
0
0
0
0
0
0
0
0
0
0
0
0
0
0
0
0
0
0
0
0
0
0
0
0
0
0
0
0
0
0
0
0
0
0
0
0
0
0
0
0
0
0
0
0
0
0
0
0
0
0
0
0
0
0
0
0
0
0
0
0
0
0
0
0
0
0
0
0
0
0
0
0
0
0
0
0
0
0
0
0
0
0
0
0
0
0
0
0
0
0
0
0
0
0
0
0
0
0
0
0
0
0
0
0
0
0
0
0
0
0
0
0
0
253
0
249
0
250
0
248
0
212
0
123
0
30
0
5
0
14
0
49
0
64
0
60
0
60
0
72
0
67
0
40
0
40
0
44
0
32
0
47
0
34
0
39
0
47
0
28
0
55
0
63
0
77
0
56
0
56
0
34
0
36
0
72
0
74
0
103
0
118
0
116
0
125
0
136
0
148
0
159
0
142
0
125
0
99
0
19
0
36
0
69
0
77
0
62
0
59
0
43
0
33
0
19
0
15
0
28
0
51
0
68
0
73
0
70
0
91
0
95
0
85
0
79
0
68
0
66
0
82
0
78
0
59
0
32
0
45
0
87
0
101
0
105
0
130
0
126
0
130
0
110
0
9
0
51
0
180
0
245
0
248
0
252
0
253
0
254
0
255
0
255
0
255
0
254
0
254
0
255
0
255
0
255
0
255
0
255
0
255
0
255
0
255
0
255
0
255
0
255
0
255
0
255
0
255
0
255
0
255
0
255
0
255
0
255
0
255
0
255
0
255
0
255
0
255
0
255
0
255
0
255
0
255
0
255
0
255
0
255
0
255
0
255
0
255
0
255
0
255
0
255
0
255
0
255
0
255
0
255
0
255
0
255
0
255
0
255
0
255
0
255
0
255
0
255
0
255
0
255
0
255
0
255
0
255
0
255
0
255
0
255
0
255
0
255
0
255
0
255
0
255
0
255
0
255
0
255
0
255
0
255
0
255
0
255
0
255
0
255
0
255
0
255
0
255
0
255
0
255
0
255
0
255
0
255
0
255
0
255
0
255
0
255
0
255
0
255
0
255
0
255
0
255
0
255
0
255
0
255
0
255
0
255
0
255
0
255
0
255
0
255
0
255
0
255
0
255
0
255
0
255
0
255
0
255
0
255
0
255
0
255
0
255
0
255
0
255
0
255
0
255
0
255
0
255
0
255
0
255
0
255
0
255
0
255
0
255
0
255
0
255
0
255
0
255
0
255
0
255
0
255
0
255
0
255
0
255
0
255
0
255
0
255
0
255
0
0
0
0
0
0
0
0
0
0
0
0
0
0
0
0
0
0
0
0
0
0
0
0
0
0
0
0
0
0
0
0
0
0
0
0
0
0
0
0
0
0
0
0
0
0
0
0
0
0
0
0
0
0
0
0
0
0
0
0
0
0
0
0
0
0
0
0
0
0
0
0
0
0
0
0
0
0
0
0
0
0
0
0
0
0
0
0
0
0
0
0
0
0
0
0
0
0
0
0
0
0
0
0
0
0
0
0
0
0
0
0
0
0
0
0
0
0
0
0
0
0
0
0
0
0
0
0
0
0
0
0
0
0
0
0
0
0
0
0
0
0
0
0
0
0
0
0
0
0
0
0
0
0
0
0
0
0
0
0
0
0
0
0
0
0
0
0
0
0
0
0
0
0
0
0
0
0
0
0
0
0
0
0
0
0
0
0
0
0
0
0
0
0
0
0
0
0
0
0
0
0
0
0
0
0
0
0
0
0
0
0
0
0
0
0
0
0
0
0
0
0
0
0
0
0
0
0
0
0
0
0
0
0
0
0
0
0
0
0
0
0
0
0
0
0
0
0
0
0
0
0
0
0
0
0
0
0
0
0
0
0
0
0
0
0
0
0
0
0
0
0
0
0
0
0
0
0
0
0
0
0
0
0
0
0
0
0
0
0
0
0
0
0
0
0
0
0
0
0
0
0
0
0
0
0
0
0
0
0
0
0
0
0
0
0
0
0
0
0
0
0
0
0
0
0
0
0
0
0
0
0
0
0
0
0
0
0
0
0
0
0
0
0
0
0
0
0
0
0
0
0
0
0
0
0
0
0
0
0
0
0
0
0
0
0
0
0
0
0
0
0
0
0
0
0
0
0
0
0
0
0
0
0
0
0
0
0
0
0
0
0
0
0
0
0
0
0
0
0
0
0
0
0
0
0
0
0
0
0
0
0
0
0
0
0
0
0
0
0
0
0
0
0
0
0
0
0
0
0
0
0
0
0
0
0
0
0
0
0
0
0
0
0
0
253
0
248
0
234
0
159
0
47
0
2
0
12
0
51
0
63
0
57
0
67
0
61
0
60
0
79
0
62
0
76
0
47
0
45
0
26
0
36
0
10
0
9
0
25
0
20
0
64
0
56
0
77
0
56
0
67
0
40
0
50
0
78
0
79
0
115
0
123
0
111
0
112
0
123
0
136
0
146
0
128
0
118
0
100
0
25
0
18
0
22
0
20
0
2
0
12
0
13
0
6
0
13
0
24
0
15
0
6
0
15
0
39
0
62
0
75
0
78
0
88
0
107
0
96
0
63
0
48
0
40
0
23
0
25
0
56
0
105
0
129
0
126
0
120
0
130
0
140
0
118
0
44
0
12
0
43
0
205
0
249
0
252
0
253
0
254
0
255
0
255
0
255
0
254
0
254
0
255
0
255
0
255
0
255
0
255
0
255
0
255
0
255
0
255
0
255
0
255
0
255
0
255
0
255
0
255
0
255
0
255
0
255
0
255
0
255
0
255
0
255
0
255
0
255
0
255
0
255
0
255
0
255
0
255
0
255
0
255
0
255
0
255
0
255
0
255
0
255
0
255
0
255
0
255
0
255
0
255
0
255
0
255
0
255
0
255
0
255
0
255
0
255
0
255
0
255
0
255
0
255
0
255
0
255
0
255
0
255
0
255
0
255
0
255
0
255
0
255
0
255
0
255
0
255
0
255
0
255
0
255
0
255
0
255
0
255
0
255
0
255
0
255
0
255
0
255
0
255
0
255
0
255
0
255
0
255
0
255
0
255
0
255
0
255
0
255
0
255
0
255
0
255
0
255
0
255
0
255
0
255
0
255
0
255
0
255
0
255
0
255
0
255
0
255
0
255
0
255
0
255
0
255
0
255
0
255
0
255
0
255
0
255
0
255
0
255
0
255
0
255
0
255
0
255
0
255
0
255
0
255
0
255
0
255
0
255
0
255
0
255
0
255
0
255
0
255
0
255
0
255
0
255
0
255
0
255
0
255
0
255
0
255
0
255
0
0
0
0
0
0
0
0
0
0
0
0
0
0
0
0
0
0
0
0
0
0
0
0
0
0
0
0
0
0
0
0
0
0
0
0
0
0
0
0
0
0
0
0
0
0
0
0
0
0
0
0
0
0
0
0
0
0
0
0
0
0
0
0
0
0
0
0
0
0
0
0
0
0
0
0
0
0
0
0
0
0
0
0
0
0
0
0
0
0
0
0
0
0
0
0
0
0
0
0
0
0
0
0
0
0
0
0
0
0
0
0
0
0
0
0
0
0
0
0
0
0
0
0
0
0
0
0
0
0
0
0
0
0
0
0
0
0
0
0
0
0
0
0
0
0
0
0
0
0
0
0
0
0
0
0
0
0
0
0
0
0
0
0
0
0
0
0
0
0
0
0
0
0
0
0
0
0
0
0
0
0
0
0
0
0
0
0
0
0
0
0
0
0
0
0
0
0
0
0
0
0
0
0
0
0
0
0
0
0
0
0
0
0
0
0
0
0
0
0
0
0
0
0
0
0
0
0
0
0
0
0
0
0
0
0
0
0
0
0
0
0
0
0
0
0
0
0
0
0
0
0
0
0
0
0
0
0
0
0
0
0
0
0
0
0
0
0
0
0
0
0
0
0
0
0
0
0
0
0
0
0
0
0
0
0
0
0
0
0
0
0
0
0
0
0
0
0
0
0
0
0
0
0
0
0
0
0
0
0
0
0
0
0
0
0
0
0
0
0
0
0
0
0
0
0
0
0
0
0
0
0
0
0
0
0
0
0
0
0
0
0
0
0
0
0
0
0
0
0
0
0
0
0
0
0
0
0
0
0
0
0
0
0
0
0
0
0
0
0
0
0
0
0
0
0
0
0
0
0
0
0
0
0
0
0
0
0
0
0
0
0
0
0
0
0
0
0
0
0
0
0
0
0
0
0
0
0
0
0
0
0
0
0
0
0
0
0
0
0
0
0
0
0
0
0
0
0
0
0
0
0
0
0
0
0
0
0
0
0
0
0
0
0
0
250
0
193
0
81
0
3
0
19
0
59
0
62
0
50
0
48
0
53
0
64
0
71
0
69
0
65
0
64
0
63
0
60
0
30
0
22
0
27
0
44
0
47
0
34
0
28
0
32
0
35
0
43
0
63
0
52
0
13
0
55
0
64
0
75
0
83
0
103
0
98
0
97
0
103
0
120
0
137
0
124
0
106
0
93
0
35
0
5
0
33
0
44
0
39
0
45
0
47
0
68
0
61
0
46
0
45
0
22
0
1
0
5
0
11
0
46
0
66
0
50
0
40
0
48
0
35
0
3
0
24
0
55
0
57
0
94
0
119
0
110
0
117
0
115
0
102
0
92
0
111
0
109
0
94
0
15
0
9
0
212
0
254
0
245
0
255
0
250
0
252
0
255
0
247
0
254
0
255
0
255
0
255
0
255
0
255
0
255
0
255
0
255
0
255
0
255
0
255
0
255
0
255
0
255
0
255
0
255
0
255
0
255
0
255
0
255
0
255
0
255
0
255
0
255
0
255
0
255
0
255
0
255
0
255
0
255
0
255
0
255
0
255
0
255
0
255
0
255
0
255
0
255
0
255
0
255
0
255
0
255
0
255
0
255
0
255
0
255
0
255
0
255
0
255
0
255
0
255
0
255
0
255
0
255
0
255
0
255
0
255
0
255
0
255
0
255
0
255
0
255
0
255
0
255
0
255
0
255
0
255
0
255
0
255
0
255
0
255
0
255
0
255
0
255
0
255
0
255
0
255
0
255
0
255
0
255
0
255
0
255
0
255
0
255
0
255
0
255
0
255
0
255
0
255
0
255
0
255
0
255
0
255
0
255
0
255
0
255
0
255
0
255
0
255
0
255
0
255
0
255
0
255
0
255
0
255
0
255
0
255
0
255
0
255
0
255
0
255
0
255
0
255
0
255
0
255
0
255
0
255
0
255
0
255
0
255
0
255
0
255
0
255
0
255
0
255
0
255
0
255
0
255
0
255
0
255
0
255
0
255
0
255
0
255
0
0
0
0
0
0
0
0
0
0
0
0
0
0
0
0
0
0
0
0
0
0
0
0
0
0
0
0
0
0
0
0
0
0
0
0
0
0
0
0
0
0
0
0
0
0
0
0
0
0
0
0
0
0
0
0
0
0
0
0
0
0
0
0
0
0
0
0
0
0
0
0
0
0
0
0
0
0
0
0
0
0
0
0
0
0
0
0
0
0
0
0
0
0
0
0
0
0
0
0
0
0
0
0
0
0
0
0
0
0
0
0
0
0
0
0
0
0
0
0
0
0
0
0
0
0
0
0
0
0
0
0
0
0
0
0
0
0
0
0
0
0
0
0
0
0
0
0
0
0
0
0
0
0
0
0
0
0
0
0
0
0
0
0
0
0
0
0
0
0
0
0
0
0
0
0
0
0
0
0
0
0
0
0
0
0
0
0
0
0
0
0
0
0
0
0
0
0
0
0
0
0
0
0
0
0
0
0
0
0
0
0
0
0
0
0
0
0
0
0
0
0
0
0
0
0
0
0
0
0
0
0
0
0
0
0
0
0
0
0
0
0
0
0
0
0
0
0
0
0
0
0
0
0
0
0
0
0
0
0
0
0
0
0
0
0
0
0
0
0
0
0
0
0
0
0
0
0
0
0
0
0
0
0
0
0
0
0
0
0
0
0
0
0
0
0
0
0
0
0
0
0
0
0
0
0
0
0
0
0
0
0
0
0
0
0
0
0
0
0
0
0
0
0
0
0
0
0
0
0
0
0
0
0
0
0
0
0
0
0
0
0
0
0
0
0
0
0
0
0
0
0
0
0
0
0
0
0
0
0
0
0
0
0
0
0
0
0
0
0
0
0
0
0
0
0
0
0
0
0
0
0
0
0
0
0
0
0
0
0
0
0
0
0
0
0
0
0
0
0
0
0
0
0
0
0
0
0
0
0
0
0
0
0
0
0
0
0
0
0
0
0
0
0
0
0
0
0
0
0
0
0
0
0
0
0
0
0
0
0
0
0
0
0
0
135
0
9
0
14
0
27
0
46
0
65
0
71
0
57
0
40
0
62
0
64
0
67
0
69
0
71
0
68
0
54
0
39
0
43
0
39
0
44
0
56
0
59
0
50
0
45
0
48
0
32
0
33
0
38
0
28
0
8
0
44
0
71
0
86
0
90
0
116
0
120
0
127
0
137
0
148
0
153
0
129
0
113
0
95
0
31
0
6
0
42
0
56
0
50
0
52
0
54
0
56
0
60
0
46
0
11
0
3
0
13
0
46
0
5
0
4
0
29
0
45
0
8
0
3
0
2
0
0
0
2
0
24
0
68
0
92
0
89
0
113
0
112
0
94
0
97
0
97
0
118
0
132
0
138
0
75
0
14
0
81
0
218
0
254
0
250
0
253
0
255
0
243
0
250
0
247
0
255
0
255
0
255
0
255
0
255
0
255
0
255
0
255
0
255
0
255
0
255
0
255
0
255
0
255
0
255
0
255
0
255
0
255
0
255
0
255
0
255
0
255
0
255
0
255
0
255
0
255
0
255
0
255
0
255
0
255
0
255
0
255
0
255
0
255
0
255
0
255
0
255
0
255
0
255
0
255
0
255
0
255
0
255
0
255
0
255
0
255
0
255
0
255
0
255
0
255
0
255
0
255
0
255
0
255
0
255
0
255
0
255
0
255
0
255
0
255
0
255
0
255
0
255
0
255
0
255
0
255
0
255
0
255
0
255
0
255
0
255
0
255
0
255
0
255
0
255
0
255
0
255
0
255
0
255
0
255
0
255
0
255
0
255
0
255
0
255
0
255
0
255
0
255
0
255
0
255
0
255
0
255
0
255
0
255
0
255
0
255
0
255
0
255
0
255
0
255
0
255
0
255
0
255
0
255
0
255
0
255
0
255
0
255
0
255
0
255
0
255
0
255
0
255
0
255
0
255
0
255
0
255
0
255
0
255
0
255
0
255
0
255
0
255
0
255
0
255
0
255
0
255
0
255
0
255
0
255
0
255
0
255
0
255
0
255
0
0
0
0
0
0
0
0
0
0
0
0
0
0
0
0
0
0
0
0
0
0
0
0
0
0
0
0
0
0
0
0
0
0
0
0
0
0
0
0
0
0
0
0
0
0
0
0
0
0
0
0
0
0
0
0
0
0
0
0
0
0
0
0
0
0
0
0
0
0
0
0
0
0
0
0
0
0
0
0
0
0
0
0
0
0
0
0
0
0
0
0
0
0
0
0
0
0
0
0
0
0
0
0
0
0
0
0
0
0
0
0
0
0
0
0
0
0
0
0
0
0
0
0
0
0
0
0
0
0
0
0
0
0
0
0
0
0
0
0
0
0
0
0
0
0
0
0
0
0
0
0
0
0
0
0
0
0
0
0
0
0
0
0
0
0
0
0
0
0
0
0
0
0
0
0
0
0
0
0
0
0
0
0
0
0
0
0
0
0
0
0
0
0
0
0
0
0
0
0
0
0
0
0
0
0
0
0
0
0
0
0
0
0
0
0
0
0
0
0
0
0
0
0
0
0
0
0
0
0
0
0
0
0
0
0
0
0
0
0
0
0
0
0
0
0
0
0
0
0
0
0
0
0
0
0
0
0
0
0
0
0
0
0
0
0
0
0
0
0
0
0
0
0
0
0
0
0
0
0
0
0
0
0
0
0
0
0
0
0
0
0
0
0
0
0
0
0
0
0
0
0
0
0
0
0
0
0
0
0
0
0
0
0
0
0
0
0
0
0
0
0
0
0
0
0
0
0
0
0
0
0
0
0
0
0
0
0
0
0
0
0
0
0
0
0
0
0
0
0
0
0
0
0
0
0
0
0
0
0
0
0
0
0
0
0
0
0
0
0
0
0
0
0
0
0
0
0
0
0
0
0
0
0
0
0
0
0
0
0
0
0
0
0
0
0
0
0
0
0
0
0
0
0
0
0
0
0
0
0
0
0
0
0
0
0
0
0
0
0
0
0
0
0
0
0
0
0
0
0
0
0
0
0
0
0
0
0
0
0
0
0
0
0
0
12
0
16
0
52
0
78
0
71
0
66
0
68
0
60
0
42
0
66
0
74
0
77
0
68
0
53
0
43
0
38
0
36
0
56
0
59
0
61
0
63
0
63
0
62
0
62
0
63
0
40
0
34
0
28
0
26
0
27
0
34
0
76
0
88
0
116
0
129
0
121
0
121
0
134
0
153
0
169
0
154
0
134
0
112
0
41
0
19
0
53
0
63
0
57
0
54
0
66
0
51
0
49
0
24
0
2
0
23
0
119
0
173
0
100
0
4
0
2
0
3
0
2
0
19
0
68
0
70
0
36
0
5
0
56
0
82
0
58
0
96
0
96
0
90
0
101
0
108
0
123
0
146
0
164
0
132
0
52
0
1
0
118
0
229
0
252
0
252
0
255
0
245
0
254
0
250
0
255
0
255
0
255
0
255
0
255
0
255
0
255
0
255
0
255
0
255
0
255
0
255
0
255
0
255
0
255
0
255
0
255
0
255
0
255
0
255
0
255
0
255
0
255
0
255
0
255
0
255
0
255
0
255
0
255
0
255
0
255
0
255
0
255
0
255
0
255
0
255
0
255
0
255
0
255
0
255
0
255
0
255
0
255
0
255
0
255
0
255
0
255
0
255
0
255
0
255
0
255
0
255
0
255
0
255
0
255
0
255
0
255
0
255
0
255
0
255
0
255
0
255
0
255
0
255
0
255
0
255
0
255
0
255
0
255
0
255
0
255
0
255
0
255
0
255
0
255
0
255
0
255
0
255
0
255
0
255
0
255
0
255
0
255
0
255
0
255
0
255
0
255
0
255
0
255
0
255
0
255
0
255
0
255
0
255
0
255
0
255
0
255
0
255
0
255
0
255
0
255
0
255
0
255
0
255
0
255
0
255
0
255
0
255
0
255
0
255
0
255
0
255
0
255
0
255
0
255
0
255
0
255
0
255
0
255
0
255
0
255
0
255
0
255
0
255
0
255
0
255
0
255
0
255
0
255
0
255
0
255
0
255
0
255
0
255
0
0
0
0
0
0
0
0
0
0
0
0
0
0
0
0
0
0
0
0
0
0
0
0
0
0
0
0
0
0
0
0
0
0
0
0
0
0
0
0
0
0
0
0
0
0
0
0
0
0
0
0
0
0
0
0
0
0
0
0
0
0
0
0
0
0
0
0
0
0
0
0
0
0
0
0
0
0
0
0
0
0
0
0
0
0
0
0
0
0
0
0
0
0
0
0
0
0
0
0
0
0
0
0
0
0
0
0
0
0
0
0
0
0
0
0
0
0
0
0
0
0
0
0
0
0
0
0
0
0
0
0
0
0
0
0
0
0
0
0
0
0
0
0
0
0
0
0
0
0
0
0
0
0
0
0
0
0
0
0
0
0
0
0
0
0
0
0
0
0
0
0
0
0
0
0
0
0
0
0
0
0
0
0
0
0
0
0
0
0
0
0
0
0
0
0
0
0
0
0
0
0
0
0
0
0
0
0
0
0
0
0
0
0
0
0
0
0
0
0
0
0
0
0
0
0
0
0
0
0
0
0
0
0
0
0
0
0
0
0
0
0
0
0
0
0
0
0
0
0
0
0
0
0
0
0
0
0
0
0
0
0
0
0
0
0
0
0
0
0
0
0
0
0
0
0
0
0
0
0
0
0
0
0
0
0
0
0
0
0
0
0
0
0
0
0
0
0
0
0
0
0
0
0
0
0
0
0
0
0
0
0
0
0
0
0
0
0
0
0
0
0
0
0
0
0
0
0
0
0
0
0
0
0
0
0
0
0
0
0
0
0
0
0
0
0
0
0
0
0
0
0
0
0
0
0
0
0
0
0
0
0
0
0
0
0
0
0
0
0
0
0
0
0
0
0
0
0
0
0
0
0
0
0
0
0
0
0
0
0
0
0
0
0
0
0
0
0
0
0
0
0
0
0
0
0
0
0
0
0
0
0
0
0
0
0
0
0
0
0
0
0
0
0
0
0
0
0
0
0
0
0
0
0
0
0
0
0
0
0
0
0
0
0
0
8
0
66
0
66
0
66
0
66
0
67
0
66
0
58
0
50
0
54
0
59
0
57
0
46
0
36
0
37
0
49
0
62
0
65
0
70
0
68
0
60
0
58
0
64
0
69
0
69
0
65
0
49
0
30
0
25
0
34
0
18
0
70
0
88
0
108
0
123
0
123
0
130
0
144
0
156
0
160
0
140
0
135
0
117
0
39
0
17
0
44
0
42
0
42
0
39
0
45
0
32
0
12
0
1
0
13
0
117
0
220
0
253
0
233
0
135
0
69
0
65
0
96
0
164
0
211
0
199
0
148
0
43
0
21
0
65
0
49
0
62
0
73
0
112
0
108
0
113
0
118
0
146
0
157
0
161
0
125
0
27
0
15
0
122
0
243
0
252
0
246
0
255
0
246
0
253
0
255
0
255
0
255
0
255
0
255
0
255
0
255
0
255
0
255
0
255
0
255
0
255
0
255
0
255
0
255
0
255
0
255
0
255
0
255
0
255
0
255
0
255
0
255
0
255
0
255
0
255
0
255
0
255
0
255
0
255
0
255
0
255
0
255
0
255
0
255
0
255
0
255
0
255
0
255
0
255
0
255
0
255
0
255
0
255
0
255
0
255
0
255
0
255
0
255
0
255
0
255
0
255
0
255
0
255
0
255
0
255
0
255
0
255
0
255
0
255
0
255
0
255
0
255
0
255
0
255
0
255
0
255
0
255
0
255
0
255
0
255
0
255
0
255
0
255
0
255
0
255
0
255
0
255
0
255
0
255
0
255
0
255
0
255
0
255
0
255
0
255
0
255
0
255
0
255
0
255
0
255
0
255
0
255
0
255
0
255
0
255
0
255
0
255
0
255
0
255
0
255
0
255
0
255
0
255
0
255
0
255
0
255
0
255
0
255
0
255
0
255
0
255
0
255
0
255
0
255
0
255
0
255
0
255
0
255
0
255
0
255
0
255
0
255
0
255
0
255
0
255
0
255
0
255
0
255
0
255
0
255
0
255
0
255
0
255
0
0
0
0
0
0
0
0
0
0
0
0
0
0
0
0
0
0
0
0
0
0
0
0
0
0
0
0
0
0
0
0
0
0
0
0
0
0
0
0
0
0
0
0
0
0
0
0
0
0
0
0
0
0
0
0
0
0
0
0
0
0
0
0
0
0
0
0
0
0
0
0
0
0
0
0
0
0
0
0
0
0
0
0
0
0
0
0
0
0
0
0
0
0
0
0
0
0
0
0
0
0
0
0
0
0
0
0
0
0
0
0
0
0
0
0
0
0
0
0
0
0
0
0
0
0
0
0
0
0
0
0
0
0
0
0
0
0
0
0
0
0
0
0
0
0
0
0
0
0
0
0
0
0
0
0
0
0
0
0
0
0
0
0
0
0
0
0
0
0
0
0
0
0
0
0
0
0
0
0
0
0
0
0
0
0
0
0
0
0
0
0
0
0
0
0
0
0
0
0
0
0
0
0
0
0
0
0
0
0
0
0
0
0
0
0
0
0
0
0
0
0
0
0
0
0
0
0
0
0
0
0
0
0
0
0
0
0
0
0
0
0
0
0
0
0
0
0
0
0
0
0
0
0
0
0
0
0
0
0
0
0
0
0
0
0
0
0
0
0
0
0
0
0
0
0
0
0
0
0
0
0
0
0
0
0
0
0
0
0
0
0
0
0
0
0
0
0
0
0
0
0
0
0
0
0
0
0
0
0
0
0
0
0
0
0
0
0
0
0
0
0
0
0
0
0
0
0
0
0
0
0
0
0
0
0
0
0
0
0
0
0
0
0
0
0
0
0
0
0
0
0
0
0
0
0
0
0
0
0
0
0
0
0
0
0
0
0
0
0
0
0
0
0
0
0
0
0
0
0
0
0
0
0
0
0
0
0
0
0
0
0
0
0
0
0
0
0
0
0
0
0
0
0
0
0
0
0
0
0
0
0
0
0
0
0
0
0
0
0
0
0
0
0
0
0
0
0
0
0
0
0
0
0
0
0
0
0
0
0
0
0
0
0
0
64
0
62
0
57
0
60
0
73
0
77
0
62
0
44
0
34
0
40
0
26
0
16
0
22
0
43
0
63
0
76
0
80
0
68
0
74
0
71
0
59
0
56
0
64
0
69
0
68
0
80
0
58
0
30
0
23
0
27
0
10
0
56
0
89
0
114
0
127
0
124
0
133
0
145
0
155
0
161
0
141
0
129
0
119
0
43
0
26
0
50
0
40
0
48
0
48
0
31
0
18
0
2
0
18
0
121
0
218
0
251
0
253
0
255
0
245
0
212
0
198
0
226
0
253
0
255
0
253
0
239
0
123
0
6
0
43
0
62
0
45
0
58
0
113
0
113
0
108
0
107
0
144
0
152
0
159
0
165
0
94
0
2
0
21
0
163
0
251
0
254
0
253
0
238
0
253
0
255
0
255
0
255
0
255
0
255
0
255
0
255
0
255
0
255
0
255
0
255
0
255
0
255
0
255
0
255
0
255
0
255
0
255
0
255
0
255
0
255
0
255
0
255
0
255
0
255
0
255
0
255
0
255
0
255
0
255
0
255
0
255
0
255
0
255
0
255
0
255
0
255
0
255
0
255
0
255
0
255
0
255
0
255
0
255
0
255
0
255
0
255
0
255
0
255
0
255
0
255
0
255
0
255
0
255
0
255
0
255
0
255
0
255
0
255
0
255
0
255
0
255
0
255
0
255
0
255
0
255
0
255
0
255
0
255
0
255
0
255
0
255
0
255
0
255
0
255
0
255
0
255
0
255
0
255
0
255
0
255
0
255
0
255
0
255
0
255
0
255
0
255
0
255
0
255
0
255
0
255
0
255
0
255
0
255
0
255
0
255
0
255
0
255
0
255
0
255
0
255
0
255
0
255
0
255
0
255
0
255
0
255
0
255
0
255
0
255
0
255
0
255
0
255
0
255
0
255
0
255
0
255
0
255
0
255
0
255
0
255
0
255
0
255
0
255
0
255
0
255
0
255
0
255
0
255
0
255
0
255
0
255
0
255
0
255
0
0
0
0
0
0
0
0
0
0
0
0
0
0
0
0
0
0
0
0
0
0
0
0
0
0
0
0
0
0
0
0
0
0
0
0
0
0
0
0
0
0
0
0
0
0
0
0
0
0
0
0
0
0
0
0
0
0
0
0
0
0
0
0
0
0
0
0
0
0
0
0
0
0
0
0
0
0
0
0
0
0
0
0
0
0
0
0
0
0
0
0
0
0
0
0
0
0
0
0
0
0
0
0
0
0
0
0
0
0
0
0
0
0
0
0
0
0
0
0
0
0
0
0
0
0
0
0
0
0
0
0
0
0
0
0
0
0
0
0
0
0
0
0
0
0
0
0
0
0
0
0
0
0
0
0
0
0
0
0
0
0
0
0
0
0
0
0
0
0
0
0
0
0
0
0
0
0
0
0
0
0
0
0
0
0
0
0
0
0
0
0
0
0
0
0
0
0
0
0
0
0
0
0
0
0
0
0
0
0
0
0
0
0
0
0
0
0
0
0
0
0
0
0
0
0
0
0
0
0
0
0
0
0
0
0
0
0
0
0
0
0
0
0
0
0
0
0
0
0
0
0
0
0
0
0
0
0
0
0
0
0
0
0
0
0
0
0
0
0
0
0
0
0
0
0
0
0
0
0
0
0
0
0
0
0
0
0
0
0
0
0
0
0
0
0
0
0
0
0
0
0
0
0
0
0
0
0
0
0
0
0
0
0
0
0
0
0
0
0
0
0
0
0
0
0
0
0
0
0
0
0
0
0
0
0
0
0
0
0
0
0
0
0
0
0
0
0
0
0
0
0
0
0
0
0
0
0
0
0
0
0
0
0
0
0
0
0
0
0
0
0
0
0
0
0
0
0
0
0
0
0
0
0
0
0
0
0
0
0
0
0
0
0
0
0
0
0
0
0
0
0
0
0
0
0
0
0
0
0
0
0
0
0
0
0
0
0
0
0
0
0
0
0
0
0
0
0
0
0
0
0
0
0
0
0
0
0
0
0
0
0
0
0
0
63
0
65
0
78
0
83
0
70
0
54
0
44
0
40
0
38
0
49
0
37
0
32
0
39
0
51
0
58
0
62
0
63
0
66
0
72
0
71
0
64
0
63
0
67
0
68
0
66
0
60
0
50
0
39
0
46
0
48
0
18
0
38
0
72
0
78
0
84
0
73
0
75
0
83
0
96
0
111
0
101
0
120
0
112
0
37
0
34
0
64
0
55
0
66
0
63
0
37
0
11
0
0
0
86
0
217
0
253
0
248
0
254
0
240
0
254
0
250
0
244
0
253
0
250
0
235
0
254
0
253
0
201
0
53
0
21
0
69
0
53
0
57
0
79
0
108
0
105
0
103
0
134
0
144
0
137
0
136
0
94
0
33
0
5
0
44
0
210
0
253
0
240
0
253
0
249
0
255
0
255
0
255
0
255
0
255
0
255
0
255
0
255
0
255
0
255
0
255
0
255
0
255
0
255
0
255
0
255
0
255
0
255
0
255
0
255
0
255
0
255
0
255
0
255
0
255
0
255
0
255
0
255
0
255
0
255
0
255
0
255
0
255
0
255
0
255
0
255
0
255
0
255
0
255
0
255
0
255
0
255
0
255
0
255
0
255
0
255
0
255
0
255
0
255
0
255
0
255
0
255
0
255
0
255
0
255
0
255
0
255
0
255
0
255
0
255
0
255
0
255
0
255
0
255
0
255
0
255
0
255
0
255
0
255
0
255
0
255
0
255
0
255
0
255
0
255
0
255
0
255
0
255
0
255
0
255
0
255
0
255
0
255
0
255
0
255
0
255
0
255
0
255
0
255
0
255
0
255
0
255
0
255
0
255
0
255
0
255
0
255
0
255
0
255
0
255
0
255
0
255
0
255
0
255
0
255
0
255
0
255
0
255
0
255
0
255
0
255
0
255
0
255
0
255
0
255
0
255
0
255
0
255
0
255
0
255
0
255
0
255
0
255
0
255
0
255
0
255
0
255
0
255
0
255
0
255
0
255
0
255
0
255
0
255
0
0
0
0
0
0
0
0
0
0
0
0
0
0
0
0
0
0
0
0
0
0
0
0
0
0
0
0
0
0
0
0
0
0
0
0
0
0
0
0
0
0
0
0
0
0
0
0
0
0
0
0
0
0
0
0
0
0
0
0
0
0
0
0
0
0
0
0
0
0
0
0
0
0
0
0
0
0
0
0
0
0
0
0
0
0
0
0
0
0
0
0
0
0
0
0
0
0
0
0
0
0
0
0
0
0
0
0
0
0
0
0
0
0
0
0
0
0
0
0
0
0
0
0
0
0
0
0
0
0
0
0
0
0
0
0
0
0
0
0
0
0
0
0
0
0
0
0
0
0
0
0
0
0
0
0
0
0
0
0
0
0
0
0
0
0
0
0
0
0
0
0
0
0
0
0
0
0
0
0
0
0
0
0
0
0
0
0
0
0
0
0
0
0
0
0
0
0
0
0
0
0
0
0
0
0
0
0
0
0
0
0
0
0
0
0
0
0
0
0
0
0
0
0
0
0
0
0
0
0
0
0
0
0
0
0
0
0
0
0
0
0
0
0
0
0
0
0
0
0
0
0
0
0
0
0
0
0
0
0
0
0
0
0
0
0
0
0
0
0
0
0
0
0
0
0
0
0
0
0
0
0
0
0
0
0
0
0
0
0
0
0
0
0
0
0
0
0
0
0
0
0
0
0
0
0
0
0
0
0
0
0
0
0
0
0
0
0
0
0
0
0
0
0
0
0
0
0
0
0
0
0
0
0
0
0
0
0
0
0
0
0
0
0
0
0
0
0
0
0
0
0
0
0
0
0
0
0
0
0
0
0
0
0
0
0
0
0
0
0
0
0
0
0
0
0
0
0
0
0
0
0
0
0
0
0
0
0
0
0
0
0
0
0
0
0
0
0
0
0
0
0
0
0
0
0
0
0
0
0
0
0
0
0
0
0
0
0
0
0
0
0
0
0
0
0
0
0
0
0
0
0
0
0
0
0
0
0
0
0
0
0
0
0
0
48
0
56
0
64
0
60
0
42
0
34
0
44
0
60
0
68
0
64
0
66
0
70
0
69
0
60
0
47
0
41
0
45
0
56
0
61
0
67
0
71
0
73
0
71
0
65
0
59
0
45
0
42
0
50
0
71
0
69
0
46
0
20
0
52
0
67
0
87
0
94
0
111
0
122
0
121
0
123
0
103
0
115
0
100
0
13
0
21
0
65
0
54
0
57
0
38
0
15
0
1
0
42
0
156
0
243
0
251
0
242
0
255
0
255
0
255
0
244
0
244
0
254
0
252
0
250
0
255
0
246
0
244
0
130
0
4
0
46
0
66
0
66
0
53
0
88
0
106
0
104
0
108
0
119
0
121
0
117
0
108
0
104
0
44
0
5
0
117
0
238
0
253
0
254
0
252
0
255
0
255
0
255
0
255
0
255
0
255
0
255
0
255
0
255
0
255
0
255
0
255
0
255
0
255
0
255
0
255
0
255
0
255
0
255
0
255
0
255
0
255
0
255
0
255
0
255
0
255
0
255
0
255
0
255
0
255
0
255
0
255
0
255
0
255
0
255
0
255
0
255
0
255
0
255
0
255
0
255
0
255
0
255
0
255
0
255
0
255
0
255
0
255
0
255
0
255
0
255
0
255
0
255
0
255
0
255
0
255
0
255
0
255
0
255
0
255
0
255
0
255
0
255
0
255
0
255
0
255
0
255
0
255
0
255
0
255
0
255
0
255
0
255
0
255
0
255
0
255
0
255
0
255
0
255
0
255
0
255
0
255
0
255
0
255
0
255
0
255
0
255
0
255
0
255
0
255
0
255
0
255
0
255
0
255
0
255
0
255
0
255
0
255
0
255
0
255
0
255
0
255
0
255
0
255
0
255
0
255
0
255
0
255
0
255
0
255
0
255
0
255
0
255
0
255
0
255
0
255
0
255
0
255
0
255
0
255
0
255
0
255
0
255
0
255
0
255
0
255
0
255
0
255
0
255
0
255
0
255
0
255
0
255
0
255
0
0
0
0
0
0
0
0
0
0
0
0
0
0
0
0
0
0
0
0
0
0
0
0
0
0
0
0
0
0
0
0
0
0
0
0
0
0
0
0
0
0
0
0
0
0
0
0
0
0
0
0
0
0
0
0
0
0
0
0
0
0
0
0
0
0
0
0
0
0
0
0
0
0
0
0
0
0
0
0
0
0
0
0
0
0
0
0
0
0
0
0
0
0
0
0
0
0
0
0
0
0
0
0
0
0
0
0
0
0
0
0
0
0
0
0
0
0
0
0
0
0
0
0
0
0
0
0
0
0
0
0
0
0
0
0
0
0
0
0
0
0
0
0
0
0
0
0
0
0
0
0
0
0
0
0
0
0
0
0
0
0
0
0
0
0
0
0
0
0
0
0
0
0
0
0
0
0
0
0
0
0
0
0
0
0
0
0
0
0
0
0
0
0
0
0
0
0
0
0
0
0
0
0
0
0
0
0
0
0
0
0
0
0
0
0
0
0
0
0
0
0
0
0
0
0
0
0
0
0
0
0
0
0
0
0
0
0
0
0
0
0
0
0
0
0
0
0
0
0
0
0
0
0
0
0
0
0
0
0
0
0
0
0
0
0
0
0
0
0
0
0
0
0
0
0
0
0
0
0
0
0
0
0
0
0
0
0
0
0
0
0
0
0
0
0
0
0
0
0
0
0
0
0
0
0
0
0
0
0
0
0
0
0
0
0
0
0
0
0
0
0
0
0
0
0
0
0
0
0
0
0
0
0
0
0
0
0
0
0
0
0
0
0
0
0
0
0
0
0
0
0
0
0
0
0
0
0
0
0
0
0
0
0
0
0
0
0
0
0
0
0
0
0
0
0
0
0
0
0
0
0
0
0
0
0
0
0
0
0
0
0
0
0
0
0
0
0
0
0
0
0
0
0
0
0
0
0
0
0
0
0
0
0
0
0
0
0
0
0
0
0
0
0
0
0
0
0
0
0
0
0
0
0
0
0
0
0
0
0
0
0
0
0
0
70
0
55
0
45
0
40
0
47
0
61
0
69
0
69
0
68
0
70
0
67
0
70
0
77
0
77
0
65
0
53
0
46
0
45
0
49
0
60
0
74
0
79
0
72
0
61
0
53
0
58
0
47
0
47
0
66
0
60
0
52
0
10
0
49
0
98
0
115
0
121
0
137
0
148
0
154
0
166
0
156
0
138
0
110
0
13
0
25
0
74
0
60
0
51
0
19
0
1
0
11
0
117
0
234
0
255
0
253
0
254
0
254
0
245
0
249
0
254
0
254
0
248
0
254
0
254
0
238
0
247
0
255
0
186
0
3
0
18
0
67
0
72
0
48
0
63
0
104
0
105
0
84
0
98
0
127
0
142
0
159
0
166
0
110
0
37
0
34
0
180
0
253
0
240
0
248
0
255
0
255
0
255
0
255
0
255
0
255
0
255
0
255
0
255
0
255
0
255
0
255
0
255
0
255
0
255
0
255
0
255
0
255
0
255
0
255
0
255
0
255
0
255
0
255
0
255
0
255
0
255
0
255
0
255
0
255
0
255
0
255
0
255
0
255
0
255
0
255
0
255
0
255
0
255
0
255
0
255
0
255
0
255
0
255
0
255
0
255
0
255
0
255
0
255
0
255
0
255
0
255
0
255
0
255
0
255
0
255
0
255
0
255
0
255
0
255
0
255
0
255
0
255
0
255
0
255
0
255
0
255
0
255
0
255
0
255
0
255
0
255
0
255
0
255
0
255
0
255
0
255
0
255
0
255
0
255
0
255
0
255
0
255
0
255
0
255
0
255
0
255
0
255
0
255
0
255
0
255
0
255
0
255
0
255
0
255
0
255
0
255
0
255
0
255
0
255
0
255
0
255
0
255
0
255
0
255
0
255
0
255
0
255
0
255
0
255
0
255
0
255
0
255
0
255
0
255
0
255
0
255
0
255
0
255
0
255
0
255
0
255
0
255
0
255
0
255
0
255
0
255
0
255
0
255
0
255
0
255
0
255
0
255
0
255
0
0
0
0
0
0
0
0
0
0
0
0
0
0
0
0
0
0
0
0
0
0
0
0
0
0
0
0
0
0
0
0
0
0
0
0
0
0
0
0
0
0
0
0
0
0
0
0
0
0
0
0
0
0
0
0
0
0
0
0
0
0
0
0
0
0
0
0
0
0
0
0
0
0
0
0
0
0
0
0
0
0
0
0
0
0
0
0
0
0
0
0
0
0
0
0
0
0
0
0
0
0
0
0
0
0
0
0
0
0
0
0
0
0
0
0
0
0
0
0
0
0
0
0
0
0
0
0
0
0
0
0
0
0
0
0
0
0
0
0
0
0
0
0
0
0
0
0
0
0
0
0
0
0
0
0
0
0
0
0
0
0
0
0
0
0
0
0
0
0
0
0
0
0
0
0
0
0
0
0
0
0
0
0
0
0
0
0
0
0
0
0
0
0
0
0
0
0
0
0
0
0
0
0
0
0
0
0
0
0
0
0
0
0
0
0
0
0
0
0
0
0
0
0
0
0
0
0
0
0
0
0
0
0
0
0
0
0
0
0
0
0
0
0
0
0
0
0
0
0
0
0
0
0
0
0
0
0
0
0
0
0
0
0
0
0
0
0
0
0
0
0
0
0
0
0
0
0
0
0
0
0
0
0
0
0
0
0
0
0
0
0
0
0
0
0
0
0
0
0
0
0
0
0
0
0
0
0
0
0
0
0
0
0
0
0
0
0
0
0
0
0
0
0
0
0
0
0
0
0
0
0
0
0
0
0
0
0
0
0
0
0
0
0
0
0
0
0
0
0
0
0
0
0
0
0
0
0
0
0
0
0
0
0
0
0
0
0
0
0
0
0
0
0
0
0
0
0
0
0
0
0
0
0
0
0
0
0
0
0
0
0
0
0
0
0
0
0
0
0
0
0
0
0
0
0
0
0
0
0
0
0
0
0
0
0
0
0
0
0
0
0
0
0
0
0
0
0
0
0
0
0
0
0
0
0
0
0
0
0
0
0
0
0
0
36
0
46
0
56
0
66
0
68
0
64
0
63
0
69
0
75
0
79
0
69
0
64
0
69
0
77
0
77
0
71
0
66
0
61
0
46
0
46
0
63
0
66
0
48
0
38
0
45
0
68
0
65
0
60
0
50
0
63
0
64
0
40
0
46
0
107
0
124
0
131
0
132
0
144
0
157
0
155
0
154
0
151
0
140
0
37
0
33
0
49
0
27
0
6
0
9
0
0
0
120
0
230
0
255
0
255
0
255
0
254
0
253
0
255
0
255
0
255
0
255
0
255
0
255
0
254
0
254
0
255
0
246
0
248
0
132
0
1
0
3
0
43
0
77
0
43
0
70
0
65
0
99
0
153
0
155
0
157
0
154
0
164
0
148
0
66
0
12
0
90
0
241
0
252
0
244
0
255
0
255
0
255
0
255
0
255
0
255
0
255
0
255
0
255
0
255
0
255
0
255
0
255
0
255
0
255
0
255
0
255
0
255
0
255
0
255
0
255
0
255
0
255
0
255
0
255
0
255
0
255
0
255
0
255
0
255
0
255
0
255
0
255
0
255
0
255
0
255
0
255
0
255
0
255
0
255
0
255
0
255
0
255
0
255
0
255
0
255
0
255
0
255
0
255
0
255
0
255
0
255
0
255
0
255
0
255
0
255
0
255
0
255
0
255
0
255
0
255
0
255
0
255
0
255
0
255
0
255
0
255
0
255
0
255
0
255
0
255
0
255
0
255
0
255
0
255
0
255
0
255
0
255
0
255
0
255
0
255
0
255
0
255
0
255
0
255
0
255
0
255
0
255
0
255
0
255
0
255
0
255
0
255
0
255
0
255
0
255
0
255
0
255
0
255
0
255
0
255
0
255
0
255
0
255
0
255
0
255
0
255
0
255
0
255
0
255
0
255
0
255
0
255
0
255
0
255
0
255
0
255
0
255
0
255
0
255
0
255
0
255
0
255
0
255
0
255
0
255
0
255
0
255
0
255
0
255
0
255
0
255
0
255
0
255
