P2
445 449
255
0
0
0
0
0
0
0
0
0
0
0
0
0
0
0
0
0
0
0
0
0
0
0
0
0
0
0
0
0
0
0
0
0
0
0
0
0
0
0
0
0
0
0
0
0
0
0
0
0
0
0
0
0
0
0
0
0
0
0
0
0
0
0
0
0
0
0
0
0
0
0
0
0
0
0
0
0
0
0
0
0
0
0
0
0
0
0
0
0
0
0
0
0
0
0
0
0
0
0
0
0
0
0
0
0
0
0
0
0
0
0
0
0
0
0
0
0
0
0
0
0
0
0
0
0
0
0
0
0
0
0
0
0
0
0
0
0
0
0
0
0
0
0
0
0
0
0
0
0
0
0
0
0
0
0
0
0
0
0
0
0
0
0
0
0
0
0
0
0
0
0
0
0
0
0
0
0
0
0
0
0
0
0
0
0
0
0
0
0
0
0
0
0
0
0
0
0
0
0
0
0
0
0
0
0
0
0
0
0
0
0
0
0
0
0
0
0
0
0
0
0
0
0
0
0
0
0
0
0
0
0
0
0
0
0
0
0
0
0
0
0
0
0
0
0
0
0
0
0
0
0
0
0
0
0
0
0
0
0
0
0
0
0
0
0
0
0
0
0
0
0
0
0
0
0
0
0
0
0
0
0
0
0
0
0
0
0
0
0
0
0
0
0
0
0
0
0
0
0
0
0
0
0
0
0
0
0
0
0
0
0
0
0
0
0
0
0
0
0
0
0
0
0
0
0
0
0
0
0
0
0
0
0
0
0
0
0
0
0
0
0
0
0
0
0
0
0
0
0
0
0
0
0
0
0
0
0
0
0
0
0
0
0
0
0
0
0
0
0
0
0
0
0
0
0
0
0
0
0
0
0
0
0
0
0
0
0
0
0
0
0
0
0
0
0
0
0
0
0
0
0
0
0
0
0
0
0
0
0
0
0
0
0
0
0
0
0
0
0
0
0
0
0
0
0
0
0
0
0
0
0
0
0
0
0
0
0
0
0
0
0
0
0
0
0
0
0
0
0
0
0
0
0
0
0
0
0
0
0
0
0
0
0
0
0
0
0
0
0
0
0
0
0
0
0
0
0
0
0
0
0
0
0
0
0
0
0
0
0
0
0
0
0
0
0
0
0
0
0
0
0
0
0
0
0
0
0
0
0
0
0
0
0
0
0
0
0
0
0
0
0
0
0
0
0
0
0
0
0
0
0
0
0
0
0
0
0
0
0
0
0
0
0
0
0
0
0
0
0
0
0
0
0
0
0
0
0
0
0
0
0
0
0
0
0
0
0
0
0
0
0
0
0
0
0
0
0
0
0
0
0
0
0
0
0
0
0
0
0
0
0
0
0
0
0
0
0
0
0
0
0
0
0
0
0
0
0
0
0
0
0
0
0
0
0
0
0
0
0
0
0
0
0
0
0
0
0
0
0
0
0
0
0
0
0
0
0
0
0
0
0
0
0
0
0
0
0
0
0
0
0
0
0
0
0
0
0
0
0
0
0
0
0
0
0
0
0
0
0
0
0
0
0
0
0
0
0
0
0
0
0
0
0
0
0
0
0
0
0
0
0
0
0
0
0
0
0
0
0
0
0
0
0
0
0
0
0
0
0
0
0
0
0
0
0
0
0
0
0
0
0
0
0
0
0
0
0
0
0
0
0
0
0
0
0
0
0
0
0
0
0
0
0
0
0
0
0
0
0
0
0
0
0
0
0
0
0
0
0
0
0
0
0
0
0
0
0
0
0
0
0
0
0
0
0
0
0
0
0
0
0
0
0
0
0
0
0
0
0
0
0
0
0
0
0
0
0
0
0
0
0
0
0
0
0
0
0
0
0
0
0
0
0
0
0
0
0
0
0
0
0
0
0
0
0
0
0
0
0
0
0
0
0
0
0
0
0
0
0
0
0
0
0
0
0
0
0
0
0
0
0
0
0
0
0
0
0
0
0
0
0
0
0
0
0
0
0
0
0
0
0
0
0
0
0
0
0
0
0
0
0
0
0
0
0
0
0
0
0
0
70
0
48
0
63
0
64
0
8
0
12
0
135
0
250
0
253
0
253
0
253
0
253
0
253
0
253
0
253
0
253
0
255
0
255
0
255
0
255
0
255
0
255
0
255
0
255
0
252
0
254
0
250
0
254
0
193
0
53
0
6
0
47
0
105
0
90
0
49
0
27
0
44
0
60
0
61
0
63
0
62
0
30
0
4
0
3
0
4
0
3
0
4
0
2
0
1
0
1
0
1
0
3
0
1
0
0
0
1
0
2
0
0
0
1
0
0
0
0
0
2
0
4
0
1
0
0
0
1
0
2
0
2
0
1
0
5
0
20
0
40
0
54
0
62
0
61
0
61
0
60
0
61
0
63
0
65
0
66
0
71
0
73
0
73
0
69
0
58
0
48
0
40
0
37
0
61
0
67
0
74
0
77
0
72
0
57
0
41
0
30
0
12
0
11
0
9
0
7
0
5
0
3
0
2
0
2
0
4
0
2
0
8
0
3
0
4
0
11
0
102
0
153
0
157
0
140
0
4
0
22
0
55
0
12
0
2
0
2
0
27
0
38
0
55
0
58
0
46
0
23
0
6
0
1
0
2
0
1
0
3
0
1
0
1
0
19
0
48
0
67
0
98
0
99
0
105
0
114
0
125
0
132
0
132
0
130
0
119
0
134
0
109
0
132
0
136
0
113
0
122
0
91
0
129
0
117
0
107
0
79
0
42
0
38
0
35
0
10
0
2
0
1
0
4
0
17
0
35
0
49
0
56
0
58
0
6
0
0
0
0
0
6
0
8
0
3
0
0
0
1
0
18
0
45
0
76
0
96
0
104
0
108
0
110
0
109
0
105
0
114
0
94
0
33
0
70
0
120
0
104
0
103
0
106
0
110
0
110
0
106
0
107
0
114
0
116
0
115
0
119
0
115
0
125
0
77
0
106
0
109
0
108
0
123
0
120
0
117
0
121
0
122
0
117
0
116
0
115
0
111
0
66
0
86
0
111
0
113
0
103
0
107
0
110
0
0
0
0
0
0
0
0
0
0
0
0
0
0
0
0
0
0
0
0
0
0
0
0
0
0
0
0
0
0
0
0
0
0
0
0
0
0
0
0
0
0
0
0
0
0
0
0
0
0
0
0
0
0
0
0
0
0
0
0
0
0
0
0
0
0
0
0
0
0
0
0
0
0
0
0
0
0
0
0
0
0
0
0
0
0
0
0
0
0
0
0
0
0
0
0
0
0
0
0
0
0
0
0
0
0
0
0
0
0
0
0
0
0
0
0
0
0
0
0
0
0
0
0
0
0
0
0
0
0
0
0
0
0
0
0
0
0
0
0
0
0
0
0
0
0
0
0
0
0
0
0
0
0
0
0
0
0
0
0
0
0
0
0
0
0
0
0
0
0
0
0
0
0
0
0
0
0
0
0
0
0
0
0
0
0
0
0
0
0
0
0
0
0
0
0
0
0
0
0
0
0
0
0
0
0
0
0
0
0
0
0
0
0
0
0
0
0
0
0
0
0
0
0
0
0
0
0
0
0
0
0
0
0
0
0
0
0
0
0
0
0
0
0
0
0
0
0
0
0
0
0
0
0
0
0
0
0
0
0
0
0
0
0
0
0
0
0
0
0
0
0
0
0
0
0
0
0
0
0
0
0
0
0
0
0
0
0
0
0
0
0
0
0
0
0
0
0
0
0
0
0
0
0
0
0
0
0
0
0
0
0
0
0
0
0
0
0
0
0
0
0
0
0
0
0
0
0
0
0
0
0
0
0
0
0
0
0
0
0
0
0
0
0
0
0
0
0
0
0
0
0
0
0
0
0
0
0
0
0
0
0
0
0
0
0
0
0
0
0
0
0
0
0
0
0
0
0
0
0
0
0
0
0
0
0
0
0
0
0
0
0
0
0
0
0
0
0
0
0
0
0
0
0
0
0
0
0
0
0
0
0
0
0
0
0
0
0
0
0
0
0
0
0
0
0
0
0
0
0
0
0
0
0
0
0
0
0
0
0
0
0
0
0
0
55
0
56
0
65
0
62
0
66
0
16
0
9
0
193
0
248
0
249
0
254
0
236
0
244
0
252
0
247
0
252
0
255
0
255
0
255
0
255
0
255
0
255
0
255
0
255
0
254
0
251
0
254
0
254
0
223
0
61
0
2
0
54
0
92
0
96
0
60
0
28
0
44
0
62
0
62
0
62
0
68
0
28
0
1
0
1
0
3
0
3
0
22
0
50
0
67
0
54
0
45
0
33
0
13
0
10
0
28
0
2
0
9
0
11
0
9
0
3
0
0
0
3
0
4
0
3
0
1
0
4
0
19
0
30
0
40
0
47
0
48
0
46
0
37
0
38
0
46
0
40
0
25
0
28
0
34
0
31
0
48
0
42
0
31
0
18
0
16
0
34
0
65
0
89
0
104
0
110
0
109
0
104
0
105
0
106
0
94
0
76
0
56
0
53
0
66
0
65
0
58
0
48
0
21
0
18
0
5
0
2
0
9
0
11
0
2
0
18
0
81
0
115
0
106
0
52
0
6
0
4
0
10
0
23
0
48
0
76
0
79
0
68
0
47
0
22
0
2
0
1
0
0
0
0
0
3
0
12
0
27
0
46
0
68
0
89
0
108
0
120
0
117
0
118
0
120
0
122
0
124
0
127
0
129
0
130
0
141
0
136
0
132
0
134
0
138
0
139
0
132
0
126
0
147
0
145
0
145
0
152
0
146
0
110
0
75
0
63
0
18
0
24
0
60
0
69
0
43
0
50
0
50
0
5
0
2
0
1
0
0
0
0
0
3
0
13
0
36
0
59
0
70
0
108
0
111
0
102
0
122
0
125
0
106
0
102
0
132
0
73
0
12
0
41
0
76
0
66
0
66
0
76
0
70
0
70
0
68
0
68
0
69
0
71
0
73
0
74
0
86
0
110
0
73
0
70
0
107
0
122
0
130
0
121
0
130
0
115
0
118
0
123
0
123
0
133
0
113
0
60
0
80
0
93
0
114
0
113
0
97
0
106
0
109
0
0
0
0
0
0
0
0
0
0
0
0
0
0
0
0
0
0
0
0
0
0
0
0
0
0
0
0
0
0
0
0
0
0
0
0
0
0
0
0
0
0
0
0
0
0
0
0
0
0
0
0
0
0
0
0
0
0
0
0
0
0
0
0
0
0
0
0
0
0
0
0
0
0
0
0
0
0
0
0
0
0
0
0
0
0
0
0
0
0
0
0
0
0
0
0
0
0
0
0
0
0
0
0
0
0
0
0
0
0
0
0
0
0
0
0
0
0
0
0
0
0
0
0
0
0
0
0
0
0
0
0
0
0
0
0
0
0
0
0
0
0
0
0
0
0
0
0
0
0
0
0
0
0
0
0
0
0
0
0
0
0
0
0
0
0
0
0
0
0
0
0
0
0
0
0
0
0
0
0
0
0
0
0
0
0
0
0
0
0
0
0
0
0
0
0
0
0
0
0
0
0
0
0
0
0
0
0
0
0
0
0
0
0
0
0
0
0
0
0
0
0
0
0
0
0
0
0
0
0
0
0
0
0
0
0
0
0
0
0
0
0
0
0
0
0
0
0
0
0
0
0
0
0
0
0
0
0
0
0
0
0
0
0
0
0
0
0
0
0
0
0
0
0
0
0
0
0
0
0
0
0
0
0
0
0
0
0
0
0
0
0
0
0
0
0
0
0
0
0
0
0
0
0
0
0
0
0
0
0
0
0
0
0
0
0
0
0
0
0
0
0
0
0
0
0
0
0
0
0
0
0
0
0
0
0
0
0
0
0
0
0
0
0
0
0
0
0
0
0
0
0
0
0
0
0
0
0
0
0
0
0
0
0
0
0
0
0
0
0
0
0
0
0
0
0
0
0
0
0
0
0
0
0
0
0
0
0
0
0
0
0
0
0
0
0
0
0
0
0
0
0
0
0
0
0
0
0
0
0
0
0
0
0
0
0
0
0
0
0
0
0
0
0
0
0
0
0
0
0
0
0
0
0
0
0
0
0
0
0
0
0
0
0
0
45
0
64
0
78
0
57
0
66
0
52
0
14
0
81
0
234
0
250
0
253
0
254
0
248
0
246
0
255
0
253
0
255
0
255
0
255
0
255
0
255
0
255
0
255
0
255
0
254
0
252
0
254
0
253
0
225
0
68
0
2
0
45
0
87
0
94
0
62
0
27
0
37
0
55
0
58
0
58
0
45
0
20
0
6
0
2
0
20
0
40
0
63
0
83
0
97
0
100
0
101
0
87
0
52
0
6
0
13
0
21
0
19
0
6
0
2
0
1
0
7
0
11
0
7
0
6
0
22
0
33
0
46
0
49
0
52
0
55
0
57
0
58
0
82
0
70
0
68
0
74
0
80
0
81
0
65
0
39
0
23
0
33
0
47
0
54
0
55
0
55
0
60
0
65
0
101
0
106
0
110
0
110
0
113
0
115
0
115
0
112
0
104
0
84
0
92
0
106
0
111
0
99
0
76
0
75
0
65
0
40
0
28
0
26
0
21
0
27
0
31
0
22
0
4
0
9
0
32
0
58
0
74
0
76
0
76
0
78
0
48
0
33
0
12
0
0
0
0
0
7
0
21
0
31
0
52
0
63
0
80
0
96
0
107
0
112
0
115
0
117
0
121
0
122
0
124
0
128
0
131
0
135
0
137
0
138
0
143
0
140
0
138
0
141
0
144
0
145
0
142
0
139
0
146
0
151
0
149
0
145
0
147
0
140
0
123
0
109
0
58
0
88
0
93
0
56
0
24
0
22
0
16
0
1
0
2
0
1
0
0
0
12
0
32
0
51
0
70
0
84
0
103
0
91
0
105
0
122
0
110
0
102
0
114
0
125
0
77
0
49
0
21
0
52
0
82
0
78
0
79
0
87
0
92
0
92
0
93
0
94
0
94
0
94
0
94
0
94
0
78
0
81
0
51
0
58
0
92
0
104
0
119
0
119
0
112
0
112
0
115
0
119
0
115
0
102
0
84
0
72
0
98
0
106
0
102
0
104
0
113
0
101
0
93
0
0
0
0
0
0
0
0
0
0
0
0
0
0
0
0
0
0
0
0
0
0
0
0
0
0
0
0
0
0
0
0
0
0
0
0
0
0
0
0
0
0
0
0
0
0
0
0
0
0
0
0
0
0
0
0
0
0
0
0
0
0
0
0
0
0
0
0
0
0
0
0
0
0
0
0
0
0
0
0
0
0
0
0
0
0
0
0
0
0
0
0
0
0
0
0
0
0
0
0
0
0
0
0
0
0
0
0
0
0
0
0
0
0
0
0
0
0
0
0
0
0
0
0
0
0
0
0
0
0
0
0
0
0
0
0
0
0
0
0
0
0
0
0
0
0
0
0
0
0
0
0
0
0
0
0
0
0
0
0
0
0
0
0
0
0
0
0
0
0
0
0
0
0
0
0
0
0
0
0
0
0
0
0
0
0
0
0
0
0
0
0
0
0
0
0
0
0
0
0
0
0
0
0
0
0
0
0
0
0
0
0
0
0
0
0
0
0
0
0
0
0
0
0
0
0
0
0
0
0
0
0
0
0
0
0
0
0
0
0
0
0
0
0
0
0
0
0
0
0
0
0
0
0
0
0
0
0
0
0
0
0
0
0
0
0
0
0
0
0
0
0
0
0
0
0
0
0
0
0
0
0
0
0
0
0
0
0
0
0
0
0
0
0
0
0
0
0
0
0
0
0
0
0
0
0
0
0
0
0
0
0
0
0
0
0
0
0
0
0
0
0
0
0
0
0
0
0
0
0
0
0
0
0
0
0
0
0
0
0
0
0
0
0
0
0
0
0
0
0
0
0
0
0
0
0
0
0
0
0
0
0
0
0
0
0
0
0
0
0
0
0
0
0
0
0
0
0
0
0
0
0
0
0
0
0
0
0
0
0
0
0
0
0
0
0
0
0
0
0
0
0
0
0
0
0
0
0
0
0
0
0
0
0
0
0
0
0
0
0
0
0
0
0
0
0
0
0
0
0
0
0
0
0
0
0
0
0
0
0
0
0
0
0
0
40
0
60
0
83
0
60
0
66
0
78
0
27
0
3
0
159
0
248
0
253
0
253
0
254
0
237
0
255
0
254
0
254
0
254
0
254
0
255
0
255
0
255
0
255
0
255
0
254
0
254
0
254
0
250
0
229
0
78
0
2
0
33
0
83
0
94
0
70
0
39
0
43
0
59
0
63
0
63
0
40
0
22
0
7
0
4
0
27
0
52
0
69
0
80
0
94
0
111
0
123
0
127
0
100
0
39
0
32
0
66
0
22
0
3
0
2
0
1
0
7
0
6
0
5
0
18
0
37
0
48
0
59
0
62
0
62
0
65
0
73
0
77
0
79
0
72
0
73
0
78
0
78
0
72
0
52
0
30
0
36
0
56
0
84
0
101
0
102
0
90
0
78
0
71
0
77
0
82
0
98
0
115
0
120
0
117
0
118
0
122
0
121
0
96
0
90
0
94
0
110
0
120
0
105
0
102
0
107
0
112
0
107
0
89
0
62
0
32
0
3
0
1
0
32
0
56
0
80
0
87
0
78
0
62
0
38
0
16
0
7
0
1
0
0
0
0
0
12
0
37
0
58
0
71
0
89
0
98
0
113
0
123
0
126
0
123
0
118
0
116
0
126
0
127
0
129
0
132
0
135
0
137
0
139
0
140
0
136
0
137
0
139
0
142
0
144
0
145
0
146
0
146
0
138
0
150
0
150
0
140
0
144
0
158
0
154
0
138
0
114
0
144
0
101
0
27
0
7
0
5
0
0
0
0
0
0
0
0
0
8
0
36
0
68
0
90
0
100
0
104
0
103
0
107
0
115
0
109
0
104
0
119
0
119
0
89
0
38
0
50
0
47
0
70
0
95
0
95
0
100
0
102
0
112
0
114
0
115
0
116
0
117
0
115
0
113
0
112
0
115
0
86
0
60
0
77
0
88
0
78
0
83
0
82
0
96
0
105
0
110
0
123
0
130
0
100
0
74
0
84
0
110
0
113
0
103
0
104
0
114
0
102
0
87
0
0
0
0
0
0
0
0
0
0
0
0
0
0
0
0
0
0
0
0
0
0
0
0
0
0
0
0
0
0
0
0
0
0
0
0
0
0
0
0
0
0
0
0
0
0
0
0
0
0
0
0
0
0
0
0
0
0
0
0
0
0
0
0
0
0
0
0
0
0
0
0
0
0
0
0
0
0
0
0
0
0
0
0
0
0
0
0
0
0
0
0
0
0
0
0
0
0
0
0
0
0
0
0
0
0
0
0
0
0
0
0
0
0
0
0
0
0
0
0
0
0
0
0
0
0
0
0
0
0
0
0
0
0
0
0
0
0
0
0
0
0
0
0
0
0
0
0
0
0
0
0
0
0
0
0
0
0
0
0
0
0
0
0
0
0
0
0
0
0
0
0
0
0
0
0
0
0
0
0
0
0
0
0
0
0
0
0
0
0
0
0
0
0
0
0
0
0
0
0
0
0
0
0
0
0
0
0
0
0
0
0
0
0
0
0
0
0
0
0
0
0
0
0
0
0
0
0
0
0
0
0
0
0
0
0
0
0
0
0
0
0
0
0
0
0
0
0
0
0
0
0
0
0
0
0
0
0
0
0
0
0
0
0
0
0
0
0
0
0
0
0
0
0
0
0
0
0
0
0
0
0
0
0
0
0
0
0
0
0
0
0
0
0
0
0
0
0
0
0
0
0
0
0
0
0
0
0
0
0
0
0
0
0
0
0
0
0
0
0
0
0
0
0
0
0
0
0
0
0
0
0
0
0
0
0
0
0
0
0
0
0
0
0
0
0
0
0
0
0
0
0
0
0
0
0
0
0
0
0
0
0
0
0
0
0
0
0
0
0
0
0
0
0
0
0
0
0
0
0
0
0
0
0
0
0
0
0
0
0
0
0
0
0
0
0
0
0
0
0
0
0
0
0
0
0
0
0
0
0
0
0
0
0
0
0
0
0
0
0
0
0
0
0
0
0
0
0
0
0
0
0
0
0
0
0
0
0
0
0
0
0
0
0
0
47
0
42
0
70
0
73
0
66
0
71
0
46
0
19
0
47
0
212
0
253
0
246
0
254
0
252
0
251
0
254
0
253
0
253
0
254
0
254
0
254
0
255
0
255
0
255
0
254
0
254
0
254
0
248
0
232
0
87
0
2
0
22
0
84
0
88
0
61
0
28
0
34
0
57
0
68
0
72
0
44
0
17
0
4
0
19
0
43
0
53
0
58
0
65
0
68
0
85
0
95
0
118
0
117
0
53
0
38
0
78
0
7
0
3
0
3
0
2
0
1
0
2
0
16
0
38
0
52
0
59
0
63
0
62
0
62
0
67
0
73
0
76
0
55
0
66
0
73
0
62
0
41
0
34
0
42
0
52
0
87
0
97
0
109
0
117
0
116
0
110
0
106
0
105
0
77
0
77
0
95
0
124
0
139
0
133
0
124
0
124
0
125
0
121
0
113
0
91
0
101
0
126
0
107
0
81
0
118
0
128
0
113
0
74
0
43
0
30
0
44
0
70
0
88
0
80
0
65
0
49
0
36
0
23
0
6
0
1
0
0
0
0
0
11
0
30
0
53
0
74
0
89
0
96
0
100
0
104
0
111
0
116
0
120
0
121
0
123
0
125
0
127
0
128
0
130
0
132
0
133
0
134
0
134
0
135
0
131
0
134
0
138
0
139
0
139
0
140
0
143
0
145
0
136
0
145
0
148
0
144
0
147
0
157
0
152
0
135
0
142
0
132
0
59
0
1
0
3
0
13
0
3
0
7
0
1
0
9
0
32
0
61
0
89
0
104
0
108
0
108
0
95
0
123
0
112
0
101
0
127
0
122
0
70
0
35
0
63
0
81
0
75
0
86
0
103
0
108
0
114
0
112
0
117
0
117
0
118
0
119
0
119
0
117
0
116
0
116
0
121
0
79
0
75
0
110
0
114
0
95
0
92
0
94
0
66
0
92
0
107
0
104
0
87
0
64
0
74
0
113
0
111
0
108
0
115
0
113
0
102
0
105
0
95
0
0
0
0
0
0
0
0
0
0
0
0
0
0
0
0
0
0
0
0
0
0
0
0
0
0
0
0
0
0
0
0
0
0
0
0
0
0
0
0
0
0
0
0
0
0
0
0
0
0
0
0
0
0
0
0
0
0
0
0
0
0
0
0
0
0
0
0
0
0
0
0
0
0
0
0
0
0
0
0
0
0
0
0
0
0
0
0
0
0
0
0
0
0
0
0
0
0
0
0
0
0
0
0
0
0
0
0
0
0
0
0
0
0
0
0
0
0
0
0
0
0
0
0
0
0
0
0
0
0
0
0
0
0
0
0
0
0
0
0
0
0
0
0
0
0
0
0
0
0
0
0
0
0
0
0
0
0
0
0
0
0
0
0
0
0
0
0
0
0
0
0
0
0
0
0
0
0
0
0
0
0
0
0
0
0
0
0
0
0
0
0
0
0
0
0
0
0
0
0
0
0
0
0
0
0
0
0
0
0
0
0
0
0
0
0
0
0
0
0
0
0
0
0
0
0
0
0
0
0
0
0
0
0
0
0
0
0
0
0
0
0
0
0
0
0
0
0
0
0
0
0
0
0
0
0
0
0
0
0
0
0
0
0
0
0
0
0
0
0
0
0
0
0
0
0
0
0
0
0
0
0
0
0
0
0
0
0
0
0
0
0
0
0
0
0
0
0
0
0
0
0
0
0
0
0
0
0
0
0
0
0
0
0
0
0
0
0
0
0
0
0
0
0
0
0
0
0
0
0
0
0
0
0
0
0
0
0
0
0
0
0
0
0
0
0
0
0
0
0
0
0
0
0
0
0
0
0
0
0
0
0
0
0
0
0
0
0
0
0
0
0
0
0
0
0
0
0
0
0
0
0
0
0
0
0
0
0
0
0
0
0
0
0
0
0
0
0
0
0
0
0
0
0
0
0
0
0
0
0
0
0
0
0
0
0
0
0
0
0
0
0
0
0
0
0
0
0
0
0
0
0
0
0
0
0
0
0
0
0
0
0
0
0
0
61
0
34
0
54
0
77
0
67
0
66
0
65
0
59
0
2
0
123
0
245
0
253
0
254
0
254
0
247
0
254
0
252
0
252
0
253
0
253
0
254
0
255
0
255
0
255
0
254
0
254
0
254
0
247
0
233
0
90
0
2
0
20
0
49
0
62
0
53
0
38
0
44
0
52
0
45
0
30
0
34
0
5
0
6
0
48
0
77
0
74
0
74
0
90
0
98
0
113
0
116
0
133
0
130
0
58
0
33
0
69
0
2
0
5
0
11
0
5
0
11
0
34
0
55
0
65
0
77
0
76
0
72
0
68
0
68
0
70
0
70
0
66
0
73
0
69
0
59
0
48
0
47
0
59
0
85
0
109
0
113
0
112
0
109
0
105
0
106
0
111
0
119
0
125
0
102
0
87
0
84
0
104
0
128
0
135
0
130
0
127
0
136
0
139
0
137
0
107
0
96
0
99
0
67
0
37
0
57
0
56
0
40
0
29
0
45
0
62
0
71
0
82
0
50
0
31
0
16
0
13
0
9
0
1
0
1
0
7
0
14
0
29
0
54
0
75
0
88
0
96
0
103
0
108
0
108
0
110
0
114
0
116
0
119
0
123
0
129
0
133
0
125
0
127
0
131
0
135
0
138
0
140
0
140
0
141
0
144
0
148
0
151
0
151
0
148
0
149
0
153
0
157
0
156
0
149
0
155
0
163
0
162
0
161
0
153
0
138
0
115
0
69
0
13
0
0
0
4
0
12
0
7
0
6
0
4
0
28
0
62
0
87
0
99
0
104
0
107
0
108
0
117
0
110
0
107
0
128
0
125
0
58
0
22
0
58
0
95
0
103
0
84
0
83
0
102
0
111
0
117
0
112
0
117
0
115
0
113
0
113
0
113
0
113
0
114
0
115
0
106
0
69
0
85
0
125
0
131
0
119
0
118
0
125
0
107
0
100
0
84
0
57
0
44
0
64
0
98
0
120
0
110
0
108
0
117
0
115
0
100
0
97
0
84
0
0
0
0
0
0
0
0
0
0
0
0
0
0
0
0
0
0
0
0
0
0
0
0
0
0
0
0
0
0
0
0
0
0
0
0
0
0
0
0
0
0
0
0
0
0
0
0
0
0
0
0
0
0
0
0
0
0
0
0
0
0
0
0
0
0
0
0
0
0
0
0
0
0
0
0
0
0
0
0
0
0
0
0
0
0
0
0
0
0
0
0
0
0
0
0
0
0
0
0
0
0
0
0
0
0
0
0
0
0
0
0
0
0
0
0
0
0
0
0
0
0
0
0
0
0
0
0
0
0
0
0
0
0
0
0
0
0
0
0
0
0
0
0
0
0
0
0
0
0
0
0
0
0
0
0
0
0
0
0
0
0
0
0
0
0
0
0
0
0
0
0
0
0
0
0
0
0
0
0
0
0
0
0
0
0
0
0
0
0
0
0
0
0
0
0
0
0
0
0
0
0
0
0
0
0
0
0
0
0
0
0
0
0
0
0
0
0
0
0
0
0
0
0
0
0
0
0
0
0
0
0
0
0
0
0
0
0
0
0
0
0
0
0
0
0
0
0
0
0
0
0
0
0
0
0
0
0
0
0
0
0
0
0
0
0
0
0
0
0
0
0
0
0
0
0
0
0
0
0
0
0
0
0
0
0
0
0
0
0
0
0
0
0
0
0
0
0
0
0
0
0
0
0
0
0
0
0
0
0
0
0
0
0
0
0
0
0
0
0
0
0
0
0
0
0
0
0
0
0
0
0
0
0
0
0
0
0
0
0
0
0
0
0
0
0
0
0
0
0
0
0
0
0
0
0
0
0
0
0
0
0
0
0
0
0
0
0
0
0
0
0
0
0
0
0
0
0
0
0
0
0
0
0
0
0
0
0
0
0
0
0
0
0
0
0
0
0
0
0
0
0
0
0
0
0
0
0
0
0
0
0
0
0
0
0
0
0
0
0
0
0
0
0
0
0
0
0
0
0
0
0
0
0
0
0
0
0
0
0
0
0
0
0
0
69
0
44
0
44
0
62
0
66
0
68
0
71
0
62
0
12
0
30
0
180
0
254
0
249
0
254
0
252
0
254
0
251
0
252
0
252
0
253
0
254
0
255
0
255
0
255
0
254
0
254
0
254
0
248
0
233
0
88
0
2
0
25
0
81
0
74
0
45
0
11
0
14
0
36
0
45
0
39
0
24
0
2
0
12
0
66
0
97
0
85
0
87
0
109
0
138
0
158
0
161
0
157
0
138
0
63
0
28
0
61
0
1
0
5
0
6
0
13
0
46
0
80
0
87
0
77
0
75
0
74
0
72
0
72
0
77
0
81
0
80
0
76
0
77
0
49
0
20
0
27
0
67
0
100
0
114
0
123
0
112
0
109
0
106
0
106
0
109
0
116
0
124
0
129
0
130
0
106
0
80
0
75
0
95
0
121
0
130
0
125
0
136
0
112
0
98
0
73
0
47
0
27
0
12
0
31
0
28
0
33
0
45
0
63
0
73
0
62
0
37
0
21
0
10
0
1
0
0
0
1
0
0
0
1
0
1
0
23
0
53
0
68
0
86
0
96
0
97
0
100
0
107
0
113
0
111
0
114
0
119
0
122
0
122
0
122
0
123
0
125
0
129
0
132
0
138
0
145
0
151
0
154
0
156
0
157
0
167
0
169
0
172
0
171
0
170
0
170
0
173
0
177
0
182
0
166
0
171
0
181
0
176
0
170
0
156
0
135
0
55
0
13
0
1
0
8
0
2
0
1
0
1
0
2
0
27
0
54
0
86
0
102
0
105
0
106
0
110
0
113
0
122
0
112
0
123
0
116
0
57
0
22
0
60
0
102
0
107
0
101
0
72
0
75
0
100
0
108
0
114
0
109
0
117
0
116
0
113
0
112
0
112
0
113
0
115
0
117
0
103
0
78
0
99
0
119
0
118
0
116
0
113
0
125
0
124
0
124
0
106
0
61
0
36
0
63
0
103
0
117
0
106
0
110
0
104
0
106
0
107
0
80
0
63
0
0
0
0
0
0
0
0
0
0
0
0
0
0
0
0
0
0
0
0
0
0
0
0
0
0
0
0
0
0
0
0
0
0
0
0
0
0
0
0
0
0
0
0
0
0
0
0
0
0
0
0
0
0
0
0
0
0
0
0
0
0
0
0
0
0
0
0
0
0
0
0
0
0
0
0
0
0
0
0
0
0
0
0
0
0
0
0
0
0
0
0
0
0
0
0
0
0
0
0
0
0
0
0
0
0
0
0
0
0
0
0
0
0
0
0
0
0
0
0
0
0
0
0
0
0
0
0
0
0
0
0
0
0
0
0
0
0
0
0
0
0
0
0
0
0
0
0
0
0
0
0
0
0
0
0
0
0
0
0
0
0
0
0
0
0
0
0
0
0
0
0
0
0
0
0
0
0
0
0
0
0
0
0
0
0
0
0
0
0
0
0
0
0
0
0
0
0
0
0
0
0
0
0
0
0
0
0
0
0
0
0
0
0
0
0
0
0
0
0
0
0
0
0
0
0
0
0
0
0
0
0
0
0
0
0
0
0
0
0
0
0
0
0
0
0
0
0
0
0
0
0
0
0
0
0
0
0
0
0
0
0
0
0
0
0
0
0
0
0
0
0
0
0
0
0
0
0
0
0
0
0
0
0
0
0
0
0
0
0
0
0
0
0
0
0
0
0
0
0
0
0
0
0
0
0
0
0
0
0
0
0
0
0
0
0
0
0
0
0
0
0
0
0
0
0
0
0
0
0
0
0
0
0
0
0
0
0
0
0
0
0
0
0
0
0
0
0
0
0
0
0
0
0
0
0
0
0
0
0
0
0
0
0
0
0
0
0
0
0
0
0
0
0
0
0
0
0
0
0
0
0
0
0
0
0
0
0
0
0
0
0
0
0
0
0
0
0
0
0
0
0
0
0
0
0
0
0
0
0
0
0
0
0
0
0
0
0
0
0
0
0
0
0
0
0
0
0
0
0
0
0
0
0
0
0
0
0
0
0
0
0
0
0
0
69
0
60
0
40
0
44
0
58
0
60
0
57
0
50
0
51
0
5
0
84
0
216
0
248
0
246
0
255
0
253
0
250
0
251
0
252
0
253
0
254
0
255
0
255
0
255
0
254
0
254
0
254
0
249
0
231
0
83
0
2
0
34
0
96
0
90
0
62
0
26
0
19
0
41
0
54
0
51
0
21
0
10
0
25
0
74
0
98
0
88
0
89
0
109
0
133
0
155
0
161
0
148
0
121
0
57
0
22
0
38
0
6
0
1
0
2
0
27
0
64
0
87
0
81
0
66
0
52
0
55
0
56
0
58
0
62
0
67
0
68
0
65
0
44
0
35
0
24
0
36
0
70
0
89
0
96
0
105
0
109
0
109
0
111
0
115
0
120
0
125
0
127
0
128
0
140
0
135
0
109
0
85
0
91
0
116
0
121
0
105
0
99
0
61
0
42
0
25
0
7
0
6
0
35
0
93
0
79
0
67
0
71
0
71
0
43
0
17
0
12
0
10
0
1
0
1
0
0
0
1
0
3
0
20
0
47
0
66
0
84
0
90
0
96
0
100
0
99
0
102
0
107
0
114
0
110
0
113
0
119
0
122
0
124
0
125
0
127
0
129
0
141
0
144
0
150
0
156
0
161
0
164
0
166
0
166
0
174
0
174
0
176
0
176
0
177
0
178
0
181
0
183
0
187
0
177
0
181
0
183
0
170
0
158
0
128
0
80
0
9
0
1
0
2
0
12
0
0
0
0
0
4
0
18
0
64
0
80
0
97
0
104
0
106
0
110
0
113
0
112
0
111
0
115
0
102
0
57
0
29
0
63
0
100
0
105
0
106
0
90
0
62
0
80
0
110
0
112
0
112
0
111
0
115
0
115
0
114
0
114
0
116
0
116
0
117
0
117
0
78
0
82
0
110
0
109
0
110
0
121
0
115
0
124
0
122
0
119
0
89
0
62
0
74
0
94
0
89
0
76
0
88
0
97
0
96
0
96
0
92
0
68
0
60
0
0
0
0
0
0
0
0
0
0
0
0
0
0
0
0
0
0
0
0
0
0
0
0
0
0
0
0
0
0
0
0
0
0
0
0
0
0
0
0
0
0
0
0
0
0
0
0
0
0
0
0
0
0
0
0
0
0
0
0
0
0
0
0
0
0
0
0
0
0
0
0
0
0
0
0
0
0
0
0
0
0
0
0
0
0
0
0
0
0
0
0
0
0
0
0
0
0
0
0
0
0
0
0
0
0
0
0
0
0
0
0
0
0
0
0
0
0
0
0
0
0
0
0
0
0
0
0
0
0
0
0
0
0
0
0
0
0
0
0
0
0
0
0
0
0
0
0
0
0
0
0
0
0
0
0
0
0
0
0
0
0
0
0
0
0
0
0
0
0
0
0
0
0
0
0
0
0
0
0
0
0
0
0
0
0
0
0
0
0
0
0
0
0
0
0
0
0
0
0
0
0
0
0
0
0
0
0
0
0
0
0
0
0
0
0
0
0
0
0
0
0
0
0
0
0
0
0
0
0
0
0
0
0
0
0
0
0
0
0
0
0
0
0
0
0
0
0
0
0
0
0
0
0
0
0
0
0
0
0
0
0
0
0
0
0
0
0
0
0
0
0
0
0
0
0
0
0
0
0
0
0
0
0
0
0
0
0
0
0
0
0
0
0
0
0
0
0
0
0
0
0
0
0
0
0
0
0
0
0
0
0
0
0
0
0
0
0
0
0
0
0
0
0
0
0
0
0
0
0
0
0
0
0
0
0
0
0
0
0
0
0
0
0
0
0
0
0
0
0
0
0
0
0
0
0
0
0
0
0
0
0
0
0
0
0
0
0
0
0
0
0
0
0
0
0
0
0
0
0
0
0
0
0
0
0
0
0
0
0
0
0
0
0
0
0
0
0
0
0
0
0
0
0
0
0
0
0
0
0
0
0
0
0
0
0
0
0
0
0
0
0
0
0
0
0
0
0
0
0
0
0
0
0
0
0
0
0
0
0
0
0
0
0
0
68
0
68
0
38
0
34
0
50
0
42
0
40
0
48
0
63
0
14
0
10
0
150
0
250
0
248
0
255
0
254
0
250
0
251
0
251
0
252
0
254
0
255
0
255
0
255
0
254
0
254
0
253
0
250
0
230
0
78
0
2
0
41
0
88
0
91
0
75
0
44
0
34
0
48
0
57
0
52
0
18
0
14
0
37
0
79
0
101
0
97
0
103
0
118
0
141
0
159
0
162
0
143
0
115
0
61
0
32
0
27
0
5
0
1
0
3
0
35
0
62
0
67
0
57
0
48
0
43
0
47
0
48
0
42
0
36
0
33
0
29
0
26
0
24
0
56
0
81
0
85
0
76
0
65
0
77
0
107
0
113
0
112
0
113
0
116
0
119
0
124
0
125
0
125
0
121
0
138
0
131
0
101
0
92
0
101
0
89
0
58
0
28
0
11
0
6
0
2
0
2
0
13
0
51
0
106
0
76
0
39
0
36
0
44
0
19
0
4
0
4
0
3
0
7
0
7
0
1
0
3
0
27
0
69
0
92
0
92
0
94
0
96
0
98
0
101
0
104
0
107
0
108
0
110
0
111
0
113
0
118
0
121
0
127
0
135
0
145
0
151
0
153
0
155
0
159
0
163
0
165
0
165
0
164
0
164
0
165
0
165
0
166
0
166
0
170
0
173
0
176
0
177
0
175
0
177
0
185
0
174
0
152
0
134
0
82
0
9
0
2
0
2
0
4
0
2
0
1
0
3
0
22
0
44
0
94
0
97
0
97
0
98
0
104
0
113
0
112
0
106
0
121
0
93
0
35
0
30
0
80
0
103
0
95
0
98
0
106
0
86
0
64
0
92
0
124
0
117
0
113
0
114
0
110
0
112
0
114
0
116
0
117
0
116
0
116
0
115
0
66
0
92
0
126
0
113
0
113
0
128
0
113
0
118
0
118
0
125
0
91
0
75
0
108
0
116
0
92
0
88
0
67
0
77
0
99
0
94
0
68
0
64
0
74
0
0
0
0
0
0
0
0
0
0
0
0
0
0
0
0
0
0
0
0
0
0
0
0
0
0
0
0
0
0
0
0
0
0
0
0
0
0
0
0
0
0
0
0
0
0
0
0
0
0
0
0
0
0
0
0
0
0
0
0
0
0
0
0
0
0
0
0
0
0
0
0
0
0
0
0
0
0
0
0
0
0
0
0
0
0
0
0
0
0
0
0
0
0
0
0
0
0
0
0
0
0
0
0
0
0
0
0
0
0
0
0
0
0
0
0
0
0
0
0
0
0
0
0
0
0
0
0
0
0
0
0
0
0
0
0
0
0
0
0
0
0
0
0
0
0
0
0
0
0
0
0
0
0
0
0
0
0
0
0
0
0
0
0
0
0
0
0
0
0
0
0
0
0
0
0
0
0
0
0
0
0
0
0
0
0
0
0
0
0
0
0
0
0
0
0
0
0
0
0
0
0
0
0
0
0
0
0
0
0
0
0
0
0
0
0
0
0
0
0
0
0
0
0
0
0
0
0
0
0
0
0
0
0
0
0
0
0
0
0
0
0
0
0
0
0
0
0
0
0
0
0
0
0
0
0
0
0
0
0
0
0
0
0
0
0
0
0
0
0
0
0
0
0
0
0
0
0
0
0
0
0
0
0
0
0
0
0
0
0
0
0
0
0
0
0
0
0
0
0
0
0
0
0
0
0
0
0
0
0
0
0
0
0
0
0
0
0
0
0
0
0
0
0
0
0
0
0
0
0
0
0
0
0
0
0
0
0
0
0
0
0
0
0
0
0
0
0
0
0
0
0
0
0
0
0
0
0
0
0
0
0
0
0
0
0
0
0
0
0
0
0
0
0
0
0
0
0
0
0
0
0
0
0
0
0
0
0
0
0
0
0
0
0
0
0
0
0
0
0
0
0
0
0
0
0
0
0
0
0
0
0
0
0
0
0
0
0
0
0
0
0
0
0
0
0
0
0
0
0
0
0
0
0
0
0
0
0
0
0
0
0
0
0
0
70
0
64
0
49
0
40
0
54
0
66
0
62
0
53
0
57
0
49
0
12
0
3
0
181
0
248
0
241
0
254
0
250
0
255
0
255
0
254
0
255
0
255
0
255
0
255
0
253
0
255
0
247
0
250
0
225
0
61
0
2
0
41
0
84
0
94
0
75
0
39
0
31
0
50
0
58
0
43
0
11
0
7
0
40
0
54
0
53
0
58
0
71
0
77
0
118
0
126
0
112
0
100
0
94
0
47
0
5
0
3
0
8
0
1
0
23
0
61
0
73
0
79
0
78
0
64
0
68
0
70
0
73
0
69
0
52
0
34
0
37
0
47
0
72
0
86
0
99
0
108
0
110
0
102
0
78
0
55
0
89
0
115
0
100
0
121
0
143
0
127
0
128
0
127
0
129
0
126
0
115
0
95
0
50
0
13
0
17
0
4
0
4
0
18
0
7
0
0
0
14
0
57
0
99
0
94
0
38
0
80
0
87
0
52
0
22
0
4
0
1
0
2
0
1
0
5
0
29
0
58
0
84
0
95
0
91
0
84
0
93
0
97
0
102
0
103
0
100
0
99
0
104
0
108
0
113
0
119
0
126
0
132
0
135
0
140
0
147
0
151
0
150
0
154
0
160
0
167
0
173
0
172
0
168
0
165
0
163
0
166
0
168
0
168
0
167
0
167
0
172
0
176
0
185
0
182
0
180
0
171
0
130
0
68
0
20
0
2
0
0
0
3
0
6
0
0
0
2
0
28
0
62
0
84
0
90
0
108
0
104
0
118
0
109
0
97
0
123
0
125
0
73
0
13
0
44
0
101
0
103
0
101
0
108
0
91
0
106
0
86
0
64
0
99
0
119
0
102
0
111
0
109
0
116
0
112
0
124
0
121
0
110
0
124
0
124
0
88
0
69
0
107
0
127
0
122
0
120
0
118
0
114
0
116
0
120
0
117
0
75
0
72
0
119
0
119
0
99
0
124
0
115
0
83
0
53
0
44
0
55
0
72
0
77
0
0
0
0
0
0
0
0
0
0
0
0
0
0
0
0
0
0
0
0
0
0
0
0
0
0
0
0
0
0
0
0
0
0
0
0
0
0
0
0
0
0
0
0
0
0
0
0
0
0
0
0
0
0
0
0
0
0
0
0
0
0
0
0
0
0
0
0
0
0
0
0
0
0
0
0
0
0
0
0
0
0
0
0
0
0
0
0
0
0
0
0
0
0
0
0
0
0
0
0
0
0
0
0
0
0
0
0
0
0
0
0
0
0
0
0
0
0
0
0
0
0
0
0
0
0
0
0
0
0
0
0
0
0
0
0
0
0
0
0
0
0
0
0
0
0
0
0
0
0
0
0
0
0
0
0
0
0
0
0
0
0
0
0
0
0
0
0
0
0
0
0
0
0
0
0
0
0
0
0
0
0
0
0
0
0
0
0
0
0
0
0
0
0
0
0
0
0
0
0
0
0
0
0
0
0
0
0
0
0
0
0
0
0
0
0
0
0
0
0
0
0
0
0
0
0
0
0
0
0
0
0
0
0
0
0
0
0
0
0
0
0
0
0
0
0
0
0
0
0
0
0
0
0
0
0
0
0
0
0
0
0
0
0
0
0
0
0
0
0
0
0
0
0
0
0
0
0
0
0
0
0
0
0
0
0
0
0
0
0
0
0
0
0
0
0
0
0
0
0
0
0
0
0
0
0
0
0
0
0
0
0
0
0
0
0
0
0
0
0
0
0
0
0
0
0
0
0
0
0
0
0
0
0
0
0
0
0
0
0
0
0
0
0
0
0
0
0
0
0
0
0
0
0
0
0
0
0
0
0
0
0
0
0
0
0
0
0
0
0
0
0
0
0
0
0
0
0
0
0
0
0
0
0
0
0
0
0
0
0
0
0
0
0
0
0
0
0
0
0
0
0
0
0
0
0
0
0
0
0
0
0
0
0
0
0
0
0
0
0
0
0
0
0
0
0
0
0
0
0
0
0
0
0
0
0
0
0
0
0
0
0
0
0
0
67
0
66
0
37
0
26
0
59
0
74
0
64
0
64
0
67
0
64
0
45
0
4
0
65
0
253
0
254
0
254
0
255
0
254
0
246
0
251
0
255
0
255
0
255
0
255
0
253
0
254
0
247
0
252
0
225
0
63
0
2
0
45
0
93
0
100
0
84
0
48
0
30
0
51
0
65
0
48
0
9
0
28
0
61
0
70
0
69
0
81
0
92
0
92
0
96
0
120
0
128
0
125
0
115
0
59
0
12
0
2
0
1
0
18
0
61
0
93
0
98
0
91
0
79
0
65
0
77
0
81
0
77
0
59
0
42
0
41
0
58
0
73
0
77
0
91
0
105
0
111
0
112
0
109
0
96
0
80
0
47
0
100
0
147
0
141
0
113
0
118
0
130
0
133
0
108
0
93
0
71
0
59
0
27
0
2
0
14
0
9
0
17
0
11
0
1
0
33
0
80
0
108
0
123
0
112
0
48
0
61
0
58
0
35
0
11
0
3
0
5
0
10
0
12
0
35
0
63
0
81
0
85
0
85
0
90
0
96
0
95
0
98
0
102
0
102
0
101
0
104
0
110
0
115
0
124
0
128
0
134
0
139
0
142
0
147
0
149
0
151
0
159
0
156
0
154
0
153
0
156
0
158
0
159
0
158
0
157
0
158
0
157
0
159
0
158
0
160
0
162
0
163
0
165
0
163
0
153
0
121
0
69
0
21
0
3
0
7
0
6
0
3
0
0
0
6
0
28
0
57
0
82
0
95
0
100
0
118
0
98
0
96
0
110
0
122
0
112
0
53
0
22
0
58
0
97
0
105
0
97
0
100
0
106
0
101
0
109
0
83
0
74
0
108
0
124
0
117
0
119
0
114
0
110
0
106
0
105
0
106
0
112
0
119
0
100
0
65
0
87
0
116
0
129
0
122
0
118
0
114
0
110
0
115
0
116
0
78
0
70
0
101
0
123
0
114
0
103
0
109
0
104
0
95
0
69
0
42
0
41
0
56
0
64
0
0
0
0
0
0
0
0
0
0
0
0
0
0
0
0
0
0
0
0
0
0
0
0
0
0
0
0
0
0
0
0
0
0
0
0
0
0
0
0
0
0
0
0
0
0
0
0
0
0
0
0
0
0
0
0
0
0
0
0
0
0
0
0
0
0
0
0
0
0
0
0
0
0
0
0
0
0
0
0
0
0
0
0
0
0
0
0
0
0
0
0
0
0
0
0
0
0
0
0
0
0
0
0
0
0
0
0
0
0
0
0
0
0
0
0
0
0
0
0
0
0
0
0
0
0
0
0
0
0
0
0
0
0
0
0
0
0
0
0
0
0
0
0
0
0
0
0
0
0
0
0
0
0
0
0
0
0
0
0
0
0
0
0
0
0
0
0
0
0
0
0
0
0
0
0
0
0
0
0
0
0
0
0
0
0
0
0
0
0
0
0
0
0
0
0
0
0
0
0
0
0
0
0
0
0
0
0
0
0
0
0
0
0
0
0
0
0
0
0
0
0
0
0
0
0
0
0
0
0
0
0
0
0
0
0
0
0
0
0
0
0
0
0
0
0
0
0
0
0
0
0
0
0
0
0
0
0
0
0
0
0
0
0
0
0
0
0
0
0
0
0
0
0
0
0
0
0
0
0
0
0
0
0
0
0
0
0
0
0
0
0
0
0
0
0
0
0
0
0
0
0
0
0
0
0
0
0
0
0
0
0
0
0
0
0
0
0
0
0
0
0
0
0
0
0
0
0
0
0
0
0
0
0
0
0
0
0
0
0
0
0
0
0
0
0
0
0
0
0
0
0
0
0
0
0
0
0
0
0
0
0
0
0
0
0
0
0
0
0
0
0
0
0
0
0
0
0
0
0
0
0
0
0
0
0
0
0
0
0
0
0
0
0
0
0
0
0
0
0
0
0
0
0
0
0
0
0
0
0
0
0
0
0
0
0
0
0
0
0
0
0
0
0
0
0
0
0
0
0
0
0
0
0
0
0
0
0
0
0
0
0
0
0
0
70
0
70
0
32
0
16
0
57
0
77
0
67
0
71
0
61
0
60
0
64
0
19
0
2
0
193
0
254
0
239
0
255
0
255
0
252
0
247
0
242
0
237
0
246
0
255
0
251
0
252
0
250
0
254
0
225
0
61
0
1
0
41
0
85
0
88
0
85
0
55
0
30
0
53
0
68
0
42
0
9
0
54
0
90
0
90
0
91
0
110
0
121
0
114
0
144
0
163
0
158
0
137
0
111
0
50
0
13
0
13
0
14
0
50
0
81
0
86
0
81
0
74
0
73
0
78
0
69
0
67
0
58
0
49
0
50
0
60
0
67
0
67
0
89
0
100
0
109
0
111
0
111
0
112
0
109
0
105
0
91
0
66
0
115
0
142
0
133
0
135
0
108
0
92
0
74
0
79
0
88
0
96
0
57
0
10
0
5
0
4
0
13
0
3
0
3
0
58
0
127
0
133
0
124
0
118
0
56
0
30
0
16
0
11
0
1
0
1
0
19
0
25
0
43
0
64
0
87
0
95
0
89
0
86
0
93
0
102
0
98
0
100
0
103
0
104
0
106
0
111
0
120
0
127
0
138
0
139
0
142
0
146
0
150
0
151
0
149
0
147
0
153
0
152
0
150
0
149
0
146
0
143
0
136
0
131
0
135
0
131
0
127
0
125
0
128
0
129
0
129
0
128
0
108
0
107
0
91
0
55
0
14
0
2
0
1
0
9
0
6
0
1
0
3
0
30
0
65
0
89
0
98
0
99
0
113
0
104
0
95
0
117
0
117
0
84
0
55
0
22
0
50
0
101
0
114
0
99
0
105
0
114
0
105
0
101
0
97
0
65
0
82
0
109
0
117
0
123
0
118
0
113
0
113
0
117
0
110
0
112
0
125
0
113
0
84
0
72
0
102
0
117
0
123
0
120
0
117
0
114
0
115
0
122
0
123
0
62
0
74
0
126
0
118
0
107
0
116
0
108
0
86
0
93
0
69
0
38
0
41
0
52
0
50
0
0
0
0
0
0
0
0
0
0
0
0
0
0
0
0
0
0
0
0
0
0
0
0
0
0
0
0
0
0
0
0
0
0
0
0
0
0
0
0
0
0
0
0
0
0
0
0
0
0
0
0
0
0
0
0
0
0
0
0
0
0
0
0
0
0
0
0
0
0
0
0
0
0
0
0
0
0
0
0
0
0
0
0
0
0
0
0
0
0
0
0
0
0
0
0
0
0
0
0
0
0
0
0
0
0
0
0
0
0
0
0
0
0
0
0
0
0
0
0
0
0
0
0
0
0
0
0
0
0
0
0
0
0
0
0
0
0
0
0
0
0
0
0
0
0
0
0
0
0
0
0
0
0
0
0
0
0
0
0
0
0
0
0
0
0
0
0
0
0
0
0
0
0
0
0
0
0
0
0
0
0
0
0
0
0
0
0
0
0
0
0
0
0
0
0
0
0
0
0
0
0
0
0
0
0
0
0
0
0
0
0
0
0
0
0
0
0
0
0
0
0
0
0
0
0
0
0
0
0
0
0
0
0
0
0
0
0
0
0
0
0
0
0
0
0
0
0
0
0
0
0
0
0
0
0
0
0
0
0
0
0
0
0
0
0
0
0
0
0
0
0
0
0
0
0
0
0
0
0
0
0
0
0
0
0
0
0
0
0
0
0
0
0
0
0
0
0
0
0
0
0
0
0
0
0
0
0
0
0
0
0
0
0
0
0
0
0
0
0
0
0
0
0
0
0
0
0
0
0
0
0
0
0
0
0
0
0
0
0
0
0
0
0
0
0
0
0
0
0
0
0
0
0
0
0
0
0
0
0
0
0
0
0
0
0
0
0
0
0
0
0
0
0
0
0
0
0
0
0
0
0
0
0
0
0
0
0
0
0
0
0
0
0
0
0
0
0
0
0
0
0
0
0
0
0
0
0
0
0
0
0
0
0
0
0
0
0
0
0
0
0
0
0
0
0
0
0
0
0
0
0
0
0
0
0
0
0
0
0
0
0
0
0
0
77
0
69
0
39
0
22
0
46
0
68
0
69
0
69
0
60
0
60
0
65
0
39
0
16
0
66
0
248
0
251
0
247
0
253
0
255
0
255
0
255
0
251
0
247
0
255
0
255
0
253
0
251
0
255
0
223
0
59
0
1
0
31
0
66
0
63
0
71
0
52
0
27
0
50
0
62
0
22
0
1
0
56
0
95
0
87
0
89
0
115
0
124
0
112
0
139
0
162
0
163
0
147
0
117
0
47
0
6
0
1
0
31
0
73
0
86
0
80
0
78
0
75
0
70
0
77
0
82
0
56
0
35
0
38
0
59
0
79
0
84
0
81
0
103
0
108
0
110
0
107
0
107
0
109
0
113
0
113
0
124
0
79
0
93
0
115
0
119
0
123
0
92
0
57
0
97
0
112
0
127
0
131
0
74
0
10
0
6
0
12
0
3
0
1
0
3
0
64
0
129
0
125
0
113
0
117
0
54
0
5
0
1
0
2
0
2
0
4
0
36
0
46
0
71
0
75
0
82
0
92
0
98
0
99
0
98
0
96
0
101
0
104
0
108
0
112
0
117
0
122
0
129
0
134
0
142
0
142
0
141
0
144
0
147
0
145
0
140
0
135
0
139
0
135
0
130
0
127
0
124
0
119
0
114
0
111
0
122
0
122
0
126
0
128
0
121
0
102
0
74
0
54
0
34
0
32
0
22
0
7
0
1
0
4
0
6
0
4
0
1
0
1
0
24
0
63
0
94
0
102
0
100
0
99
0
98
0
104
0
115
0
119
0
85
0
30
0
32
0
44
0
85
0
106
0
100
0
93
0
105
0
106
0
98
0
107
0
82
0
59
0
95
0
112
0
109
0
121
0
113
0
112
0
108
0
118
0
116
0
120
0
122
0
87
0
69
0
93
0
119
0
121
0
123
0
123
0
124
0
124
0
128
0
134
0
92
0
63
0
89
0
124
0
108
0
97
0
103
0
91
0
76
0
75
0
52
0
43
0
63
0
66
0
46
0
0
0
0
0
0
0
0
0
0
0
0
0
0
0
0
0
0
0
0
0
0
0
0
0
0
0
0
0
0
0
0
0
0
0
0
0
0
0
0
0
0
0
0
0
0
0
0
0
0
0
0
0
0
0
0
0
0
0
0
0
0
0
0
0
0
0
0
0
0
0
0
0
0
0
0
0
0
0
0
0
0
0
0
0
0
0
0
0
0
0
0
0
0
0
0
0
0
0
0
0
0
0
0
0
0
0
0
0
0
0
0
0
0
0
0
0
0
0
0
0
0
0
0
0
0
0
0
0
0
0
0
0
0
0
0
0
0
0
0
0
0
0
0
0
0
0
0
0
0
0
0
0
0
0
0
0
0
0
0
0
0
0
0
0
0
0
0
0
0
0
0
0
0
0
0
0
0
0
0
0
0
0
0
0
0
0
0
0
0
0
0
0
0
0
0
0
0
0
0
0
0
0
0
0
0
0
0
0
0
0
0
0
0
0
0
0
0
0
0
0
0
0
0
0
0
0
0
0
0
0
0
0
0
0
0
0
0
0
0
0
0
0
0
0
0
0
0
0
0
0
0
0
0
0
0
0
0
0
0
0
0
0
0
0
0
0
0
0
0
0
0
0
0
0
0
0
0
0
0
0
0
0
0
0
0
0
0
0
0
0
0
0
0
0
0
0
0
0
0
0
0
0
0
0
0
0
0
0
0
0
0
0
0
0
0
0
0
0
0
0
0
0
0
0
0
0
0
0
0
0
0
0
0
0
0
0
0
0
0
0
0
0
0
0
0
0
0
0
0
0
0
0
0
0
0
0
0
0
0
0
0
0
0
0
0
0
0
0
0
0
0
0
0
0
0
0
0
0
0
0
0
0
0
0
0
0
0
0
0
0
0
0
0
0
0
0
0
0
0
0
0
0
0
0
0
0
0
0
0
0
0
0
0
0
0
0
0
0
0
0
0
0
0
0
0
0
0
0
0
0
0
0
0
0
0
0
0
0
0
0
0
0
0
0
77
0
60
0
51
0
43
0
36
0
53
0
71
0
65
0
79
0
72
0
59
0
48
0
26
0
2
0
155
0
250
0
255
0
245
0
230
0
238
0
255
0
255
0
255
0
249
0
255
0
249
0
248
0
254
0
218
0
56
0
1
0
33
0
64
0
54
0
54
0
36
0
19
0
45
0
52
0
8
0
1
0
62
0
98
0
88
0
92
0
118
0
125
0
114
0
149
0
165
0
163
0
144
0
114
0
47
0
6
0
7
0
52
0
79
0
76
0
62
0
67
0
69
0
64
0
68
0
59
0
47
0
46
0
63
0
75
0
78
0
86
0
98
0
112
0
109
0
106
0
104
0
107
0
112
0
116
0
117
0
130
0
104
0
87
0
106
0
88
0
52
0
81
0
120
0
125
0
134
0
138
0
134
0
76
0
4
0
3
0
20
0
5
0
12
0
11
0
65
0
123
0
130
0
128
0
126
0
50
0
5
0
0
0
8
0
5
0
21
0
56
0
70
0
87
0
83
0
82
0
90
0
99
0
104
0
99
0
94
0
104
0
108
0
114
0
120
0
125
0
128
0
131
0
133
0
135
0
133
0
131
0
132
0
133
0
130
0
125
0
119
0
124
0
118
0
107
0
102
0
100
0
104
0
108
0
111
0
120
0
105
0
85
0
67
0
52
0
35
0
16
0
3
0
1
0
0
0
0
0
0
0
3
0
10
0
7
0
1
0
2
0
24
0
57
0
86
0
99
0
97
0
99
0
104
0
89
0
119
0
113
0
57
0
27
0
46
0
67
0
44
0
88
0
95
0
104
0
107
0
97
0
91
0
104
0
122
0
87
0
82
0
124
0
128
0
115
0
123
0
113
0
117
0
116
0
120
0
119
0
126
0
120
0
76
0
73
0
122
0
134
0
126
0
123
0
123
0
121
0
118
0
117
0
115
0
46
0
87
0
119
0
121
0
113
0
105
0
89
0
75
0
75
0
60
0
45
0
55
0
79
0
71
0
54
0
0
0
0
0
0
0
0
0
0
0
0
0
0
0
0
0
0
0
0
0
0
0
0
0
0
0
0
0
0
0
0
0
0
0
0
0
0
0
0
0
0
0
0
0
0
0
0
0
0
0
0
0
0
0
0
0
0
0
0
0
0
0
0
0
0
0
0
0
0
0
0
0
0
0
0
0
0
0
0
0
0
0
0
0
0
0
0
0
0
0
0
0
0
0
0
0
0
0
0
0
0
0
0
0
0
0
0
0
0
0
0
0
0
0
0
0
0
0
0
0
0
0
0
0
0
0
0
0
0
0
0
0
0
0
0
0
0
0
0
0
0
0
0
0
0
0
0
0
0
0
0
0
0
0
0
0
0
0
0
0
0
0
0
0
0
0
0
0
0
0
0
0
0
0
0
0
0
0
0
0
0
0
0
0
0
0
0
0
0
0
0
0
0
0
0
0
0
0
0
0
0
0
0
0
0
0
0
0
0
0
0
0
0
0
0
0
0
0
0
0
0
0
0
0
0
0
0
0
0
0
0
0
0
0
0
0
0
0
0
0
0
0
0
0
0
0
0
0
0
0
0
0
0
0
0
0
0
0
0
0
0
0
0
0
0
0
0
0
0
0
0
0
0
0
0
0
0
0
0
0
0
0
0
0
0
0
0
0
0
0
0
0
0
0
0
0
0
0
0
0
0
0
0
0
0
0
0
0
0
0
0
0
0
0
0
0
0
0
0
0
0
0
0
0
0
0
0
0
0
0
0
0
0
0
0
0
0
0
0
0
0
0
0
0
0
0
0
0
0
0
0
0
0
0
0
0
0
0
0
0
0
0
0
0
0
0
0
0
0
0
0
0
0
0
0
0
0
0
0
0
0
0
0
0
0
0
0
0
0
0
0
0
0
0
0
0
0
0
0
0
0
0
0
0
0
0
0
0
0
0
0
0
0
0
0
0
0
0
0
0
0
0
0
0
0
0
0
0
0
0
0
0
0
0
0
0
0
0
0
0
0
0
0
0
65
0
47
0
58
0
63
0
37
0
43
0
68
0
64
0
62
0
67
0
67
0
60
0
12
0
4
0
19
0
167
0
237
0
252
0
255
0
249
0
246
0
247
0
250
0
255
0
254
0
245
0
247
0
251
0
207
0
50
0
6
0
48
0
83
0
69
0
51
0
24
0
15
0
42
0
46
0
9
0
6
0
61
0
91
0
84
0
91
0
111
0
116
0
112
0
139
0
158
0
155
0
139
0
109
0
45
0
4
0
20
0
39
0
45
0
36
0
25
0
32
0
40
0
33
0
24
0
37
0
35
0
46
0
45
0
37
0
37
0
67
0
107
0
111
0
107
0
105
0
107
0
113
0
120
0
124
0
125
0
130
0
128
0
54
0
36
0
72
0
103
0
131
0
118
0
119
0
125
0
130
0
140
0
102
0
25
0
1
0
5
0
5
0
5
0
14
0
71
0
127
0
144
0
147
0
126
0
55
0
32
0
28
0
35
0
35
0
50
0
77
0
88
0
93
0
94
0
95
0
96
0
95
0
96
0
97
0
99
0
106
0
110
0
114
0
120
0
124
0
124
0
124
0
123
0
119
0
118
0
116
0
116
0
114
0
111
0
109
0
105
0
106
0
108
0
109
0
110
0
109
0
104
0
96
0
91
0
60
0
39
0
11
0
2
0
0
0
0
0
1
0
1
0
1
0
1
0
4
0
2
0
1
0
0
0
1
0
4
0
37
0
60
0
84
0
92
0
90
0
93
0
102
0
111
0
114
0
87
0
47
0
22
0
56
0
91
0
70
0
39
0
101
0
99
0
112
0
117
0
107
0
114
0
122
0
109
0
53
0
70
0
102
0
100
0
86
0
85
0
81
0
84
0
71
0
61
0
60
0
63
0
47
0
26
0
41
0
74
0
61
0
55
0
57
0
65
0
72
0
79
0
77
0
64
0
37
0
105
0
116
0
92
0
92
0
94
0
76
0
71
0
72
0
51
0
48
0
69
0
76
0
66
0
65
0
0
0
0
0
0
0
0
0
0
0
0
0
0
0
0
0
0
0
0
0
0
0
0
0
0
0
0
0
0
0
0
0
0
0
0
0
0
0
0
0
0
0
0
0
0
0
0
0
0
0
0
0
0
0
0
0
0
0
0
0
0
0
0
0
0
0
0
0
0
0
0
0
0
0
0
0
0
0
0
0
0
0
0
0
0
0
0
0
0
0
0
0
0
0
0
0
0
0
0
0
0
0
0
0
0
0
0
0
0
0
0
0
0
0
0
0
0
0
0
0
0
0
0
0
0
0
0
0
0
0
0
0
0
0
0
0
0
0
0
0
0
0
0
0
0
0
0
0
0
0
0
0
0
0
0
0
0
0
0
0
0
0
0
0
0
0
0
0
0
0
0
0
0
0
0
0
0
0
0
0
0
0
0
0
0
0
0
0
0
0
0
0
0
0
0
0
0
0
0
0
0
0
0
0
0
0
0
0
0
0
0
0
0
0
0
0
0
0
0
0
0
0
0
0
0
0
0
0
0
0
0
0
0
0
0
0
0
0
0
0
0
0
0
0
0
0
0
0
0
0
0
0
0
0
0
0
0
0
0
0
0
0
0
0
0
0
0
0
0
0
0
0
0
0
0
0
0
0
0
0
0
0
0
0
0
0
0
0
0
0
0
0
0
0
0
0
0
0
0
0
0
0
0
0
0
0
0
0
0
0
0
0
0
0
0
0
0
0
0
0
0
0
0
0
0
0
0
0
0
0
0
0
0
0
0
0
0
0
0
0
0
0
0
0
0
0
0
0
0
0
0
0
0
0
0
0
0
0
0
0
0
0
0
0
0
0
0
0
0
0
0
0
0
0
0
0
0
0
0
0
0
0
0
0
0
0
0
0
0
0
0
0
0
0
0
0
0
0
0
0
0
0
0
0
0
0
0
0
0
0
0
0
0
0
0
0
0
0
0
0
0
0
0
0
0
0
0
0
0
0
0
0
0
0
0
0
0
0
0
0
0
0
0
0
53
0
41
0
62
0
76
0
49
0
38
0
54
0
63
0
76
0
40
0
31
0
35
0
49
0
76
0
3
0
9
0
112
0
185
0
249
0
255
0
255
0
255
0
252
0
253
0
250
0
246
0
252
0
249
0
192
0
36
0
10
0
64
0
93
0
87
0
62
0
30
0
26
0
50
0
47
0
15
0
1
0
41
0
66
0
64
0
73
0
85
0
88
0
93
0
114
0
126
0
115
0
95
0
74
0
33
0
27
0
68
0
64
0
65
0
74
0
76
0
74
0
69
0
55
0
32
0
26
0
39
0
50
0
50
0
49
0
55
0
63
0
70
0
103
0
105
0
111
0
115
0
119
0
122
0
127
0
131
0
128
0
87
0
19
0
26
0
105
0
147
0
142
0
112
0
129
0
128
0
121
0
132
0
106
0
38
0
5
0
1
0
1
0
0
0
27
0
98
0
135
0
140
0
140
0
107
0
64
0
68
0
63
0
56
0
61
0
77
0
89
0
93
0
92
0
96
0
97
0
96
0
93
0
92
0
96
0
101
0
105
0
106
0
109
0
110
0
112
0
113
0
110
0
108
0
105
0
104
0
103
0
100
0
98
0
97
0
97
0
98
0
93
0
96
0
98
0
96
0
86
0
70
0
50
0
36
0
1
0
1
0
1
0
9
0
16
0
14
0
6
0
1
0
7
0
7
0
8
0
6
0
0
0
0
0
5
0
25
0
73
0
87
0
92
0
86
0
87
0
98
0
102
0
96
0
97
0
40
0
27
0
60
0
106
0
91
0
45
0
66
0
114
0
105
0
106
0
106
0
100
0
107
0
100
0
75
0
12
0
54
0
65
0
68
0
67
0
62
0
67
0
67
0
94
0
87
0
94
0
78
0
47
0
61
0
94
0
93
0
97
0
91
0
89
0
87
0
85
0
84
0
66
0
36
0
64
0
91
0
83
0
51
0
46
0
54
0
54
0
52
0
49
0
32
0
48
0
73
0
67
0
65
0
72
0
0
0
0
0
0
0
0
0
0
0
0
0
0
0
0
0
0
0
0
0
0
0
0
0
0
0
0
0
0
0
0
0
0
0
0
0
0
0
0
0
0
0
0
0
0
0
0
0
0
0
0
0
0
0
0
0
0
0
0
0
0
0
0
0
0
0
0
0
0
0
0
0
0
0
0
0
0
0
0
0
0
0
0
0
0
0
0
0
0
0
0
0
0
0
0
0
0
0
0
0
0
0
0
0
0
0
0
0
0
0
0
0
0
0
0
0
0
0
0
0
0
0
0
0
0
0
0
0
0
0
0
0
0
0
0
0
0
0
0
0
0
0
0
0
0
0
0
0
0
0
0
0
0
0
0
0
0
0
0
0
0
0
0
0
0
0
0
0
0
0
0
0
0
0
0
0
0
0
0
0
0
0
0
0
0
0
0
0
0
0
0
0
0
0
0
0
0
0
0
0
0
0
0
0
0
0
0
0
0
0
0
0
0
0
0
0
0
0
0
0
0
0
0
0
0
0
0
0
0
0
0
0
0
0
0
0
0
0
0
0
0
0
0
0
0
0
0
0
0
0
0
0
0
0
0
0
0
0
0
0
0
0
0
0
0
0
0
0
0
0
0
0
0
0
0
0
0
0
0
0
0
0
0
0
0
0
0
0
0
0
0
0
0
0
0
0
0
0
0
0
0
0
0
0
0
0
0
0
0
0
0
0
0
0
0
0
0
0
0
0
0
0
0
0
0
0
0
0
0
0
0
0
0
0
0
0
0
0
0
0
0
0
0
0
0
0
0
0
0
0
0
0
0
0
0
0
0
0
0
0
0
0
0
0
0
0
0
0
0
0
0
0
0
0
0
0
0
0
0
0
0
0
0
0
0
0
0
0
0
0
0
0
0
0
0
0
0
0
0
0
0
0
0
0
0
0
0
0
0
0
0
0
0
0
0
0
0
0
0
0
0
0
0
0
0
0
0
0
0
0
0
0
0
0
0
0
0
0
0
0
0
0
0
0
46
0
45
0
63
0
80
0
62
0
36
0
39
0
60
0
47
0
40
0
68
0
49
0
62
0
34
0
21
0
4
0
0
0
51
0
106
0
151
0
207
0
254
0
255
0
250
0
251
0
252
0
254
0
251
0
181
0
22
0
11
0
71
0
88
0
93
0
73
0
42
0
41
0
59
0
50
0
18
0
9
0
45
0
66
0
68
0
79
0
85
0
86
0
99
0
117
0
139
0
138
0
120
0
91
0
44
0
36
0
81
0
78
0
68
0
74
0
76
0
64
0
63
0
57
0
37
0
69
0
70
0
67
0
65
0
92
0
116
0
97
0
58
0
99
0
105
0
115
0
121
0
120
0
119
0
123
0
130
0
55
0
62
0
83
0
72
0
94
0
129
0
124
0
139
0
128
0
134
0
129
0
136
0
108
0
38
0
3
0
6
0
4
0
3
0
55
0
136
0
145
0
128
0
124
0
95
0
72
0
91
0
83
0
66
0
75
0
89
0
90
0
88
0
90
0
88
0
87
0
89
0
94
0
99
0
100
0
99
0
106
0
104
0
101
0
101
0
101
0
101
0
100
0
99
0
96
0
97
0
97
0
94
0
89
0
88
0
91
0
94
0
96
0
82
0
61
0
39
0
19
0
4
0
0
0
0
0
13
0
8
0
2
0
1
0
3
0
4
0
4
0
2
0
6
0
0
0
0
0
3
0
4
0
5
0
21
0
43
0
92
0
96
0
89
0
82
0
91
0
107
0
99
0
74
0
22
0
47
0
80
0
84
0
103
0
75
0
37
0
85
0
98
0
100
0
103
0
91
0
62
0
42
0
46
0
57
0
45
0
98
0
99
0
108
0
123
0
116
0
127
0
126
0
112
0
119
0
136
0
101
0
57
0
93
0
140
0
116
0
126
0
123
0
126
0
126
0
127
0
132
0
112
0
73
0
108
0
89
0
79
0
65
0
53
0
52
0
54
0
42
0
21
0
9
0
39
0
69
0
65
0
69
0
76
0
0
0
0
0
0
0
0
0
0
0
0
0
0
0
0
0
0
0
0
0
0
0
0
0
0
0
0
0
0
0
0
0
0
0
0
0
0
0
0
0
0
0
0
0
0
0
0
0
0
0
0
0
0
0
0
0
0
0
0
0
0
0
0
0
0
0
0
0
0
0
0
0
0
0
0
0
0
0
0
0
0
0
0
0
0
0
0
0
0
0
0
0
0
0
0
0
0
0
0
0
0
0
0
0
0
0
0
0
0
0
0
0
0
0
0
0
0
0
0
0
0
0
0
0
0
0
0
0
0
0
0
0
0
0
0
0
0
0
0
0
0
0
0
0
0
0
0
0
0
0
0
0
0
0
0
0
0
0
0
0
0
0
0
0
0
0
0
0
0
0
0
0
0
0
0
0
0
0
0
0
0
0
0
0
0
0
0
0
0
0
0
0
0
0
0
0
0
0
0
0
0
0
0
0
0
0
0
0
0
0
0
0
0
0
0
0
0
0
0
0
0
0
0
0
0
0
0
0
0
0
0
0
0
0
0
0
0
0
0
0
0
0
0
0
0
0
0
0
0
0
0
0
0
0
0
0
0
0
0
0
0
0
0
0
0
0
0
0
0
0
0
0
0
0
0
0
0
0
0
0
0
0
0
0
0
0
0
0
0
0
0
0
0
0
0
0
0
0
0
0
0
0
0
0
0
0
0
0
0
0
0
0
0
0
0
0
0
0
0
0
0
0
0
0
0
0
0
0
0
0
0
0
0
0
0
0
0
0
0
0
0
0
0
0
0
0
0
0
0
0
0
0
0
0
0
0
0
0
0
0
0
0
0
0
0
0
0
0
0
0
0
0
0
0
0
0
0
0
0
0
0
0
0
0
0
0
0
0
0
0
0
0
0
0
0
0
0
0
0
0
0
0
0
0
0
0
0
0
0
0
0
0
0
0
0
0
0
0
0
0
0
0
0
0
0
0
0
0
0
0
0
0
0
0
0
0
0
0
0
0
0
0
0
0
45
0
56
0
66
0
68
0
65
0
56
0
43
0
30
0
45
0
44
0
43
0
41
0
33
0
23
0
19
0
18
0
19
0
22
0
13
0
2
0
34
0
114
0
202
0
251
0
251
0
254
0
247
0
235
0
150
0
22
0
15
0
80
0
89
0
90
0
67
0
42
0
47
0
58
0
36
0
7
0
2
0
53
0
93
0
90
0
96
0
107
0
103
0
120
0
149
0
151
0
168
0
148
0
128
0
74
0
22
0
81
0
72
0
80
0
67
0
65
0
77
0
57
0
40
0
60
0
73
0
63
0
62
0
83
0
108
0
111
0
105
0
108
0
41
0
114
0
107
0
107
0
133
0
139
0
99
0
20
0
110
0
123
0
142
0
116
0
52
0
86
0
141
0
119
0
136
0
132
0
113
0
139
0
122
0
73
0
1
0
9
0
5
0
39
0
84
0
158
0
108
0
52
0
9
0
55
0
83
0
87
0
88
0
84
0
86
0
91
0
92
0
88
0
90
0
96
0
100
0
98
0
96
0
96
0
97
0
97
0
97
0
98
0
98
0
97
0
94
0
92
0
92
0
92
0
86
0
88
0
95
0
102
0
98
0
83
0
67
0
58
0
14
0
10
0
5
0
3
0
4
0
5
0
3
0
0
0
1
0
1
0
1
0
2
0
2
0
3
0
3
0
3
0
3
0
2
0
6
0
5
0
1
0
14
0
57
0
93
0
80
0
79
0
78
0
92
0
117
0
108
0
56
0
15
0
62
0
78
0
86
0
99
0
97
0
50
0
72
0
79
0
49
0
43
0
47
0
63
0
85
0
106
0
116
0
112
0
60
0
109
0
120
0
114
0
115
0
118
0
122
0
111
0
118
0
118
0
129
0
82
0
66
0
108
0
124
0
111
0
110
0
128
0
129
0
111
0
132
0
114
0
116
0
52
0
113
0
94
0
85
0
89
0
85
0
79
0
77
0
78
0
40
0
47
0
46
0
33
0
26
0
26
0
43
0
0
0
0
0
0
0
0
0
0
0
0
0
0
0
0
0
0
0
0
0
0
0
0
0
0
0
0
0
0
0
0
0
0
0
0
0
0
0
0
0
0
0
0
0
0
0
0
0
0
0
0
0
0
0
0
0
0
0
0
0
0
0
0
0
0
0
0
0
0
0
0
0
0
0
0
0
0
0
0
0
0
0
0
0
0
0
0
0
0
0
0
0
0
0
0
0
0
0
0
0
0
0
0
0
0
0
0
0
0
0
0
0
0
0
0
0
0
0
0
0
0
0
0
0
0
0
0
0
0
0
0
0
0
0
0
0
0
0
0
0
0
0
0
0
0
0
0
0
0
0
0
0
0
0
0
0
0
0
0
0
0
0
0
0
0
0
0
0
0
0
0
0
0
0
0
0
0
0
0
0
0
0
0
0
0
0
0
0
0
0
0
0
0
0
0
0
0
0
0
0
0
0
0
0
0
0
0
0
0
0
0
0
0
0
0
0
0
0
0
0
0
0
0
0
0
0
0
0
0
0
0
0
0
0
0
0
0
0
0
0
0
0
0
0
0
0
0
0
0
0
0
0
0
0
0
0
0
0
0
0
0
0
0
0
0
0
0
0
0
0
0
0
0
0
0
0
0
0
0
0
0
0
0
0
0
0
0
0
0
0
0
0
0
0
0
0
0
0
0
0
0
0
0
0
0
0
0
0
0
0
0
0
0
0
0
0
0
0
0
0
0
0
0
0
0
0
0
0
0
0
0
0
0
0
0
0
0
0
0
0
0
0
0
0
0
0
0
0
0
0
0
0
0
0
0
0
0
0
0
0
0
0
0
0
0
0
0
0
0
0
0
0
0
0
0
0
0
0
0
0
0
0
0
0
0
0
0
0
0
0
0
0
0
0
0
0
0
0
0
0
0
0
0
0
0
0
0
0
0
0
0
0
0
0
0
0
0
0
0
0
0
0
0
0
0
0
0
0
0
0
0
0
0
0
0
0
0
0
0
0
0
0
0
0
49
0
61
0
72
0
74
0
70
0
59
0
39
0
22
0
26
0
32
0
38
0
43
0
48
0
51
0
50
0
46
0
33
0
28
0
20
0
11
0
2
0
0
0
0
0
8
0
43
0
37
0
9
0
11
0
3
0
1
0
29
0
93
0
87
0
84
0
59
0
32
0
38
0
50
0
32
0
4
0
1
0
40
0
88
0
96
0
100
0
107
0
103
0
113
0
150
0
149
0
159
0
136
0
125
0
76
0
18
0
66
0
64
0
69
0
71
0
72
0
66
0
54
0
52
0
61
0
65
0
68
0
80
0
103
0
122
0
122
0
113
0
112
0
93
0
34
0
103
0
142
0
98
0
64
0
68
0
122
0
129
0
117
0
138
0
131
0
80
0
77
0
120
0
134
0
123
0
130
0
121
0
138
0
121
0
63
0
16
0
48
0
55
0
96
0
105
0
108
0
37
0
12
0
1
0
30
0
69
0
65
0
56
0
47
0
52
0
69
0
88
0
98
0
93
0
88
0
85
0
88
0
100
0
106
0
101
0
91
0
92
0
88
0
85
0
83
0
83
0
86
0
90
0
93
0
96
0
84
0
68
0
52
0
35
0
17
0
5
0
3
0
7
0
4
0
0
0
0
0
0
0
1
0
0
0
0
0
0
0
0
0
1
0
1
0
2
0
2
0
2
0
2
0
2
0
1
0
2
0
6
0
20
0
52
0
78
0
86
0
99
0
91
0
86
0
88
0
75
0
45
0
31
0
49
0
91
0
89
0
76
0
71
0
58
0
10
0
34
0
50
0
83
0
83
0
93
0
103
0
110
0
117
0
116
0
107
0
51
0
102
0
117
0
113
0
114
0
117
0
121
0
110
0
124
0
126
0
133
0
89
0
76
0
125
0
134
0
124
0
109
0
123
0
113
0
121
0
123
0
117
0
90
0
54
0
90
0
77
0
72
0
74
0
73
0
71
0
69
0
65
0
26
0
48
0
67
0
69
0
60
0
47
0
35
0
0
0
0
0
0
0
0
0
0
0
0
0
0
0
0
0
0
0
0
0
0
0
0
0
0
0
0
0
0
0
0
0
0
0
0
0
0
0
0
0
0
0
0
0
0
0
0
0
0
0
0
0
0
0
0
0
0
0
0
0
0
0
0
0
0
0
0
0
0
0
0
0
0
0
0
0
0
0
0
0
0
0
0
0
0
0
0
0
0
0
0
0
0
0
0
0
0
0
0
0
0
0
0
0
0
0
0
0
0
0
0
0
0
0
0
0
0
0
0
0
0
0
0
0
0
0
0
0
0
0
0
0
0
0
0
0
0
0
0
0
0
0
0
0
0
0
0
0
0
0
0
0
0
0
0
0
0
0
0
0
0
0
0
0
0
0
0
0
0
0
0
0
0
0
0
0
0
0
0
0
0
0
0
0
0
0
0
0
0
0
0
0
0
0
0
0
0
0
0
0
0
0
0
0
0
0
0
0
0
0
0
0
0
0
0
0
0
0
0
0
0
0
0
0
0
0
0
0
0
0
0
0
0
0
0
0
0
0
0
0
0
0
0
0
0
0
0
0
0
0
0
0
0
0
0
0
0
0
0
0
0
0
0
0
0
0
0
0
0
0
0
0
0
0
0
0
0
0
0
0
0
0
0
0
0
0
0
0
0
0
0
0
0
0
0
0
0
0
0
0
0
0
0
0
0
0
0
0
0
0
0
0
0
0
0
0
0
0
0
0
0
0
0
0
0
0
0
0
0
0
0
0
0
0
0
0
0
0
0
0
0
0
0
0
0
0
0
0
0
0
0
0
0
0
0
0
0
0
0
0
0
0
0
0
0
0
0
0
0
0
0
0
0
0
0
0
0
0
0
0
0
0
0
0
0
0
0
0
0
0
0
0
0
0
0
0
0
0
0
0
0
0
0
0
0
0
0
0
0
0
0
0
0
0
0
0
0
0
0
0
0
0
0
0
0
0
0
0
0
0
0
0
0
0
0
0
0
0
0
0
0
0
0
0
60
0
67
0
71
0
71
0
68
0
61
0
44
0
27
0
36
0
47
0
56
0
58
0
62
0
67
0
61
0
49
0
48
0
26
0
16
0
25
0
22
0
5
0
4
0
5
0
1
0
12
0
4
0
3
0
5
0
4
0
34
0
62
0
79
0
77
0
54
0
33
0
41
0
54
0
34
0
10
0
4
0
24
0
77
0
99
0
103
0
113
0
116
0
124
0
135
0
154
0
171
0
149
0
133
0
75
0
9
0
36
0
49
0
47
0
58
0
58
0
43
0
49
0
67
0
71
0
78
0
87
0
101
0
112
0
118
0
116
0
109
0
104
0
119
0
54
0
100
0
103
0
65
0
95
0
118
0
134
0
138
0
121
0
131
0
137
0
104
0
77
0
103
0
140
0
118
0
130
0
130
0
140
0
123
0
46
0
58
0
80
0
81
0
124
0
112
0
65
0
1
0
2
0
1
0
6
0
31
0
26
0
13
0
3
0
8
0
29
0
55
0
72
0
84
0
96
0
105
0
100
0
91
0
88
0
92
0
96
0
89
0
88
0
89
0
90
0
88
0
80
0
66
0
58
0
37
0
24
0
10
0
2
0
0
0
0
0
0
0
1
0
2
0
0
0
0
0
0
0
0
0
0
0
0
0
0
0
0
0
0
0
0
0
0
0
1
0
1
0
1
0
2
0
4
0
1
0
0
0
14
0
49
0
86
0
93
0
76
0
71
0
90
0
104
0
88
0
44
0
15
0
41
0
88
0
52
0
49
0
45
0
56
0
61
0
28
0
71
0
105
0
109
0
112
0
120
0
122
0
118
0
115
0
109
0
98
0
55
0
106
0
122
0
120
0
120
0
120
0
124
0
114
0
119
0
122
0
117
0
77
0
72
0
117
0
129
0
108
0
128
0
127
0
112
0
137
0
125
0
121
0
65
0
67
0
83
0
78
0
77
0
77
0
76
0
78
0
73
0
60
0
46
0
60
0
71
0
68
0
62
0
55
0
47
0
0
0
0
0
0
0
0
0
0
0
0
0
0
0
0
0
0
0
0
0
0
0
0
0
0
0
0
0
0
0
0
0
0
0
0
0
0
0
0
0
0
0
0
0
0
0
0
0
0
0
0
0
0
0
0
0
0
0
0
0
0
0
0
0
0
0
0
0
0
0
0
0
0
0
0
0
0
0
0
0
0
0
0
0
0
0
0
0
0
0
0
0
0
0
0
0
0
0
0
0
0
0
0
0
0
0
0
0
0
0
0
0
0
0
0
0
0
0
0
0
0
0
0
0
0
0
0
0
0
0
0
0
0
0
0
0
0
0
0
0
0
0
0
0
0
0
0
0
0
0
0
0
0
0
0
0
0
0
0
0
0
0
0
0
0
0
0
0
0
0
0
0
0
0
0
0
0
0
0
0
0
0
0
0
0
0
0
0
0
0
0
0
0
0
0
0
0
0
0
0
0
0
0
0
0
0
0
0
0
0
0
0
0
0
0
0
0
0
0
0
0
0
0
0
0
0
0
0
0
0
0
0
0
0
0
0
0
0
0
0
0
0
0
0
0
0
0
0
0
0
0
0
0
0
0
0
0
0
0
0
0
0
0
0
0
0
0
0
0
0
0
0
0
0
0
0
0
0
0
0
0
0
0
0
0
0
0
0
0
0
0
0
0
0
0
0
0
0
0
0
0
0
0
0
0
0
0
0
0
0
0
0
0
0
0
0
0
0
0
0
0
0
0
0
0
0
0
0
0
0
0
0
0
0
0
0
0
0
0
0
0
0
0
0
0
0
0
0
0
0
0
0
0
0
0
0
0
0
0
0
0
0
0
0
0
0
0
0
0
0
0
0
0
0
0
0
0
0
0
0
0
0
0
0
0
0
0
0
0
0
0
0
0
0
0
0
0
0
0
0
0
0
0
0
0
0
0
0
0
0
0
0
0
0
0
0
0
0
0
0
0
0
0
0
0
0
0
0
0
0
0
0
0
0
0
0
0
0
0
0
0
0
0
0
74
0
71
0
64
0
59
0
60
0
63
0
56
0
44
0
10
0
34
0
52
0
58
0
62
0
68
0
62
0
48
0
57
0
40
0
37
0
52
0
58
0
45
0
37
0
39
0
10
0
25
0
14
0
12
0
27
0
32
0
43
0
43
0
64
0
63
0
45
0
32
0
46
0
56
0
33
0
9
0
12
0
10
0
58
0
85
0
89
0
101
0
111
0
119
0
114
0
145
0
159
0
127
0
104
0
64
0
26
0
58
0
55
0
47
0
41
0
29
0
21
0
37
0
58
0
63
0
92
0
100
0
109
0
111
0
110
0
112
0
113
0
108
0
113
0
80
0
39
0
83
0
113
0
115
0
137
0
120
0
127
0
131
0
132
0
126
0
112
0
89
0
99
0
132
0
130
0
132
0
138
0
145
0
125
0
33
0
92
0
104
0
119
0
121
0
86
0
34
0
1
0
10
0
11
0
2
0
2
0
1
0
0
0
0
0
0
0
1
0
16
0
27
0
69
0
78
0
88
0
90
0
92
0
93
0
92
0
89
0
86
0
83
0
77
0
72
0
62
0
46
0
25
0
9
0
4
0
0
0
1
0
1
0
2
0
2
0
4
0
8
0
1
0
1
0
0
0
0
0
1
0
1
0
1
0
1
0
0
0
0
0
0
0
0
0
0
0
1
0
1
0
1
0
4
0
1
0
6
0
35
0
68
0
92
0
92
0
77
0
96
0
95
0
73
0
41
0
35
0
48
0
52
0
51
0
60
0
65
0
76
0
99
0
103
0
51
0
84
0
110
0
117
0
116
0
117
0
114
0
110
0
110
0
107
0
96
0
64
0
112
0
125
0
121
0
120
0
120
0
124
0
117
0
121
0
125
0
108
0
77
0
85
0
123
0
129
0
111
0
132
0
114
0
112
0
124
0
113
0
93
0
38
0
67
0
81
0
83
0
84
0
80
0
78
0
80
0
71
0
53
0
51
0
62
0
69
0
68
0
65
0
64
0
54
0
0
0
0
0
0
0
0
0
0
0
0
0
0
0
0
0
0
0
0
0
0
0
0
0
0
0
0
0
0
0
0
0
0
0
0
0
0
0
0
0
0
0
0
0
0
0
0
0
0
0
0
0
0
0
0
0
0
0
0
0
0
0
0
0
0
0
0
0
0
0
0
0
0
0
0
0
0
0
0
0
0
0
0
0
0
0
0
0
0
0
0
0
0
0
0
0
0
0
0
0
0
0
0
0
0
0
0
0
0
0
0
0
0
0
0
0
0
0
0
0
0
0
0
0
0
0
0
0
0
0
0
0
0
0
0
0
0
0
0
0
0
0
0
0
0
0
0
0
0
0
0
0
0
0
0
0
0
0
0
0
0
0
0
0
0
0
0
0
0
0
0
0
0
0
0
0
0
0
0
0
0
0
0
0
0
0
0
0
0
0
0
0
0
0
0
0
0
0
0
0
0
0
0
0
0
0
0
0
0
0
0
0
0
0
0
0
0
0
0
0
0
0
0
0
0
0
0
0
0
0
0
0
0
0
0
0
0
0
0
0
0
0
0
0
0
0
0
0
0
0
0
0
0
0
0
0
0
0
0
0
0
0
0
0
0
0
0
0
0
0
0
0
0
0
0
0
0
0
0
0
0
0
0
0
0
0
0
0
0
0
0
0
0
0
0
0
0
0
0
0
0
0
0
0
0
0
0
0
0
0
0
0
0
0
0
0
0
0
0
0
0
0
0
0
0
0
0
0
0
0
0
0
0
0
0
0
0
0
0
0
0
0
0
0
0
0
0
0
0
0
0
0
0
0
0
0
0
0
0
0
0
0
0
0
0
0
0
0
0
0
0
0
0
0
0
0
0
0
0
0
0
0
0
0
0
0
0
0
0
0
0
0
0
0
0
0
0
0
0
0
0
0
0
0
0
0
0
0
0
0
0
0
0
0
0
0
0
0
0
0
0
0
0
0
0
0
0
0
0
0
0
0
0
0
0
0
0
0
0
0
0
0
0
0
79
0
73
0
63
0
56
0
58
0
63
0
59
0
47
0
9
0
39
0
61
0
66
0
67
0
70
0
64
0
53
0
43
0
41
0
41
0
47
0
53
0
58
0
58
0
55
0
36
0
59
0
60
0
51
0
26
0
12
0
47
0
78
0
58
0
53
0
33
0
18
0
34
0
45
0
21
0
4
0
2
0
3
0
34
0
63
0
69
0
80
0
85
0
93
0
98
0
92
0
87
0
97
0
133
0
131
0
68
0
22
0
77
0
68
0
42
0
23
0
29
0
38
0
41
0
45
0
84
0
93
0
111
0
118
0
117
0
120
0
122
0
113
0
106
0
60
0
3
0
69
0
139
0
136
0
137
0
115
0
119
0
133
0
128
0
122
0
119
0
97
0
95
0
129
0
142
0
138
0
148
0
148
0
107
0
38
0
132
0
150
0
181
0
108
0
41
0
1
0
2
0
1
0
9
0
5
0
0
0
2
0
5
0
5
0
3
0
1
0
1
0
4
0
8
0
35
0
61
0
71
0
68
0
70
0
82
0
91
0
64
0
50
0
30
0
14
0
7
0
2
0
1
0
1
0
5
0
2
0
3
0
7
0
9
0
6
0
1
0
1
0
0
0
0
0
0
0
1
0
1
0
1
0
1
0
1
0
0
0
0
0
0
0
0
0
0
0
1
0
1
0
1
0
2
0
1
0
26
0
64
0
81
0
83
0
87
0
91
0
81
0
69
0
36
0
5
0
25
0
51
0
63
0
65
0
101
0
95
0
85
0
95
0
94
0
52
0
96
0
133
0
116
0
112
0
110
0
110
0
113
0
118
0
112
0
94
0
68
0
111
0
119
0
114
0
114
0
116
0
123
0
117
0
120
0
124
0
98
0
80
0
101
0
129
0
134
0
120
0
139
0
113
0
131
0
116
0
116
0
74
0
53
0
86
0
78
0
83
0
85
0
81
0
78
0
81
0
69
0
48
0
58
0
65
0
65
0
61
0
61
0
64
0
58
0
0
0
0
0
0
0
0
0
0
0
0
0
0
0
0
0
0
0
0
0
0
0
0
0
0
0
0
0
0
0
0
0
0
0
0
0
0
0
0
0
0
0
0
0
0
0
0
0
0
0
0
0
0
0
0
0
0
0
0
0
0
0
0
0
0
0
0
0
0
0
0
0
0
0
0
0
0
0
0
0
0
0
0
0
0
0
0
0
0
0
0
0
0
0
0
0
0
0
0
0
0
0
0
0
0
0
0
0
0
0
0
0
0
0
0
0
0
0
0
0
0
0
0
0
0
0
0
0
0
0
0
0
0
0
0
0
0
0
0
0
0
0
0
0
0
0
0
0
0
0
0
0
0
0
0
0
0
0
0
0
0
0
0
0
0
0
0
0
0
0
0
0
0
0
0
0
0
0
0
0
0
0
0
0
0
0
0
0
0
0
0
0
0
0
0
0
0
0
0
0
0
0
0
0
0
0
0
0
0
0
0
0
0
0
0
0
0
0
0
0
0
0
0
0
0
0
0
0
0
0
0
0
0
0
0
0
0
0
0
0
0
0
0
0
0
0
0
0
0
0
0
0
0
0
0
0
0
0
0
0
0
0
0
0
0
0
0
0
0
0
0
0
0
0
0
0
0
0
0
0
0
0
0
0
0
0
0
0
0
0
0
0
0
0
0
0
0
0
0
0
0
0
0
0
0
0
0
0
0
0
0
0
0
0
0
0
0
0
0
0
0
0
0
0
0
0
0
0
0
0
0
0
0
0
0
0
0
0
0
0
0
0
0
0
0
0
0
0
0
0
0
0
0
0
0
0
0
0
0
0
0
0
0
0
0
0
0
0
0
0
0
0
0
0
0
0
0
0
0
0
0
0
0
0
0
0
0
0
0
0
0
0
0
0
0
0
0
0
0
0
0
0
0
0
0
0
0
0
0
0
0
0
0
0
0
0
0
0
0
0
0
0
0
0
0
0
0
0
0
0
0
0
0
0
0
0
0
0
0
0
0
0
0
0
72
0
71
0
67
0
64
0
64
0
62
0
50
0
34
0
25
0
47
0
64
0
67
0
64
0
64
0
59
0
51
0
34
0
51
0
66
0
67
0
66
0
64
0
50
0
33
0
48
0
56
0
57
0
62
0
44
0
26
0
56
0
85
0
74
0
62
0
33
0
14
0
30
0
42
0
21
0
4
0
16
0
10
0
40
0
61
0
69
0
72
0
62
0
64
0
70
0
85
0
118
0
146
0
159
0
149
0
88
0
6
0
64
0
61
0
45
0
42
0
61
0
67
0
60
0
65
0
72
0
83
0
110
0
124
0
114
0
104
0
98
0
85
0
76
0
93
0
126
0
74
0
58
0
125
0
135
0
130
0
124
0
126
0
119
0
129
0
132
0
95
0
88
0
138
0
144
0
143
0
152
0
142
0
75
0
71
0
170
0
188
0
165
0
63
0
5
0
2
0
7
0
0
0
16
0
23
0
5
0
3
0
4
0
6
0
5
0
1
0
0
0
0
0
9
0
4
0
5
0
22
0
47
0
58
0
42
0
21
0
17
0
9
0
1
0
1
0
1
0
1
0
3
0
4
0
1
0
0
0
0
0
1
0
4
0
3
0
3
0
5
0
0
0
0
0
0
0
0
0
0
0
0
0
0
0
0
0
0
0
0
0
0
0
0
0
1
0
1
0
1
0
2
0
0
0
15
0
54
0
86
0
89
0
79
0
82
0
91
0
60
0
25
0
4
0
28
0
65
0
79
0
80
0
85
0
82
0
85
0
88
0
99
0
98
0
51
0
86
0
111
0
112
0
108
0
109
0
113
0
118
0
121
0
103
0
76
0
82
0
119
0
121
0
115
0
117
0
118
0
124
0
118
0
124
0
125
0
88
0
80
0
105
0
113
0
110
0
103
0
107
0
91
0
113
0
86
0
84
0
44
0
58
0
76
0
60
0
62
0
65
0
64
0
63
0
66
0
56
0
34
0
60
0
65
0
63
0
56
0
56
0
60
0
52
0
0
0
0
0
0
0
0
0
0
0
0
0
0
0
0
0
0
0
0
0
0
0
0
0
0
0
0
0
0
0
0
0
0
0
0
0
0
0
0
0
0
0
0
0
0
0
0
0
0
0
0
0
0
0
0
0
0
0
0
0
0
0
0
0
0
0
0
0
0
0
0
0
0
0
0
0
0
0
0
0
0
0
0
0
0
0
0
0
0
0
0
0
0
0
0
0
0
0
0
0
0
0
0
0
0
0
0
0
0
0
0
0
0
0
0
0
0
0
0
0
0
0
0
0
0
0
0
0
0
0
0
0
0
0
0
0
0
0
0
0
0
0
0
0
0
0
0
0
0
0
0
0
0
0
0
0
0
0
0
0
0
0
0
0
0
0
0
0
0
0
0
0
0
0
0
0
0
0
0
0
0
0
0
0
0
0
0
0
0
0
0
0
0
0
0
0
0
0
0
0
0
0
0
0
0
0
0
0
0
0
0
0
0
0
0
0
0
0
0
0
0
0
0
0
0
0
0
0
0
0
0
0
0
0
0
0
0
0
0
0
0
0
0
0
0
0
0
0
0
0
0
0
0
0
0
0
0
0
0
0
0
0
0
0
0
0
0
0
0
0
0
0
0
0
0
0
0
0
0
0
0
0
0
0
0
0
0
0
0
0
0
0
0
0
0
0
0
0
0
0
0
0
0
0
0
0
0
0
0
0
0
0
0
0
0
0
0
0
0
0
0
0
0
0
0
0
0
0
0
0
0
0
0
0
0
0
0
0
0
0
0
0
0
0
0
0
0
0
0
0
0
0
0
0
0
0
0
0
0
0
0
0
0
0
0
0
0
0
0
0
0
0
0
0
0
0
0
0
0
0
0
0
0
0
0
0
0
0
0
0
0
0
0
0
0
0
0
0
0
0
0
0
0
0
0
0
0
0
0
0
0
0
0
0
0
0
0
0
0
0
0
0
0
0
0
0
0
0
0
0
0
0
0
0
0
0
0
0
0
0
0
0
0
0
61
0
65
0
68
0
69
0
69
0
62
0
45
0
28
0
20
0
28
0
36
0
41
0
44
0
46
0
45
0
42
0
43
0
54
0
56
0
51
0
50
0
56
0
54
0
46
0
57
0
64
0
61
0
54
0
24
0
10
0
53
0
95
0
83
0
69
0
42
0
26
0
43
0
54
0
30
0
6
0
1
0
1
0
25
0
54
0
87
0
104
0
98
0
109
0
107
0
109
0
135
0
152
0
144
0
150
0
117
0
21
0
37
0
34
0
45
0
65
0
77
0
86
0
98
0
104
0
76
0
80
0
104
0
113
0
92
0
81
0
84
0
85
0
118
0
120
0
143
0
104
0
54
0
102
0
127
0
135
0
133
0
125
0
120
0
140
0
140
0
94
0
90
0
143
0
143
0
146
0
151
0
125
0
52
0
126
0
186
0
159
0
73
0
8
0
2
0
3
0
16
0
4
0
42
0
53
0
12
0
3
0
0
0
1
0
2
0
0
0
0
0
0
0
6
0
6
0
5
0
5
0
9
0
9
0
2
0
0
0
0
0
0
0
1
0
6
0
9
0
8
0
6
0
4
0
9
0
3
0
0
0
0
0
0
0
0
0
0
0
0
0
0
0
0
0
2
0
2
0
0
0
0
0
0
0
0
0
0
0
0
0
1
0
1
0
2
0
2
0
2
0
2
0
5
0
36
0
76
0
92
0
88
0
82
0
71
0
55
0
31
0
40
0
62
0
83
0
85
0
70
0
71
0
91
0
69
0
79
0
86
0
93
0
93
0
54
0
92
0
116
0
111
0
110
0
112
0
114
0
118
0
116
0
92
0
57
0
98
0
128
0
126
0
117
0
116
0
111
0
109
0
98
0
84
0
84
0
42
0
49
0
78
0
72
0
66
0
69
0
68
0
70
0
75
0
61
0
32
0
18
0
46
0
42
0
45
0
41
0
43
0
44
0
42
0
40
0
31
0
14
0
35
0
50
0
61
0
61
0
62
0
58
0
38
0
0
0
0
0
0
0
0
0
0
0
0
0
0
0
0
0
0
0
0
0
0
0
0
0
0
0
0
0
0
0
0
0
0
0
0
0
0
0
0
0
0
0
0
0
0
0
0
0
0
0
0
0
0
0
0
0
0
0
0
0
0
0
0
0
0
0
0
0
0
0
0
0
0
0
0
0
0
0
0
0
0
0
0
0
0
0
0
0
0
0
0
0
0
0
0
0
0
0
0
0
0
0
0
0
0
0
0
0
0
0
0
0
0
0
0
0
0
0
0
0
0
0
0
0
0
0
0
0
0
0
0
0
0
0
0
0
0
0
0
0
0
0
0
0
0
0
0
0
0
0
0
0
0
0
0
0
0
0
0
0
0
0
0
0
0
0
0
0
0
0
0
0
0
0
0
0
0
0
0
0
0
0
0
0
0
0
0
0
0
0
0
0
0
0
0
0
0
0
0
0
0
0
0
0
0
0
0
0
0
0
0
0
0
0
0
0
0
0
0
0
0
0
0
0
0
0
0
0
0
0
0
0
0
0
0
0
0
0
0
0
0
0
0
0
0
0
0
0
0
0
0
0
0
0
0
0
0
0
0
0
0
0
0
0
0
0
0
0
0
0
0
0
0
0
0
0
0
0
0
0
0
0
0
0
0
0
0
0
0
0
0
0
0
0
0
0
0
0
0
0
0
0
0
0
0
0
0
0
0
0
0
0
0
0
0
0
0
0
0
0
0
0
0
0
0
0
0
0
0
0
0
0
0
0
0
0
0
0
0
0
0
0
0
0
0
0
0
0
0
0
0
0
0
0
0
0
0
0
0
0
0
0
0
0
0
0
0
0
0
0
0
0
0
0
0
0
0
0
0
0
0
0
0
0
0
0
0
0
0
0
0
0
0
0
0
0
0
0
0
0
0
0
0
0
0
0
0
0
0
0
0
0
0
0
0
0
0
0
0
0
0
0
0
0
0
0
0
0
0
0
0
0
0
0
0
0
0
0
0
0
0
0
0
0
53
0
59
0
66
0
68
0
69
0
63
0
48
0
32
0
64
0
55
0
45
0
42
0
41
0
36
0
30
0
26
0
42
0
49
0
55
0
58
0
57
0
52
0
45
0
38
0
53
0
53
0
48
0
47
0
29
0
19
0
50
0
69
0
69
0
61
0
42
0
34
0
53
0
60
0
31
0
2
0
16
0
25
0
35
0
46
0
82
0
99
0
90
0
101
0
115
0
103
0
125
0
145
0
137
0
155
0
137
0
25
0
30
0
19
0
50
0
76
0
70
0
82
0
112
0
117
0
83
0
79
0
95
0
100
0
80
0
79
0
108
0
129
0
131
0
130
0
117
0
134
0
99
0
82
0
131
0
135
0
135
0
132
0
129
0
141
0
139
0
100
0
100
0
141
0
146
0
148
0
148
0
113
0
48
0
173
0
180
0
97
0
17
0
1
0
17
0
3
0
4
0
4
0
61
0
79
0
24
0
12
0
4
0
7
0
10
0
7
0
3
0
3
0
1
0
2
0
3
0
1
0
0
0
1
0
2
0
2
0
3
0
4
0
3
0
2
0
1
0
1
0
0
0
0
0
1
0
1
0
1
0
3
0
8
0
6
0
7
0
8
0
1
0
4
0
7
0
7
0
3
0
1
0
1
0
3
0
1
0
1
0
1
0
2
0
2
0
3
0
3
0
3
0
13
0
54
0
88
0
88
0
84
0
86
0
59
0
12
0
13
0
51
0
82
0
85
0
77
0
74
0
81
0
90
0
85
0
98
0
100
0
104
0
99
0
57
0
91
0
110
0
119
0
119
0
119
0
118
0
117
0
114
0
90
0
57
0
102
0
128
0
121
0
109
0
103
0
92
0
83
0
68
0
79
0
82
0
45
0
69
0
113
0
106
0
107
0
119
0
104
0
126
0
110
0
111
0
53
0
69
0
89
0
70
0
67
0
60
0
59
0
60
0
57
0
50
0
40
0
27
0
39
0
45
0
43
0
35
0
37
0
45
0
41
0
0
0
0
0
0
0
0
0
0
0
0
0
0
0
0
0
0
0
0
0
0
0
0
0
0
0
0
0
0
0
0
0
0
0
0
0
0
0
0
0
0
0
0
0
0
0
0
0
0
0
0
0
0
0
0
0
0
0
0
0
0
0
0
0
0
0
0
0
0
0
0
0
0
0
0
0
0
0
0
0
0
0
0
0
0
0
0
0
0
0
0
0
0
0
0
0
0
0
0
0
0
0
0
0
0
0
0
0
0
0
0
0
0
0
0
0
0
0
0
0
0
0
0
0
0
0
0
0
0
0
0
0
0
0
0
0
0
0
0
0
0
0
0
0
0
0
0
0
0
0
0
0
0
0
0
0
0
0
0
0
0
0
0
0
0
0
0
0
0
0
0
0
0
0
0
0
0
0
0
0
0
0
0
0
0
0
0
0
0
0
0
0
0
0
0
0
0
0
0
0
0
0
0
0
0
0
0
0
0
0
0
0
0
0
0
0
0
0
0
0
0
0
0
0
0
0
0
0
0
0
0
0
0
0
0
0
0
0
0
0
0
0
0
0
0
0
0
0
0
0
0
0
0
0
0
0
0
0
0
0
0
0
0
0
0
0
0
0
0
0
0
0
0
0
0
0
0
0
0
0
0
0
0
0
0
0
0
0
0
0
0
0
0
0
0
0
0
0
0
0
0
0
0
0
0
0
0
0
0
0
0
0
0
0
0
0
0
0
0
0
0
0
0
0
0
0
0
0
0
0
0
0
0
0
0
0
0
0
0
0
0
0
0
0
0
0
0
0
0
0
0
0
0
0
0
0
0
0
0
0
0
0
0
0
0
0
0
0
0
0
0
0
0
0
0
0
0
0
0
0
0
0
0
0
0
0
0
0
0
0
0
0
0
0
0
0
0
0
0
0
0
0
0
0
0
0
0
0
0
0
0
0
0
0
0
0
0
0
0
0
0
0
0
0
0
0
0
0
0
0
0
0
0
0
0
0
0
0
0
0
0
0
0
0
58
0
45
0
60
0
80
0
65
0
40
0
32
0
35
0
56
0
63
0
67
0
57
0
61
0
51
0
24
0
31
0
38
0
27
0
30
0
28
0
26
0
22
0
15
0
39
0
39
0
35
0
39
0
52
0
26
0
16
0
66
0
82
0
62
0
58
0
33
0
37
0
65
0
60
0
30
0
10
0
6
0
37
0
67
0
39
0
40
0
84
0
98
0
94
0
121
0
129
0
121
0
137
0
165
0
131
0
80
0
78
0
49
0
13
0
18
0
51
0
109
0
85
0
118
0
133
0
108
0
76
0
39
0
56
0
106
0
118
0
116
0
134
0
129
0
126
0
144
0
118
0
116
0
64
0
125
0
123
0
123
0
124
0
128
0
147
0
140
0
70
0
105
0
150
0
143
0
116
0
87
0
28
0
83
0
147
0
78
0
37
0
0
0
0
0
1
0
0
0
2
0
24
0
56
0
77
0
32
0
11
0
1
0
4
0
5
0
0
0
0
0
9
0
0
0
0
0
0
0
2
0
3
0
4
0
4
0
3
0
7
0
2
0
3
0
2
255
255
255
255
255
251
255
252
255
254
255
247
255
246
255
252
255
253
255
254
255
253
255
249
255
241
255
252
255
255
255
251
255
245
255
255
255
255
255
250
255
252
255
255
255
251
255
251
255
254
255
254
255
248
255
255
255
216
255
189
255
169
255
165
255
176
255
211
255
230
255
222
255
213
255
193
255
180
255
180
255
179
255
178
255
176
255
172
255
162
255
170
255
158
255
155
255
152
255
223
255
148
255
137
255
126
255
137
255
138
255
142
255
138
255
147
255
181
255
194
255
163
255
172
255
183
255
190
255
186
255
175
255
160
255
150
255
128
255
141
255
170
255
186
255
126
255
121
255
129
0
128
0
126
0
120
0
130
0
115
0
59
0
58
0
96
0
78
0
82
0
76
0
75
0
72
0
81
0
76
0
48
0
46
0
69
0
62
0
42
0
53
0
52
0
14
0
22
0
0
0
0
0
0
0
0
0
0
0
0
0
0
0
0
0
0
0
0
0
0
0
0
0
0
0
0
0
0
0
0
0
0
0
0
0
0
0
0
0
0
0
0
0
0
0
0
0
0
0
0
0
0
0
0
0
0
0
0
0
0
0
0
0
0
0
0
0
0
0
0
0
0
0
0
0
0
0
0
0
0
0
0
0
0
0
0
0
0
0
0
0
0
0
0
0
0
0
0
0
0
0
0
0
0
0
0
0
0
0
0
0
0
0
0
0
0
0
0
0
0
0
0
0
0
0
0
0
0
0
0
0
0
0
0
0
0
0
0
0
0
0
0
0
0
0
0
0
0
0
0
0
0
0
0
0
0
0
0
0
0
0
0
0
0
0
0
0
0
0
0
0
0
0
0
0
0
0
0
0
0
0
0
0
0
0
0
0
0
0
0
0
0
0
0
0
0
0
0
0
0
0
0
0
0
0
0
0
0
0
0
0
0
0
0
0
0
0
0
0
0
0
0
0
0
0
0
0
0
0
0
0
0
0
0
0
0
0
0
0
0
0
0
0
0
0
255
255
255
255
255
255
255
255
255
255
255
255
255
255
255
255
255
255
255
255
255
255
255
255
255
255
255
255
255
255
255
255
255
255
255
255
255
255
255
255
255
255
255
255
255
255
255
255
255
255
255
255
255
255
255
255
255
255
255
255
255
255
255
255
255
255
255
255
255
255
255
255
255
255
255
255
255
255
255
255
255
255
255
255
255
255
255
255
255
255
255
255
255
255
255
255
255
255
255
255
255
255
255
255
255
255
255
255
255
255
255
255
255
255
255
255
255
255
255
255
255
255
255
255
255
255
255
255
255
255
255
255
255
255
255
255
255
255
255
255
255
255
255
255
255
255
255
255
255
255
0
0
0
0
0
0
0
0
0
0
0
0
0
0
0
0
0
0
0
0
0
0
0
0
0
0
0
0
0
0
0
0
0
0
0
0
0
0
0
0
0
0
0
0
0
0
0
0
47
0
42
0
50
0
58
0
49
0
34
0
33
0
43
0
77
0
77
0
78
0
70
0
71
0
61
0
42
0
50
0
69
0
61
0
63
0
56
0
51
0
42
0
34
0
52
0
58
0
61
0
64
0
62
0
26
0
13
0
61
0
76
0
62
0
56
0
34
0
37
0
66
0
59
0
26
0
3
0
6
0
44
0
80
0
52
0
25
0
47
0
80
0
114
0
105
0
112
0
104
0
107
0
122
0
112
0
101
0
118
0
77
0
68
0
44
0
13
0
80
0
111
0
127
0
112
0
88
0
72
0
49
0
57
0
102
0
136
0
134
0
124
0
125
0
124
0
135
0
114
0
112
0
60
0
124
0
140
0
126
0
138
0
149
0
151
0
132
0
72
0
113
0
142
0
107
0
106
0
108
0
56
0
67
0
82
0
14
0
1
0
8
0
8
0
5
0
3
0
7
0
18
0
27
0
29
0
9
0
0
0
0
0
3
0
4
0
0
0
0
0
0
0
7
0
6
0
3
0
0
0
0
0
0
0
0
0
0
0
0
0
0
0
0
0
2
255
253
255
253
255
255
255
255
255
254
255
244
255
250
255
254
255
245
255
253
255
254
255
254
255
255
255
251
255
251
255
251
255
250
255
255
255
255
255
250
255
253
255
255
255
255
255
252
255
253
255
254
255
253
255
250
255
208
255
174
255
164
255
185
255
208
255
221
255
217
255
203
255
215
255
196
255
183
255
181
255
179
255
176
255
173
255
167
255
159
255
170
255
154
255
148
255
147
255
198
255
138
255
143
255
142
255
148
255
145
255
151
255
153
255
168
255
204
255
217
255
185
255
178
255
166
255
153
255
142
255
135
255
133
255
132
255
129
255
137
255
166
255
186
255
131
255
123
255
128
0
127
0
127
0
123
0
124
0
107
0
58
0
55
0
90
0
79
0
81
0
75
0
75
0
71
0
79
0
73
0
45
0
44
0
65
0
66
0
68
0
64
0
32
0
19
0
51
0
0
0
0
0
0
0
0
0
0
0
0
0
0
0
0
0
0
0
0
0
0
0
0
0
0
0
0
0
0
0
0
0
0
0
0
0
0
0
0
0
0
0
0
0
0
0
0
0
0
0
0
0
0
0
0
0
0
0
0
0
0
0
0
0
0
0
0
0
0
0
0
0
0
0
0
0
0
0
0
0
0
0
0
0
0
0
0
0
0
0
0
0
0
0
0
0
0
0
0
0
0
0
0
0
0
0
0
0
0
0
0
0
0
0
0
0
0
0
0
0
0
0
0
0
0
0
0
0
0
0
0
0
0
0
0
0
0
0
0
0
0
0
0
0
0
0
0
0
0
0
0
0
0
0
0
0
0
0
0
0
0
0
0
0
0
0
0
0
0
0
0
0
0
0
0
0
0
0
0
0
0
0
0
0
0
0
0
0
0
0
0
0
0
0
0
0
0
0
0
0
0
0
0
0
0
0
0
0
0
0
0
0
0
0
0
0
0
0
0
0
0
0
0
0
0
0
0
0
0
0
0
0
0
0
0
0
0
0
0
0
0
0
0
0
0
0
255
255
255
255
255
255
255
255
255
255
255
255
255
255
255
255
255
255
255
255
255
255
255
255
255
255
255
255
255
255
255
255
255
255
255
255
255
255
255
255
255
255
255
255
255
255
255
255
255
255
255
255
255
255
255
255
255
255
255
255
255
255
255
255
255
255
255
255
255
255
255
255
255
255
255
255
255
255
255
255
255
255
255
255
255
255
255
255
255
255
255
255
255
255
255
255
255
255
255
255
255
255
255
255
255
255
255
255
255
255
255
255
255
255
255
255
255
255
255
255
255
255
255
255
255
255
255
255
255
255
255
255
255
255
255
255
255
255
255
255
255
255
255
255
255
255
255
255
255
255
0
0
0
0
0
0
0
0
0
0
0
0
0
0
0
0
0
0
0
0
0
0
0
0
0
0
0
0
0
0
0
0
0
0
0
0
0
0
0
0
0
0
0
0
0
0
0
0
47
0
50
0
39
0
30
0
30
0
28
0
38
0
63
0
56
0
56
0
65
0
66
0
69
0
55
0
32
0
42
0
70
0
63
0
67
0
60
0
52
0
42
0
30
0
47
0
58
0
67
0
70
0
58
0
23
0
20
0
62
0
71
0
59
0
50
0
39
0
45
0
66
0
60
0
32
0
13
0
0
0
44
0
89
0
75
0
50
0
29
0
36
0
83
0
77
0
85
0
90
0
98
0
109
0
117
0
122
0
129
0
105
0
103
0
74
0
7
0
65
0
124
0
111
0
83
0
70
0
83
0
96
0
82
0
80
0
118
0
141
0
125
0
127
0
130
0
139
0
128
0
123
0
60
0
110
0
136
0
136
0
140
0
147
0
142
0
114
0
65
0
91
0
85
0
116
0
119
0
115
0
53
0
29
0
22
0
3
0
6
0
6
0
5
0
2
0
1
0
1
0
4
0
6
0
6
0
2
0
3
0
2
0
3
0
6
0
8
0
9
0
9
0
3
0
2
0
1
0
1
0
3
0
5
0
7
0
8
0
10
0
6
0
3
0
1
255
254
255
254
255
255
255
255
255
255
255
247
255
255
255
255
255
246
255
253
255
255
255
246
255
249
255
227
255
222
255
241
255
253
255
254
255
253
255
253
255
255
255
254
255
255
255
255
255
248
255
253
255
252
255
235
255
184
255
164
255
176
255
216
255
233
255
219
255
202
255
192
255
214
255
195
255
183
255
181
255
179
255
174
255
170
255
165
255
137
255
158
255
151
255
161
255
179
255
198
255
134
255
140
255
150
255
166
255
175
255
188
255
185
255
180
255
188
255
179
255
140
255
137
255
133
255
129
255
129
255
131
255
134
255
137
255
127
255
127
255
156
255
185
255
133
255
122
255
123
0
128
0
128
0
124
0
114
0
94
0
55
0
51
0
82
0
80
0
78
0
75
0
76
0
71
0
76
0
68
0
42
0
43
0
70
0
66
0
79
0
66
0
28
0
43
0
78
0
0
0
0
0
0
0
0
0
0
0
0
0
0
0
0
0
0
0
0
0
0
0
0
0
0
0
0
0
0
0
0
0
0
0
0
0
0
0
0
0
0
0
0
0
0
0
0
0
0
0
0
0
0
0
0
0
0
0
0
0
0
0
0
0
0
0
0
0
0
0
0
0
0
0
0
0
0
0
0
0
0
0
0
0
0
0
0
0
0
0
0
0
0
0
0
0
0
0
0
0
0
0
0
0
0
0
0
0
0
0
0
0
0
0
0
0
0
0
0
0
0
0
0
0
0
0
0
0
0
0
0
0
0
0
0
0
0
0
0
0
0
0
0
0
0
0
0
0
0
0
0
0
0
0
0
0
0
0
0
0
0
0
0
0
0
0
0
0
0
0
0
0
0
0
0
0
0
0
0
0
0
0
0
0
0
0
0
0
0
0
0
0
0
0
0
0
0
0
0
0
0
0
0
0
0
0
0
0
0
0
0
0
0
0
0
0
0
0
0
0
0
0
0
0
0
0
0
0
0
0
0
0
0
0
0
0
0
0
0
0
0
0
0
0
0
0
255
255
255
255
255
255
255
255
255
255
255
255
255
255
255
255
255
255
255
255
255
255
255
255
255
255
255
255
255
255
255
255
255
255
255
255
255
255
255
255
255
255
255
255
255
255
255
255
255
255
255
255
255
255
255
255
255
255
255
255
255
255
255
255
255
255
255
255
255
255
255
255
255
255
255
255
255
255
255
255
255
255
255
255
255
255
255
255
255
255
255
255
255
255
255
255
255
255
255
255
255
255
255
255
255
255
255
255
255
255
255
255
255
255
255
255
255
255
255
255
255
255
255
255
255
255
255
255
255
255
255
255
255
255
255
255
255
255
255
255
255
255
255
255
255
255
255
255
255
255
0
0
0
0
0
0
0
0
0
0
0
0
0
0
0
0
0
0
0
0
0
0
0
0
0
0
0
0
0
0
0
0
0
0
0
0
0
0
0
0
0
0
0
0
0
0
0
0
66
0
71
0
46
0
23
0
25
0
26
0
28
0
52
0
67
0
56
0
59
0
59
0
63
0
58
0
49
0
67
0
63
0
57
0
62
0
59
0
58
0
51
0
33
0
46
0
52
0
59
0
59
0
41
0
13
0
20
0
45
0
44
0
45
0
35
0
33
0
46
0
61
0
55
0
29
0
8
0
10
0
43
0
81
0
88
0
85
0
44
0
11
0
55
0
75
0
74
0
86
0
104
0
123
0
143
0
142
0
122
0
111
0
86
0
83
0
41
0
55
0
90
0
76
0
81
0
82
0
108
0
138
0
119
0
69
0
84
0
128
0
135
0
129
0
135
0
137
0
138
0
130
0
72
0
111
0
144
0
154
0
148
0
141
0
113
0
66
0
34
0
108
0
128
0
146
0
133
0
93
0
20
0
3
0
6
0
2
0
21
0
2
0
2
0
1
0
1
0
1
0
10
0
25
0
34
0
57
0
54
0
37
0
13
0
0
0
1
0
1
0
1
0
3
0
2
0
1
0
0
0
0
0
0
0
0
0
0
0
0
0
0
0
0
0
0
255
255
255
253
255
249
255
243
255
255
255
255
255
255
255
255
255
254
255
247
255
232
255
220
255
214
255
183
255
186
255
228
255
254
255
253
255
252
255
255
255
255
255
250
255
255
255
255
255
247
255
253
255
249
255
208
255
162
255
174
255
206
255
231
255
222
255
203
255
195
255
198
255
209
255
191
255
180
255
179
255
176
255
172
255
170
255
165
255
161
255
170
255
147
255
159
255
200
255
195
255
148
255
160
255
189
255
184
255
165
255
156
255
144
255
145
255
175
255
185
255
120
255
123
255
127
255
131
255
132
255
130
255
126
255
123
255
122
255
116
255
142
255
179
255
131
255
116
255
116
0
133
0
127
0
122
0
103
0
83
0
52
0
47
0
76
0
81
0
78
0
75
0
78
0
73
0
75
0
63
0
40
0
46
0
81
0
60
0
63
0
52
0
42
0
69
0
72
0
0
0
0
0
0
0
0
0
0
0
0
0
0
0
0
0
0
0
0
0
0
0
0
0
0
0
0
0
0
0
0
0
0
0
0
0
0
0
0
0
0
0
0
0
0
0
0
0
0
0
0
0
0
0
0
0
0
0
0
0
0
0
0
0
0
0
0
0
0
0
0
0
0
0
0
0
0
0
0
0
0
0
0
0
0
0
0
0
0
0
0
0
0
0
0
0
0
0
0
0
0
0
0
0
0
0
0
0
0
0
0
0
0
0
0
0
0
0
0
0
0
0
0
0
0
0
0
0
0
0
0
0
0
0
0
0
0
0
0
0
0
0
0
0
0
0
0
0
0
0
0
0
0
0
0
0
0
0
0
0
0
0
0
0
0
0
0
0
0
0
0
0
0
0
0
0
0
0
0
0
0
0
0
0
0
0
0
0
0
0
0
0
0
0
0
0
0
0
0
0
0
0
0
0
0
0
0
0
0
0
0
0
0
0
0
0
0
0
0
0
0
0
0
0
0
0
0
0
0
0
0
0
0
0
0
0
0
0
0
0
0
0
0
0
0
0
255
255
255
255
255
255
255
255
255
255
255
255
255
255
255
255
255
255
255
255
255
255
255
255
255
255
255
255
255
255
255
255
255
255
255
255
255
255
255
255
255
255
255
255
255
255
255
255
255
255
255
255
255
255
255
255
255
255
255
255
255
255
255
255
255
255
255
255
255
255
255
255
255
255
255
255
255
255
255
255
255
255
255
255
255
255
255
255
255
255
255
255
255
255
255
255
255
255
255
255
255
255
255
255
255
255
255
255
255
255
255
255
255
255
255
255
255
255
255
255
255
255
255
255
255
255
255
255
255
255
255
255
255
255
255
255
255
255
255
255
255
255
255
255
255
255
255
255
255
255
0
0
0
0
0
0
0
0
0
0
0
0
0
0
0
0
0
0
0
0
0
0
0
0
0
0
0
0
0
0
0
0
0
0
0
0
0
0
0
0
0
0
0
0
0
0
0
0
60
0
69
0
48
0
27
0
34
0
27
0
8
0
13
0
40
0
34
0
45
0
51
0
52
0
44
0
29
0
38
0
68
0
60
0
64
0
67
0
73
0
70
0
48
0
49
0
72
0
71
0
68
0
48
0
35
0
47
0
49
0
42
0
35
0
23
0
32
0
52
0
58
0
54
0
35
0
8
0
17
0
39
0
62
0
72
0
83
0
51
0
21
0
69
0
96
0
88
0
94
0
107
0
125
0
149
0
152
0
129
0
105
0
52
0
79
0
74
0
33
0
42
0
58
0
99
0
131
0
126
0
141
0
132
0
85
0
75
0
110
0
133
0
125
0
131
0
125
0
131
0
121
0
85
0
124
0
158
0
137
0
106
0
94
0
96
0
80
0
57
0
128
0
148
0
140
0
127
0
73
0
6
0
0
0
12
0
3
0
2
0
7
0
7
0
4
0
6
0
20
0
38
0
52
0
56
0
66
0
63
0
42
0
13
0
0
0
1
0
1
0
1
0
2
0
2
0
3
0
3
0
3
0
3
0
2
0
2
0
0
0
2
0
3
0
3
255
248
255
253
255
255
255
253
255
254
255
255
255
245
255
237
255
247
255
222
255
189
255
191
255
179
255
155
255
171
255
224
255
254
255
254
255
252
255
255
255
255
255
249
255
254
255
254
255
251
255
253
255
241
255
189
255
175
255
205
255
227
255
218
255
201
255
192
255
194
255
199
255
208
255
190
255
180
255
177
255
173
255
169
255
167
255
163
255
145
255
157
255
150
255
175
255
229
255
201
255
174
255
184
255
152
255
152
255
144
255
142
255
132
255
133
255
166
255
181
255
135
255
133
255
132
255
129
255
126
255
124
255
122
255
121
255
121
255
111
255
137
255
175
255
131
255
115
255
114
0
133
0
123
0
115
0
95
0
79
0
49
0
44
0
74
0
81
0
78
0
77
0
81
0
75
0
73
0
60
0
40
0
52
0
77
0
61
0
54
0
36
0
45
0
68
0
49
0
0
0
0
0
0
0
0
0
0
0
0
0
0
0
0
0
0
0
0
0
0
0
0
0
0
0
0
0
0
0
0
0
0
0
0
0
0
0
0
0
0
0
0
0
0
0
0
0
0
0
0
0
0
0
0
0
0
0
0
0
0
0
0
0
0
0
0
0
0
0
0
0
0
0
0
0
0
0
0
0
0
0
0
0
0
0
0
0
0
0
0
0
0
0
0
0
0
0
0
0
0
0
0
0
0
0
0
0
0
0
0
0
0
0
0
0
0
0
0
0
0
0
0
0
0
0
0
0
0
0
0
0
0
0
0
0
0
0
0
0
0
0
0
0
0
0
0
0
0
0
0
0
0
0
0
0
0
0
0
0
0
0
0
0
0
0
0
0
0
0
0
0
0
0
0
0
0
0
0
0
0
0
0
0
0
0
0
0
0
0
0
0
0
0
0
0
0
0
0
0
0
0
0
0
0
0
0
0
0
0
0
0
0
0
0
0
0
0
0
0
0
0
0
0
0
0
0
0
0
0
0
0
0
0
0
0
0
0
0
0
0
0
0
0
0
0
255
255
255
255
255
255
255
255
255
255
255
255
255
255
255
255
255
255
255
255
255
255
255
255
255
255
255
255
255
255
255
255
255
255
255
255
255
255
255
255
255
255
255
255
255
255
255
255
255
255
255
255
255
255
255
255
255
255
255
255
255
255
255
255
255
255
255
255
255
255
255
255
255
255
255
255
255
255
255
255
255
255
255
255
255
255
255
255
255
255
255
255
255
255
255
255
255
255
255
255
255
255
255
255
255
255
255
255
255
255
255
255
255
255
255
255
255
255
255
255
255
255
255
255
255
255
255
255
255
255
255
255
255
255
255
255
255
255
255
255
255
255
255
255
255
255
255
255
255
255
0
0
0
0
0
0
0
0
0
0
0
0
0
0
0
0
0
0
0
0
0
0
0
0
0
0
0
0
0
0
0
0
0
0
0
0
0
0
0
0
0
0
0
0
0
0
0
0
52
0
46
0
18
0
10
0
18
0
34
0
44
0
55
0
50
0
36
0
38
0
29
0
24
0
26
0
20
0
30
0
48
0
38
0
38
0
38
0
46
0
46
0
26
0
26
0
29
0
22
0
26
0
10
0
13
0
35
0
28
0
23
0
23
0
8
0
17
0
38
0
40
0
37
0
29
0
12
0
6
0
22
0
41
0
41
0
44
0
29
0
18
0
52
0
93
0
94
0
104
0
111
0
119
0
133
0
138
0
127
0
82
0
49
0
87
0
98
0
28
0
41
0
68
0
95
0
136
0
128
0
128
0
132
0
108
0
82
0
95
0
132
0
120
0
134
0
132
0
136
0
105
0
81
0
111
0
121
0
80
0
84
0
110
0
135
0
113
0
56
0
104
0
135
0
131
0
125
0
64
0
3
0
1
0
14
0
8
0
1
0
13
0
2
0
0
0
5
0
28
0
44
0
39
0
26
0
15
0
17
0
12
0
3
0
2
0
8
0
10
0
6
0
1
0
0
0
0
0
0
0
0
0
0
0
1
0
3
0
2
0
7
0
0
0
0
255
249
255
253
255
255
255
255
255
254
255
249
255
224
255
219
255
224
255
190
255
162
255
174
255
166
255
161
255
188
255
235
255
255
255
253
255
251
255
254
255
254
255
250
255
253
255
255
255
254
255
254
255
231
255
190
255
212
255
228
255
220
255
197
255
190
255
193
255
195
255
194
255
210
255
192
255
180
255
178
255
172
255
169
255
168
255
165
255
161
255
180
255
185
255
204
255
236
255
162
255
142
255
140
255
130
255
133
255
130
255
133
255
126
255
129
255
164
255
182
255
129
255
129
255
129
255
128
255
128
255
129
255
128
255
129
255
122
255
114
255
139
255
174
255
130
255
117
255
119
0
130
0
117
0
103
0
91
0
81
0
47
0
42
0
75
0
81
0
78
0
77
0
82
0
74
0
70
0
56
0
41
0
58
0
65
0
69
0
64
0
28
0
36
0
55
0
39
0
0
0
0
0
0
0
0
0
0
0
0
0
0
0
0
0
0
0
0
0
0
0
0
0
0
0
0
0
0
0
0
0
0
0
0
0
0
0
0
0
0
0
0
0
0
0
0
0
0
0
0
0
0
0
0
0
0
0
0
0
0
0
0
0
0
0
0
0
0
0
0
0
0
0
0
0
0
0
0
0
0
0
0
0
0
0
0
0
0
0
0
0
0
0
0
0
0
0
0
0
0
0
0
0
0
0
0
0
0
0
0
0
0
0
0
0
0
0
0
0
0
0
0
0
0
0
0
0
0
0
0
0
0
0
0
0
0
0
0
0
0
0
0
0
0
0
0
0
0
0
0
0
0
0
0
0
0
0
0
0
0
0
0
0
0
0
0
0
0
0
0
0
0
0
0
0
0
0
0
0
0
0
0
0
0
0
0
0
0
0
0
0
0
0
0
0
0
0
0
0
0
0
0
0
0
0
0
0
0
0
0
0
0
0
0
0
0
0
0
0
0
0
0
0
0
0
0
0
0
0
0
0
0
0
0
0
0
0
0
0
0
0
0
0
0
0
255
255
255
255
255
255
255
255
255
255
255
255
255
255
255
255
255
255
255
255
255
255
255
255
255
255
255
255
255
255
255
255
255
255
255
255
255
255
255
255
255
255
255
255
255
255
255
255
255
255
255
255
255
255
255
255
255
255
255
255
255
255
255
255
255
255
255
255
255
255
255
255
255
255
255
255
255
255
255
255
255
255
255
255
255
255
255
255
255
255
255
255
255
255
255
255
255
255
255
255
255
255
255
255
255
255
255
255
255
255
255
255
255
255
255
255
255
255
255
255
255
255
255
255
255
255
255
255
255
255
255
255
255
255
255
255
255
255
255
255
255
255
255
255
255
255
255
255
255
255
0
0
0
0
0
0
0
0
0
0
0
0
0
0
0
0
0
0
0
0
0
0
0
0
0
0
0
0
0
0
0
0
0
0
0
0
0
0
0
0
0
0
0
0
0
0
0
0
10
0
20
0
38
0
56
0
70
0
76
0
71
0
64
0
78
0
72
0
78
0
65
0
56
0
59
0
48
0
44
0
31
0
20
0
18
0
8
0
11
0
15
0
3
0
12
0
30
0
25
0
37
0
21
0
25
0
50
0
47
0
56
0
30
0
10
0
16
0
34
0
33
0
32
0
33
0
17
0
18
0
31
0
57
0
64
0
63
0
49
0
17
0
17
0
67
0
79
0
92
0
102
0
110
0
110
0
109
0
108
0
83
0
77
0
91
0
102
0
38
0
73
0
96
0
85
0
105
0
123
0
124
0
124
0
122
0
91
0
85
0
126
0
124
0
141
0
142
0
135
0
74
0
68
0
100
0
97
0
127
0
123
0
124
0
137
0
131
0
76
0
108
0
134
0
136
0
119
0
49
0
3
0
2
0
4
0
11
0
3
0
3
0
1
0
1
0
1
0
12
0
19
0
9
0
2
0
6
0
5
0
3
0
3
0
5
0
4
0
0
0
0
0
5
0
2
0
0
0
0
0
7
0
20
0
34
0
43
0
51
0
54
0
43
0
46
255
191
255
202
255
233
255
245
255
244
255
217
255
218
255
231
255
209
255
173
255
161
255
166
255
171
255
185
255
219
255
250
255
255
255
251
255
253
255
254
255
252
255
253
255
254
255
254
255
254
255
247
255
226
255
209
255
225
255
221
255
202
255
188
255
193
255
196
255
196
255
199
255
208
255
190
255
180
255
177
255
174
255
173
255
176
255
176
255
190
255
183
255
171
255
176
255
206
255
134
255
145
255
136
255
140
255
138
255
130
255
132
255
126
255
130
255
165
255
183
255
132
255
132
255
133
255
132
255
129
255
124
255
119
255
116
255
121
255
117
255
141
255
172
255
125
255
118
255
121
0
131
0
111
0
91
0
90
0
87
0
46
0
41
0
80
0
80
0
77
0
76
0
81
0
72
0
65
0
51
0
40
0
62
0
63
0
73
0
73
0
29
0
39
0
71
0
55
0
0
0
0
0
0
0
0
0
0
0
0
0
0
0
0
0
0
0
0
0
0
0
0
0
0
0
0
0
0
0
0
0
0
0
0
0
0
0
0
0
0
0
0
0
0
0
0
0
0
0
0
0
0
0
0
0
0
0
0
0
0
0
0
0
0
0
0
0
0
0
0
0
0
0
0
0
0
0
0
0
0
0
0
0
0
0
0
0
0
0
0
0
0
0
0
0
0
0
0
0
0
0
0
0
0
0
0
0
0
0
0
0
0
0
0
0
0
0
0
0
0
0
0
0
0
0
0
0
0
0
0
0
0
0
0
0
0
0
0
0
0
0
0
0
0
0
0
0
0
0
0
0
0
0
0
0
0
0
0
0
0
0
0
0
0
0
0
0
0
0
0
0
0
0
0
0
0
0
0
0
0
0
0
0
0
0
0
0
0
0
0
0
0
0
0
0
0
0
0
0
0
0
0
0
0
0
0
0
0
0
0
0
0
0
0
0
0
0
0
0
0
0
0
0
0
0
0
0
0
0
0
0
0
0
0
0
0
0
0
0
0
0
0
0
0
0
255
255
255
255
255
255
255
255
255
255
255
255
255
255
255
255
255
255
255
255
255
255
255
255
255
255
255
255
255
255
255
255
255
255
255
255
255
255
255
255
255
255
255
255
255
255
255
255
255
255
255
255
255
255
255
255
255
255
255
255
255
255
255
255
255
255
255
255
255
255
255
255
255
255
255
255
255
255
255
255
255
255
255
255
255
255
255
255
255
255
255
255
255
255
255
255
255
255
255
255
255
255
255
255
255
255
255
255
255
255
255
255
255
255
255
255
255
255
255
255
255
255
255
255
255
255
255
255
255
255
255
255
255
255
255
255
255
255
255
255
255
255
255
255
255
255
255
255
255
255
0
0
0
0
0
0
0
0
0
0
0
0
0
0
0
0
0
0
0
0
0
0
0
0
0
0
0
0
0
0
0
0
0
0
0
0
0
0
0
0
0
0
0
0
0
0
0
0
49
0
52
0
72
0
89
0
88
0
88
0
86
0
75
0
79
0
74
0
76
0
57
0
48
0
57
0
51
0
44
0
45
0
36
0
32
0
17
0
16
0
22
0
18
0
33
0
89
0
83
0
92
0
67
0
58
0
72
0
72
0
92
0
83
0
54
0
63
0
78
0
66
0
71
0
83
0
66
0
82
0
75
0
86
0
83
0
83
0
78
0
38
0
4
0
58
0
64
0
66
0
75
0
91
0
93
0
91
0
99
0
118
0
112
0
83
0
86
0
47
0
98
0
124
0
94
0
72
0
117
0
119
0
114
0
130
0
109
0
82
0
112
0
133
0
142
0
134
0
109
0
37
0
60
0
123
0
124
0
126
0
139
0
136
0
138
0
128
0
75
0
108
0
139
0
131
0
102
0
26
0
3
0
6
0
1
0
7
0
4
0
1
0
4
0
7
0
2
0
1
0
0
0
0
0
3
0
6
0
0
0
1
0
5
0
10
0
12
0
10
0
8
0
0
0
0
0
14
0
42
0
82
0
128
0
170
0
195
0
190
0
196
0
188
0
189
255
64
255
120
255
209
255
255
255
230
255
191
255
223
255
252
255
211
255
170
255
171
255
163
255
175
255
202
255
241
255
254
255
251
255
249
255
254
255
254
255
248
255
254
255
255
255
253
255
254
255
241
255
226
255
230
255
213
255
206
255
192
255
189
255
197
255
195
255
196
255
212
255
202
255
185
255
176
255
178
255
177
255
180
255
188
255
189
255
189
255
163
255
146
255
158
255
206
255
137
255
157
255
130
255
142
255
139
255
132
255
139
255
138
255
141
255
171
255
183
255
138
255
135
255
128
255
123
255
120
255
120
255
123
255
124
255
117
255
116
255
141
255
167
255
120
255
116
255
121
0
133
0
107
0
84
0
90
0
92
0
46
0
41
0
83
0
80
0
75
0
74
0
79
0
69
0
61
0
48
0
40
0
64
0
71
0
70
0
71
0
31
0
54
0
106
0
76
0
0
0
0
0
0
0
0
0
0
0
0
0
0
0
0
0
0
0
0
0
0
0
0
0
0
0
0
0
0
0
0
0
0
0
0
0
0
0
0
0
0
0
0
0
0
0
0
0
0
0
0
0
0
0
0
0
0
0
0
0
0
0
0
0
0
0
0
0
0
0
0
0
0
0
0
0
0
0
0
0
0
0
0
0
0
0
0
0
0
0
0
0
0
0
0
0
0
0
0
0
0
0
0
0
0
0
0
0
0
0
0
0
0
0
0
0
0
0
0
0
0
0
0
0
0
0
0
0
0
0
0
0
0
0
0
0
0
0
0
0
0
0
0
0
0
0
0
0
0
0
0
0
0
0
0
0
0
0
0
0
0
0
0
0
0
0
0
0
0
0
0
0
0
0
0
0
0
0
0
0
0
0
0
0
0
0
0
0
0
0
0
0
0
0
0
0
0
0
0
0
0
0
0
0
0
0
0
0
0
0
0
0
0
0
0
0
0
0
0
0
0
0
0
0
0
0
0
0
0
0
0
0
0
0
0
0
0
0
0
0
0
0
0
0
0
0
255
255
255
255
255
255
255
255
255
255
255
255
255
255
255
255
255
255
255
255
255
255
255
255
255
255
255
255
255
255
255
255
255
255
255
255
255
255
255
255
255
255
255
255
255
255
255
255
255
255
255
255
255
255
255
255
255
255
255
255
255
255
255
255
255
255
255
255
255
255
255
255
255
255
255
255
255
255
255
255
255
255
255
255
255
255
255
255
255
255
255
255
255
255
255
255
255
255
255
255
255
255
255
255
255
255
255
255
255
255
255
255
255
255
255
255
255
255
255
255
255
255
255
255
255
255
255
255
255
255
255
255
255
255
255
255
255
255
255
255
255
255
255
255
255
255
255
255
255
255
0
0
0
0
0
0
0
0
0
0
0
0
0
0
0
0
0
0
0
0
0
0
0
0
0
0
0
0
0
0
0
0
0
0
0
0
0
0
0
0
0
0
0
0
0
0
0
0
98
0
67
0
78
0
114
0
108
0
116
0
90
0
83
0
115
0
103
0
112
0
80
0
53
0
53
0
96
0
92
0
91
0
63
0
54
0
55
0
96
0
99
0
87
0
52
0
74
0
90
0
114
0
100
0
94
0
95
0
80
0
100
0
112
0
96
0
57
0
79
0
104
0
94
0
99
0
94
0
87
0
88
0
78
0
77
0
83
0
66
0
48
0
54
0
78
0
77
0
78
0
78
0
81
0
91
0
111
0
128
0
131
0
106
0
93
0
106
0
81
0
71
0
124
0
128
0
64
0
110
0
141
0
130
0
127
0
87
0
63
0
135
0
116
0
101
0
92
0
76
0
41
0
104
0
142
0
129
0
136
0
134
0
132
0
115
0
142
0
90
0
94
0
136
0
143
0
87
0
19
0
4
0
9
0
2
0
1
0
10
0
2
0
5
0
3
0
2
0
6
0
2
0
1
0
17
0
1
0
12
0
1
0
5
0
17
0
5
0
1
0
13
0
12
0
97
0
148
0
170
0
214
0
238
0
243
0
253
0
251
0
252
0
252
0
254
255
44
255
153
255
236
255
250
255
208
255
214
255
235
255
245
255
216
255
180
255
164
255
164
255
208
255
250
255
248
255
249
255
254
255
243
255
249
255
254
255
255
255
254
255
254
255
250
255
246
255
255
255
250
255
219
255
187
255
195
255
195
255
194
255
193
255
187
255
187
255
203
255
186
255
186
255
190
255
197
255
198
255
190
255
179
255
171
255
144
255
145
255
144
255
161
255
197
255
138
255
139
255
138
255
127
255
135
255
132
255
136
255
134
255
127
255
182
255
166
255
125
255
123
255
120
255
117
255
114
255
113
255
112
255
112
255
107
255
118
255
149
255
176
255
123
255
139
255
137
0
103
0
69
0
60
0
52
0
76
0
34
0
15
0
59
0
46
0
42
0
48
0
33
0
26
0
29
0
17
0
16
0
39
0
51
0
37
0
46
0
36
0
50
0
86
0
71
0
0
0
0
0
0
0
0
0
0
0
0
0
0
0
0
0
0
0
0
0
0
0
0
0
0
0
0
0
0
0
0
0
0
0
0
0
0
0
0
0
0
0
0
0
0
0
0
0
0
0
0
0
0
0
0
0
0
0
0
0
0
0
0
0
0
0
0
0
0
0
0
0
0
0
0
0
0
0
0
0
0
0
0
0
0
0
0
0
0
0
0
0
0
0
0
0
0
0
0
0
0
0
0
0
0
0
0
0
0
0
0
0
0
0
0
0
0
0
0
0
0
0
0
0
0
0
0
0
0
0
0
0
0
0
0
0
0
0
0
0
0
0
0
0
0
0
0
0
0
0
0
0
0
0
0
0
0
0
0
0
0
0
0
0
0
0
0
0
0
0
0
0
0
0
0
0
0
0
0
0
0
0
0
0
0
0
0
0
0
0
0
0
0
0
0
0
0
0
0
0
0
0
0
0
0
0
0
0
0
0
0
0
0
0
0
0
0
0
0
0
0
0
0
0
0
0
0
0
0
0
0
0
0
0
0
0
0
0
0
0
0
0
0
0
0
0
255
255
255
255
255
255
255
255
255
255
255
255
255
255
255
255
255
255
255
255
255
255
255
255
255
255
255
255
255
255
255
255
255
255
255
255
255
255
255
255
255
255
255
255
255
255
255
255
255
255
255
255
255
255
255
255
255
255
255
255
255
255
255
255
255
255
255
255
255
255
255
255
255
255
255
255
255
255
255
255
255
255
255
255
255
255
255
255
255
255
255
255
255
255
255
255
255
255
255
255
255
255
255
255
255
255
255
255
255
255
255
255
255
255
255
255
255
255
255
255
255
255
255
255
255
255
255
255
255
255
255
255
255
255
255
255
255
255
255
255
255
255
255
255
255
255
255
255
255
255
0
0
0
0
0
0
0
0
0
0
0
0
0
0
0
0
0
0
0
0
0
0
0
0
0
0
0
0
0
0
0
0
0
0
0
0
0
0
0
0
0
0
0
0
0
0
0
0
115
0
87
0
84
0
127
0
123
0
129
0
116
0
103
0
123
0
118
0
128
0
105
0
87
0
74
0
111
0
112
0
110
0
99
0
78
0
62
0
108
0
115
0
111
0
100
0
80
0
92
0
119
0
117
0
115
0
109
0
87
0
98
0
121
0
111
0
79
0
71
0
85
0
89
0
90
0
85
0
97
0
97
0
85
0
81
0
82
0
64
0
45
0
47
0
101
0
93
0
89
0
98
0
111
0
120
0
122
0
123
0
124
0
123
0
124
0
126
0
83
0
69
0
120
0
121
0
98
0
99
0
113
0
118
0
136
0
109
0
75
0
110
0
83
0
99
0
118
0
122
0
65
0
92
0
131
0
120
0
133
0
139
0
133
0
133
0
112
0
63
0
107
0
146
0
129
0
64
0
3
0
4
0
7
0
5
0
0
0
4
0
8
0
7
0
2
0
1
0
1
0
2
0
2
0
1
0
4
0
12
0
30
0
68
0
89
0
62
0
19
0
10
0
50
0
120
0
201
0
241
0
251
0
253
0
254
0
249
0
253
0
255
0
215
0
151
255
169
255
223
255
248
255
242
255
205
255
227
255
253
255
255
255
219
255
175
255
172
255
199
255
237
255
238
255
221
255
239
255
254
255
253
255
253
255
254
255
254
255
249
255
253
255
255
255
250
255
248
255
239
255
221
255
189
255
197
255
196
255
193
255
192
255
189
255
197
255
217
255
206
255
200
255
195
255
192
255
186
255
174
255
162
255
155
255
148
255
151
255
143
255
155
255
197
255
140
255
136
255
136
255
142
255
141
255
129
255
129
255
130
255
132
255
193
255
171
255
125
255
125
255
125
255
124
255
124
255
121
255
119
255
118
255
144
255
156
255
183
255
216
255
175
255
184
255
187
0
42
0
62
0
54
0
49
0
72
0
35
0
15
0
57
0
50
0
59
0
65
0
49
0
41
0
47
0
35
0
31
0
54
0
40
0
29
0
34
0
22
0
49
0
88
0
68
0
0
0
0
0
0
0
0
0
0
0
0
0
0
0
0
0
0
0
0
0
0
0
0
0
0
0
0
0
0
0
0
0
0
0
0
0
0
0
0
0
0
0
0
0
0
0
0
0
0
0
0
0
0
0
0
0
0
0
0
0
0
0
0
0
0
0
0
0
0
0
0
0
0
0
0
0
0
0
0
0
0
0
0
0
0
0
0
0
0
0
0
0
0
0
0
0
0
0
0
0
0
0
0
0
0
0
0
0
0
0
0
0
0
0
0
0
0
0
0
0
0
0
0
0
0
0
0
0
0
0
0
0
0
0
0
0
0
0
0
0
0
0
0
0
0
0
0
0
0
0
0
0
0
0
0
0
0
0
0
0
0
0
0
0
0
0
0
0
0
0
0
0
0
0
0
0
0
0
0
0
0
0
0
0
0
0
0
0
0
0
0
0
0
0
0
0
0
0
0
0
0
0
0
0
0
0
0
0
0
0
0
0
0
0
0
0
0
0
0
0
0
0
0
0
0
0
0
0
0
0
0
0
0
0
0
0
0
0
0
0
0
0
0
0
0
0
255
255
255
255
255
255
255
255
255
255
255
255
255
255
255
255
255
255
255
255
255
255
255
255
255
255
255
255
255
255
255
255
255
255
255
255
255
255
255
255
255
255
255
255
255
255
255
255
255
255
255
255
255
255
255
255
255
255
255
255
255
255
255
255
255
255
255
255
255
255
255
255
255
255
255
255
255
255
255
255
255
255
255
255
255
255
255
255
255
255
255
255
255
255
255
255
255
255
255
255
255
255
255
255
255
255
255
255
255
255
255
255
255
255
255
255
255
255
255
255
255
255
255
255
255
255
255
255
255
255
255
255
255
255
255
255
255
255
255
255
255
255
255
255
255
255
255
255
255
255
0
0
0
0
0
0
0
0
0
0
0
0
0
0
0
0
0
0
0
0
0
0
0
0
0
0
0
0
0
0
0
0
0
0
0
0
0
0
0
0
0
0
0
0
0
0
0
0
121
0
94
0
73
0
124
0
123
0
121
0
120
0
98
0
111
0
116
0
124
0
113
0
105
0
76
0
101
0
115
0
122
0
130
0
103
0
70
0
114
0
123
0
125
0
132
0
90
0
89
0
109
0
121
0
126
0
116
0
92
0
93
0
126
0
133
0
118
0
81
0
85
0
108
0
104
0
100
0
93
0
94
0
90
0
91
0
95
0
83
0
68
0
71
0
69
0
66
0
72
0
92
0
115
0
126
0
125
0
121
0
133
0
136
0
130
0
114
0
61
0
56
0
119
0
126
0
103
0
83
0
109
0
127
0
128
0
96
0
60
0
83
0
89
0
115
0
132
0
144
0
76
0
79
0
131
0
130
0
134
0
129
0
113
0
144
0
101
0
77
0
128
0
137
0
102
0
41
0
1
0
4
0
2
0
1
0
0
0
3
0
1
0
0
0
2
0
5
0
15
0
37
0
36
0
7
0
9
0
2
0
56
0
120
0
149
0
120
0
44
0
15
0
3
0
4
0
53
0
90
0
99
0
154
0
219
0
228
0
230
0
176
0
82
0
9
255
250
255
226
255
197
255
179
255
212
255
242
255
255
255
255
255
234
255
185
255
184
255
233
255
254
255
223
255
198
255
233
255
255
255
253
255
255
255
249
255
251
255
246
255
253
255
253
255
246
255
231
255
225
255
218
255
191
255
198
255
196
255
193
255
192
255
196
255
208
255
229
255
214
255
204
255
192
255
183
255
173
255
161
255
150
255
146
255
147
255
155
255
141
255
148
255
200
255
145
255
136
255
137
255
125
255
141
255
145
255
144
255
133
255
124
255
186
255
158
255
129
255
127
255
125
255
129
255
139
255
155
255
172
255
181
255
176
255
169
255
178
255
203
255
159
255
136
255
134
0
94
0
82
0
74
0
72
0
90
0
61
0
42
0
71
0
74
0
74
0
82
0
65
0
55
0
64
0
52
0
45
0
67
0
62
0
56
0
49
0
29
0
66
0
100
0
71
0
0
0
0
0
0
0
0
0
0
0
0
0
0
0
0
0
0
0
0
0
0
0
0
0
0
0
0
0
0
0
0
0
0
0
0
0
0
0
0
0
0
0
0
0
0
0
0
0
0
0
0
0
0
0
0
0
0
0
0
0
0
0
0
0
0
0
0
0
0
0
0
0
0
0
0
0
0
0
0
0
0
0
0
0
0
0
0
0
0
0
0
0
0
0
0
0
0
0
0
0
0
0
0
0
0
0
0
0
0
0
0
0
0
0
0
0
0
0
0
0
0
0
0
0
0
0
0
0
0
0
0
0
0
0
0
0
0
0
0
0
0
0
0
0
0
0
0
0
0
0
0
0
0
0
0
0
0
0
0
0
0
0
0
0
0
0
0
0
0
0
0
0
0
0
0
0
0
0
0
0
0
0
0
0
0
0
0
0
0
0
0
0
0
0
0
0
0
0
0
0
0
0
0
0
0
0
0
0
0
0
0
0
0
0
0
0
0
0
0
0
0
0
0
0
0
0
0
0
0
0
0
0
0
0
0
0
0
0
0
0
0
0
0
0
0
0
255
255
255
255
255
255
255
255
255
255
255
255
255
255
255
255
255
255
255
255
255
255
255
255
255
255
255
255
255
255
255
255
255
255
255
255
255
255
255
255
255
255
255
255
255
255
255
255
255
255
255
255
255
255
255
255
255
255
255
255
255
255
255
255
255
255
255
255
255
255
255
255
255
255
255
255
255
255
255
255
255
255
255
255
255
255
255
255
255
255
255
255
255
255
255
255
255
255
255
255
255
255
255
255
255
255
255
255
255
255
255
255
255
255
255
255
255
255
255
255
255
255
255
255
255
255
255
255
255
255
255
255
255
255
255
255
255
255
255
255
255
255
255
255
255
255
255
255
255
255
0
0
0
0
0
0
0
0
0
0
0
0
0
0
0
0
0
0
0
0
0
0
0
0
0
0
0
0
0
0
0
0
0
0
0
0
0
0
0
0
0
0
0
0
0
0
0
0
137
0
111
0
75
0
133
0
130
0
121
0
127
0
97
0
112
0
125
0
125
0
124
0
123
0
77
0
98
0
119
0
120
0
130
0
112
0
75
0
108
0
116
0
121
0
122
0
104
0
84
0
90
0
111
0
121
0
113
0
97
0
90
0
110
0
135
0
136
0
74
0
65
0
99
0
89
0
87
0
73
0
76
0
76
0
82
0
89
0
83
0
74
0
78
0
74
0
80
0
95
0
110
0
118
0
121
0
125
0
131
0
128
0
121
0
109
0
98
0
51
0
50
0
117
0
130
0
98
0
84
0
126
0
133
0
92
0
52
0
50
0
102
0
122
0
133
0
134
0
144
0
79
0
79
0
137
0
139
0
118
0
123
0
133
0
148
0
72
0
84
0
131
0
129
0
46
0
8
0
3
0
15
0
1
0
1
0
13
0
10
0
1
0
1
0
26
0
47
0
65
0
95
0
84
0
28
0
10
0
3
0
72
0
139
0
156
0
134
0
58
0
43
0
41
0
6
0
5
0
6
0
2
0
24
0
65
0
58
0
75
0
36
0
3
0
14
255
201
255
172
255
170
255
174
255
233
255
252
255
253
255
255
255
249
255
204
255
195
255
245
255
253
255
205
255
189
255
238
255
255
255
244
255
253
255
254
255
250
255
251
255
253
255
249
255
228
255
217
255
217
255
210
255
190
255
195
255
196
255
196
255
198
255
205
255
215
255
228
255
200
255
191
255
182
255
174
255
167
255
158
255
153
255
152
255
142
255
153
255
138
255
147
255
204
255
149
255
136
255
137
255
137
255
135
255
126
255
129
255
136
255
144
255
192
255
147
255
134
255
146
255
163
255
176
255
177
255
167
255
150
255
138
255
127
255
114
255
124
255
165
255
149
255
115
255
123
0
99
0
88
0
81
0
81
0
90
0
68
0
47
0
60
0
75
0
77
0
87
0
67
0
55
0
68
0
57
0
46
0
69
0
67
0
69
0
55
0
27
0
66
0
98
0
67
0
0
0
0
0
0
0
0
0
0
0
0
0
0
0
0
0
0
0
0
0
0
0
0
0
0
0
0
0
0
0
0
0
0
0
0
0
0
0
0
0
0
0
0
0
0
0
0
0
0
0
0
0
0
0
0
0
0
0
0
0
0
0
0
0
0
0
0
0
0
0
0
0
0
0
0
0
0
0
0
0
0
0
0
0
0
0
0
0
0
0
0
0
0
0
0
0
0
0
0
0
0
0
0
0
0
0
0
0
0
0
0
0
0
0
0
0
0
0
0
0
0
0
0
0
0
0
0
0
0
0
0
0
0
0
0
0
0
0
0
0
0
0
0
0
0
0
0
0
0
0
0
0
0
0
0
0
0
0
0
0
0
0
0
0
0
0
0
0
0
0
0
0
0
0
0
0
0
0
0
0
0
0
0
0
0
0
0
0
0
0
0
0
0
0
0
0
0
0
0
0
0
0
0
0
0
0
0
0
0
0
0
0
0
0
0
0
0
0
0
0
0
0
0
0
0
0
0
0
0
0
0
0
0
0
0
0
0
0
0
0
0
0
0
0
0
0
255
255
255
255
255
255
255
255
255
255
255
255
255
255
255
255
255
255
255
255
255
255
255
255
255
255
255
255
255
255
255
255
255
255
255
255
255
255
255
255
255
255
255
255
255
255
255
255
255
255
255
255
255
255
255
255
255
255
255
255
255
255
255
255
255
255
255
255
255
255
255
255
255
255
255
255
255
255
255
255
255
255
255
255
255
255
255
255
255
255
255
255
255
255
255
255
255
255
255
255
255
255
255
255
255
255
255
255
255
255
255
255
255
255
255
255
255
255
255
255
255
255
255
255
255
255
255
255
255
255
255
255
255
255
255
255
255
255
255
255
255
255
255
255
255
255
255
255
255
255
0
0
0
0
0
0
0
0
0
0
0
0
0
0
0
0
0
0
0
0
0
0
0
0
0
0
0
0
0
0
0
0
0
0
0
0
0
0
0
0
0
0
0
0
0
0
0
0
148
0
122
0
83
0
145
0
144
0
134
0
137
0
103
0
123
0
136
0
128
0
132
0
133
0
76
0
100
0
126
0
121
0
121
0
114
0
83
0
101
0
113
0
126
0
114
0
121
0
90
0
87
0
116
0
127
0
120
0
110
0
92
0
124
0
142
0
140
0
66
0
46
0
77
0
73
0
73
0
63
0
64
0
64
0
65
0
65
0
59
0
51
0
50
0
70
0
80
0
95
0
106
0
111
0
114
0
125
0
136
0
99
0
96
0
104
0
121
0
78
0
53
0
110
0
127
0
109
0
84
0
110
0
107
0
66
0
46
0
72
0
142
0
131
0
134
0
134
0
143
0
81
0
86
0
133
0
131
0
139
0
127
0
141
0
127
0
47
0
102
0
114
0
100
0
27
0
2
0
3
0
10
0
1
0
1
0
7
0
0
0
3
0
21
0
62
0
91
0
106
0
123
0
89
0
11
0
16
0
4
0
98
0
144
0
130
0
108
0
60
0
63
0
44
0
37
0
48
0
57
0
46
0
29
0
18
0
8
0
1
0
5
0
34
0
67
255
168
255
166
255
182
255
200
255
245
255
255
255
251
255
251
255
246
255
208
255
200
255
249
255
243
255
194
255
179
255
232
255
253
255
245
255
252
255
253
255
251
255
254
255
250
255
228
255
206
255
211
255
215
255
201
255
190
255
192
255
196
255
202
255
205
255
211
255
216
255
216
255
184
255
177
255
173
255
170
255
165
255
159
255
154
255
154
255
143
255
152
255
141
255
153
255
205
255
146
255
134
255
136
255
135
255
137
255
130
255
127
255
126
255
148
255
215
255
183
255
174
255
167
255
155
255
142
255
130
255
122
255
120
255
119
255
114
255
104
255
111
255
157
255
167
255
123
255
140
0
84
0
82
0
76
0
81
0
81
0
70
0
48
0
43
0
74
0
71
0
84
0
61
0
49
0
67
0
56
0
42
0
64
0
61
0
65
0
54
0
21
0
56
0
94
0
69
0
0
0
0
0
0
0
0
0
0
0
0
0
0
0
0
0
0
0
0
0
0
0
0
0
0
0
0
0
0
0
0
0
0
0
0
0
0
0
0
0
0
0
0
0
0
0
0
0
0
0
0
0
0
0
0
0
0
0
0
0
0
0
0
0
0
0
0
0
0
0
0
0
0
0
0
0
0
0
0
0
0
0
0
0
0
0
0
0
0
0
0
0
0
0
0
0
0
0
0
0
0
0
0
0
0
0
0
0
0
0
0
0
0
0
0
0
0
0
0
0
0
0
0
0
0
0
0
0
0
0
0
0
0
0
0
0
0
0
0
0
0
0
0
0
0
0
0
0
0
0
0
0
0
0
0
0
0
0
0
0
0
0
0
0
0
0
0
0
0
0
0
0
0
0
0
0
0
0
0
0
0
0
0
0
0
0
0
0
0
0
0
0
0
0
0
0
0
0
0
0
0
0
0
0
0
0
0
0
0
0
0
0
0
0
0
0
0
0
0
0
0
0
0
0
0
0
0
0
0
0
0
0
0
0
0
0
0
0
0
0
0
0
0
0
0
0
255
255
255
255
255
255
255
255
255
255
255
255
255
255
255
255
255
255
255
255
255
255
255
255
255
255
255
255
255
255
255
255
255
255
255
255
255
255
255
255
255
255
255
255
255
255
255
255
255
255
255
255
255
255
255
255
255
255
255
255
255
255
255
255
255
255
255
255
255
255
255
255
255
255
255
255
255
255
255
255
255
255
255
255
255
255
255
255
255
255
255
255
255
255
255
255
255
255
255
255
255
255
255
255
255
255
255
255
255
255
255
255
255
255
255
255
255
255
255
255
255
255
255
255
255
255
255
255
255
255
255
255
255
255
255
255
255
255
255
255
255
255
255
255
255
255
255
255
255
255
0
0
0
0
0
0
0
0
0
0
0
0
0
0
0
0
0
0
0
0
0
0
0
0
0
0
0
0
0
0
0
0
0
0
0
0
0
0
0
0
0
0
0
0
0
0
0
0
154
0
121
0
96
0
155
0
156
0
153
0
148
0
120
0
136
0
148
0
134
0
142
0
140
0
78
0
114
0
137
0
135
0
126
0
122
0
96
0
112
0
125
0
144
0
131
0
136
0
104
0
101
0
138
0
146
0
137
0
130
0
95
0
147
0
151
0
127
0
71
0
63
0
90
0
98
0
104
0
109
0
107
0
108
0
108
0
106
0
103
0
99
0
97
0
76
0
74
0
75
0
76
0
75
0
72
0
71
0
73
0
96
0
103
0
123
0
148
0
94
0
53
0
108
0
132
0
94
0
62
0
73
0
86
0
89
0
83
0
83
0
142
0
129
0
129
0
137
0
128
0
63
0
90
0
128
0
132
0
137
0
120
0
138
0
102
0
74
0
124
0
75
0
34
0
18
0
2
0
0
0
0
0
3
0
16
0
18
0
0
0
1
0
30
0
79
0
109
0
125
0
124
0
72
0
1
0
10
0
35
0
123
0
139
0
93
0
62
0
45
0
47
0
28
0
48
0
64
0
72
0
67
0
52
0
52
0
71
0
73
0
69
0
59
0
50
255
193
255
165
255
170
255
205
255
245
255
255
255
255
255
244
255
221
255
191
255
204
255
254
255
245
255
194
255
162
255
209
255
253
255
255
255
254
255
246
255
251
255
251
255
236
255
208
255
194
255
211
255
216
255
196
255
195
255
195
255
202
255
205
255
206
255
211
255
213
255
206
255
179
255
175
255
172
255
169
255
162
255
155
255
151
255
151
255
148
255
148
255
145
255
161
255
201
255
135
255
132
255
136
255
127
255
133
255
138
255
153
255
170
255
190
255
233
255
161
255
145
255
138
255
127
255
117
255
112
255
112
255
114
255
117
255
106
255
103
255
103
255
142
255
174
255
125
255
149
0
84
0
84
0
79
0
89
0
83
0
82
0
62
0
43
0
84
0
67
0
82
0
58
0
44
0
66
0
57
0
40
0
62
0
72
0
72
0
57
0
17
0
39
0
78
0
58
0
0
0
0
0
0
0
0
0
0
0
0
0
0
0
0
0
0
0
0
0
0
0
0
0
0
0
0
0
0
0
0
0
0
0
0
0
0
0
0
0
0
0
0
0
0
0
0
0
0
0
0
0
0
0
0
0
0
0
0
0
0
0
0
0
0
0
0
0
0
0
0
0
0
0
0
0
0
0
0
0
0
0
0
0
0
0
0
0
0
0
0
0
0
0
0
0
0
0
0
0
0
0
0
0
0
0
0
0
0
0
0
0
0
0
0
0
0
0
0
0
0
0
0
0
0
0
0
0
0
0
0
0
0
0
0
0
0
0
0
0
0
0
0
0
0
0
0
0
0
0
0
0
0
0
0
0
0
0
0
0
0
0
0
0
0
0
0
0
0
0
0
0
0
0
0
0
0
0
0
0
0
0
0
0
0
0
0
0
0
0
0
0
0
0
0
0
0
0
0
0
0
0
0
0
0
0
0
0
0
0
0
0
0
0
0
0
0
0
0
0
0
0
0
0
0
0
0
0
0
0
0
0
0
0
0
0
0
0
0
0
0
0
0
0
0
0
255
255
255
255
255
255
255
255
255
255
255
255
255
255
255
255
255
255
255
255
255
255
255
255
255
255
255
255
255
255
255
255
255
255
255
255
255
255
255
255
255
255
255
255
255
255
255
255
255
255
255
255
255
255
255
255
255
255
255
255
255
255
255
255
255
255
255
255
255
255
255
255
255
255
255
255
255
255
255
255
255
255
255
255
255
255
255
255
255
255
255
255
255
255
255
255
255
255
255
255
255
255
255
255
255
255
255
255
255
255
255
255
255
255
255
255
255
255
255
255
255
255
255
255
255
255
255
255
255
255
255
255
255
255
255
255
255
255
255
255
255
255
255
255
255
255
255
255
255
255
0
0
0
0
0
0
0
0
0
0
0
0
0
0
0
0
0
0
0
0
0
0
0
0
0
0
0
0
0
0
0
0
0
0
0
0
0
0
0
0
0
0
0
0
0
0
0
0
166
0
123
0
111
0
161
0
160
0
169
0
153
0
137
0
146
0
159
0
146
0
160
0
153
0
94
0
142
0
154
0
145
0
144
0
134
0
111
0
135
0
137
0
149
0
148
0
142
0
114
0
109
0
147
0
150
0
143
0
142
0
94
0
138
0
129
0
86
0
68
0
84
0
104
0
120
0
120
0
112
0
113
0
116
0
118
0
117
0
119
0
122
0
120
0
119
0
119
0
121
0
128
0
132
0
131
0
127
0
127
0
127
0
132
0
140
0
147
0
87
0
52
0
105
0
122
0
57
0
61
0
85
0
107
0
132
0
106
0
70
0
119
0
131
0
120
0
140
0
106
0
51
0
109
0
133
0
134
0
131
0
123
0
110
0
46
0
52
0
76
0
67
0
59
0
2
0
6
0
16
0
24
0
47
0
68
0
57
0
29
0
1
0
43
0
86
0
112
0
128
0
115
0
58
0
0
0
3
0
68
0
136
0
128
0
65
0
35
0
34
0
21
0
41
0
59
0
70
0
72
0
71
0
70
0
74
0
86
0
89
0
65
0
47
0
50
255
179
255
153
255
177
255
231
255
248
255
255
255
255
255
230
255
194
255
180
255
213
255
254
255
249
255
207
255
154
255
184
255
241
255
255
255
254
255
248
255
250
255
234
255
215
255
199
255
195
255
212
255
216
255
198
255
204
255
205
255
210
255
207
255
199
255
204
255
211
255
206
255
177
255
173
255
171
255
167
255
161
255
154
255
150
255
150
255
152
255
139
255
144
255
168
255
193
255
127
255
138
255
146
255
131
255
154
255
173
255
176
255
171
255
174
255
212
255
137
255
119
255
122
255
124
255
124
255
121
255
115
255
108
255
104
255
111
255
112
255
106
255
131
255
174
255
127
255
152
0
92
0
80
0
75
0
88
0
76
0
81
0
60
0
30
0
80
0
67
0
84
0
58
0
44
0
70
0
62
0
44
0
64
0
75
0
63
0
48
0
2
0
15
0
62
0
45
0
0
0
0
0
0
0
0
0
0
0
0
0
0
0
0
0
0
0
0
0
0
0
0
0
0
0
0
0
0
0
0
0
0
0
0
0
0
0
0
0
0
0
0
0
0
0
0
0
0
0
0
0
0
0
0
0
0
0
0
0
0
0
0
0
0
0
0
0
0
0
0
0
0
0
0
0
0
0
0
0
0
0
0
0
0
0
0
0
0
0
0
0
0
0
0
0
0
0
0
0
0
0
0
0
0
0
0
0
0
0
0
0
0
0
0
0
0
0
0
0
0
0
0
0
0
0
0
0
0
0
0
0
0
0
0
0
0
0
0
0
0
0
0
0
0
0
0
0
0
0
0
0
0
0
0
0
0
0
0
0
0
0
0
0
0
0
0
0
0
0
0
0
0
0
0
0
0
0
0
0
0
0
0
0
0
0
0
0
0
0
0
0
0
0
0
0
0
0
0
0
0
0
0
0
0
0
0
0
0
0
0
0
0
0
0
0
0
0
0
0
0
0
0
0
0
0
0
0
0
0
0
0
0
0
0
0
0
0
0
0
0
0
0
0
0
0
255
255
255
255
255
255
255
255
255
255
255
255
255
255
255
255
255
255
255
255
255
255
255
255
255
255
255
255
255
255
255
255
255
255
255
255
255
255
255
255
255
255
255
255
255
255
255
255
255
255
255
255
255
255
255
255
255
255
255
255
255
255
255
255
255
255
255
255
255
255
255
255
255
255
255
255
255
255
255
255
255
255
255
255
255
255
255
255
255
255
255
255
255
255
255
255
255
255
255
255
255
255
255
255
255
255
255
255
255
255
255
255
255
255
255
255
255
255
255
255
255
255
255
255
255
255
255
255
255
255
255
255
255
255
255
255
255
255
255
255
255
255
255
255
255
255
255
255
255
255
0
0
0
0
0
0
0
0
0
0
0
0
0
0
0
0
0
0
0
0
0
0
0
0
0
0
0
0
0
0
0
0
0
0
0
0
0
0
0
0
0
0
0
0
0
0
0
0
156
0
103
0
101
0
141
0
140
0
154
0
129
0
124
0
128
0
142
0
133
0
151
0
141
0
86
0
142
0
149
0
145
0
156
0
144
0
121
0
153
0
140
0
136
0
150
0
142
0
113
0
105
0
141
0
141
0
137
0
142
0
91
0
141
0
120
0
65
0
74
0
105
0
110
0
122
0
110
0
114
0
113
0
115
0
115
0
110
0
114
0
119
0
116
0
115
0
123
0
135
0
144
0
145
0
142
0
142
0
146
0
148
0
149
0
145
0
141
0
86
0
57
0
97
0
92
0
48
0
89
0
133
0
142
0
138
0
100
0
66
0
127
0
126
0
110
0
140
0
103
0
63
0
138
0
137
0
123
0
104
0
102
0
65
0
24
0
83
0
82
0
68
0
47
0
12
0
59
0
79
0
75
0
84
0
82
0
49
0
16
0
27
0
73
0
104
0
118
0
128
0
105
0
44
0
1
0
6
0
95
0
146
0
126
0
58
0
36
0
38
0
16
0
45
0
44
0
45
0
45
0
49
0
65
0
69
0
55
0
29
0
16
0
35
0
72
255
172
255
184
255
214
255
246
255
255
255
255
255
246
255
215
255
179
255
181
255
222
255
254
255
248
255
220
255
159
255
168
255
225
255
246
255
253
255
255
255
248
255
219
255
199
255
195
255
201
255
213
255
216
255
202
255
211
255
212
255
217
255
207
255
192
255
196
255
210
255
211
255
171
255
168
255
166
255
165
255
161
255
156
255
155
255
156
255
149
255
128
255
140
255
169
255
186
255
122
255
146
255
159
255
197
255
190
255
171
255
144
255
124
255
138
255
194
255
133
255
119
255
117
255
115
255
113
255
112
255
111
255
112
255
113
255
103
255
112
255
100
255
118
255
172
255
129
255
160
0
90
0
86
0
80
0
93
0
76
0
83
0
60
0
23
0
77
0
68
0
85
0
59
0
44
0
73
0
65
0
45
0
65
0
75
0
56
0
44
0
8
0
24
0
79
0
72
0
0
0
0
0
0
0
0
0
0
0
0
0
0
0
0
0
0
0
0
0
0
0
0
0
0
0
0
0
0
0
0
0
0
0
0
0
0
0
0
0
0
0
0
0
0
0
0
0
0
0
0
0
0
0
0
0
0
0
0
0
0
0
0
0
0
0
0
0
0
0
0
0
0
0
0
0
0
0
0
0
0
0
0
0
0
0
0
0
0
0
0
0
0
0
0
0
0
0
0
0
0
0
0
0
0
0
0
0
0
0
0
0
0
0
0
0
0
0
0
0
0
0
0
0
0
0
0
0
0
0
0
0
0
0
0
0
0
0
0
0
0
0
0
0
0
0
0
0
0
0
0
0
0
0
0
0
0
0
0
0
0
0
0
0
0
0
0
0
0
0
0
0
0
0
0
0
0
0
0
0
0
0
0
0
0
0
0
0
0
0
0
0
0
0
0
0
0
0
0
0
0
0
0
0
0
0
0
0
0
0
0
0
0
0
0
0
0
0
0
0
0
0
0
0
0
0
0
0
0
0
0
0
0
0
0
0
0
0
0
0
0
0
0
0
0
0
255
255
255
255
255
255
255
255
255
255
255
255
255
255
255
255
255
255
255
255
255
255
255
255
255
255
255
255
255
255
255
255
255
255
255
255
255
255
255
255
255
255
255
255
255
255
255
255
255
255
255
255
255
255
255
255
255
255
255
255
255
255
255
255
255
255
255
255
255
255
255
255
255
255
255
255
255
255
255
255
255
255
255
255
255
255
255
255
255
255
255
255
255
255
255
255
255
255
255
255
255
255
255
255
255
255
255
255
255
255
255
255
255
255
255
255
255
255
255
255
255
255
255
255
255
255
255
255
255
255
255
255
255
255
255
255
255
255
255
255
255
255
255
255
255
255
255
255
255
255
0
0
0
0
0
0
0
0
0
0
0
0
0
0
0
0
0
0
0
0
0
0
0
0
0
0
0
0
0
0
0
0
0
0
0
0
0
0
0
0
0
0
0
0
0
0
0
0
138
0
115
0
120
0
129
0
135
0
134
0
113
0
106
0
118
0
125
0
132
0
133
0
108
0
105
0
133
0
133
0
133
0
133
0
118
0
123
0
145
0
139
0
130
0
150
0
131
0
100
0
124
0
152
0
138
0
147
0
145
0
87
0
112
0
75
0
70
0
105
0
125
0
114
0
110
0
118
0
114
0
110
0
108
0
110
0
112
0
111
0
111
0
112
0
119
0
123
0
131
0
140
0
145
0
146
0
142
0
139
0
146
0
122
0
142
0
146
0
65
0
24
0
57
0
62
0
62
0
122
0
138
0
122
0
118
0
104
0
95
0
117
0
129
0
139
0
129
0
86
0
57
0
80
0
97
0
74
0
73
0
70
0
46
0
65
0
111
0
90
0
28
0
37
0
90
0
112
0
107
0
85
0
77
0
67
0
44
0
28
0
38
0
71
0
104
0
127
0
129
0
88
0
31
0
3
0
6
0
125
0
141
0
113
0
16
0
53
0
36
0
37
0
59
0
66
0
45
0
18
0
23
0
32
0
23
0
13
0
4
0
14
0
65
0
106
255
172
255
223
255
251
255
253
255
252
255
254
255
230
255
180
255
156
255
183
255
231
255
255
255
238
255
252
255
175
255
153
255
209
255
238
255
254
255
252
255
220
255
200
255
181
255
190
255
218
255
231
255
227
255
221
255
202
255
202
255
194
255
197
255
194
255
194
255
209
255
204
255
168
255
169
255
170
255
167
255
164
255
160
255
155
255
150
255
139
255
128
255
144
255
188
255
192
255
178
255
189
255
189
255
153
255
128
255
129
255
114
255
133
255
144
255
186
255
122
255
113
255
116
255
118
255
116
255
115
255
113
255
110
255
106
255
103
255
100
255
102
255
122
255
148
255
157
255
158
0
92
0
91
0
87
0
87
0
69
0
84
0
66
0
28
0
83
0
80
0
80
0
58
0
39
0
73
0
83
0
42
0
60
0
70
0
34
0
21
0
20
0
5
0
42
0
90
0
0
0
0
0
0
0
0
0
0
0
0
0
0
0
0
0
0
0
0
0
0
0
0
0
0
0
0
0
0
0
0
0
0
0
0
0
0
0
0
0
0
0
0
0
0
0
0
0
0
0
0
0
0
0
0
0
0
0
0
0
0
0
0
0
0
0
0
0
0
0
0
0
0
0
0
0
0
0
0
0
0
0
0
0
0
0
0
0
0
0
0
0
0
0
0
0
0
0
0
0
0
0
0
0
0
0
0
0
0
0
0
0
0
0
0
0
0
0
0
0
0
0
0
0
0
0
0
0
0
0
0
0
0
0
0
0
0
0
0
0
0
0
0
0
0
0
0
0
0
0
0
0
0
0
0
0
0
0
0
0
0
0
0
0
0
0
0
0
0
0
0
0
0
0
0
0
0
0
0
0
0
0
0
0
0
0
0
0
0
0
0
0
0
0
0
0
0
0
0
0
0
0
0
0
0
0
0
0
0
0
0
0
0
0
0
0
0
0
0
0
0
0
0
0
0
0
0
0
0
0
0
0
0
0
0
0
0
0
0
0
0
0
0
0
0
0
255
255
255
255
255
255
255
255
255
255
255
255
255
255
255
255
255
255
255
255
255
255
255
255
255
255
255
255
255
255
255
255
255
255
255
255
255
255
255
255
255
255
255
255
255
255
255
255
255
255
255
255
255
255
255
255
255
255
255
255
255
255
255
255
255
255
255
255
255
255
255
255
255
255
255
255
255
255
255
255
255
255
255
255
255
255
255
255
255
255
255
255
255
255
255
255
255
255
255
255
255
255
255
255
255
255
255
255
255
255
255
255
255
255
255
255
255
255
255
255
255
255
255
255
255
255
255
255
255
255
255
255
255
255
255
255
255
255
255
255
255
255
255
255
255
255
255
255
255
255
0
0
0
0
0
0
0
0
0
0
0
0
0
0
0
0
0
0
0
0
0
0
0
0
0
0
0
0
0
0
0
0
0
0
0
0
0
0
0
0
0
0
0
0
0
0
0
0
110
0
100
0
112
0
119
0
117
0
112
0
95
0
93
0
100
0
99
0
100
0
105
0
87
0
82
0
112
0
121
0
126
0
109
0
88
0
96
0
126
0
140
0
143
0
154
0
127
0
118
0
137
0
160
0
158
0
145
0
111
0
64
0
41
0
43
0
69
0
101
0
109
0
108
0
115
0
128
0
124
0
120
0
116
0
118
0
122
0
123
0
121
0
120
0
119
0
125
0
136
0
145
0
150
0
150
0
148
0
146
0
155
0
155
0
146
0
130
0
57
0
31
0
86
0
100
0
82
0
111
0
127
0
124
0
115
0
74
0
81
0
132
0
128
0
120
0
92
0
53
0
46
0
66
0
86
0
85
0
110
0
69
0
52
0
90
0
102
0
33
0
9
0
100
0
121
0
126
0
108
0
87
0
84
0
75
0
56
0
45
0
43
0
83
0
107
0
118
0
123
0
83
0
22
0
2
0
37
0
124
0
131
0
88
0
12
0
41
0
42
0
51
0
64
0
66
0
44
0
14
0
13
0
18
0
10
0
4
0
8
0
42
0
78
0
81
255
204
255
235
255
251
255
253
255
254
255
247
255
220
255
188
255
188
255
219
255
245
255
251
255
253
255
250
255
191
255
156
255
184
255
241
255
251
255
225
255
188
255
193
255
202
255
217
255
227
255
221
255
210
255
208
255
197
255
198
255
191
255
196
255
193
255
193
255
207
255
204
255
186
255
181
255
169
255
159
255
153
255
151
255
149
255
147
255
142
255
151
255
183
255
222
255
202
255
156
255
144
255
134
255
135
255
122
255
124
255
114
255
125
255
142
255
197
255
131
255
119
255
118
255
117
255
114
255
111
255
110
255
109
255
107
255
108
255
109
255
100
255
110
255
149
255
173
255
168
0
92
0
93
0
86
0
84
0
68
0
76
0
66
0
35
0
72
0
59
0
78
0
61
0
44
0
62
0
53
0
35
0
53
0
37
0
19
0
20
0
49
0
43
0
24
0
55
0
0
0
0
0
0
0
0
0
0
0
0
0
0
0
0
0
0
0
0
0
0
0
0
0
0
0
0
0
0
0
0
0
0
0
0
0
0
0
0
0
0
0
0
0
0
0
0
0
0
0
0
0
0
0
0
0
0
0
0
0
0
0
0
0
0
0
0
0
0
0
0
0
0
0
0
0
0
0
0
0
0
0
0
0
0
0
0
0
0
0
0
0
0
0
0
0
0
0
0
0
0
0
0
0
0
0
0
0
0
0
0
0
0
0
0
0
0
0
0
0
0
0
0
0
0
0
0
0
0
0
0
0
0
0
0
0
0
0
0
0
0
0
0
0
0
0
0
0
0
0
0
0
0
0
0
0
0
0
0
0
0
0
0
0
0
0
0
0
0
0
0
0
0
0
0
0
0
0
0
0
0
0
0
0
0
0
0
0
0
0
0
0
0
0
0
0
0
0
0
0
0
0
0
0
0
0
0
0
0
0
0
0
0
0
0
0
0
0
0
0
0
0
0
0
0
0
0
0
0
0
0
0
0
0
0
0
0
0
0
0
0
0
0
0
0
0
255
255
255
255
255
255
255
255
255
255
255
255
255
255
255
255
255
255
255
255
255
255
255
255
255
255
255
255
255
255
255
255
255
255
255
255
255
255
255
255
255
255
255
255
255
255
255
255
255
255
255
255
255
255
255
255
255
255
255
255
255
255
255
255
255
255
255
255
255
255
255
255
255
255
255
255
255
255
255
255
255
255
255
255
255
255
255
255
255
255
255
255
255
255
255
255
255
255
255
255
255
255
255
255
255
255
255
255
255
255
255
255
255
255
255
255
255
255
255
255
255
255
255
255
255
255
255
255
255
255
255
255
255
255
255
255
255
255
255
255
255
255
255
255
255
255
255
255
255
255
0
0
0
0
0
0
0
0
0
0
0
0
0
0
0
0
0
0
0
0
0
0
0
0
0
0
0
0
0
0
0
0
0
0
0
0
0
0
0
0
0
0
0
0
0
0
0
0
13
0
13
0
37
0
43
0
39
0
41
0
31
0
35
0
25
0
19
0
11
0
17
0
19
0
29
0
75
0
99
0
117
0
105
0
101
0
111
0
122
0
128
0
128
0
127
0
106
0
123
0
130
0
134
0
137
0
107
0
67
0
51
0
68
0
65
0
62
0
56
0
47
0
59
0
80
0
91
0
101
0
99
0
98
0
105
0
115
0
123
0
125
0
123
0
115
0
123
0
134
0
142
0
144
0
143
0
143
0
143
0
135
0
147
0
118
0
90
0
46
0
42
0
107
0
114
0
62
0
106
0
131
0
113
0
91
0
90
0
99
0
105
0
77
0
53
0
29
0
40
0
84
0
111
0
99
0
81
0
99
0
80
0
87
0
61
0
6
0
27
0
105
0
120
0
132
0
121
0
94
0
80
0
82
0
70
0
50
0
44
0
56
0
96
0
108
0
112
0
118
0
73
0
10
0
1
0
64
0
124
0
121
0
59
0
14
0
33
0
49
0
61
0
65
0
60
0
35
0
5
0
1
0
3
0
1
0
0
0
18
0
73
0
85
0
46
255
241
255
249
255
252
255
251
255
254
255
247
255
228
255
214
255
225
255
249
255
255
255
250
255
248
255
250
255
212
255
163
255
181
255
244
255
234
255
197
255
176
255
199
255
221
255
235
255
231
255
207
255
193
255
197
255
195
255
197
255
191
255
196
255
194
255
193
255
207
255
204
255
167
255
168
255
166
255
164
255
160
255
155
255
151
255
148
255
192
255
183
255
189
255
207
255
177
255
134
255
133
255
136
255
131
255
131
255
130
255
122
255
115
255
136
255
196
255
122
255
120
255
116
255
111
255
107
255
105
255
104
255
106
255
108
255
100
255
103
255
95
255
107
255
153
255
171
255
157
0
106
0
82
0
73
0
82
0
68
0
67
0
55
0
15
0
21
0
20
0
46
0
21
0
30
0
45
0
22
0
20
0
22
0
9
0
18
0
29
0
69
0
71
0
19
0
21
0
0
0
0
0
0
0
0
0
0
0
0
0
0
0
0
0
0
0
0
0
0
0
0
0
0
0
0
0
0
0
0
0
0
0
0
0
0
0
0
0
0
0
0
0
0
0
0
0
0
0
0
0
0
0
0
0
0
0
0
0
0
0
0
0
0
0
0
0
0
0
0
0
0
0
0
0
0
0
0
0
0
0
0
0
0
0
0
0
0
0
0
0
0
0
0
0
0
0
0
0
0
0
0
0
0
0
0
0
0
0
0
0
0
0
0
0
0
0
0
0
0
0
0
0
0
0
0
0
0
0
0
0
0
0
0
0
0
0
0
0
0
0
0
0
0
0
0
0
0
0
0
0
0
0
0
0
0
0
0
0
0
0
0
0
0
0
0
0
0
0
0
0
0
0
0
0
0
0
0
0
0
0
0
0
0
0
0
0
0
0
0
0
0
0
0
0
0
0
0
0
0
0
0
0
0
0
0
0
0
0
0
0
0
0
0
0
0
0
0
0
0
0
0
0
0
0
0
0
0
0
0
0
0
0
0
0
0
0
0
0
0
0
0
0
0
0
255
255
255
255
255
255
255
255
255
255
255
255
255
255
255
255
255
255
255
255
255
255
255
255
255
255
255
255
255
255
255
255
255
255
255
255
255
255
255
255
255
255
255
255
255
255
255
255
255
255
255
255
255
255
255
255
255
255
255
255
255
255
255
255
255
255
255
255
255
255
255
255
255
255
255
255
255
255
255
255
255
255
255
255
255
255
255
255
255
255
255
255
255
255
255
255
255
255
255
255
255
255
255
255
255
255
255
255
255
255
255
255
255
255
255
255
255
255
255
255
255
255
255
255
255
255
255
255
255
255
255
255
255
255
255
255
255
255
255
255
255
255
255
255
255
255
255
255
255
255
0
0
0
0
0
0
0
0
0
0
0
0
0
0
0
0
0
0
0
0
0
0
0
0
0
0
0
0
0
0
0
0
0
0
0
0
0
0
0
0
0
0
0
0
0
0
0
0
25
0
21
0
34
0
26
0
17
0
19
0
6
0
5
0
18
0
36
0
36
0
40
0
33
0
19
0
26
0
27
0
48
0
55
0
83
0
108
0
114
0
115
0
112
0
102
0
90
0
110
0
109
0
96
0
87
0
64
0
52
0
69
0
96
0
94
0
96
0
95
0
92
0
91
0
84
0
69
0
58
0
58
0
60
0
67
0
80
0
92
0
98
0
98
0
111
0
118
0
126
0
129
0
129
0
128
0
129
0
132
0
102
0
105
0
77
0
76
0
50
0
49
0
116
0
106
0
62
0
96
0
137
0
133
0
93
0
64
0
47
0
50
0
63
0
68
0
65
0
75
0
97
0
99
0
91
0
96
0
89
0
54
0
18
0
11
0
54
0
96
0
118
0
130
0
124
0
108
0
84
0
77
0
79
0
60
0
39
0
40
0
73
0
101
0
105
0
112
0
116
0
57
0
2
0
11
0
72
0
123
0
118
0
38
0
18
0
34
0
54
0
61
0
61
0
45
0
18
0
2
0
1
0
3
0
4
0
3
0
32
0
82
0
70
0
16
255
254
255
254
255
255
255
250
255
254
255
255
255
254
255
246
255
247
255
254
255
255
255
254
255
245
255
254
255
235
255
183
255
209
255
236
255
193
255
193
255
202
255
213
255
223
255
230
255
222
255
202
255
190
255
194
255
196
255
199
255
194
255
198
255
195
255
193
255
207
255
204
255
174
255
174
255
167
255
156
255
149
255
160
255
190
255
216
255
184
255
165
255
161
255
188
255
178
255
141
255
133
255
131
255
130
255
136
255
135
255
130
255
114
255
145
255
193
255
113
255
113
255
115
255
119
255
123
255
121
255
114
255
107
255
104
255
107
255
108
255
95
255
108
255
153
255
175
255
184
0
50
0
53
0
38
0
46
0
41
0
40
0
49
0
32
0
24
0
56
0
60
0
31
0
54
0
70
0
34
0
33
0
19
0
5
0
36
0
48
0
66
0
66
0
29
0
15
0
0
0
0
0
0
0
0
0
0
0
0
0
0
0
0
0
0
0
0
0
0
0
0
0
0
0
0
0
0
0
0
0
0
0
0
0
0
0
0
0
0
0
0
0
0
0
0
0
0
0
0
0
0
0
0
0
0
0
0
0
0
0
0
0
0
0
0
0
0
0
0
0
0
0
0
0
0
0
0
0
0
0
0
0
0
0
0
0
0
0
0
0
0
0
0
0
0
0
0
0
0
0
0
0
0
0
0
0
0
0
0
0
0
0
0
0
0
0
0
0
0
0
0
0
0
0
0
0
0
0
0
0
0
0
0
0
0
0
0
0
0
0
0
0
0
0
0
0
0
0
0
0
0
0
0
0
0
0
0
0
0
0
0
0
0
0
0
0
0
0
0
0
0
0
0
0
0
0
0
0
0
0
0
0
0
0
0
0
0
0
0
0
0
0
0
0
0
0
0
0
0
0
0
0
0
0
0
0
0
0
0
0
0
0
0
0
0
0
0
0
0
0
0
0
0
0
0
0
0
0
0
0
0
0
0
0
0
0
0
0
0
0
0
0
0
0
255
255
255
255
255
255
255
255
255
255
255
255
255
255
255
255
255
255
255
255
255
255
255
255
255
255
255
255
255
255
255
255
255
255
255
255
255
255
255
255
255
255
255
255
255
255
255
255
255
255
255
255
255
255
255
255
255
255
255
255
255
255
255
255
255
255
255
255
255
255
255
255
255
255
255
255
255
255
255
255
255
255
255
255
255
255
255
255
255
255
255
255
255
255
255
255
255
255
255
255
255
255
255
255
255
255
255
255
255
255
255
255
255
255
255
255
255
255
255
255
255
255
255
255
255
255
255
255
255
255
255
255
255
255
255
255
255
255
255
255
255
255
255
255
255
255
255
255
255
255
0
0
0
0
0
0
0
0
0
0
0
0
0
0
0
0
0
0
0
0
0
0
0
0
0
0
0
0
0
0
0
0
0
0
0
0
0
0
0
0
0
0
0
0
0
0
0
0
74
0
65
0
64
0
50
0
44
0
53
0
42
0
33
0
22
0
69
0
87
0
89
0
85
0
71
0
58
0
40
0
15
0
16
0
32
0
47
0
54
0
70
0
80
0
75
0
79
0
83
0
82
0
71
0
55
0
46
0
57
0
74
0
93
0
84
0
81
0
86
0
89
0
101
0
111
0
115
0
110
0
108
0
100
0
88
0
79
0
72
0
65
0
57
0
52
0
58
0
64
0
67
0
66
0
67
0
71
0
76
0
103
0
96
0
96
0
107
0
61
0
52
0
122
0
113
0
80
0
111
0
126
0
90
0
42
0
47
0
74
0
79
0
100
0
91
0
70
0
74
0
105
0
113
0
93
0
83
0
62
0
4
0
18
0
95
0
113
0
114
0
125
0
117
0
120
0
103
0
80
0
76
0
75
0
56
0
45
0
57
0
88
0
97
0
101
0
119
0
112
0
38
0
2
0
40
0
77
0
125
0
106
0
17
0
14
0
40
0
60
0
60
0
58
0
30
0
4
0
1
0
1
0
4
0
6
0
2
0
41
0
62
0
38
0
3
255
254
255
253
255
255
255
251
255
253
255
255
255
255
255
255
255
253
255
255
255
255
255
254
255
241
255
250
255
253
255
220
255
222
255
215
255
181
255
209
255
227
255
215
255
204
255
208
255
214
255
204
255
193
255
193
255
196
255
200
255
193
255
197
255
192
255
189
255
204
255
202
255
177
255
163
255
155
255
170
255
195
255
203
255
184
255
160
255
146
255
132
255
136
255
176
255
180
255
143
255
126
255
120
255
123
255
128
255
130
255
130
255
119
255
167
255
186
255
112
255
115
255
111
255
111
255
113
255
113
255
110
255
110
255
115
255
128
255
145
255
151
255
161
255
193
255
207
255
190
0
78
0
67
0
62
0
77
0
83
0
81
0
86
0
69
0
42
0
68
0
58
0
33
0
64
0
53
0
2
0
3
0
5
0
27
0
57
0
65
0
60
0
42
0
30
0
34
0
0
0
0
0
0
0
0
0
0
0
0
0
0
0
0
0
0
0
0
0
0
0
0
0
0
0
0
0
0
0
0
0
0
0
0
0
0
0
0
0
0
0
0
0
0
0
0
0
0
0
0
0
0
0
0
0
0
0
0
0
0
0
0
0
0
0
0
0
0
0
0
0
0
0
0
0
0
0
0
0
0
0
0
0
0
0
0
0
0
0
0
0
0
0
0
0
0
0
0
0
0
0
0
0
0
0
0
0
0
0
0
0
0
0
0
0
0
0
0
0
0
0
0
0
0
0
0
0
0
0
0
0
0
0
0
0
0
0
0
0
0
0
0
0
0
0
0
0
0
0
0
0
0
0
0
0
0
0
0
0
0
0
0
0
0
0
0
0
0
0
0
0
0
0
0
0
0
0
0
0
0
0
0
0
0
0
0
0
0
0
0
0
0
0
0
0
0
0
0
0
0
0
0
0
0
0
0
0
0
0
0
0
0
0
0
0
0
0
0
0
0
0
0
0
0
0
0
0
0
0
0
0
0
0
0
0
0
0
0
0
0
0
0
0
0
0
255
255
255
255
255
255
255
255
255
255
255
255
255
255
255
255
255
255
255
255
255
255
255
255
255
255
255
255
255
255
255
255
255
255
255
255
255
255
255
255
255
255
255
255
255
255
255
255
255
255
255
255
255
255
255
255
255
255
255
255
255
255
255
255
255
255
255
255
255
255
255
255
255
255
255
255
255
255
255
255
255
255
255
255
255
255
255
255
255
255
255
255
255
255
255
255
255
255
255
255
255
255
255
255
255
255
255
255
255
255
255
255
255
255
255
255
255
255
255
255
255
255
255
255
255
255
255
255
255
255
255
255
255
255
255
255
255
255
255
255
255
255
255
255
255
255
255
255
255
255
0
0
0
0
0
0
0
0
0
0
0
0
0
0
0
0
0
0
0
0
0
0
0
0
0
0
0
0
0
0
0
0
0
0
0
0
0
0
0
0
0
0
0
0
0
0
0
0
60
0
54
0
55
0
40
0
42
0
63
0
56
0
44
0
20
0
77
0
94
0
92
0
88
0
74
0
65
0
56
0
58
0
27
0
1
0
4
0
21
0
59
0
77
0
77
0
89
0
79
0
81
0
84
0
75
0
73
0
81
0
81
0
99
0
101
0
97
0
75
0
49
0
39
0
53
0
68
0
102
0
116
0
126
0
123
0
117
0
114
0
112
0
108
0
117
0
122
0
128
0
133
0
134
0
137
0
140
0
143
0
121
0
119
0
137
0
125
0
53
0
59
0
115
0
110
0
85
0
111
0
96
0
35
0
22
0
80
0
114
0
99
0
92
0
75
0
61
0
76
0
103
0
93
0
50
0
17
0
4
0
86
0
122
0
115
0
120
0
112
0
108
0
135
0
111
0
93
0
67
0
58
0
59
0
49
0
52
0
74
0
94
0
92
0
103
0
122
0
96
0
24
0
8
0
65
0
91
0
124
0
76
0
2
0
11
0
49
0
59
0
65
0
53
0
19
0
1
0
3
0
3
0
4
0
4
0
1
0
34
0
31
0
12
0
2
255
249
255
253
255
255
255
253
255
254
255
251
255
249
255
251
255
254
255
255
255
255
255
251
255
249
255
239
255
252
255
244
255
212
255
199
255
203
255
216
255
214
255
199
255
187
255
197
255
214
255
209
255
195
255
193
255
195
255
198
255
191
255
193
255
188
255
186
255
203
255
202
255
152
255
178
255
210
255
219
255
202
255
171
255
143
255
127
255
145
255
136
255
139
255
172
255
170
255
133
255
127
255
135
255
133
255
129
255
131
255
125
255
123
255
184
255
160
255
107
255
125
255
111
255
100
255
105
255
112
255
137
255
170
255
194
255
166
255
165
255
142
255
114
255
130
255
185
255
202
0
80
0
93
0
81
0
78
0
74
0
66
0
68
0
65
0
46
0
42
0
39
0
57
0
70
0
29
0
1
0
8
0
29
0
53
0
68
0
72
0
58
0
22
0
23
0
55
0
0
0
0
0
0
0
0
0
0
0
0
0
0
0
0
0
0
0
0
0
0
0
0
0
0
0
0
0
0
0
0
0
0
0
0
0
0
0
0
0
0
0
0
0
0
0
0
0
0
0
0
0
0
0
0
0
0
0
0
0
0
0
0
0
0
0
0
0
0
0
0
0
0
0
0
0
0
0
0
0
0
0
0
0
0
0
0
0
0
0
0
0
0
0
0
0
0
0
0
0
0
0
0
0
0
0
0
0
0
0
0
0
0
0
0
0
0
0
0
0
0
0
0
0
0
0
0
0
0
0
0
0
0
0
0
0
0
0
0
0
0
0
0
0
0
0
0
0
0
0
0
0
0
0
0
0
0
0
0
0
0
0
0
0
0
0
0
0
0
0
0
0
0
0
0
0
0
0
0
0
0
0
0
0
0
0
0
0
0
0
0
0
0
0
0
0
0
0
0
0
0
0
0
0
0
0
0
0
0
0
0
0
0
0
0
0
0
0
0
0
0
0
0
0
0
0
0
0
0
0
0
0
0
0
0
0
0
0
0
0
0
0
0
0
0
0
255
255
255
255
255
255
255
255
255
255
255
255
255
255
255
255
255
255
255
255
255
255
255
255
255
255
255
255
255
255
255
255
255
255
255
255
255
255
255
255
255
255
255
255
255
255
255
255
255
255
255
255
255
255
255
255
255
255
255
255
255
255
255
255
255
255
255
255
255
255
255
255
255
255
255
255
255
255
255
255
255
255
255
255
255
255
255
255
255
255
255
255
255
255
255
255
255
255
255
255
255
255
255
255
255
255
255
255
255
255
255
255
255
255
255
255
255
255
255
255
255
255
255
255
255
255
255
255
255
255
255
255
255
255
255
255
255
255
255
255
255
255
255
255
255
255
255
255
255
255
0
0
0
0
0
0
0
0
0
0
0
0
0
0
0
0
0
0
0
0
0
0
0
0
0
0
0
0
0
0
0
0
0
0
0
0
0
0
0
0
0
0
0
0
0
0
0
0
51
0
57
0
66
0
48
0
42
0
57
0
50
0
39
0
2
0
62
0
84
0
92
0
92
0
65
0
55
0
62
0
78
0
96
0
86
0
42
0
10
0
14
0
37
0
71
0
78
0
70
0
73
0
78
0
75
0
75
0
82
0
89
0
85
0
86
0
71
0
35
0
16
0
12
0
10
0
4
0
38
0
70
0
104
0
118
0
120
0
123
0
125
0
127
0
128
0
133
0
139
0
146
0
147
0
147
0
143
0
141
0
124
0
126
0
139
0
83
0
40
0
88
0
100
0
52
0
35
0
39
0
49
0
65
0
81
0
96
0
97
0
92
0
103
0
83
0
67
0
44
0
2
0
13
0
37
0
63
0
96
0
103
0
122
0
123
0
108
0
115
0
127
0
116
0
90
0
76
0
52
0
44
0
50
0
49
0
55
0
76
0
89
0
91
0
112
0
118
0
70
0
14
0
24
0
75
0
106
0
114
0
35
0
5
0
15
0
62
0
51
0
67
0
41
0
8
0
4
0
13
0
6
0
3
0
1
0
4
0
16
0
7
0
4
0
4
255
252
255
254
255
255
255
254
255
253
255
250
255
248
255
252
255
254
255
254
255
253
255
251
255
254
255
244
255
240
255
244
255
216
255
200
255
210
255
201
255
192
255
187
255
191
255
207
255
217
255
204
255
192
255
195
255
195
255
198
255
192
255
194
255
189
255
189
255
209
255
210
255
215
255
216
255
207
255
185
255
162
255
151
255
157
255
167
255
143
255
141
255
151
255
187
255
183
255
137
255
126
255
137
255
139
255
127
255
135
255
121
255
129
255
205
255
145
255
125
255
125
255
145
255
179
255
205
255
200
255
165
255
124
255
107
255
112
255
102
255
103
255
93
255
94
255
151
255
194
0
72
0
77
0
77
0
75
0
79
0
76
0
74
0
76
0
63
0
12
0
12
0
64
0
47
0
15
0
21
0
32
0
54
0
61
0
71
0
64
0
43
0
12
0
25
0
66
0
0
0
0
0
0
0
0
0
0
0
0
0
0
0
0
0
0
0
0
0
0
0
0
0
0
0
0
0
0
0
0
0
0
0
0
0
0
0
0
0
0
0
0
0
0
0
0
0
0
0
0
0
0
0
0
0
0
0
0
0
0
0
0
0
0
0
0
0
0
0
0
0
0
0
0
0
0
0
0
0
0
0
0
0
0
0
0
0
0
0
0
0
0
0
0
0
0
0
0
0
0
0
0
0
0
0
0
0
0
0
0
0
0
0
0
0
0
0
0
0
0
0
0
0
0
0
0
0
0
0
0
0
0
0
0
0
0
0
0
0
0
0
0
0
0
0
0
0
0
0
0
0
0
0
0
0
0
0
0
0
0
0
0
0
0
0
0
0
0
0
0
0
0
0
0
0
0
0
0
0
0
0
0
0
0
0
0
0
0
0
0
0
0
0
0
0
0
0
0
0
0
0
0
0
0
0
0
0
0
0
0
0
0
0
0
0
0
0
0
0
0
0
0
0
0
0
0
0
0
0
0
0
0
0
0
0
0
0
0
0
0
0
0
0
0
0
255
255
255
255
255
255
255
255
255
255
255
255
255
255
255
255
255
255
255
255
255
255
255
255
255
255
255
255
255
255
255
255
255
255
255
255
255
255
255
255
255
255
255
255
255
255
255
255
255
255
255
255
255
255
255
255
255
255
255
255
255
255
255
255
255
255
255
255
255
255
255
255
255
255
255
255
255
255
255
255
255
255
255
255
255
255
255
255
255
255
255
255
255
255
255
255
255
255
255
255
255
255
255
255
255
255
255
255
255
255
255
255
255
255
255
255
255
255
255
255
255
255
255
255
255
255
255
255
255
255
255
255
255
255
255
255
255
255
255
255
255
255
255
255
255
255
255
255
255
255
0
0
0
0
0
0
0
0
0
0
0
0
0
0
0
0
0
0
0
0
0
0
0
0
0
0
0
0
0
0
0
0
0
0
0
0
0
0
0
0
0
0
0
0
0
0
0
0
19
0
38
0
63
0
48
0
39
0
54
0
52
0
45
0
12
0
59
0
71
0
83
0
84
0
57
0
64
0
97
0
83
0
92
0
74
0
62
0
71
0
58
0
21
0
10
0
20
0
20
0
17
0
16
0
15
0
13
0
29
0
56
0
58
0
49
0
25
0
6
0
34
0
85
0
96
0
66
0
4
0
40
0
88
0
111
0
115
0
117
0
120
0
121
0
123
0
127
0
135
0
141
0
142
0
135
0
125
0
117
0
118
0
117
0
109
0
28
0
38
0
132
0
90
0
36
0
45
0
79
0
93
0
81
0
74
0
78
0
83
0
92
0
58
0
4
0
3
0
34
0
58
0
84
0
107
0
109
0
132
0
117
0
108
0
109
0
113
0
122
0
119
0
105
0
77
0
69
0
50
0
46
0
59
0
61
0
61
0
74
0
83
0
94
0
120
0
112
0
51
0
11
0
36
0
76
0
113
0
101
0
9
0
17
0
26
0
71
0
41
0
64
0
28
0
2
0
6
0
19
0
6
0
3
0
1
0
8
0
2
0
0
0
6
0
7
255
253
255
255
255
250
255
255
255
252
255
254
255
255
255
254
255
253
255
246
255
249
255
252
255
236
255
253
255
223
255
224
255
232
255
208
255
198
255
181
255
173
255
187
255
204
255
221
255
218
255
197
255
190
255
201
255
198
255
200
255
195
255
198
255
194
255
195
255
217
255
219
255
212
255
192
255
169
255
155
255
155
255
156
255
152
255
146
255
143
255
137
255
140
255
175
255
177
255
138
255
129
255
140
255
124
255
111
255
128
255
115
255
139
255
227
255
162
255
166
255
194
255
171
255
144
255
124
255
110
255
101
255
108
255
120
255
111
255
87
255
106
255
124
255
92
255
104
255
164
0
66
0
91
0
90
0
78
0
79
0
76
0
73
0
83
0
82
0
20
0
23
0
57
0
24
0
8
0
61
0
43
0
42
0
58
0
74
0
53
0
16
0
7
0
36
0
69
0
0
0
0
0
0
0
0
0
0
0
0
0
0
0
0
0
0
0
0
0
0
0
0
0
0
0
0
0
0
0
0
0
0
0
0
0
0
0
0
0
0
0
0
0
0
0
0
0
0
0
0
0
0
0
0
0
0
0
0
0
0
0
0
0
0
0
0
0
0
0
0
0
0
0
0
0
0
0
0
0
0
0
0
0
0
0
0
0
0
0
0
0
0
0
0
0
0
0
0
0
0
0
0
0
0
0
0
0
0
0
0
0
0
0
0
0
0
0
0
0
0
0
0
0
0
0
0
0
0
0
0
0
0
0
0
0
0
0
0
0
0
0
0
0
0
0
0
0
0
0
0
0
0
0
0
0
0
0
0
0
0
0
0
0
0
0
0
0
0
0
0
0
0
0
0
0
0
0
0
0
0
0
0
0
0
0
0
0
0
0
0
0
0
0
0
0
0
0
0
0
0
0
0
0
0
0
0
0
0
0
0
0
0
0
0
0
0
0
0
0
0
0
0
0
0
0
0
0
0
0
0
0
0
0
0
0
0
0
0
0
0
0
0
0
0
0
255
255
255
255
255
255
255
255
255
255
255
255
255
255
255
255
255
255
255
255
255
255
255
255
255
255
255
255
255
255
255
255
255
255
255
255
255
255
255
255
255
255
255
255
255
255
255
255
255
255
255
255
255
255
255
255
255
255
255
255
255
255
255
255
255
255
255
255
255
255
255
255
255
255
255
255
255
255
255
255
255
255
255
255
255
255
255
255
255
255
255
255
255
255
255
255
255
255
255
255
255
255
255
255
255
255
255
255
255
255
255
255
255
255
255
255
255
255
255
255
255
255
255
255
255
255
255
255
255
255
255
255
255
255
255
255
255
255
255
255
255
255
255
255
255
255
255
255
255
255
0
0
0
0
0
0
0
0
0
0
0
0
0
0
0
0
0
0
0
0
0
0
0
0
0
0
0
0
0
0
0
0
0
0
0
0
0
0
0
0
0
0
0
0
0
0
0
0
1
0
15
0
37
0
31
0
45
0
66
0
54
0
47
0
13
0
43
0
68
0
98
0
78
0
55
0
82
0
88
0
94
0
82
0
47
0
68
0
93
0
82
0
82
0
71
0
46
0
40
0
45
0
37
0
13
0
13
0
32
0
32
0
19
0
13
0
4
0
27
0
63
0
85
0
100
0
112
0
82
0
24
0
88
0
127
0
108
0
123
0
124
0
119
0
135
0
129
0
130
0
129
0
124
0
122
0
121
0
119
0
112
0
104
0
52
0
48
0
103
0
90
0
43
0
43
0
101
0
98
0
78
0
44
0
24
0
21
0
12
0
0
0
38
0
66
0
89
0
99
0
110
0
116
0
114
0
112
0
104
0
103
0
105
0
108
0
108
0
114
0
116
0
109
0
77
0
61
0
56
0
56
0
46
0
43
0
59
0
75
0
92
0
98
0
130
0
105
0
22
0
18
0
64
0
61
0
139
0
54
0
32
0
7
0
51
0
48
0
54
0
37
0
14
0
10
0
4
0
3
0
6
0
8
0
5
0
2
0
3
0
3
0
2
0
1
255
254
255
253
255
252
255
251
255
253
255
250
255
248
255
242
255
248
255
251
255
248
255
252
255
243
255
223
255
207
255
231
255
193
255
170
255
174
255
189
255
192
255
193
255
194
255
210
255
220
255
202
255
184
255
188
255
193
255
188
255
194
255
199
255
199
255
217
255
226
255
206
255
170
255
169
255
165
255
164
255
163
255
159
255
154
255
149
255
150
255
122
255
114
255
178
255
189
255
125
255
122
255
125
255
120
255
132
255
160
255
159
255
208
255
216
255
148
255
151
255
125
255
106
255
99
255
99
255
99
255
106
255
111
255
104
255
128
255
155
255
160
255
121
255
99
255
107
255
140
0
52
0
86
0
77
0
77
0
81
0
79
0
78
0
83
0
86
0
42
0
2
0
18
0
15
0
39
0
90
0
59
0
61
0
52
0
24
0
18
0
3
0
22
0
49
0
47
0
0
0
0
0
0
0
0
0
0
0
0
0
0
0
0
0
0
0
0
0
0
0
0
0
0
0
0
0
0
0
0
0
0
0
0
0
0
0
0
0
0
0
0
0
0
0
0
0
0
0
0
0
0
0
0
0
0
0
0
0
0
0
0
0
0
0
0
0
0
0
0
0
0
0
0
0
0
0
0
0
0
0
0
0
0
0
0
0
0
0
0
0
0
0
0
0
0
0
0
0
0
0
0
0
0
0
0
0
0
0
0
0
0
0
0
0
0
0
0
0
0
0
0
0
0
0
0
0
0
0
0
0
0
0
0
0
0
0
0
0
0
0
0
0
0
0
0
0
0
0
0
0
0
0
0
0
0
0
0
0
0
0
0
0
0
0
0
0
0
0
0
0
0
0
0
0
0
0
0
0
0
0
0
0
0
0
0
0
0
0
0
0
0
0
0
0
0
0
0
0
0
0
0
0
0
0
0
0
0
0
0
0
0
0
0
0
0
0
0
0
0
0
0
0
0
0
0
0
0
0
0
0
0
0
0
0
0
0
0
0
0
0
0
0
0
0
255
255
255
255
255
255
255
255
255
255
255
255
255
255
255
255
255
255
255
255
255
255
255
255
255
255
255
255
255
255
255
255
255
255
255
255
255
255
255
255
255
255
255
255
255
255
255
255
255
255
255
255
255
255
255
255
255
255
255
255
255
255
255
255
255
255
255
255
255
255
255
255
255
255
255
255
255
255
255
255
255
255
255
255
255
255
255
255
255
255
255
255
255
255
255
255
255
255
255
255
255
255
255
255
255
255
255
255
255
255
255
255
255
255
255
255
255
255
255
255
255
255
255
255
255
255
255
255
255
255
255
255
255
255
255
255
255
255
255
255
255
255
255
255
255
255
255
255
255
255
0
0
0
0
0
0
0
0
0
0
0
0
0
0
0
0
0
0
0
0
0
0
0
0
0
0
0
0
0
0
0
0
0
0
0
0
0
0
0
0
0
0
0
0
0
0
0
0
11
0
1
0
11
0
18
0
32
0
51
0
56
0
68
0
6
0
33
0
71
0
87
0
65
0
72
0
103
0
91
0
89
0
68
0
59
0
82
0
90
0
91
0
93
0
70
0
66
0
70
0
74
0
74
0
69
0
60
0
63
0
79
0
85
0
73
0
61
0
55
0
59
0
71
0
96
0
119
0
101
0
33
0
82
0
125
0
112
0
117
0
114
0
112
0
117
0
122
0
134
0
135
0
122
0
114
0
113
0
112
0
73
0
22
0
33
0
96
0
94
0
48
0
56
0
95
0
66
0
50
0
20
0
3
0
11
0
46
0
68
0
70
0
74
0
93
0
101
0
99
0
105
0
110
0
113
0
115
0
110
0
108
0
110
0
111
0
108
0
111
0
108
0
99
0
65
0
48
0
43
0
45
0
41
0
44
0
64
0
82
0
99
0
99
0
129
0
76
0
12
0
34
0
64
0
94
0
119
0
28
0
9
0
4
0
46
0
43
0
38
0
18
0
2
0
3
0
7
0
8
0
6
0
3
0
2
0
2
0
4
0
2
0
0
0
0
255
255
255
254
255
254
255
254
255
249
255
238
255
227
255
240
255
254
255
253
255
238
255
217
255
194
255
184
255
182
255
219
255
190
255
168
255
170
255
181
255
195
255
194
255
196
255
211
255
219
255
201
255
184
255
190
255
200
255
188
255
192
255
203
255
214
255
229
255
224
255
191
255
170
255
168
255
166
255
164
255
162
255
159
255
153
255
149
255
160
255
133
255
137
255
193
255
172
255
126
255
137
255
114
255
165
255
182
255
188
255
146
255
149
255
176
255
138
255
96
255
110
255
107
255
115
255
116
255
115
255
123
255
164
255
208
255
211
255
167
255
129
255
110
255
107
255
99
255
114
0
76
0
62
0
68
0
83
0
91
0
84
0
74
0
67
0
60
0
72
0
14
0
47
0
66
0
75
0
72
0
21
0
24
0
29
0
25
0
22
0
8
0
22
0
47
0
52
0
0
0
0
0
0
0
0
0
0
0
0
0
0
0
0
0
0
0
0
0
0
0
0
0
0
0
0
0
0
0
0
0
0
0
0
0
0
0
0
0
0
0
0
0
0
0
0
0
0
0
0
0
0
0
0
0
0
0
0
0
0
0
0
0
0
0
0
0
0
0
0
0
0
0
0
0
0
0
0
0
0
0
0
0
0
0
0
0
0
0
0
0
0
0
0
0
0
0
0
0
0
0
0
0
0
0
0
0
0
0
0
0
0
0
0
0
0
0
0
0
0
0
0
0
0
0
0
0
0
0
0
0
0
0
0
0
0
0
0
0
0
0
0
0
0
0
0
0
0
0
0
0
0
0
0
0
0
0
0
0
0
0
0
0
0
0
0
0
0
0
0
0
0
0
0
0
0
0
0
0
0
0
0
0
0
0
0
0
0
0
0
0
0
0
0
0
0
0
0
0
0
0
0
0
0
0
0
0
0
0
0
0
0
0
0
0
0
0
0
0
0
0
0
0
0
0
0
0
0
0
0
0
0
0
0
0
0
0
0
0
0
0
0
0
0
0
255
255
255
255
255
255
255
255
255
255
255
255
255
255
255
255
255
255
255
255
255
255
255
255
255
255
255
255
255
255
255
255
255
255
255
255
255
255
255
255
255
255
255
255
255
255
255
255
255
255
255
255
255
255
255
255
255
255
255
255
255
255
255
255
255
255
255
255
255
255
255
255
255
255
255
255
255
255
255
255
255
255
255
255
255
255
255
255
255
255
255
255
255
255
255
255
255
255
255
255
255
255
255
255
255
255
255
255
255
255
255
255
255
255
255
255
255
255
255
255
255
255
255
255
255
255
255
255
255
255
255
255
255
255
255
255
255
255
255
255
255
255
255
255
255
255
255
255
255
255
0
0
0
0
0
0
0
0
0
0
0
0
0
0
0
0
0
0
0
0
0
0
0
0
0
0
0
0
0
0
0
0
0
0
0
0
0
0
0
0
0
0
0
0
0
0
0
0
117
0
42
0
0
0
2
0
12
0
49
0
60
0
61
0
13
0
19
0
70
0
78
0
59
0
84
0
106
0
94
0
81
0
54
0
78
0
94
0
84
0
97
0
95
0
63
0
61
0
70
0
72
0
76
0
68
0
28
0
5
0
27
0
75
0
79
0
93
0
93
0
82
0
84
0
110
0
137
0
78
0
17
0
55
0
98
0
95
0
100
0
94
0
100
0
105
0
100
0
99
0
89
0
74
0
66
0
66
0
65
0
56
0
37
0
63
0
70
0
26
0
29
0
69
0
73
0
6
0
21
0
42
0
67
0
86
0
93
0
84
0
72
0
98
0
110
0
110
0
103
0
102
0
105
0
106
0
111
0
111
0
110
0
112
0
111
0
106
0
103
0
96
0
82
0
57
0
40
0
33
0
38
0
40
0
50
0
71
0
87
0
99
0
101
0
119
0
46
0
14
0
55
0
70
0
126
0
102
0
14
0
3
0
22
0
56
0
55
0
41
0
11
0
0
0
1
0
8
0
10
0
2
0
3
0
15
0
24
0
8
0
4
0
0
0
0
255
253
255
252
255
253
255
255
255
251
255
200
255
165
255
194
255
243
255
251
255
208
255
166
255
164
255
159
255
168
255
214
255
192
255
173
255
175
255
184
255
196
255
193
255
194
255
208
255
213
255
196
255
186
255
194
255
194
255
201
255
214
255
214
255
204
255
205
255
212
255
202
255
170
255
168
255
166
255
164
255
160
255
156
255
151
255
147
255
161
255
138
255
134
255
181
255
173
255
125
255
154
255
192
255
208
255
151
255
116
255
113
255
130
255
163
255
157
255
114
255
110
255
119
255
129
255
166
255
227
255
251
255
204
255
148
255
122
255
99
255
99
255
106
255
101
255
82
255
93
0
94
0
82
0
74
0
73
0
77
0
84
0
91
0
89
0
77
0
68
0
20
0
54
0
61
0
39
0
29
0
15
0
28
0
31
0
51
0
39
0
28
0
30
0
41
0
56
0
0
0
0
0
0
0
0
0
0
0
0
0
0
0
0
0
0
0
0
0
0
0
0
0
0
0
0
0
0
0
0
0
0
0
0
0
0
0
0
0
0
0
0
0
0
0
0
0
0
0
0
0
0
0
0
0
0
0
0
0
0
0
0
0
0
0
0
0
0
0
0
0
0
0
0
0
0
0
0
0
0
0
0
0
0
0
0
0
0
0
0
0
0
0
0
0
0
0
0
0
0
0
0
0
0
0
0
0
0
0
0
0
0
0
0
0
0
0
0
0
0
0
0
0
0
0
0
0
0
0
0
0
0
0
0
0
0
0
0
0
0
0
0
0
0
0
0
0
0
0
0
0
0
0
0
0
0
0
0
0
0
0
0
0
0
0
0
0
0
0
0
0
0
0
0
0
0
0
0
0
0
0
0
0
0
0
0
0
0
0
0
0
0
0
0
0
0
0
0
0
0
0
0
0
0
0
0
0
0
0
0
0
0
0
0
0
0
0
0
0
0
0
0
0
0
0
0
0
0
0
0
0
0
0
0
0
0
0
0
0
0
0
0
0
0
0
255
255
255
255
255
255
255
255
255
255
255
255
255
255
255
255
255
255
255
255
255
255
255
255
255
255
255
255
255
255
255
255
255
255
255
255
255
255
255
255
255
255
255
255
255
255
255
255
255
255
255
255
255
255
255
255
255
255
255
255
255
255
255
255
255
255
255
255
255
255
255
255
255
255
255
255
255
255
255
255
255
255
255
255
255
255
255
255
255
255
255
255
255
255
255
255
255
255
255
255
255
255
255
255
255
255
255
255
255
255
255
255
255
255
255
255
255
255
255
255
255
255
255
255
255
255
255
255
255
255
255
255
255
255
255
255
255
255
255
255
255
255
255
255
255
255
255
255
255
255
0
0
0
0
0
0
0
0
0
0
0
0
0
0
0
0
0
0
0
0
0
0
0
0
0
0
0
0
0
0
0
0
0
0
0
0
0
0
0
0
0
0
0
0
0
0
0
0
234
0
156
0
86
0
18
0
1
0
24
0
46
0
46
0
24
0
15
0
64
0
75
0
66
0
82
0
87
0
99
0
70
0
55
0
93
0
96
0
80
0
93
0
77
0
53
0
72
0
78
0
85
0
89
0
70
0
29
0
20
0
48
0
55
0
63
0
95
0
119
0
105
0
85
0
98
0
121
0
48
0
21
0
54
0
79
0
74
0
74
0
67
0
69
0
73
0
65
0
68
0
81
0
100
0
116
0
120
0
110
0
71
0
76
0
79
0
63
0
35
0
25
0
16
0
7
0
12
0
29
0
57
0
76
0
79
0
75
0
77
0
85
0
91
0
104
0
108
0
105
0
105
0
104
0
100
0
100
0
108
0
106
0
108
0
107
0
102
0
95
0
84
0
67
0
50
0
35
0
32
0
41
0
47
0
59
0
77
0
88
0
95
0
107
0
89
0
28
0
31
0
72
0
88
0
132
0
74
0
13
0
17
0
43
0
66
0
74
0
51
0
13
0
9
0
2
0
4
0
4
0
1
0
14
0
42
0
57
0
12
0
7
0
3
0
3
255
249
255
248
255
250
255
253
255
231
255
182
255
160
255
193
255
228
255
216
255
179
255
150
255
167
255
160
255
166
255
211
255
190
255
174
255
179
255
192
255
193
255
189
255
191
255
205
255
206
255
194
255
192
255
202
255
206
255
213
255
221
255
209
255
186
255
183
255
198
255
209
255
172
255
170
255
166
255
162
255
157
255
152
255
147
255
145
255
140
255
118
255
158
255
206
255
170
255
166
255
198
255
159
255
114
255
121
255
115
255
110
255
110
255
140
255
164
255
125
255
127
255
179
255
218
255
219
255
185
255
124
255
90
255
102
255
95
255
90
255
93
255
98
255
107
255
109
255
102
0
134
0
74
0
81
0
86
0
76
0
61
0
64
0
75
0
78
0
43
0
15
0
34
0
32
0
24
0
57
0
57
0
36
0
35
0
56
0
36
0
39
0
40
0
37
0
59
0
0
0
0
0
0
0
0
0
0
0
0
0
0
0
0
0
0
0
0
0
0
0
0
0
0
0
0
0
0
0
0
0
0
0
0
0
0
0
0
0
0
0
0
0
0
0
0
0
0
0
0
0
0
0
0
0
0
0
0
0
0
0
0
0
0
0
0
0
0
0
0
0
0
0
0
0
0
0
0
0
0
0
0
0
0
0
0
0
0
0
0
0
0
0
0
0
0
0
0
0
0
0
0
0
0
0
0
0
0
0
0
0
0
0
0
0
0
0
0
0
0
0
0
0
0
0
0
0
0
0
0
0
0
0
0
0
0
0
0
0
0
0
0
0
0
0
0
0
0
0
0
0
0
0
0
0
0
0
0
0
0
0
0
0
0
0
0
0
0
0
0
0
0
0
0
0
0
0
0
0
0
0
0
0
0
0
0
0
0
0
0
0
0
0
0
0
0
0
0
0
0
0
0
0
0
0
0
0
0
0
0
0
0
0
0
0
0
0
0
0
0
0
0
0
0
0
0
0
0
0
0
0
0
0
0
0
0
0
0
0
0
0
0
0
0
0
255
255
255
255
255
255
255
255
255
255
255
255
255
255
255
255
255
255
255
255
255
255
255
255
255
255
255
255
255
255
255
255
255
255
255
255
255
255
255
255
255
255
255
255
255
255
255
255
255
255
255
255
255
255
255
255
255
255
255
255
255
255
255
255
255
255
255
255
255
255
255
255
255
255
255
255
255
255
255
255
255
255
255
255
255
255
255
255
255
255
255
255
255
255
255
255
255
255
255
255
255
255
255
255
255
255
255
255
255
255
255
255
255
255
255
255
255
255
255
255
255
255
255
255
255
255
255
255
255
255
255
255
255
255
255
255
255
255
255
255
255
255
255
255
255
255
255
255
255
255
0
0
0
0
0
0
0
0
0
0
0
0
0
0
0
0
0
0
0
0
0
0
0
0
0
0
0
0
0
0
0
0
0
0
0
0
0
0
0
0
0
0
0
0
0
0
0
0
255
0
243
0
217
0
121
0
13
0
2
0
11
0
45
0
15
0
28
0
64
0
66
0
77
0
89
0
79
0
104
0
56
0
66
0
99
0
90
0
84
0
87
0
60
0
59
0
106
0
94
0
94
0
88
0
56
0
48
0
81
0
120
0
96
0
69
0
89
0
129
0
120
0
88
0
89
0
108
0
34
0
68
0
107
0
115
0
114
0
122
0
121
0
121
0
107
0
104
0
109
0
122
0
131
0
130
0
109
0
84
0
75
0
71
0
48
0
32
0
36
0
27
0
3
0
8
0
1
0
12
0
43
0
70
0
78
0
75
0
77
0
86
0
84
0
97
0
102
0
104
0
106
0
102
0
96
0
96
0
103
0
102
0
105
0
104
0
99
0
91
0
76
0
55
0
31
0
24
0
30
0
44
0
55
0
67
0
82
0
90
0
98
0
112
0
51
0
21
0
47
0
74
0
110
0
119
0
31
0
12
0
26
0
48
0
63
0
80
0
47
0
4
0
10
0
1
0
2
0
4
0
7
0
35
0
64
0
67
0
9
0
5
0
2
0
2
255
251
255
250
255
251
255
253
255
210
255
207
255
227
255
243
255
212
255
171
255
160
255
167
255
172
255
164
255
167
255
210
255
185
255
170
255
175
255
187
255
193
255
187
255
196
255
209
255
207
255
197
255
202
255
214
255
220
255
209
255
197
255
191
255
188
255
189
255
194
255
195
255
175
255
171
255
166
255
160
255
153
255
149
255
146
255
146
255
140
255
139
255
170
255
215
255
213
255
161
255
131
255
121
255
124
255
130
255
117
255
124
255
141
255
144
255
150
255
142
255
217
255
232
255
195
255
124
255
97
255
103
255
109
255
104
255
103
255
120
255
142
255
140
255
145
255
149
255
124
0
146
0
87
0
85
0
86
0
80
0
68
0
57
0
43
0
25
0
19
0
28
0
63
0
74
0
70
0
87
0
87
0
61
0
21
0
30
0
21
0
43
0
50
0
35
0
52
0
0
0
0
0
0
0
0
0
0
0
0
0
0
0
0
0
0
0
0
0
0
0
0
0
0
0
0
0
0
0
0
0
0
0
0
0
0
0
0
0
0
0
0
0
0
0
0
0
0
0
0
0
0
0
0
0
0
0
0
0
0
0
0
0
0
0
0
0
0
0
0
0
0
0
0
0
0
0
0
0
0
0
0
0
0
0
0
0
0
0
0
0
0
0
0
0
0
0
0
0
0
0
0
0
0
0
0
0
0
0
0
0
0
0
0
0
0
0
0
0
0
0
0
0
0
0
0
0
0
0
0
0
0
0
0
0
0
0
0
0
0
0
0
0
0
0
0
0
0
0
0
0
0
0
0
0
0
0
0
0
0
0
0
0
0
0
0
0
0
0
0
0
0
0
0
0
0
0
0
0
0
0
0
0
0
0
0
0
0
0
0
0
0
0
0
0
0
0
0
0
0
0
0
0
0
0
0
0
0
0
0
0
0
0
0
0
0
0
0
0
0
0
0
0
0
0
0
0
0
0
0
0
0
0
0
0
0
0
0
0
0
0
0
0
0
0
255
255
255
255
255
255
255
255
255
255
255
255
255
255
255
255
255
255
255
255
255
255
255
255
255
255
255
255
255
255
255
255
255
255
255
255
255
255
255
255
255
255
255
255
255
255
255
255
255
255
255
255
255
255
255
255
255
255
255
255
255
255
255
255
255
255
255
255
255
255
255
255
255
255
255
255
255
255
255
255
255
255
255
255
255
255
255
255
255
255
255
255
255
255
255
255
255
255
255
255
255
255
255
255
255
255
255
255
255
255
255
255
255
255
255
255
255
255
255
255
255
255
255
255
255
255
255
255
255
255
255
255
255
255
255
255
255
255
255
255
255
255
255
255
255
255
255
255
255
255
0
0
0
0
0
0
0
0
0
0
0
0
0
0
0
0
0
0
0
0
0
0
0
0
0
0
0
0
0
0
0
0
0
0
0
0
0
0
0
0
0
0
0
0
0
0
0
0
253
0
251
0
253
0
218
0
117
0
23
0
3
0
22
0
6
0
51
0
71
0
58
0
76
0
95
0
86
0
99
0
45
0
79
0
97
0
88
0
91
0
80
0
61
0
77
0
101
0
85
0
85
0
73
0
40
0
47
0
89
0
114
0
129
0
86
0
95
0
150
0
154
0
119
0
99
0
98
0
23
0
92
0
126
0
114
0
111
0
115
0
112
0
112
0
124
0
126
0
130
0
128
0
116
0
102
0
78
0
54
0
64
0
18
0
2
0
13
0
10
0
7
0
1
0
29
0
6
0
4
0
16
0
42
0
69
0
82
0
85
0
83
0
93
0
99
0
98
0
98
0
101
0
99
0
97
0
101
0
102
0
100
0
101
0
100
0
92
0
82
0
62
0
40
0
7
0
8
0
25
0
45
0
60
0
74
0
89
0
94
0
104
0
100
0
27
0
28
0
54
0
73
0
118
0
92
0
7
0
21
0
31
0
52
0
64
0
82
0
32
0
1
0
1
0
0
0
13
0
20
0
24
0
54
0
70
0
48
0
1
0
1
0
0
0
0
255
255
255
255
255
254
255
253
255
247
255
228
255
223
255
221
255
189
255
155
255
155
255
171
255
169
255
163
255
170
255
217
255
192
255
173
255
174
255
185
255
194
255
192
255
208
255
224
255
217
255
204
255
206
255
217
255
201
255
198
255
194
255
192
255
185
255
183
255
191
255
202
255
176
255
172
255
166
255
159
255
153
255
151
255
152
255
154
255
149
255
162
255
210
255
205
255
143
255
130
255
153
255
133
255
171
255
198
255
217
255
228
255
201
255
132
255
116
255
179
255
242
255
171
255
112
255
98
255
100
255
110
255
137
255
165
255
177
255
158
255
147
255
120
255
103
255
103
255
104
0
137
0
79
0
82
0
85
0
74
0
50
0
39
0
48
0
59
0
71
0
45
0
40
0
78
0
92
0
79
0
72
0
58
0
35
0
31
0
29
0
53
0
59
0
35
0
31
0
0
0
0
0
0
0
0
0
0
0
0
0
0
0
0
0
0
0
0
0
0
0
0
0
0
0
0
0
0
0
0
0
0
0
0
0
0
0
0
0
0
0
0
0
0
0
0
0
0
0
0
0
0
0
0
0
0
0
0
0
0
0
0
0
0
0
0
0
0
0
0
0
0
0
0
0
0
0
0
0
0
0
0
0
0
0
0
0
0
0
0
0
0
0
0
0
0
0
0
0
0
0
0
0
0
0
0
0
0
0
0
0
0
0
0
0
0
0
0
0
0
0
0
0
0
0
0
0
0
0
0
0
0
0
0
0
0
0
0
0
0
0
0
0
0
0
0
0
0
0
0
0
0
0
0
0
0
0
0
0
0
0
0
0
0
0
0
0
0
0
0
0
0
0
0
0
0
0
0
0
0
0
0
0
0
0
0
0
0
0
0
0
0
0
0
0
0
0
0
0
0
0
0
0
0
0
0
0
0
0
0
0
0
0
0
0
0
0
0
0
0
0
0
0
0
0
0
0
0
0
0
0
0
0
0
0
0
0
0
0
0
0
0
0
0
0
255
255
255
255
255
255
255
255
255
255
255
255
255
255
255
255
255
255
255
255
255
255
255
255
255
255
255
255
255
255
255
255
255
255
255
255
255
255
255
255
255
255
255
255
255
255
255
255
255
255
255
255
255
255
255
255
255
255
255
255
255
255
255
255
255
255
255
255
255
255
255
255
255
255
255
255
255
255
255
255
255
255
255
255
255
255
255
255
255
255
255
255
255
255
255
255
255
255
255
255
255
255
255
255
255
255
255
255
255
255
255
255
255
255
255
255
255
255
255
255
255
255
255
255
255
255
255
255
255
255
255
255
255
255
255
255
255
255
255
255
255
255
255
255
255
255
255
255
255
255
0
0
0
0
0
0
0
0
0
0
0
0
0
0
0
0
0
0
0
0
0
0
0
0
0
0
0
0
0
0
0
0
0
0
0
0
0
0
0
0
0
0
0
0
0
0
0
0
254
0
242
0
248
0
251
0
220
0
119
0
13
0
1
0
15
0
68
0
74
0
60
0
61
0
70
0
79
0
77
0
42
0
88
0
91
0
90
0
91
0
69
0
68
0
91
0
80
0
84
0
86
0
83
0
87
0
108
0
125
0
128
0
140
0
104
0
117
0
167
0
163
0
129
0
84
0
50
0
23
0
96
0
117
0
105
0
113
0
116
0
115
0
121
0
124
0
125
0
127
0
124
0
115
0
106
0
86
0
63
0
2
0
14
0
20
0
4
0
1
0
7
0
8
0
1
0
4
0
2
0
0
0
14
0
43
0
66
0
69
0
63
0
96
0
99
0
97
0
97
0
101
0
99
0
98
0
103
0
102
0
96
0
94
0
89
0
77
0
64
0
40
0
15
0
1
0
5
0
26
0
47
0
62
0
77
0
94
0
101
0
101
0
68
0
32
0
52
0
64
0
82
0
104
0
55
0
16
0
35
0
34
0
61
0
74
0
82
0
14
0
4
0
1
0
11
0
36
0
40
0
39
0
67
0
68
0
25
0
0
0
1
0
3
0
2
255
255
255
255
255
251
255
247
255
251
255
202
255
181
255
187
255
176
255
158
255
158
255
162
255
167
255
162
255
171
255
218
255
195
255
177
255
178
255
188
255
194
255
196
255
220
255
239
255
226
255
204
255
201
255
205
255
180
255
193
255
203
255
198
255
181
255
171
255
188
255
218
255
177
255
173
255
167
255
160
255
156
255
157
255
163
255
168
255
187
255
183
255
166
255
137
255
122
255
148
255
200
255
253
255
239
255
239
255
219
255
181
255
189
255
179
255
123
255
127
255
202
255
115
255
104
255
153
255
189
255
182
255
173
255
162
255
141
255
107
255
97
255
98
255
109
255
123
255
123
0
123
0
70
0
54
0
47
0
54
0
59
0
62
0
74
0
82
0
87
0
67
0
40
0
51
0
62
0
51
0
64
0
72
0
56
0
45
0
49
0
51
0
49
0
35
0
20
0
0
0
0
0
0
0
0
0
0
0
0
0
0
0
0
0
0
0
0
0
0
0
0
0
0
0
0
0
0
0
0
0
0
0
0
0
0
0
0
0
0
0
0
0
0
0
0
0
0
0
0
0
0
0
0
0
0
0
0
0
0
0
0
0
0
0
0
0
0
0
0
0
0
0
0
0
0
0
0
0
0
0
0
0
0
0
0
0
0
0
0
0
0
0
0
0
0
0
0
0
0
0
0
0
0
0
0
0
0
0
0
0
0
0
0
0
0
0
0
0
0
0
0
0
0
0
0
0
0
0
0
0
0
0
0
0
0
0
0
0
0
0
0
0
0
0
0
0
0
0
0
0
0
0
0
0
0
0
0
0
0
0
0
0
0
0
0
0
0
0
0
0
0
0
0
0
0
0
0
0
0
0
0
0
0
0
0
0
0
0
0
0
0
0
0
0
0
0
0
0
0
0
0
0
0
0
0
0
0
0
0
0
0
0
0
0
0
0
0
0
0
0
0
0
0
0
0
0
0
0
0
0
0
0
0
0
0
0
0
0
0
0
0
0
0
0
255
255
255
255
255
255
255
255
255
255
255
255
255
255
255
255
255
255
255
255
255
255
255
255
255
255
255
255
255
255
255
255
255
255
255
255
255
255
255
255
255
255
255
255
255
255
255
255
255
255
255
255
255
255
255
255
255
255
255
255
255
255
255
255
255
255
255
255
255
255
255
255
255
255
255
255
255
255
255
255
255
255
255
255
255
255
255
255
255
255
255
255
255
255
255
255
255
255
255
255
255
255
255
255
255
255
255
255
255
255
255
255
255
255
255
255
255
255
255
255
255
255
255
255
255
255
255
255
255
255
255
255
255
255
255
255
255
255
255
255
255
255
255
255
255
255
255
255
255
255
0
0
0
0
0
0
0
0
0
0
0
0
0
0
0
0
0
0
0
0
0
0
0
0
0
0
0
0
0
0
0
0
0
0
0
0
0
0
0
0
0
0
0
0
0
0
0
0
254
0
255
0
254
0
253
0
253
0
173
0
46
0
5
0
39
0
73
0
71
0
70
0
50
0
34
0
57
0
55
0
45
0
92
0
87
0
92
0
86
0
57
0
73
0
92
0
80
0
96
0
88
0
86
0
123
0
155
0
153
0
145
0
141
0
109
0
121
0
152
0
148
0
125
0
77
0
26
0
50
0
116
0
121
0
109
0
123
0
119
0
114
0
126
0
116
0
113
0
112
0
111
0
104
0
88
0
51
0
12
0
6
0
6
0
4
0
4
0
19
0
8
0
3
0
12
0
6
0
7
0
9
0
18
0
41
0
68
0
82
0
82
0
87
0
92
0
95
0
99
0
105
0
101
0
96
0
100
0
99
0
92
0
86
0
78
0
63
0
45
0
20
0
0
0
3
0
12
0
32
0
52
0
63
0
78
0
97
0
104
0
91
0
38
0
49
0
77
0
76
0
92
0
82
0
25
0
27
0
41
0
28
0
65
0
82
0
78
0
9
0
3
0
4
0
27
0
56
0
52
0
45
0
71
0
68
0
16
0
1
0
6
0
10
0
8
255
251
255
252
255
245
255
239
255
186
255
168
255
181
255
201
255
181
255
157
255
159
255
168
255
164
255
156
255
162
255
207
255
183
255
168
255
175
255
187
255
192
255
197
255
227
255
245
255
228
255
202
255
191
255
188
255
193
255
192
255
187
255
188
255
186
255
181
255
191
255
209
255
176
255
173
255
167
255
161
255
159
255
163
255
171
255
179
255
197
255
145
255
123
255
144
255
208
255
247
255
240
255
220
255
197
255
143
255
123
255
117
255
161
255
174
255
114
255
117
255
180
255
106
255
142
255
223
255
202
255
119
255
102
255
109
255
98
255
104
255
132
255
131
255
128
255
148
255
172
0
56
0
47
0
46
0
70
0
103
0
111
0
99
0
87
0
84
0
69
0
86
0
43
0
42
0
68
0
79
0
92
0
66
0
50
0
38
0
46
0
29
0
28
0
37
0
25
0
0
0
0
0
0
0
0
0
0
0
0
0
0
0
0
0
0
0
0
0
0
0
0
0
0
0
0
0
0
0
0
0
0
0
0
0
0
0
0
0
0
0
0
0
0
0
0
0
0
0
0
0
0
0
0
0
0
0
0
0
0
0
0
0
0
0
0
0
0
0
0
0
0
0
0
0
0
0
0
0
0
0
0
0
0
0
0
0
0
0
0
0
0
0
0
0
0
0
0
0
0
0
0
0
0
0
0
0
0
0
0
0
0
0
0
0
0
0
0
0
0
0
0
0
0
0
0
0
0
0
0
0
0
0
0
0
0
0
0
0
0
0
0
0
0
0
0
0
0
0
0
0
0
0
0
0
0
0
0
0
0
0
0
0
0
0
0
0
0
0
0
0
0
0
0
0
0
0
0
0
0
0
0
0
0
0
0
0
0
0
0
0
0
0
0
0
0
0
0
0
0
0
0
0
0
0
0
0
0
0
0
0
0
0
0
0
0
0
0
0
0
0
0
0
0
0
0
0
0
0
0
0
0
0
0
0
0
0
0
0
0
0
0
0
0
0
255
255
255
255
255
255
255
255
255
255
255
255
255
255
255
255
255
255
255
255
255
255
255
255
255
255
255
255
255
255
255
255
255
255
255
255
255
255
255
255
255
255
255
255
255
255
255
255
255
255
255
255
255
255
255
255
255
255
255
255
255
255
255
255
255
255
255
255
255
255
255
255
255
255
255
255
255
255
255
255
255
255
255
255
255
255
255
255
255
255
255
255
255
255
255
255
255
255
255
255
255
255
255
255
255
255
255
255
255
255
255
255
255
255
255
255
255
255
255
255
255
255
255
255
255
255
255
255
255
255
255
255
255
255
255
255
255
255
255
255
255
255
255
255
255
255
255
255
255
255
0
0
0
0
0
0
0
0
0
0
0
0
0
0
0
0
0
0
0
0
0
0
0
0
0
0
0
0
0
0
0
0
0
0
0
0
0
0
0
0
0
0
0
0
0
0
0
0
245
0
255
0
240
0
255
0
233
0
100
0
5
0
11
0
62
0
70
0
92
0
87
0
48
0
28
0
35
0
34
0
46
0
48
0
72
0
86
0
74
0
74
0
89
0
93
0
91
0
102
0
85
0
92
0
148
0
167
0
151
0
157
0
155
0
113
0
124
0
157
0
139
0
116
0
78
0
10
0
39
0
57
0
87
0
105
0
104
0
101
0
106
0
109
0
116
0
101
0
93
0
88
0
69
0
35
0
7
0
1
0
2
0
2
0
2
0
1
0
1
0
0
0
0
0
0
0
3
0
0
0
4
0
0
0
21
0
64
0
74
0
79
0
90
0
99
0
101
0
100
0
98
0
95
0
93
0
101
0
101
0
95
0
79
0
52
0
19
0
0
0
0
0
6
0
1
0
24
0
48
0
55
0
64
0
88
0
103
0
98
0
62
0
56
0
80
0
68
0
80
0
104
0
57
0
22
0
33
0
37
0
51
0
75
0
95
0
66
0
5
0
2
0
7
0
31
0
49
0
40
0
59
0
80
0
40
0
3
0
8
0
7
0
5
0
3
255
250
255
243
255
230
255
218
255
164
255
162
255
197
255
194
255
169
255
160
255
152
255
168
255
174
255
148
255
166
255
217
255
176
255
161
255
181
255
189
255
218
255
223
255
233
255
235
255
210
255
191
255
201
255
192
255
196
255
193
255
192
255
186
255
178
255
177
255
191
255
209
255
188
255
167
255
153
255
159
255
181
255
200
255
195
255
173
255
165
255
136
255
156
255
221
255
249
255
227
255
180
255
143
255
136
255
141
255
156
255
120
255
136
255
207
255
105
255
108
255
161
255
144
255
126
255
213
255
173
255
105
255
128
255
126
255
134
255
141
255
156
255
171
255
181
255
191
255
189
0
78
0
116
0
89
0
70
0
113
0
123
0
110
0
118
0
96
0
90
0
77
0
67
0
35
0
49
0
85
0
70
0
65
0
60
0
45
0
33
0
27
0
34
0
53
0
51
0
0
0
0
0
0
0
0
0
0
0
0
0
0
0
0
0
0
0
0
0
0
0
0
0
0
0
0
0
0
0
0
0
0
0
0
0
0
0
0
0
0
0
0
0
0
0
0
0
0
0
0
0
0
0
0
0
0
0
0
0
0
0
0
0
0
0
0
0
0
0
0
0
0
0
0
0
0
0
0
0
0
0
0
0
0
0
0
0
0
0
0
0
0
0
0
0
0
0
0
0
0
0
0
0
0
0
0
0
0
0
0
0
0
0
0
0
0
0
0
0
0
0
0
0
0
0
0
0
0
0
0
0
0
0
0
0
0
0
0
0
0
0
0
0
0
0
0
0
0
0
0
0
0
0
0
0
0
0
0
0
0
0
0
0
0
0
0
0
0
0
0
0
0
0
0
0
0
0
0
0
0
0
0
0
0
0
0
0
0
0
0
0
0
0
0
0
0
0
0
0
0
0
0
0
0
0
0
0
0
0
0
0
0
0
0
0
0
0
0
0
0
0
0
0
0
0
0
0
0
0
0
0
0
0
0
0
0
0
0
0
0
0
0
0
0
0
255
255
255
255
255
255
255
255
255
255
255
255
255
255
255
255
255
255
255
255
255
255
255
255
255
255
255
255
255
255
255
255
255
255
255
255
255
255
255
255
255
255
255
255
255
255
255
255
255
255
255
255
255
255
255
255
255
255
255
255
255
255
255
255
255
255
255
255
255
255
255
255
255
255
255
255
255
255
255
255
255
255
255
255
255
255
255
255
255
255
255
255
255
255
255
255
255
255
255
255
255
255
255
255
255
255
255
255
255
255
255
255
255
255
255
255
255
255
255
255
255
255
255
255
255
255
255
255
255
255
255
255
255
255
255
255
255
255
255
255
255
255
255
255
255
255
255
255
255
255
0
0
0
0
0
0
0
0
0
0
0
0
0
0
0
0
0
0
0
0
0
0
0
0
0
0
0
0
0
0
0
0
0
0
0
0
0
0
0
0
0
0
0
0
0
0
0
0
249
0
255
0
254
0
245
0
135
0
4
0
4
0
46
0
75
0
91
0
92
0
74
0
54
0
41
0
32
0
28
0
21
0
14
0
28
0
45
0
55
0
77
0
92
0
86
0
90
0
81
0
81
0
108
0
147
0
165
0
166
0
166
0
130
0
111
0
147
0
162
0
137
0
100
0
63
0
34
0
2
0
2
0
24
0
49
0
61
0
65
0
64
0
62
0
66
0
68
0
65
0
47
0
24
0
7
0
3
0
10
0
2
0
2
0
2
0
1
0
1
0
0
0
0
0
0
0
3
0
0
0
4
0
0
0
22
0
64
0
74
0
79
0
88
0
95
0
93
0
95
0
104
0
104
0
95
0
89
0
95
0
79
0
55
0
31
0
10
0
0
0
0
0
5
0
1
0
16
0
40
0
57
0
72
0
92
0
99
0
89
0
53
0
71
0
75
0
69
0
95
0
91
0
35
0
12
0
36
0
37
0
44
0
65
0
77
0
45
0
4
0
10
0
2
0
13
0
45
0
65
0
79
0
67
0
23
0
6
0
3
0
2
0
4
0
2
255
238
255
219
255
208
255
207
255
166
255
167
255
194
255
186
255
166
255
161
255
159
255
174
255
158
255
146
255
178
255
212
255
186
255
185
255
205
255
213
255
201
255
207
255
220
255
233
255
211
255
190
255
195
255
186
255
191
255
193
255
195
255
193
255
184
255
181
255
195
255
212
255
180
255
173
255
177
255
188
255
193
255
189
255
170
255
148
255
132
255
183
255
242
255
247
255
191
255
143
255
133
255
138
255
197
255
219
255
226
255
175
255
140
255
177
255
145
255
112
255
150
255
164
255
139
255
218
255
216
255
180
255
200
255
205
255
197
255
170
255
168
255
186
255
180
255
151
255
137
0
118
0
116
0
87
0
63
0
91
0
118
0
116
0
114
0
106
0
99
0
106
0
98
0
58
0
44
0
71
0
81
0
77
0
64
0
28
0
27
0
50
0
52
0
55
0
59
0
0
0
0
0
0
0
0
0
0
0
0
0
0
0
0
0
0
0
0
0
0
0
0
0
0
0
0
0
0
0
0
0
0
0
0
0
0
0
0
0
0
0
0
0
0
0
0
0
0
0
0
0
0
0
0
0
0
0
0
0
0
0
0
0
0
0
0
0
0
0
0
0
0
0
0
0
0
0
0
0
0
0
0
0
0
0
0
0
0
0
0
0
0
0
0
0
0
0
0
0
0
0
0
0
0
0
0
0
0
0
0
0
0
0
0
0
0
0
0
0
0
0
0
0
0
0
0
0
0
0
0
0
0
0
0
0
0
0
0
0
0
0
0
0
0
0
0
0
0
0
0
0
0
0
0
0
0
0
0
0
0
0
0
0
0
0
0
0
0
0
0
0
0
0
0
0
0
0
0
0
0
0
0
0
0
0
0
0
0
0
0
0
0
0
0
0
0
0
0
0
0
0
0
0
0
0
0
0
0
0
0
0
0
0
0
0
0
0
0
0
0
0
0
0
0
0
0
0
0
0
0
0
0
0
0
0
0
0
0
0
0
0
0
0
0
0
255
255
255
255
255
255
255
255
255
255
255
255
255
255
255
255
255
255
255
255
255
255
255
255
255
255
255
255
255
255
255
255
255
255
255
255
255
255
255
255
255
255
255
255
255
255
255
255
255
255
255
255
255
255
255
255
255
255
255
255
255
255
255
255
255
255
255
255
255
255
255
255
255
255
255
255
255
255
255
255
255
255
255
255
255
255
255
255
255
255
255
255
255
255
255
255
255
255
255
255
255
255
255
255
255
255
255
255
255
255
255
255
255
255
255
255
255
255
255
255
255
255
255
255
255
255
255
255
255
255
255
255
255
255
255
255
255
255
255
255
255
255
255
255
255
255
255
255
255
255
0
0
0
0
0
0
0
0
0
0
0
0
0
0
0
0
0
0
0
0
0
0
0
0
0
0
0
0
0
0
0
0
0
0
0
0
0
0
0
0
0
0
0
0
0
0
0
0
254
0
244
0
250
0
212
0
69
0
2
0
29
0
66
0
78
0
95
0
79
0
59
0
71
0
77
0
60
0
52
0
41
0
21
0
7
0
7
0
18
0
59
0
94
0
100
0
95
0
72
0
98
0
144
0
154
0
160
0
162
0
144
0
118
0
111
0
140
0
134
0
117
0
99
0
48
0
31
0
61
0
45
0
49
0
76
0
103
0
113
0
105
0
93
0
92
0
96
0
78
0
42
0
13
0
1
0
0
0
1
0
2
0
2
0
2
0
1
0
1
0
0
0
0
0
0
0
3
0
0
0
4
0
0
0
22
0
65
0
75
0
80
0
85
0
95
0
92
0
88
0
98
0
105
0
98
0
90
0
78
0
53
0
24
0
7
0
2
0
1
0
2
0
4
0
1
0
11
0
39
0
65
0
82
0
91
0
87
0
73
0
60
0
87
0
63
0
70
0
101
0
62
0
13
0
15
0
21
0
25
0
33
0
57
0
57
0
15
0
3
0
4
0
0
0
4
0
44
0
70
0
80
0
57
0
13
0
7
0
4
0
1
0
6
0
18
255
207
255
186
255
189
255
199
255
170
255
178
255
198
255
186
255
165
255
159
255
151
255
154
255
151
255
158
255
212
255
211
255
196
255
202
255
196
255
201
255
187
255
192
255
208
255
233
255
221
255
195
255
193
255
181
255
187
255
192
255
197
255
196
255
186
255
181
255
194
255
212
255
184
255
185
255
196
255
202
255
188
255
169
255
155
255
148
255
197
255
227
255
231
255
182
255
122
255
123
255
171
255
207
255
241
255
218
255
192
255
167
255
145
255
153
255
181
255
103
255
138
255
184
255
153
255
216
255
251
255
245
255
248
255
253
255
242
255
218
255
168
255
130
255
127
255
146
255
148
0
128
0
100
0
86
0
70
0
71
0
106
0
121
0
108
0
120
0
110
0
127
0
116
0
80
0
52
0
68
0
97
0
82
0
63
0
41
0
38
0
54
0
63
0
61
0
59
0
0
0
0
0
0
0
0
0
0
0
0
0
0
0
0
0
0
0
0
0
0
0
0
0
0
0
0
0
0
0
0
0
0
0
0
0
0
0
0
0
0
0
0
0
0
0
0
0
0
0
0
0
0
0
0
0
0
0
0
0
0
0
0
0
0
0
0
0
0
0
0
0
0
0
0
0
0
0
0
0
0
0
0
0
0
0
0
0
0
0
0
0
0
0
0
0
0
0
0
0
0
0
0
0
0
0
0
0
0
0
0
0
0
0
0
0
0
0
0
0
0
0
0
0
0
0
0
0
0
0
0
0
0
0
0
0
0
0
0
0
0
0
0
0
0
0
0
0
0
0
0
0
0
0
0
0
0
0
0
0
0
0
0
0
0
0
0
0
0
0
0
0
0
0
0
0
0
0
0
0
0
0
0
0
0
0
0
0
0
0
0
0
0
0
0
0
0
0
0
0
0
0
0
0
0
0
0
0
0
0
0
0
0
0
0
0
0
0
0
0
0
0
0
0
0
0
0
0
0
0
0
0
0
0
0
0
0
0
0
0
0
0
0
0
0
0
255
255
255
255
255
255
255
255
255
255
255
255
255
255
255
255
255
255
255
255
255
255
255
255
255
255
255
255
255
255
255
255
255
255
255
255
255
255
255
255
255
255
255
255
255
255
255
255
255
255
255
255
255
255
255
255
255
255
255
255
255
255
255
255
255
255
255
255
255
255
255
255
255
255
255
255
255
255
255
255
255
255
255
255
255
255
255
255
255
255
255
255
255
255
255
255
255
255
255
255
255
255
255
255
255
255
255
255
255
255
255
255
255
255
255
255
255
255
255
255
255
255
255
255
255
255
255
255
255
255
255
255
255
255
255
255
255
255
255
255
255
255
255
255
255
255
255
255
255
255
0
0
0
0
0
0
0
0
0
0
0
0
0
0
0
0
0
0
0
0
0
0
0
0
0
0
0
0
0
0
0
0
0
0
0
0
0
0
0
0
0
0
0
0
0
0
0
0
254
0
244
0
244
0
198
0
65
0
3
0
45
0
50
0
88
0
85
0
67
0
62
0
86
0
101
0
88
0
74
0
40
0
40
0
47
0
45
0
33
0
43
0
73
0
95
0
95
0
84
0
115
0
153
0
151
0
150
0
145
0
121
0
112
0
125
0
136
0
77
0
42
0
43
0
25
0
50
0
89
0
57
0
41
0
57
0
78
0
88
0
84
0
75
0
102
0
87
0
58
0
44
0
48
0
38
0
12
0
2
0
2
0
2
0
2
0
1
0
1
0
0
0
0
0
0
0
2
0
0
0
4
0
0
0
23
0
65
0
76
0
81
0
86
0
100
0
99
0
86
0
87
0
96
0
96
0
93
0
50
0
28
0
4
0
0
0
0
0
3
0
3
0
2
0
3
0
16
0
47
0
79
0
90
0
87
0
75
0
62
0
82
0
85
0
47
0
73
0
87
0
26
0
13
0
37
0
22
0
35
0
50
0
82
0
75
0
19
0
4
0
6
0
1
0
9
0
38
0
44
0
51
0
49
0
15
0
2
0
5
0
14
0
28
0
49
255
181
255
171
255
184
255
203
255
173
255
184
255
192
255
177
255
163
255
163
255
160
255
157
255
178
255
188
255
239
255
194
255
178
255
186
255
171
255
166
255
183
255
188
255
206
255
241
255
237
255
209
255
197
255
181
255
190
255
192
255
197
255
193
255
181
255
177
255
191
255
210
255
201
255
196
255
192
255
185
255
162
255
151
255
167
255
187
255
243
255
206
255
148
255
125
255
158
255
211
255
241
255
241
255
175
255
135
255
125
255
134
255
137
255
126
255
199
255
156
255
146
255
194
255
169
255
222
255
254
255
252
255
242
255
250
255
252
255
203
255
158
255
143
255
140
255
139
255
146
0
102
0
83
0
99
0
96
0
69
0
94
0
124
0
108
0
128
0
107
0
125
0
123
0
117
0
86
0
75
0
98
0
67
0
71
0
95
0
76
0
51
0
64
0
74
0
70
0
0
0
0
0
0
0
0
0
0
0
0
0
0
0
0
0
0
0
0
0
0
0
0
0
0
0
0
0
0
0
0
0
0
0
0
0
0
0
0
0
0
0
0
0
0
0
0
0
0
0
0
0
0
0
0
0
0
0
0
0
0
0
0
0
0
0
0
0
0
0
0
0
0
0
0
0
0
0
0
0
0
0
0
0
0
0
0
0
0
0
0
0
0
0
0
0
0
0
0
0
0
0
0
0
0
0
0
0
0
0
0
0
0
0
0
0
0
0
0
0
0
0
0
0
0
0
0
0
0
0
0
0
0
0
0
0
0
0
0
0
0
0
0
0
0
0
0
0
0
0
0
0
0
0
0
0
0
0
0
0
0
0
0
0
0
0
0
0
0
0
0
0
0
0
0
0
0
0
0
0
0
0
0
0
0
0
0
0
0
0
0
0
0
0
0
0
0
0
0
0
0
0
0
0
0
0
0
0
0
0
0
0
0
0
0
0
0
0
0
0
0
0
0
0
0
0
0
0
0
0
0
0
0
0
0
0
0
0
0
0
0
0
0
0
0
0
255
255
255
255
255
255
255
255
255
255
255
255
255
255
255
255
255
255
255
255
255
255
255
255
255
255
255
255
255
255
255
255
255
255
255
255
255
255
255
255
255
255
255
255
255
255
255
255
255
255
255
255
255
255
255
255
255
255
255
255
255
255
255
255
255
255
255
255
255
255
255
255
255
255
255
255
255
255
255
255
255
255
255
255
255
255
255
255
255
255
255
255
255
255
255
255
255
255
255
255
255
255
255
255
255
255
255
255
255
255
255
255
255
255
255
255
255
255
255
255
255
255
255
255
255
255
255
255
255
255
255
255
255
255
255
255
255
255
255
255
255
255
255
255
255
255
255
255
255
255
0
0
0
0
0
0
0
0
0
0
0
0
0
0
0
0
0
0
0
0
0
0
0
0
0
0
0
0
0
0
0
0
0
0
0
0
0
0
0
0
0
0
0
0
0
0
0
0
248
0
254
0
253
0
226
0
96
0
2
0
8
0
40
0
107
0
79
0
68
0
78
0
88
0
94
0
87
0
68
0
58
0
59
0
68
0
69
0
40
0
21
0
45
0
82
0
87
0
105
0
133
0
144
0
145
0
140
0
123
0
106
0
105
0
95
0
79
0
35
0
24
0
28
0
27
0
68
0
100
0
76
0
53
0
41
0
37
0
45
0
63
0
75
0
74
0
46
0
20
0
47
0
81
0
64
0
21
0
6
0
2
0
2
0
2
0
1
0
1
0
0
0
0
0
0
0
2
0
0
0
5
0
0
0
23
0
66
0
77
0
82
0
90
0
100
0
98
0
89
0
93
0
94
0
83
0
69
0
19
0
9
0
0
0
1
0
4
0
4
0
1
0
1
0
2
0
22
0
61
0
90
0
93
0
84
0
76
0
66
0
94
0
63
0
44
0
87
0
67
0
4
0
28
0
55
0
26
0
46
0
67
0
104
0
89
0
23
0
4
0
3
0
1
0
5
0
22
0
22
0
33
0
35
0
6
0
0
0
17
0
36
0
58
0
74
255
174
255
173
255
183
255
195
255
178
255
188
255
181
255
169
255
167
255
180
255
195
255
197
255
197
255
198
255
230
255
169
255
146
255
161
255
158
255
151
255
184
255
189
255
204
255
242
255
249
255
223
255
206
255
185
255
191
255
192
255
193
255
188
255
179
255
178
255
196
255
217
255
206
255
191
255
179
255
165
255
147
255
152
255
187
255
221
255
201
255
157
255
136
255
184
255
243
255
249
255
204
255
159
255
126
255
111
255
123
255
139
255
168
255
175
255
224
255
220
255
188
255
216
255
199
255
244
255
251
255
248
255
237
255
248
255
249
255
196
255
147
255
135
255
139
255
145
255
165
0
77
0
100
0
122
0
118
0
73
0
86
0
127
0
119
0
128
0
110
0
126
0
135
0
143
0
104
0
59
0
77
0
73
0
102
0
124
0
111
0
72
0
62
0
82
0
95
0
0
0
0
0
0
0
0
0
0
0
0
0
0
0
0
0
0
0
0
0
0
0
0
0
0
0
0
0
0
0
0
0
0
0
0
0
0
0
0
0
0
0
0
0
0
0
0
0
0
0
0
0
0
0
0
0
0
0
0
0
0
0
0
0
0
0
0
0
0
0
0
0
0
0
0
0
0
0
0
0
0
0
0
0
0
0
0
0
0
0
0
0
0
0
0
0
0
0
0
0
0
0
0
0
0
0
0
0
0
0
0
0
0
0
0
0
0
0
0
0
0
0
0
0
0
0
0
0
0
0
0
0
0
0
0
0
0
0
0
0
0
0
0
0
0
0
0
0
0
0
0
0
0
0
0
0
0
0
0
0
0
0
0
0
0
0
0
0
0
0
0
0
0
0
0
0
0
0
0
0
0
0
0
0
0
0
0
0
0
0
0
0
0
0
0
0
0
0
0
0
0
0
0
0
0
0
0
0
0
0
0
0
0
0
0
0
0
0
0
0
0
0
0
0
0
0
0
0
0
0
0
0
0
0
0
0
0
0
0
0
0
0
0
0
0
0
255
255
255
255
255
255
255
255
255
255
255
255
255
255
255
255
255
255
255
255
255
255
255
255
255
255
255
255
255
255
255
255
255
255
255
255
255
255
255
255
255
255
255
255
255
255
255
255
255
255
255
255
255
255
255
255
255
255
255
255
255
255
255
255
255
255
255
255
255
255
255
255
255
255
255
255
255
255
255
255
255
255
255
255
255
255
255
255
255
255
255
255
255
255
255
255
255
255
255
255
255
255
255
255
255
255
255
255
255
255
255
255
255
255
255
255
255
255
255
255
255
255
255
255
255
255
255
255
255
255
255
255
255
255
255
255
255
255
255
255
255
255
255
255
255
255
255
255
255
255
0
0
0
0
0
0
0
0
0
0
0
0
0
0
0
0
0
0
0
0
0
0
0
0
0
0
0
0
0
0
0
0
0
0
0
0
0
0
0
0
0
0
0
0
0
0
0
0
254
0
252
0
250
0
253
0
164
0
19
0
3
0
48
0
96
0
68
0
70
0
89
0
87
0
83
0
80
0
66
0
94
0
82
0
71
0
58
0
27
0
4
0
15
0
48
0
80
0
124
0
151
0
152
0
146
0
115
0
80
0
67
0
55
0
29
0
16
0
56
0
92
0
72
0
60
0
84
0
116
0
111
0
98
0
69
0
44
0
47
0
72
0
90
0
45
0
26
0
17
0
54
0
90
0
59
0
10
0
1
0
2
0
2
0
2
0
1
0
1
0
0
0
0
0
0
0
2
0
0
0
5
0
0
0
24
0
67
0
78
0
83
0
92
0
93
0
89
0
94
0
104
0
90
0
54
0
24
0
2
0
0
0
1
0
6
0
7
0
4
0
1
0
1
0
2
0
25
0
69
0
93
0
93
0
90
0
86
0
82
0
79
0
42
0
60
0
92
0
43
0
4
0
44
0
62
0
26
0
53
0
74
0
105
0
78
0
9
0
3
0
3
0
6
0
1
0
5
0
18
0
29
0
19
0
2
0
11
0
36
0
56
0
75
0
79
255
179
255
178
255
178
255
184
255
192
255
206
255
195
255
190
255
191
255
190
255
196
255
189
255
170
255
170
255
205
255
175
255
148
255
156
255
158
255
152
255
176
255
185
255
196
255
234
255
251
255
233
255
215
255
189
255
190
255
191
255
192
255
191
255
186
255
188
255
203
255
222
255
194
255
180
255
169
255
161
255
155
255
166
255
192
255
210
255
142
255
160
255
201
255
235
255
229
255
169
255
120
255
110
255
149
255
167
255
190
255
190
255
221
255
246
255
249
255
247
255
241
255
245
255
234
255
254
255
246
255
248
255
244
255
252
255
235
255
181
255
125
255
123
255
166
255
204
255
192
0
105
0
131
0
130
0
122
0
87
0
84
0
122
0
134
0
128
0
140
0
142
0
139
0
132
0
83
0
40
0
69
0
120
0
128
0
112
0
117
0
105
0
65
0
68
0
97
0
0
0
0
0
0
0
0
0
0
0
0
0
0
0
0
0
0
0
0
0
0
0
0
0
0
0
0
0
0
0
0
0
0
0
0
0
0
0
0
0
0
0
0
0
0
0
0
0
0
0
0
0
0
0
0
0
0
0
0
0
0
0
0
0
0
0
0
0
0
0
0
0
0
0
0
0
0
0
0
0
0
0
0
0
0
0
0
0
0
0
0
0
0
0
0
0
0
0
0
0
0
0
0
0
0
0
0
0
0
0
0
0
0
0
0
0
0
0
0
0
0
0
0
0
0
0
0
0
0
0
0
0
0
0
0
0
0
0
0
0
0
0
0
0
0
0
0
0
0
0
0
0
0
0
0
0
0
0
0
0
0
0
0
0
0
0
0
0
0
0
0
0
0
0
0
0
0
0
0
0
0
0
0
0
0
0
0
0
0
0
0
0
0
0
0
0
0
0
0
0
0
0
0
0
0
0
0
0
0
0
0
0
0
0
0
0
0
0
0
0
0
0
0
0
0
0
0
0
0
0
0
0
0
0
0
0
0
0
0
0
0
0
0
0
0
0
255
255
255
255
255
255
255
255
255
255
255
255
255
255
255
255
255
255
255
255
255
255
255
255
255
255
255
255
255
255
255
255
255
255
255
255
255
255
255
255
255
255
255
255
255
255
255
255
255
255
255
255
255
255
255
255
255
255
255
255
255
255
255
255
255
255
255
255
255
255
255
255
255
255
255
255
255
255
255
255
255
255
255
255
255
255
255
255
255
255
255
255
255
255
255
255
255
255
255
255
255
255
255
255
255
255
255
255
255
255
255
255
255
255
255
255
255
255
255
255
255
255
255
255
255
255
255
255
255
255
255
255
255
255
255
255
255
255
255
255
255
255
255
255
255
255
255
255
255
255
0
0
0
0
0
0
0
0
0
0
0
0
0
0
0
0
0
0
0
0
0
0
0
0
0
0
0
0
0
0
0
0
0
0
0
0
0
0
0
0
0
0
0
0
0
0
0
0
254
0
250
0
235
0
255
0
211
0
68
0
2
0
35
0
63
0
66
0
79
0
90
0
88
0
82
0
77
0
74
0
90
0
94
0
90
0
76
0
54
0
30
0
16
0
16
0
55
0
91
0
116
0
115
0
93
0
56
0
34
0
37
0
25
0
49
0
57
0
106
0
103
0
54
0
78
0
115
0
142
0
146
0
148
0
140
0
123
0
116
0
106
0
90
0
2
0
0
0
6
0
40
0
78
0
56
0
12
0
3
0
2
0
2
0
2
0
1
0
1
0
0
0
0
0
0
0
2
0
0
0
5
0
0
0
24
0
67
0
78
0
84
0
90
0
88
0
87
0
93
0
92
0
63
0
21
0
2
0
0
0
0
0
0
0
5
0
6
0
3
0
1
0
3
0
2
0
29
0
70
0
88
0
89
0
95
0
97
0
89
0
52
0
39
0
83
0
76
0
14
0
20
0
56
0
65
0
30
0
70
0
87
0
112
0
75
0
7
0
14
0
4
0
5
0
1
0
4
0
8
0
16
0
17
0
10
0
31
0
57
0
70
0
77
0
76
255
179
255
175
255
179
255
187
255
212
255
226
255
205
255
199
255
195
255
175
255
170
255
156
255
151
255
149
255
180
255
198
255
159
255
156
255
162
255
149
255
164
255
175
255
184
255
220
255
250
255
245
255
227
255
196
255
188
255
189
255
194
255
198
255
195
255
192
255
199
255
211
255
189
255
175
255
165
255
165
255
169
255
178
255
182
255
177
255
166
255
209
255
231
255
209
255
158
255
120
255
126
255
160
255
184
255
245
255
251
255
251
255
242
255
252
255
249
255
254
255
254
255
242
255
246
255
254
255
241
255
246
255
234
255
221
255
179
255
142
255
148
255
208
255
238
255
203
255
148
0
140
0
123
0
108
0
113
0
119
0
88
0
95
0
141
0
138
0
145
0
130
0
115
0
102
0
94
0
77
0
81
0
133
0
139
0
117
0
118
0
121
0
89
0
56
0
58
0
0
0
0
0
0
0
0
0
0
0
0
0
0
0
0
0
0
0
0
0
0
0
0
0
0
0
0
0
0
0
0
0
0
0
0
0
0
0
0
0
0
0
0
0
0
0
0
0
0
0
0
0
0
0
0
0
0
0
0
0
0
0
0
0
0
0
0
0
0
0
0
0
0
0
0
0
0
0
0
0
0
0
0
0
0
0
0
0
0
0
0
0
0
0
0
0
0
0
0
0
0
0
0
0
0
0
0
0
0
0
0
0
0
0
0
0
0
0
0
0
0
0
0
0
0
0
0
0
0
0
0
0
0
0
0
0
0
0
0
0
0
0
0
0
0
0
0
0
0
0
0
0
0
0
0
0
0
0
0
0
0
0
0
0
0
0
0
0
0
0
0
0
0
0
0
0
0
0
0
0
0
0
0
0
0
0
0
0
0
0
0
0
0
0
0
0
0
0
0
0
0
0
0
0
0
0
0
0
0
0
0
0
0
0
0
0
0
0
0
0
0
0
0
0
0
0
0
0
0
0
0
0
0
0
0
0
0
0
0
0
0
0
0
0
0
0
255
255
255
255
255
255
255
255
255
255
255
255
255
255
255
255
255
255
255
255
255
255
255
255
255
255
255
255
255
255
255
255
255
255
255
255
255
255
255
255
255
255
255
255
255
255
255
255
255
255
255
255
255
255
255
255
255
255
255
255
255
255
255
255
255
255
255
255
255
255
255
255
255
255
255
255
255
255
255
255
255
255
255
255
255
255
255
255
255
255
255
255
255
255
255
255
255
255
255
255
255
255
255
255
255
255
255
255
255
255
255
255
255
255
255
255
255
255
255
255
255
255
255
255
255
255
255
255
255
255
255
255
255
255
255
255
255
255
255
255
255
255
255
255
255
255
255
255
255
255
0
0
0
0
0
0
0
0
0
0
0
0
0
0
0
0
0
0
0
0
0
0
0
0
0
0
0
0
0
0
0
0
0
0
0
0
0
0
0
0
0
0
0
0
0
0
0
0
238
0
255
0
254
0
253
0
199
0
70
0
0
0
3
0
48
0
82
0
95
0
91
0
90
0
80
0
67
0
73
0
82
0
100
0
101
0
83
0
72
0
70
0
64
0
58
0
20
0
23
0
30
0
25
0
3
0
1
0
22
0
63
0
99
0
137
0
105
0
98
0
59
0
16
0
77
0
106
0
116
0
123
0
133
0
140
0
143
0
134
0
77
0
11
0
4
0
14
0
13
0
36
0
79
0
70
0
25
0
5
0
2
0
2
0
2
0
1
0
1
0
0
0
0
0
0
0
2
0
0
0
5
0
0
0
24
0
68
0
79
0
85
0
85
0
89
0
92
0
89
0
67
0
28
0
1
0
3
0
4
0
0
0
0
0
1
0
2
0
2
0
3
0
4
0
2
0
37
0
72
0
83
0
86
0
96
0
100
0
87
0
35
0
46
0
99
0
53
0
2
0
32
0
64
0
68
0
17
0
68
0
89
0
110
0
62
0
3
0
10
0
1
0
0
0
11
0
16
0
2
0
1
0
26
0
33
0
44
0
74
0
76
0
77
0
76
255
172
255
169
255
183
255
201
255
223
255
228
255
189
255
177
255
172
255
154
255
158
255
154
255
171
255
156
255
167
255
200
255
152
255
144
255
163
255
155
255
154
255
169
255
175
255
210
255
251
255
253
255
238
255
203
255
187
255
189
255
198
255
203
255
199
255
190
255
187
255
192
255
195
255
178
255
163
255
162
255
171
255
180
255
171
255
150
255
206
255
230
255
216
255
172
255
149
255
163
255
191
255
213
255
229
255
250
255
230
255
253
255
245
255
251
255
251
255
242
255
243
255
243
255
244
255
245
255
226
255
224
255
192
255
160
255
143
255
186
255
231
255
228
255
176
255
132
255
129
0
112
0
93
0
78
0
108
0
148
0
90
0
68
0
138
0
149
0
125
0
93
0
82
0
96
0
147
0
150
0
91
0
98
0
151
0
156
0
133
0
126
0
125
0
62
0
19
0
0
0
0
0
0
0
0
0
0
0
0
0
0
0
0
0
0
0
0
0
0
0
0
0
0
0
0
0
0
0
0
0
0
0
0
0
0
0
0
0
0
0
0
0
0
0
0
0
0
0
0
0
0
0
0
0
0
0
0
0
0
0
0
0
0
0
0
0
0
0
0
0
0
0
0
0
0
0
0
0
0
0
0
0
0
0
0
0
0
0
0
0
0
0
0
0
0
0
0
0
0
0
0
0
0
0
0
0
0
0
0
0
0
0
0
0
0
0
0
0
0
0
0
0
0
0
0
0
0
0
0
0
0
0
0
0
0
0
0
0
0
0
0
0
0
0
0
0
0
0
0
0
0
0
0
0
0
0
0
0
0
0
0
0
0
0
0
0
0
0
0
0
0
0
0
0
0
0
0
0
0
0
0
0
0
0
0
0
0
0
0
0
0
0
0
0
0
0
0
0
0
0
0
0
0
0
0
0
0
0
0
0
0
0
0
0
0
0
0
0
0
0
0
0
0
0
0
0
0
0
0
0
0
0
0
0
0
0
0
0
0
0
0
0
0
0
255
255
255
255
255
255
255
255
255
255
255
255
255
255
255
255
255
255
255
255
255
255
255
255
255
255
255
255
255
255
255
255
255
255
255
255
255
255
255
255
255
255
255
255
255
255
255
255
255
255
255
255
255
255
255
255
255
255
255
255
255
255
255
255
255
255
255
255
255
255
255
255
255
255
255
255
255
255
255
255
255
255
255
255
255
255
255
255
255
255
255
255
255
255
255
255
255
255
255
255
255
255
255
255
255
255
255
255
255
255
255
255
255
255
255
255
255
255
255
255
255
255
255
255
255
255
255
255
255
255
255
255
255
255
255
255
255
255
255
255
255
255
255
255
255
255
255
255
255
255
0
0
0
0
0
0
0
0
0
0
0
0
0
0
0
0
0
0
0
0
0
0
0
0
0
0
0
0
0
0
0
0
0
0
0
0
0
0
0
0
0
0
0
0
0
0
0
0
247
0
246
0
253
0
239
0
148
0
36
0
2
0
24
0
40
0
78
0
89
0
94
0
92
0
72
0
71
0
77
0
84
0
84
0
79
0
71
0
76
0
94
0
111
0
119
0
87
0
66
0
47
0
57
0
76
0
76
0
82
0
105
0
139
0
173
0
115
0
56
0
62
0
81
0
87
0
81
0
92
0
104
0
110
0
109
0
97
0
56
0
8
0
2
0
4
0
1
0
3
0
39
0
75
0
77
0
51
0
4
0
2
0
7
0
2
0
0
0
0
0
1
0
0
0
2
0
3
0
0
0
0
0
6
0
35
0
70
0
88
0
91
0
86
0
101
0
94
0
54
0
14
0
2
0
3
0
5
0
6
0
3
0
0
0
1
0
3
0
3
0
1
0
0
0
4
0
36
0
81
0
85
0
74
0
102
0
101
0
42
0
24
0
90
0
88
0
22
0
6
0
64
0
74
0
45
0
31
0
82
0
112
0
96
0
41
0
3
0
6
0
2
0
13
0
2
0
2
0
12
0
31
0
58
0
65
0
50
0
64
0
74
0
78
0
73
255
192
255
206
255
210
255
204
255
200
255
211
255
179
255
156
255
154
255
156
255
160
255
160
255
153
255
148
255
161
255
212
255
161
255
160
255
164
255
156
255
151
255
159
255
158
255
200
255
233
255
229
255
247
255
232
255
205
255
205
255
204
255
200
255
187
255
176
255
179
255
188
255
193
255
194
255
171
255
156
255
161
255
165
255
168
255
185
255
240
255
207
255
174
255
164
255
182
255
210
255
237
255
253
255
253
255
248
255
243
255
251
255
253
255
251
255
249
255
251
255
250
255
232
255
229
255
228
255
212
255
190
255
186
255
221
255
220
255
229
255
211
255
169
255
139
255
144
255
167
0
70
0
68
0
121
0
120
0
131
0
104
0
71
0
108
0
96
0
62
0
85
0
127
0
152
0
142
0
146
0
148
0
83
0
109
0
151
0
150
0
127
0
99
0
50
0
23
0
0
0
0
0
0
0
0
0
0
0
0
0
0
0
0
0
0
0
0
0
0
0
0
0
0
0
0
0
0
0
0
0
0
0
0
0
0
0
0
0
0
0
0
0
0
0
0
0
0
0
0
0
0
0
0
0
0
0
0
0
0
0
0
0
0
0
0
0
0
0
0
0
0
0
0
0
0
0
0
0
0
0
0
0
0
0
0
0
0
0
0
0
0
0
0
0
0
0
0
0
0
0
0
0
0
0
0
0
0
0
0
0
0
0
0
0
0
0
0
0
0
0
0
0
0
0
0
0
0
0
0
0
0
0
0
0
0
0
0
0
0
0
0
0
0
0
0
0
0
0
0
0
0
0
0
0
0
0
0
0
0
0
0
0
0
0
0
0
0
0
0
0
0
0
0
0
0
0
0
0
0
0
0
0
0
0
0
0
0
0
0
0
0
0
0
0
0
0
0
0
0
0
0
0
0
0
0
0
0
0
0
0
0
0
0
0
0
0
0
0
0
0
0
0
0
0
0
0
0
0
0
0
0
0
0
0
0
0
0
0
0
0
0
0
0
0
255
255
255
255
255
255
255
255
255
255
255
255
255
255
255
255
255
255
255
255
255
255
255
255
255
255
255
255
255
255
255
255
255
255
255
255
255
255
255
255
255
255
255
255
255
255
255
255
255
255
255
255
255
255
255
255
255
255
255
255
255
255
255
255
255
255
255
255
255
255
255
255
255
255
255
255
255
255
255
255
255
255
255
255
255
255
255
255
255
255
255
255
255
255
255
255
255
255
255
255
255
255
255
255
255
255
255
255
255
255
255
255
255
255
255
255
255
255
255
255
255
255
255
255
255
255
255
255
255
255
255
255
255
255
255
255
255
255
255
255
255
255
255
255
255
255
255
255
255
255
0
0
0
0
0
0
0
0
0
0
0
0
0
0
0
0
0
0
0
0
0
0
0
0
0
0
0
0
0
0
0
0
0
0
0
0
0
0
0
0
0
0
0
0
0
0
0
0
255
0
244
0
201
0
123
0
43
0
5
0
24
0
55
0
23
0
59
0
85
0
104
0
92
0
65
0
77
0
100
0
101
0
98
0
85
0
67
0
60
0
63
0
66
0
64
0
56
0
48
0
48
0
85
0
145
0
158
0
128
0
95
0
155
0
170
0
87
0
39
0
85
0
106
0
109
0
127
0
135
0
114
0
75
0
46
0
34
0
17
0
6
0
14
0
6
0
1
0
3
0
44
0
78
0
80
0
59
0
13
0
1
0
4
0
2
0
0
0
0
0
0
0
0
0
2
0
5
0
3
0
0
0
1
0
29
0
67
0
85
0
85
0
92
0
89
0
70
0
34
0
7
0
1
0
3
0
4
0
2
0
0
0
0
0
1
0
3
0
4
0
2
0
0
0
4
0
46
0
79
0
86
0
90
0
89
0
63
0
31
0
63
0
87
0
58
0
7
0
18
0
69
0
69
0
40
0
30
0
79
0
110
0
100
0
47
0
6
0
10
0
4
0
4
0
3
0
16
0
32
0
51
0
70
0
63
0
44
0
61
0
61
0
56
0
51
255
202
255
198
255
188
255
175
255
194
255
213
255
187
255
163
255
158
255
156
255
156
255
148
255
161
255
150
255
155
255
202
255
152
255
153
255
158
255
156
255
165
255
152
255
141
255
185
255
232
255
239
255
242
255
245
255
224
255
203
255
181
255
171
255
170
255
172
255
173
255
174
255
188
255
187
255
177
255
171
255
168
255
162
255
185
255
229
255
218
255
199
255
183
255
189
255
212
255
233
255
248
255
253
255
251
255
251
255
251
255
249
255
249
255
251
255
252
255
252
255
250
255
223
255
176
255
166
255
182
255
169
255
167
255
200
255
210
255
180
255
141
255
125
255
155
255
200
255
214
0
38
0
98
0
130
0
126
0
133
0
106
0
41
0
60
0
97
0
106
0
110
0
118
0
134
0
138
0
149
0
151
0
101
0
104
0
145
0
127
0
92
0
104
0
103
0
78
0
0
0
0
0
0
0
0
0
0
0
0
0
0
0
0
0
0
0
0
0
0
0
0
0
0
0
0
0
0
0
0
0
0
0
0
0
0
0
0
0
0
0
0
0
0
0
0
0
0
0
0
0
0
0
0
0
0
0
0
0
0
0
0
0
0
0
0
0
0
0
0
0
0
0
0
0
0
0
0
0
0
0
0
0
0
0
0
0
0
0
0
0
0
0
0
0
0
0
0
0
0
0
0
0
0
0
0
0
0
0
0
0
0
0
0
0
0
0
0
0
0
0
0
0
0
0
0
0
0
0
0
0
0
0
0
0
0
0
0
0
0
0
0
0
0
0
0
0
0
0
0
0
0
0
0
0
0
0
0
0
0
0
0
0
0
0
0
0
0
0
0
0
0
0
0
0
0
0
0
0
0
0
0
0
0
0
0
0
0
0
0
0
0
0
0
0
0
0
0
0
0
0
0
0
0
0
0
0
0
0
0
0
0
0
0
0
0
0
0
0
0
0
0
0
0
0
0
0
0
0
0
0
0
0
0
0
0
0
0
0
0
0
0
0
0
0
255
255
255
255
255
255
255
255
255
255
255
255
255
255
255
255
255
255
255
255
255
255
255
255
255
255
255
255
255
255
255
255
255
255
255
255
255
255
255
255
255
255
255
255
255
255
255
255
255
255
255
255
255
255
255
255
255
255
255
255
255
255
255
255
255
255
255
255
255
255
255
255
255
255
255
255
255
255
255
255
255
255
255
255
255
255
255
255
255
255
255
255
255
255
255
255
255
255
255
255
255
255
255
255
255
255
255
255
255
255
255
255
255
255
255
255
255
255
255
255
255
255
255
255
255
255
255
255
255
255
255
255
255
255
255
255
255
255
255
255
255
255
255
255
255
255
255
255
255
255
0
0
0
0
0
0
0
0
0
0
0
0
0
0
0
0
0
0
0
0
0
0
0
0
0
0
0
0
0
0
0
0
0
0
0
0
0
0
0
0
0
0
0
0
0
0
0
0
186
0
130
0
53
0
6
0
21
0
56
0
68
0
57
0
25
0
32
0
48
0
77
0
83
0
79
0
92
0
94
0
84
0
86
0
86
0
78
0
62
0
39
0
17
0
5
0
48
0
94
0
121
0
124
0
143
0
158
0
141
0
116
0
151
0
126
0
55
0
52
0
116
0
140
0
139
0
141
0
125
0
90
0
39
0
8
0
5
0
4
0
2
0
6
0
6
0
2
0
8
0
52
0
83
0
81
0
66
0
31
0
0
0
0
0
1
0
0
0
0
0
0
0
0
0
2
0
1
0
3
0
0
0
1
0
30
0
73
0
93
0
88
0
90
0
67
0
34
0
11
0
1
0
0
0
3
0
5
0
0
0
0
0
0
0
1
0
4
0
4
0
3
0
1
0
16
0
65
0
82
0
86
0
100
0
70
0
33
0
40
0
98
0
72
0
22
0
5
0
44
0
76
0
61
0
33
0
65
0
98
0
117
0
102
0
46
0
3
0
6
0
5
0
4
0
16
0
44
0
59
0
71
0
74
0
54
0
31
0
43
0
47
0
48
0
55
255
189
255
180
255
177
255
172
255
186
255
215
255
193
255
164
255
157
255
156
255
156
255
146
255
160
255
148
255
153
255
202
255
153
255
151
255
151
255
147
255
155
255
156
255
177
255
205
255
221
255
205
255
198
255
243
255
246
255
214
255
177
255
157
255
156
255
164
255
173
255
176
255
202
255
213
255
201
255
177
255
167
255
179
255
207
255
235
255
189
255
185
255
192
255
214
255
237
255
249
255
250
255
249
255
243
255
250
255
249
255
245
255
249
255
255
255
250
255
234
255
211
255
198
255
152
255
133
255
161
255
161
255
141
255
145
255
154
255
146
255
157
255
194
255
235
255
241
255
190
0
119
0
118
0
132
0
123
0
109
0
80
0
26
0
40
0
113
0
126
0
137
0
126
0
128
0
124
0
126
0
145
0
133
0
78
0
98
0
107
0
105
0
123
0
145
0
132
0
0
0
0
0
0
0
0
0
0
0
0
0
0
0
0
0
0
0
0
0
0
0
0
0
0
0
0
0
0
0
0
0
0
0
0
0
0
0
0
0
0
0
0
0
0
0
0
0
0
0
0
0
0
0
0
0
0
0
0
0
0
0
0
0
0
0
0
0
0
0
0
0
0
0
0
0
0
0
0
0
0
0
0
0
0
0
0
0
0
0
0
0
0
0
0
0
0
0
0
0
0
0
0
0
0
0
0
0
0
0
0
0
0
0
0
0
0
0
0
0
0
0
0
0
0
0
0
0
0
0
0
0
0
0
0
0
0
0
0
0
0
0
0
0
0
0
0
0
0
0
0
0
0
0
0
0
0
0
0
0
0
0
0
0
0
0
0
0
0
0
0
0
0
0
0
0
0
0
0
0
0
0
0
0
0
0
0
0
0
0
0
0
0
0
0
0
0
0
0
0
0
0
0
0
0
0
0
0
0
0
0
0
0
0
0
0
0
0
0
0
0
0
0
0
0
0
0
0
0
0
0
0
0
0
0
0
0
0
0
0
0
0
0
0
0
0
255
255
255
255
255
255
255
255
255
255
255
255
255
255
255
255
255
255
255
255
255
255
255
255
255
255
255
255
255
255
255
255
255
255
255
255
255
255
255
255
255
255
255
255
255
255
255
255
255
255
255
255
255
255
255
255
255
255
255
255
255
255
255
255
255
255
255
255
255
255
255
255
255
255
255
255
255
255
255
255
255
255
255
255
255
255
255
255
255
255
255
255
255
255
255
255
255
255
255
255
255
255
255
255
255
255
255
255
255
255
255
255
255
255
255
255
255
255
255
255
255
255
255
255
255
255
255
255
255
255
255
255
255
255
255
255
255
255
255
255
255
255
255
255
255
255
255
255
255
255
0
0
0
0
0
0
0
0
0
0
0
0
0
0
0
0
0
0
0
0
0
0
0
0
0
0
0
0
0
0
0
0
0
0
0
0
0
0
0
0
0
0
0
0
0
0
0
0
3
0
4
0
21
0
43
0
65
0
82
0
92
0
94
0
56
0
45
0
34
0
42
0
45
0
68
0
101
0
98
0
83
0
70
0
68
0
77
0
76
0
67
0
72
0
89
0
127
0
153
0
144
0
118
0
129
0
156
0
149
0
129
0
136
0
71
0
25
0
48
0
89
0
128
0
149
0
122
0
60
0
38
0
12
0
9
0
12
0
8
0
2
0
1
0
4
0
2
0
11
0
57
0
85
0
82
0
73
0
48
0
4
0
1
0
0
0
3
0
1
0
0
0
0
0
1
0
1
0
2
0
1
0
3
0
35
0
80
0
96
0
87
0
68
0
37
0
8
0
1
0
0
0
1
0
1
0
5
0
0
0
0
0
0
0
2
0
4
0
3
0
1
0
0
0
37
0
79
0
89
0
89
0
88
0
51
0
36
0
77
0
98
0
43
0
1
0
25
0
70
0
74
0
48
0
29
0
91
0
104
0
108
0
91
0
36
0
1
0
14
0
21
0
12
0
39
0
61
0
66
0
68
0
64
0
39
0
16
0
39
0
51
0
62
0
71
255
174
255
173
255
180
255
181
255
182
255
215
255
193
255
160
255
153
255
158
255
163
255
154
255
161
255
151
255
152
255
200
255
156
255
156
255
158
255
159
255
166
255
176
255
205
255
206
255
203
255
179
255
155
255
206
255
243
255
229
255
208
255
187
255
174
255
178
255
194
255
208
255
231
255
248
255
225
255
174
255
165
255
201
255
215
255
193
255
179
255
192
255
214
255
240
255
253
255
254
255
254
255
251
255
247
255
250
255
251
255
251
255
253
255
251
255
226
255
203
255
159
255
186
255
176
255
141
255
146
255
173
255
173
255
151
255
179
255
200
255
232
255
248
255
209
255
148
255
119
0
133
0
130
0
101
0
79
0
67
0
96
0
105
0
71
0
75
0
118
0
139
0
127
0
130
0
128
0
115
0
126
0
125
0
60
0
45
0
99
0
154
0
149
0
147
0
150
0
0
0
0
0
0
0
0
0
0
0
0
0
0
0
0
0
0
0
0
0
0
0
0
0
0
0
0
0
0
0
0
0
0
0
0
0
0
0
0
0
0
0
0
0
0
0
0
0
0
0
0
0
0
0
0
0
0
0
0
0
0
0
0
0
0
0
0
0
0
0
0
0
0
0
0
0
0
0
0
0
0
0
0
0
0
0
0
0
0
0
0
0
0
0
0
0
0
0
0
0
0
0
0
0
0
0
0
0
0
0
0
0
0
0
0
0
0
0
0
0
0
0
0
0
0
0
0
0
0
0
0
0
0
0
0
0
0
0
0
0
0
0
0
0
0
0
0
0
0
0
0
0
0
0
0
0
0
0
0
0
0
0
0
0
0
0
0
0
0
0
0
0
0
0
0
0
0
0
0
0
0
0
0
0
0
0
0
0
0
0
0
0
0
0
0
0
0
0
0
0
0
0
0
0
0
0
0
0
0
0
0
0
0
0
0
0
0
0
0
0
0
0
0
0
0
0
0
0
0
0
0
0
0
0
0
0
0
0
0
0
0
0
0
0
0
0
255
255
255
255
255
255
255
255
255
255
255
255
255
255
255
255
255
255
255
255
255
255
255
255
255
255
255
255
255
255
255
255
255
255
255
255
255
255
255
255
255
255
255
255
255
255
255
255
255
255
255
255
255
255
255
255
255
255
255
255
255
255
255
255
255
255
255
255
255
255
255
255
255
255
255
255
255
255
255
255
255
255
255
255
255
255
255
255
255
255
255
255
255
255
255
255
255
255
255
255
255
255
255
255
255
255
255
255
255
255
255
255
255
255
255
255
255
255
255
255
255
255
255
255
255
255
255
255
255
255
255
255
255
255
255
255
255
255
255
255
255
255
255
255
255
255
255
255
255
255
0
0
0
0
0
0
0
0
0
0
0
0
0
0
0
0
0
0
0
0
0
0
0
0
0
0
0
0
0
0
0
0
0
0
0
0
0
0
0
0
0
0
0
0
0
0
0
0
18
0
46
0
69
0
62
0
49
0
58
0
89
0
119
0
105
0
87
0
69
0
58
0
27
0
28
0
76
0
100
0
108
0
84
0
76
0
87
0
89
0
87
0
110
0
146
0
161
0
168
0
151
0
133
0
146
0
155
0
135
0
114
0
66
0
47
0
64
0
95
0
95
0
95
0
97
0
53
0
13
0
3
0
0
0
0
0
2
0
3
0
4
0
5
0
2
0
0
0
11
0
59
0
84
0
81
0
79
0
61
0
17
0
2
0
1
0
5
0
1
0
0
0
0
0
1
0
1
0
2
0
3
0
4
0
27
0
59
0
67
0
54
0
34
0
12
0
1
0
1
0
3
0
1
0
1
0
4
0
0
0
1
0
2
0
3
0
3
0
1
0
0
0
0
0
45
0
76
0
97
0
91
0
67
0
43
0
60
0
103
0
71
0
22
0
1
0
38
0
70
0
54
0
32
0
33
0
76
0
84
0
86
0
73
0
26
0
1
0
28
0
41
0
17
0
45
0
55
0
50
0
51
0
51
0
31
0
14
0
59
0
71
0
76
0
73
255
181
255
180
255
179
255
174
255
181
255
215
255
196
255
164
255
156
255
160
255
165
255
156
255
163
255
156
255
152
255
194
255
157
255
166
255
177
255
184
255
197
255
177
255
166
255
157
255
187
255
196
255
155
255
154
255
206
255
222
255
236
255
233
255
220
255
217
255
230
255
244
255
231
255
228
255
213
255
183
255
176
255
201
255
204
255
174
255
188
255
207
255
232
255
245
255
247
255
247
255
249
255
249
255
255
255
253
255
254
255
252
255
232
255
200
255
178
255
173
255
158
255
182
255
198
255
162
255
127
255
170
255
229
255
233
255
237
255
238
255
215
255
171
255
136
255
129
255
135
0
119
0
96
0
71
0
88
0
94
0
126
0
150
0
105
0
63
0
106
0
126
0
123
0
136
0
143
0
123
0
101
0
87
0
74
0
59
0
95
0
149
0
158
0
147
0
145
0
0
0
0
0
0
0
0
0
0
0
0
0
0
0
0
0
0
0
0
0
0
0
0
0
0
0
0
0
0
0
0
0
0
0
0
0
0
0
0
0
0
0
0
0
0
0
0
0
0
0
0
0
0
0
0
0
0
0
0
0
0
0
0
0
0
0
0
0
0
0
0
0
0
0
0
0
0
0
0
0
0
0
0
0
0
0
0
0
0
0
0
0
0
0
0
0
0
0
0
0
0
0
0
0
0
0
0
0
0
0
0
0
0
0
0
0
0
0
0
0
0
0
0
0
0
0
0
0
0
0
0
0
0
0
0
0
0
0
0
0
0
0
0
0
0
0
0
0
0
0
0
0
0
0
0
0
0
0
0
0
0
0
0
0
0
0
0
0
0
0
0
0
0
0
0
0
0
0
0
0
0
0
0
0
0
0
0
0
0
0
0
0
0
0
0
0
0
0
0
0
0
0
0
0
0
0
0
0
0
0
0
0
0
0
0
0
0
0
0
0
0
0
0
0
0
0
0
0
0
0
0
0
0
0
0
0
0
0
0
0
0
0
0
0
0
0
255
255
255
255
255
255
255
255
255
255
255
255
255
255
255
255
255
255
255
255
255
255
255
255
255
255
255
255
255
255
255
255
255
255
255
255
255
255
255
255
255
255
255
255
255
255
255
255
255
255
255
255
255
255
255
255
255
255
255
255
255
255
255
255
255
255
255
255
255
255
255
255
255
255
255
255
255
255
255
255
255
255
255
255
255
255
255
255
255
255
255
255
255
255
255
255
255
255
255
255
255
255
255
255
255
255
255
255
255
255
255
255
255
255
255
255
255
255
255
255
255
255
255
255
255
255
255
255
255
255
255
255
255
255
255
255
255
255
255
255
255
255
255
255
255
255
255
255
255
255
0
0
0
0
0
0
0
0
0
0
0
0
0
0
0
0
0
0
0
0
0
0
0
0
0
0
0
0
0
0
0
0
0
0
0
0
0
0
0
0
0
0
0
0
0
0
0
0
67
0
66
0
53
0
45
0
62
0
96
0
113
0
110
0
129
0
101
0
84
0
100
0
79
0
39
0
36
0
49
0
90
0
83
0
82
0
90
0
95
0
104
0
133
0
158
0
167
0
166
0
153
0
147
0
145
0
115
0
63
0
32
0
9
0
72
0
119
0
142
0
125
0
75
0
36
0
6
0
7
0
2
0
1
0
4
0
6
0
6
0
3
0
3
0
2
0
1
0
9
0
59
0
84
0
79
0
81
0
70
0
37
0
6
0
1
0
4
0
1
0
0
0
1
0
1
0
0
0
3
0
3
0
1
0
7
0
20
0
18
0
8
0
7
0
0
0
1
0
3
0
4
0
0
0
0
0
2
0
0
0
2
0
3
0
3
0
1
0
1
0
3
0
4
0
43
0
70
0
94
0
82
0
51
0
52
0
80
0
98
0
43
0
11
0
6
0
45
0
57
0
35
0
29
0
49
0
70
0
78
0
82
0
69
0
18
0
2
0
23
0
30
0
8
0
35
0
42
0
37
0
46
0
52
0
37
0
21
0
62
0
77
0
84
0
78
255
181
255
181
255
176
255
170
255
183
255
217
255
201
255
175
255
166
255
163
255
160
255
149
255
154
255
164
255
168
255
207
255
170
255
177
255
179
255
176
255
172
255
155
255
139
255
137
255
175
255
201
255
168
255
132
255
164
255
191
255
222
255
242
255
247
255
246
255
243
255
239
255
194
255
170
255
183
255
208
255
198
255
185
255
193
255
199
255
215
255
234
255
248
255
246
255
246
255
249
255
250
255
250
255
250
255
247
255
239
255
219
255
183
255
151
255
153
255
169
255
168
255
162
255
205
255
211
255
149
255
147
255
205
255
225
255
216
255
166
255
133
255
143
255
151
255
148
255
162
0
66
0
80
0
83
0
135
0
142
0
126
0
130
0
119
0
117
0
82
0
117
0
149
0
144
0
126
0
104
0
87
0
94
0
121
0
120
0
92
0
91
0
140
0
157
0
146
0
0
0
0
0
0
0
0
0
0
0
0
0
0
0
0
0
0
0
0
0
0
0
0
0
0
0
0
0
0
0
0
0
0
0
0
0
0
0
0
0
0
0
0
0
0
0
0
0
0
0
0
0
0
0
0
0
0
0
0
0
0
0
0
0
0
0
0
0
0
0
0
0
0
0
0
0
0
0
0
0
0
0
0
0
0
0
0
0
0
0
0
0
0
0
0
0
0
0
0
0
0
0
0
0
0
0
0
0
0
0
0
0
0
0
0
0
0
0
0
0
0
0
0
0
0
0
0
0
0
0
0
0
0
0
0
0
0
0
0
0
0
0
0
0
0
0
0
0
0
0
0
0
0
0
0
0
0
0
0
0
0
0
0
0
0
0
0
0
0
0
0
0
0
0
0
0
0
0
0
0
0
0
0
0
0
0
0
0
0
0
0
0
0
0
0
0
0
0
0
0
0
0
0
0
0
0
0
0
0
0
0
0
0
0
0
0
0
0
0
0
0
0
0
0
0
0
0
0
0
0
0
0
0
0
0
0
0
0
0
0
0
0
0
0
0
0
255
255
255
255
255
255
255
255
255
255
255
255
255
255
255
255
255
255
255
255
255
255
255
255
255
255
255
255
255
255
255
255
255
255
255
255
255
255
255
255
255
255
255
255
255
255
255
255
255
255
255
255
255
255
255
255
255
255
255
255
255
255
255
255
255
255
255
255
255
255
255
255
255
255
255
255
255
255
255
255
255
255
255
255
255
255
255
255
255
255
255
255
255
255
255
255
255
255
255
255
255
255
255
255
255
255
255
255
255
255
255
255
255
255
255
255
255
255
255
255
255
255
255
255
255
255
255
255
255
255
255
255
255
255
255
255
255
255
255
255
255
255
255
255
255
255
255
255
255
255
0
0
0
0
0
0
0
0
0
0
0
0
0
0
0
0
0
0
0
0
0
0
0
0
0
0
0
0
0
0
0
0
0
0
0
0
0
0
0
0
0
0
0
0
0
0
0
0
72
0
66
0
57
0
58
0
73
0
96
0
112
0
117
0
126
0
105
0
88
0
114
0
132
0
99
0
54
0
18
0
77
0
95
0
96
0
80
0
82
0
115
0
154
0
171
0
147
0
162
0
152
0
113
0
67
0
31
0
33
0
60
0
67
0
100
0
100
0
95
0
79
0
41
0
27
0
29
0
5
0
1
0
6
0
11
0
3
0
3
0
1
0
1
0
3
0
1
0
7
0
58
0
86
0
80
0
83
0
77
0
55
0
11
0
1
0
3
0
1
0
1
0
3
0
1
0
2
0
2
0
2
0
1
0
1
0
0
0
0
0
0
0
0
0
0
0
0
0
2
0
2
0
1
0
0
0
0
0
0
0
0
0
1
0
1
0
1
0
3
0
8
0
13
0
53
0
78
0
82
0
54
0
42
0
71
0
90
0
78
0
18
0
8
0
25
0
58
0
59
0
38
0
47
0
75
0
94
0
100
0
99
0
75
0
16
0
2
0
23
0
24
0
2
0
33
0
47
0
48
0
65
0
69
0
42
0
21
0
47
0
70
0
83
0
83
255
174
255
176
255
179
255
176
255
189
255
216
255
199
255
178
255
171
255
164
255
160
255
153
255
166
255
188
255
192
255
216
255
168
255
170
255
161
255
148
255
135
255
146
255
148
255
154
255
162
255
177
255
177
255
143
255
147
255
161
255
179
255
195
255
205
255
208
255
202
255
194
255
164
255
153
255
189
255
228
255
209
255
192
255
206
255
218
255
236
255
249
255
254
255
254
255
251
255
249
255
251
255
248
255
225
255
211
255
191
255
172
255
161
255
166
255
190
255
213
255
174
255
144
255
191
255
240
255
204
255
161
255
159
255
147
255
160
255
144
255
120
255
118
255
158
255
199
255
192
0
93
0
123
0
113
0
126
0
132
0
127
0
131
0
132
0
139
0
78
0
107
0
150
0
128
0
93
0
95
0
100
0
132
0
141
0
152
0
111
0
74
0
106
0
148
0
156
0
0
0
0
0
0
0
0
0
0
0
0
0
0
0
0
0
0
0
0
0
0
0
0
0
0
0
0
0
0
0
0
0
0
0
0
0
0
0
0
0
0
0
0
0
0
0
0
0
0
0
0
0
0
0
0
0
0
0
0
0
0
0
0
0
0
0
0
0
0
0
0
0
0
0
0
0
0
0
0
0
0
0
0
0
0
0
0
0
0
0
0
0
0
0
0
0
0
0
0
0
0
0
0
0
0
0
0
0
0
0
0
0
0
0
0
0
0
0
0
0
0
0
0
0
0
0
0
0
0
0
0
0
0
0
0
0
0
0
0
0
0
0
0
0
0
0
0
0
0
0
0
0
0
0
0
0
0
0
0
0
0
0
0
0
0
0
0
0
0
0
0
0
0
0
0
0
0
0
0
0
0
0
0
0
0
0
0
0
0
0
0
0
0
0
0
0
0
0
0
0
0
0
0
0
0
0
0
0
0
0
0
0
0
0
0
0
0
0
0
0
0
0
0
0
0
0
0
0
0
0
0
0
0
0
0
0
0
0
0
0
0
0
0
0
0
0
255
255
255
255
255
255
255
255
255
255
255
255
255
255
255
255
255
255
255
255
255
255
255
255
255
255
255
255
255
255
255
255
255
255
255
255
255
255
255
255
255
255
255
255
255
255
255
255
255
255
255
255
255
255
255
255
255
255
255
255
255
255
255
255
255
255
255
255
255
255
255
255
255
255
255
255
255
255
255
255
255
255
255
255
255
255
255
255
255
255
255
255
255
255
255
255
255
255
255
255
255
255
255
255
255
255
255
255
255
255
255
255
255
255
255
255
255
255
255
255
255
255
255
255
255
255
255
255
255
255
255
255
255
255
255
255
255
255
255
255
255
255
255
255
255
255
255
255
255
255
0
0
0
0
0
0
0
0
0
0
0
0
0
0
0
0
0
0
0
0
0
0
0
0
0
0
0
0
0
0
0
0
0
0
0
0
0
0
0
0
0
0
0
0
0
0
0
0
48
0
53
0
79
0
113
0
112
0
90
0
94
0
115
0
120
0
130
0
103
0
101
0
131
0
140
0
115
0
73
0
3
0
64
0
90
0
74
0
84
0
135
0
166
0
156
0
157
0
137
0
75
0
26
0
21
0
44
0
89
0
131
0
128
0
86
0
43
0
32
0
19
0
19
0
36
0
33
0
13
0
2
0
4
0
8
0
3
0
1
0
10
0
6
0
5
0
1
0
7
0
59
0
87
0
80
0
86
0
80
0
67
0
15
0
1
0
2
0
1
0
1
0
3
0
1
0
1
0
0
0
1
0
4
0
3
0
1
0
3
0
10
0
1
0
3
0
3
0
1
0
1
0
1
0
1
0
0
0
0
0
0
0
0
0
0
0
1
0
6
0
13
0
19
0
69
0
93
0
71
0
28
0
38
0
86
0
93
0
65
0
8
0
8
0
40
0
74
0
71
0
55
0
69
0
95
0
113
0
118
0
112
0
80
0
22
0
9
0
47
0
46
0
11
0
44
0
62
0
70
0
89
0
85
0
43
0
16
0
44
0
65
0
76
0
75
255
179
255
176
255
176
255
175
255
195
255
214
255
192
255
173
255
170
255
165
255
167
255
166
255
205
255
218
255
203
255
200
255
143
255
149
255
147
255
138
255
148
255
155
255
150
255
158
255
149
255
158
255
185
255
155
255
147
255
147
255
143
255
136
255
138
255
145
255
150
255
151
255
158
255
178
255
220
255
233
255
211
255
218
255
229
255
208
255
201
255
208
255
209
255
204
255
198
255
193
255
190
255
183
255
179
255
162
255
140
255
138
255
167
255
214
255
250
255
247
255
187
255
140
255
171
255
239
255
236
255
197
255
160
255
126
255
117
255
136
255
174
255
201
255
199
255
170
255
138
0
134
0
129
0
136
0
125
0
119
0
128
0
132
0
137
0
142
0
106
0
91
0
115
0
86
0
83
0
124
0
127
0
142
0
137
0
140
0
140
0
108
0
84
0
124
0
165
0
0
0
0
0
0
0
0
0
0
0
0
0
0
0
0
0
0
0
0
0
0
0
0
0
0
0
0
0
0
0
0
0
0
0
0
0
0
0
0
0
0
0
0
0
0
0
0
0
0
0
0
0
0
0
0
0
0
0
0
0
0
0
0
0
0
0
0
0
0
0
0
0
0
0
0
0
0
0
0
0
0
0
0
0
0
0
0
0
0
0
0
0
0
0
0
0
0
0
0
0
0
0
0
0
0
0
0
0
0
0
0
0
0
0
0
0
0
0
0
0
0
0
0
0
0
0
0
0
0
0
0
0
0
0
0
0
0
0
0
0
0
0
0
0
0
0
0
0
0
0
0
0
0
0
0
0
0
0
0
0
0
0
0
0
0
0
0
0
0
0
0
0
0
0
0
0
0
0
0
0
0
0
0
0
0
0
0
0
0
0
0
0
0
0
0
0
0
0
0
0
0
0
0
0
0
0
0
0
0
0
0
0
0
0
0
0
0
0
0
0
0
0
0
0
0
0
0
0
0
0
0
0
0
0
0
0
0
0
0
0
0
0
0
0
0
0
255
255
255
255
255
255
255
255
255
255
255
255
255
255
255
255
255
255
255
255
255
255
255
255
255
255
255
255
255
255
255
255
255
255
255
255
255
255
255
255
255
255
255
255
255
255
255
255
255
255
255
255
255
255
255
255
255
255
255
255
255
255
255
255
255
255
255
255
255
255
255
255
255
255
255
255
255
255
255
255
255
255
255
255
255
255
255
255
255
255
255
255
255
255
255
255
255
255
255
255
255
255
255
255
255
255
255
255
255
255
255
255
255
255
255
255
255
255
255
255
255
255
255
255
255
255
255
255
255
255
255
255
255
255
255
255
255
255
255
255
255
255
255
255
255
255
255
255
255
255
0
0
0
0
0
0
0
0
0
0
0
0
0
0
0
0
0
0
0
0
0
0
0
0
0
0
0
0
0
0
0
0
0
0
0
0
0
0
0
0
0
0
0
0
0
0
0
0
63
0
88
0
108
0
113
0
108
0
101
0
97
0
102
0
130
0
126
0
114
0
87
0
75
0
96
0
105
0
83
0
33
0
5
0
47
0
102
0
102
0
114
0
139
0
132
0
115
0
51
0
38
0
65
0
89
0
111
0
110
0
69
0
41
0
37
0
29
0
53
0
52
0
30
0
43
0
40
0
18
0
2
0
1
0
2
0
0
0
1
0
1
0
1
0
0
0
0
0
13
0
62
0
85
0
76
0
82
0
86
0
56
0
17
0
1
0
2
0
1
0
1
0
8
0
0
0
2
0
2
0
2
0
2
0
2
0
2
0
2
0
2
0
1
0
1
0
1
0
1
0
1
0
1
0
1
0
1
0
1
0
4
0
3
0
1
0
1
0
3
0
23
0
47
0
77
0
82
0
47
0
31
0
76
0
103
0
69
0
33
0
5
0
16
0
60
0
75
0
89
0
48
0
52
0
100
0
90
0
111
0
116
0
84
0
2
0
29
0
75
0
54
0
6
0
56
0
69
0
66
0
67
0
76
0
68
0
20
0
53
0
66
0
79
0
82
255
173
255
174
255
176
255
179
255
214
255
206
255
189
255
198
255
206
255
200
255
196
255
181
255
173
255
160
255
172
255
190
255
173
255
151
255
148
255
156
255
151
255
155
255
150
255
156
255
144
255
154
255
183
255
161
255
138
255
133
255
140
255
149
255
146
255
138
255
146
255
165
255
184
255
201
255
222
255
237
255
228
255
204
255
195
255
207
255
190
255
186
255
182
255
179
255
179
255
178
255
176
255
175
255
174
255
179
255
186
255
208
255
243
255
254
255
232
255
190
255
145
255
171
255
222
255
246
255
220
255
177
255
155
255
150
255
147
255
201
255
206
255
166
255
139
255
135
255
134
0
120
0
129
0
120
0
129
0
141
0
123
0
120
0
145
0
142
0
145
0
32
0
62
0
110
0
136
0
140
0
146
0
139
0
137
0
141
0
146
0
134
0
103
0
103
0
140
0
0
0
0
0
0
0
0
0
0
0
0
0
0
0
0
0
0
0
0
0
0
0
0
0
0
0
0
0
0
0
0
0
0
0
0
0
0
0
0
0
0
0
0
0
0
0
0
0
0
0
0
0
0
0
0
0
0
0
0
0
0
0
0
0
0
0
0
0
0
0
0
0
0
0
0
0
0
0
0
0
0
0
0
0
0
0
0
0
0
0
0
0
0
0
0
0
0
0
0
0
0
0
0
0
0
0
0
0
0
0
0
0
0
0
0
0
0
0
0
0
0
0
0
0
0
0
0
0
0
0
0
0
0
0
0
0
0
0
0
0
0
0
0
0
0
0
0
0
0
0
0
0
0
0
0
0
0
0
0
0
0
0
0
0
0
0
0
0
0
0
0
0
0
0
0
0
0
0
0
0
0
0
0
0
0
0
0
0
0
0
0
0
0
0
0
0
0
0
0
0
0
0
0
0
0
0
0
0
0
0
0
0
0
0
0
0
0
0
0
0
0
0
0
0
0
0
0
0
0
0
0
0
0
0
0
0
0
0
0
0
0
0
0
0
0
0
255
255
255
255
255
255
255
255
255
255
255
255
255
255
255
255
255
255
255
255
255
255
255
255
255
255
255
255
255
255
255
255
255
255
255
255
255
255
255
255
255
255
255
255
255
255
255
255
255
255
255
255
255
255
255
255
255
255
255
255
255
255
255
255
255
255
255
255
255
255
255
255
255
255
255
255
255
255
255
255
255
255
255
255
255
255
255
255
255
255
255
255
255
255
255
255
255
255
255
255
255
255
255
255
255
255
255
255
255
255
255
255
255
255
255
255
255
255
255
255
255
255
255
255
255
255
255
255
255
255
255
255
255
255
255
255
255
255
255
255
255
255
255
255
255
255
255
255
255
255
0
0
0
0
0
0
0
0
0
0
0
0
0
0
0
0
0
0
0
0
0
0
0
0
0
0
0
0
0
0
0
0
0
0
0
0
0
0
0
0
0
0
0
0
0
0
0
0
104
0
106
0
105
0
108
0
113
0
108
0
97
0
92
0
140
0
130
0
90
0
63
0
57
0
28
0
8
0
14
0
4
0
3
0
32
0
76
0
105
0
114
0
95
0
62
0
20
0
2
0
23
0
75
0
74
0
55
0
39
0
25
0
16
0
19
0
20
0
48
0
53
0
44
0
65
0
67
0
19
0
4
0
1
0
9
0
7
0
4
0
3
0
1
0
2
0
4
0
14
0
60
0
86
0
78
0
83
0
82
0
45
0
12
0
1
0
3
0
1
0
1
0
7
0
0
0
2
0
2
0
2
0
2
0
2
0
2
0
2
0
2
0
1
0
1
0
1
0
1
0
1
0
1
0
1
0
1
0
2
0
1
0
0
0
2
0
8
0
26
0
48
0
67
0
88
0
78
0
44
0
43
0
90
0
101
0
53
0
12
0
0
0
29
0
67
0
71
0
90
0
56
0
59
0
102
0
95
0
110
0
106
0
68
0
0
0
34
0
76
0
49
0
4
0
61
0
78
0
69
0
73
0
85
0
74
0
22
0
58
0
65
0
73
0
80
255
170
255
172
255
182
255
192
255
202
255
215
255
208
255
208
255
212
255
209
255
193
255
157
255
170
255
160
255
168
255
186
255
176
255
148
255
138
255
147
255
154
255
159
255
149
255
145
255
134
255
143
255
185
255
186
255
144
255
138
255
141
255
154
255
152
255
140
255
142
255
154
255
218
255
220
255
222
255
226
255
222
255
205
255
190
255
189
255
188
255
189
255
192
255
198
255
206
255
209
255
206
255
202
255
222
255
242
255
245
255
247
255
237
255
199
255
164
255
144
255
152
255
216
255
249
255
224
255
156
255
141
255
176
255
203
255
181
255
175
255
165
255
147
255
131
255
129
255
138
0
111
0
114
0
124
0
138
0
123
0
135
0
148
0
126
0
119
0
73
0
72
0
44
0
122
0
138
0
143
0
130
0
132
0
141
0
137
0
134
0
146
0
119
0
84
0
119
0
0
0
0
0
0
0
0
0
0
0
0
0
0
0
0
0
0
0
0
0
0
0
0
0
0
0
0
0
0
0
0
0
0
0
0
0
0
0
0
0
0
0
0
0
0
0
0
0
0
0
0
0
0
0
0
0
0
0
0
0
0
0
0
0
0
0
0
0
0
0
0
0
0
0
0
0
0
0
0
0
0
0
0
0
0
0
0
0
0
0
0
0
0
0
0
0
0
0
0
0
0
0
0
0
0
0
0
0
0
0
0
0
0
0
0
0
0
0
0
0
0
0
0
0
0
0
0
0
0
0
0
0
0
0
0
0
0
0
0
0
0
0
0
0
0
0
0
0
0
0
0
0
0
0
0
0
0
0
0
0
0
0
0
0
0
0
0
0
0
0
0
0
0
0
0
0
0
0
0
0
0
0
0
0
0
0
0
0
0
0
0
0
0
0
0
0
0
0
0
0
0
0
0
0
0
0
0
0
0
0
0
0
0
0
0
0
0
0
0
0
0
0
0
0
0
0
0
0
0
0
0
0
0
0
0
0
0
0
0
0
0
0
0
0
0
0
255
255
255
255
255
255
255
255
255
255
255
255
255
255
255
255
255
255
255
255
255
255
255
255
255
255
255
255
255
255
255
255
255
255
255
255
255
255
255
255
255
255
255
255
255
255
255
255
255
255
255
255
255
255
255
255
255
255
255
255
255
255
255
255
255
255
255
255
255
255
255
255
255
255
255
255
255
255
255
255
255
255
255
255
255
255
255
255
255
255
255
255
255
255
255
255
255
255
255
255
255
255
255
255
255
255
255
255
255
255
255
255
255
255
255
255
255
255
255
255
255
255
255
255
255
255
255
255
255
255
255
255
255
255
255
255
255
255
255
255
255
255
255
255
255
255
255
255
255
255
0
0
0
0
0
0
0
0
0
0
0
0
0
0
0
0
0
0
0
0
0
0
0
0
0
0
0
0
0
0
0
0
0
0
0
0
0
0
0
0
0
0
0
0
0
0
0
0
105
0
104
0
103
0
107
0
118
0
123
0
118
0
111
0
118
0
110
0
53
0
5
0
1
0
3
0
12
0
33
0
1
0
11
0
1
0
3
0
31
0
51
0
27
0
5
0
1
0
12
0
10
0
2
0
13
0
43
0
54
0
37
0
32
0
38
0
37
0
44
0
37
0
34
0
54
0
57
0
23
0
5
0
1
0
3
0
2
0
1
0
0
0
1
0
3
0
4
0
11
0
54
0
83
0
78
0
80
0
72
0
28
0
5
0
1
0
4
0
1
0
1
0
4
0
0
0
1
0
1
0
1
0
1
0
1
0
1
0
1
0
1
0
1
0
1
0
1
0
1
0
1
0
1
0
1
0
1
0
1
0
1
0
0
0
11
0
36
0
59
0
73
0
85
0
90
0
77
0
57
0
68
0
97
0
79
0
24
0
2
0
2
0
47
0
74
0
70
0
92
0
60
0
64
0
102
0
103
0
113
0
104
0
61
0
2
0
51
0
83
0
47
0
10
0
59
0
77
0
71
0
76
0
85
0
72
0
33
0
49
0
65
0
80
0
85
255
173
255
179
255
182
255
182
255
213
255
215
255
200
255
197
255
201
255
200
255
193
255
169
255
174
255
168
255
168
255
183
255
189
255
161
255
140
255
150
255
135
255
152
255
152
255
157
255
154
255
147
255
165
255
178
255
135
255
134
255
143
255
151
255
146
255
143
255
164
255
197
255
238
255
224
255
209
255
207
255
213
255
210
255
191
255
174
255
229
255
231
255
236
255
243
255
247
255
245
255
235
255
226
255
229
255
207
255
184
255
171
255
160
255
147
255
141
255
141
255
221
255
240
255
219
255
154
255
129
255
179
255
239
255
234
255
186
255
137
255
121
255
137
255
133
255
126
255
129
0
130
0
121
0
139
0
128
0
135
0
134
0
134
0
127
0
50
0
77
0
117
0
81
0
86
0
148
0
142
0
143
0
149
0
132
0
140
0
151
0
138
0
154
0
119
0
68
0
0
0
0
0
0
0
0
0
0
0
0
0
0
0
0
0
0
0
0
0
0
0
0
0
0
0
0
0
0
0
0
0
0
0
0
0
0
0
0
0
0
0
0
0
0
0
0
0
0
0
0
0
0
0
0
0
0
0
0
0
0
0
0
0
0
0
0
0
0
0
0
0
0
0
0
0
0
0
0
0
0
0
0
0
0
0
0
0
0
0
0
0
0
0
0
0
0
0
0
0
0
0
0
0
0
0
0
0
0
0
0
0
0
0
0
0
0
0
0
0
0
0
0
0
0
0
0
0
0
0
0
0
0
0
0
0
0
0
0
0
0
0
0
0
0
0
0
0
0
0
0
0
0
0
0
0
0
0
0
0
0
0
0
0
0
0
0
0
0
0
0
0
0
0
0
0
0
0
0
0
0
0
0
0
0
0
0
0
0
0
0
0
0
0
0
0
0
0
0
0
0
0
0
0
0
0
0
0
0
0
0
0
0
0
0
0
0
0
0
0
0
0
0
0
0
0
0
0
0
0
0
0
0
0
0
0
0
0
0
0
0
0
0
0
0
0
255
255
255
255
255
255
255
255
255
255
255
255
255
255
255
255
255
255
255
255
255
255
255
255
255
255
255
255
255
255
255
255
255
255
255
255
255
255
255
255
255
255
255
255
255
255
255
255
255
255
255
255
255
255
255
255
255
255
255
255
255
255
255
255
255
255
255
255
255
255
255
255
255
255
255
255
255
255
255
255
255
255
255
255
255
255
255
255
255
255
255
255
255
255
255
255
255
255
255
255
255
255
255
255
255
255
255
255
255
255
255
255
255
255
255
255
255
255
255
255
255
255
255
255
255
255
255
255
255
255
255
255
255
255
255
255
255
255
255
255
255
255
255
255
255
255
255
255
255
255
0
0
0
0
0
0
0
0
0
0
0
0
0
0
0
0
0
0
0
0
0
0
0
0
0
0
0
0
0
0
0
0
0
0
0
0
0
0
0
0
0
0
0
0
0
0
0
0
84
0
108
0
134
0
144
0
146
0
146
0
132
0
109
0
44
0
9
0
15
0
145
0
244
0
254
0
252
0
243
0
253
0
240
0
156
0
71
0
56
0
60
0
60
0
74
0
90
0
53
0
1
0
2
0
21
0
47
0
53
0
53
0
59
0
61
0
56
0
41
0
21
0
15
0
27
0
30
0
35
0
14
0
1
0
0
0
1
0
1
0
1
0
3
0
1
0
1
0
4
0
45
0
77
0
79
0
76
0
59
0
10
0
1
0
1
0
5
0
0
0
0
0
2
0
0
0
1
0
1
0
1
0
1
0
1
0
1
0
1
0
1
0
1
0
1
0
1
0
1
0
1
0
1
0
1
0
1
0
1
0
11
0
29
0
47
0
68
0
80
0
82
0
86
0
83
0
81
0
83
0
95
0
89
0
40
0
1
0
1
0
13
0
61
0
77
0
75
0
99
0
57
0
63
0
107
0
105
0
115
0
108
0
60
0
9
0
67
0
86
0
44
0
10
0
51
0
71
0
67
0
73
0
78
0
57
0
29
0
67
0
69
0
73
0
81
255
171
255
183
255
207
255
228
255
219
255
199
255
173
255
184
255
191
255
184
255
194
255
195
255
182
255
176
255
163
255
174
255
195
255
175
255
147
255
150
255
159
255
159
255
136
255
128
255
137
255
136
255
152
255
184
255
141
255
130
255
132
255
146
255
153
255
164
255
205
255
230
255
223
255
206
255
188
255
189
255
205
255
216
255
202
255
178
255
190
255
193
255
196
255
197
255
190
255
178
255
165
255
158
255
156
255
149
255
143
255
145
255
154
255
176
255
211
255
241
255
237
255
189
255
149
255
179
255
205
255
185
255
166
255
157
255
179
255
138
255
119
255
133
255
139
255
133
255
125
0
138
0
132
0
124
0
133
0
130
0
138
0
94
0
45
0
110
0
141
0
142
0
139
0
70
0
123
0
151
0
153
0
161
0
154
0
165
0
151
0
130
0
146
0
142
0
102
0
0
0
0
0
0
0
0
0
0
0
0
0
0
0
0
0
0
0
0
0
0
0
0
0
0
0
0
0
0
0
0
0
0
0
0
0
0
0
0
0
0
0
0
0
0
0
0
0
0
0
0
0
0
0
0
0
0
0
0
0
0
0
0
0
0
0
0
0
0
0
0
0
0
0
0
0
0
0
0
0
0
0
0
0
0
0
0
0
0
0
0
0
0
0
0
0
0
0
0
0
0
0
0
0
0
0
0
0
0
0
0
0
0
0
0
0
0
0
0
0
0
0
0
0
0
0
0
0
0
0
0
0
0
0
0
0
0
0
0
0
0
0
0
0
0
0
0
0
0
0
0
0
0
0
0
0
0
0
0
0
0
0
0
0
0
0
0
0
0
0
0
0
0
0
0
0
0
0
0
0
0
0
0
0
0
0
0
0
0
0
0
0
0
0
0
0
0
0
0
0
0
0
0
0
0
0
0
0
0
0
0
0
0
0
0
0
0
0
0
0
0
0
0
0
0
0
0
0
0
0
0
0
0
0
0
0
0
0
0
0
0
0
0
0
0
0
255
255
255
255
255
255
255
255
255
255
255
255
255
255
255
255
255
255
255
255
255
255
255
255
255
255
255
255
255
255
255
255
255
255
255
255
255
255
255
255
255
255
255
255
255
255
255
255
255
255
255
255
255
255
255
255
255
255
255
255
255
255
255
255
255
255
255
255
255
255
255
255
255
255
255
255
255
255
255
255
255
255
255
255
255
255
255
255
255
255
255
255
255
255
255
255
255
255
255
255
255
255
255
255
255
255
255
255
255
255
255
255
255
255
255
255
255
255
255
255
255
255
255
255
255
255
255
255
255
255
255
255
255
255
255
255
255
255
255
255
255
255
255
255
255
255
255
255
255
255
0
0
0
0
0
0
0
0
0
0
0
0
0
0
0
0
0
0
0
0
0
0
0
0
0
0
0
0
0
0
0
0
0
0
0
0
0
0
0
0
0
0
0
0
0
0
0
0
98
0
119
0
144
0
152
0
157
0
164
0
138
0
94
0
12
0
51
0
155
0
248
0
253
0
239
0
240
0
248
0
244
0
255
0
253
0
242
0
241
0
245
0
252
0
254
0
250
0
199
0
97
0
16
0
3
0
10
0
25
0
45
0
57
0
62
0
69
0
55
0
39
0
43
0
50
0
54
0
35
0
16
0
6
0
7
0
4
0
4
0
7
0
8
0
1
0
1
0
2
0
39
0
76
0
83
0
74
0
46
0
0
0
0
0
1
0
4
0
1
0
0
0
1
0
1
0
1
0
1
0
1
0
1
0
1
0
1
0
1
0
1
0
1
0
1
0
1
0
1
0
1
0
1
0
1
0
1
0
3
0
35
0
64
0
78
0
83
0
82
0
82
0
87
0
82
0
86
0
97
0
104
0
75
0
15
0
1
0
7
0
31
0
67
0
78
0
88
0
108
0
54
0
68
0
116
0
107
0
115
0
110
0
56
0
6
0
73
0
84
0
47
0
10
0
52
0
78
0
76
0
82
0
81
0
53
0
34
0
56
0
59
0
57
0
51
255
211
255
210
255
198
255
183
255
199
255
186
255
169
255
184
255
194
255
187
255
194
255
194
255
189
255
183
255
159
255
161
255
188
255
181
255
149
255
139
255
149
255
152
255
140
255
130
255
133
255
126
255
128
255
165
255
167
255
143
255
139
255
172
255
198
255
197
255
197
255
207
255
205
255
190
255
180
255
186
255
200
255
215
255
210
255
190
255
188
255
193
255
194
255
188
255
176
255
165
255
158
255
157
255
151
255
155
255
162
255
190
255
229
255
240
255
226
255
197
255
182
255
186
255
195
255
197
255
173
255
139
255
131
255
146
255
177
255
174
255
148
255
125
255
129
255
137
255
136
0
116
0
109
0
134
0
124
0
119
0
79
0
63
0
127
0
143
0
151
0
150
0
148
0
120
0
78
0
146
0
147
0
153
0
155
0
162
0
142
0
174
0
158
0
144
0
160
0
0
0
0
0
0
0
0
0
0
0
0
0
0
0
0
0
0
0
0
0
0
0
0
0
0
0
0
0
0
0
0
0
0
0
0
0
0
0
0
0
0
0
0
0
0
0
0
0
0
0
0
0
0
0
0
0
0
0
0
0
0
0
0
0
0
0
0
0
0
0
0
0
0
0
0
0
0
0
0
0
0
0
0
0
0
0
0
0
0
0
0
0
0
0
0
0
0
0
0
0
0
0
0
0
0
0
0
0
0
0
0
0
0
0
0
0
0
0
0
0
0
0
0
0
0
0
0
0
0
0
0
0
0
0
0
0
0
0
0
0
0
0
0
0
0
0
0
0
0
0
0
0
0
0
0
0
0
0
0
0
0
0
0
0
0
0
0
0
0
0
0
0
0
0
0
0
0
0
0
0
0
0
0
0
0
0
0
0
0
0
0
0
0
0
0
0
0
0
0
0
0
0
0
0
0
0
0
0
0
0
0
0
0
0
0
0
0
0
0
0
0
0
0
0
0
0
0
0
0
0
0
0
0
0
0
0
0
0
0
0
0
0
0
0
0
0
255
255
255
255
255
255
255
255
255
255
255
255
255
255
255
255
255
255
255
255
255
255
255
255
255
255
255
255
255
255
255
255
255
255
255
255
255
255
255
255
255
255
255
255
255
255
255
255
255
255
255
255
255
255
255
255
255
255
255
255
255
255
255
255
255
255
255
255
255
255
255
255
255
255
255
255
255
255
255
255
255
255
255
255
255
255
255
255
255
255
255
255
255
255
255
255
255
255
255
255
255
255
255
255
255
255
255
255
255
255
255
255
255
255
255
255
255
255
255
255
255
255
255
255
255
255
255
255
255
255
255
255
255
255
255
255
255
255
255
255
255
255
255
255
255
255
255
255
255
255
0
0
0
0
0
0
0
0
0
0
0
0
0
0
0
0
0
0
0
0
0
0
0
0
0
0
0
0
0
0
0
0
0
0
0
0
0
0
0
0
0
0
0
0
0
0
0
0
127
0
121
0
137
0
159
0
161
0
132
0
75
0
15
0
43
0
180
0
253
0
248
0
244
0
254
0
255
0
254
0
251
0
246
0
252
0
254
0
250
0
247
0
250
0
248
0
245
0
253
0
210
0
96
0
18
0
2
0
3
0
3
0
25
0
30
0
53
0
52
0
47
0
55
0
52
0
58
0
15
0
2
0
1
0
9
0
7
0
4
0
2
0
1
0
3
0
5
0
2
0
37
0
76
0
86
0
71
0
30
0
1
0
1
0
1
0
1
0
1
0
0
0
1
0
1
0
0
0
0
0
0
0
0
0
0
0
0
0
0
0
0
0
1
0
1
0
1
0
1
0
1
0
1
0
1
0
1
0
28
0
61
0
85
0
86
0
80
0
77
0
80
0
89
0
90
0
89
0
93
0
95
0
64
0
13
0
2
0
10
0
47
0
73
0
82
0
99
0
110
0
52
0
79
0
118
0
112
0
113
0
109
0
53
0
7
0
79
0
82
0
54
0
8
0
37
0
61
0
62
0
71
0
63
0
36
0
36
0
21
0
27
0
41
0
63
255
173
255
166
255
165
255
166
255
188
255
195
255
179
255
173
255
181
255
195
255
203
255
184
255
205
255
203
255
179
255
168
255
187
255
192
255
165
255
138
255
132
255
143
255
152
255
142
255
139
255
129
255
126
255
161
255
178
255
191
255
211
255
207
255
161
255
123
255
159
255
223
255
206
255
192
255
187
255
191
255
195
255
204
255
208
255
200
255
178
255
182
255
183
255
178
255
170
255
167
255
173
255
178
255
187
255
207
255
213
255
192
255
165
255
156
255
163
255
170
255
224
255
186
255
147
255
139
255
146
255
145
255
136
255
140
255
154
255
185
255
168
255
130
255
123
255
131
255
132
0
115
0
128
0
133
0
110
0
54
0
84
0
143
0
135
0
155
0
143
0
151
0
150
0
147
0
90
0
96
0
158
0
155
0
167
0
148
0
155
0
156
0
161
0
155
0
107
0
0
0
0
0
0
0
0
0
0
0
0
0
0
0
0
0
0
0
0
0
0
0
0
0
0
0
0
0
0
0
0
0
0
0
0
0
0
0
0
0
0
0
0
0
0
0
0
0
0
0
0
0
0
0
0
0
0
0
0
0
0
0
0
0
0
0
0
0
0
0
0
0
0
0
0
0
0
0
0
0
0
0
0
0
0
0
0
0
0
0
0
0
0
0
0
0
0
0
0
0
0
0
0
0
0
0
0
0
0
0
0
0
0
0
0
0
0
0
0
0
0
0
0
0
0
0
0
0
0
0
0
0
0
0
0
0
0
0
0
0
0
0
0
0
0
0
0
0
0
0
0
0
0
0
0
0
0
0
0
0
0
0
0
0
0
0
0
0
0
0
0
0
0
0
0
0
0
0
0
0
0
0
0
0
0
0
0
0
0
0
0
0
0
0
0
0
0
0
0
0
0
0
0
0
0
0
0
0
0
0
0
0
0
0
0
0
0
0
0
0
0
0
0
0
0
0
0
0
0
0
0
0
0
0
0
0
0
0
0
0
0
0
0
0
0
0
255
255
255
255
255
255
255
255
255
255
255
255
255
255
255
255
255
255
255
255
255
255
255
255
255
255
255
255
255
255
255
255
255
255
255
255
255
255
255
255
255
255
255
255
255
255
255
255
255
255
255
255
255
255
255
255
255
255
255
255
255
255
255
255
255
255
255
255
255
255
255
255
255
255
255
255
255
255
255
255
255
255
255
255
255
255
255
255
255
255
255
255
255
255
255
255
255
255
255
255
255
255
255
255
255
255
255
255
255
255
255
255
255
255
255
255
255
255
255
255
255
255
255
255
255
255
255
255
255
255
255
255
255
255
255
255
255
255
255
255
255
255
255
255
255
255
255
255
255
255
0
0
0
0
0
0
0
0
0
0
0
0
0
0
0
0
0
0
0
0
0
0
0
0
0
0
0
0
0
0
0
0
0
0
0
0
0
0
0
0
0
0
0
0
0
0
0
0
142
0
117
0
136
0
165
0
125
0
52
0
14
0
9
0
205
0
245
0
255
0
250
0
252
0
248
0
240
0
251
0
254
0
254
0
251
0
251
0
254
0
254
0
250
0
242
0
252
0
248
0
242
0
210
0
135
0
51
0
5
0
2
0
7
0
1
0
15
0
11
0
7
0
18
0
13
0
22
0
16
0
2
0
4
0
5
0
0
0
1
0
1
0
0
0
3
0
6
0
1
0
32
0
72
0
82
0
59
0
8
0
2
0
2
0
1
0
1
0
2
0
1
0
1
0
2
0
0
0
0
0
0
0
0
0
0
0
0
0
0
0
0
0
1
0
1
0
1
0
1
0
1
0
1
0
1
0
1
0
49
0
74
0
87
0
83
0
81
0
80
0
81
0
86
0
89
0
90
0
91
0
83
0
53
0
15
0
3
0
15
0
59
0
82
0
89
0
100
0
96
0
42
0
77
0
96
0
95
0
92
0
93
0
44
0
6
0
73
0
61
0
36
0
3
0
12
0
33
0
36
0
47
0
37
0
13
0
36
0
39
0
55
0
76
0
88
255
169
255
171
255
165
255
156
255
193
255
199
255
176
255
158
255
165
255
188
255
203
255
184
255
212
255
219
255
208
255
186
255
191
255
208
255
190
255
151
255
162
255
149
255
145
255
125
255
129
255
151
255
168
255
207
255
222
255
190
255
141
255
133
255
143
255
150
255
176
255
211
255
213
255
196
255
195
255
195
255
186
255
192
255
208
255
212
255
190
255
186
255
181
255
174
255
170
255
171
255
177
255
181
255
184
255
168
255
153
255
155
255
172
255
192
255
204
255
210
255
124
255
155
255
156
255
134
255
133
255
146
255
146
255
137
255
131
255
160
255
172
255
157
255
135
255
125
255
123
0
129
0
146
0
82
0
59
0
117
0
140
0
134
0
149
0
138
0
149
0
151
0
156
0
143
0
141
0
78
0
134
0
162
0
153
0
145
0
167
0
144
0
162
0
144
0
63
0
0
0
0
0
0
0
0
0
0
0
0
0
0
0
0
0
0
0
0
0
0
0
0
0
0
0
0
0
0
0
0
0
0
0
0
0
0
0
0
0
0
0
0
0
0
0
0
0
0
0
0
0
0
0
0
0
0
0
0
0
0
0
0
0
0
0
0
0
0
0
0
0
0
0
0
0
0
0
0
0
0
0
0
0
0
0
0
0
0
0
0
0
0
0
0
0
0
0
0
0
0
0
0
0
0
0
0
0
0
0
0
0
0
0
0
0
0
0
0
0
0
0
0
0
0
0
0
0
0
0
0
0
0
0
0
0
0
0
0
0
0
0
0
0
0
0
0
0
0
0
0
0
0
0
0
0
0
0
0
0
0
0
0
0
0
0
0
0
0
0
0
0
0
0
0
0
0
0
0
0
0
0
0
0
0
0
0
0
0
0
0
0
0
0
0
0
0
0
0
0
0
0
0
0
0
0
0
0
0
0
0
0
0
0
0
0
0
0
0
0
0
0
0
0
0
0
0
0
0
0
0
0
0
0
0
0
0
0
0
0
0
0
0
0
0
0
255
255
255
255
255
255
255
255
255
255
255
255
255
255
255
255
255
255
255
255
255
255
255
255
255
255
255
255
255
255
255
255
255
255
255
255
255
255
255
255
255
255
255
255
255
255
255
255
255
255
255
255
255
255
255
255
255
255
255
255
255
255
255
255
255
255
255
255
255
255
255
255
255
255
255
255
255
255
255
255
255
255
255
255
255
255
255
255
255
255
255
255
255
255
255
255
255
255
255
255
255
255
255
255
255
255
255
255
255
255
255
255
255
255
255
255
255
255
255
255
255
255
255
255
255
255
255
255
255
255
255
255
255
255
255
255
255
255
255
255
255
255
255
255
255
255
255
255
255
255
0
0
0
0
0
0
0
0
0
0
0
0
0
0
0
0
0
0
0
0
0
0
0
0
0
0
0
0
0
0
0
0
0
0
0
0
0
0
0
0
0
0
0
0
0
0
0
0
159
0
108
0
94
0
94
0
27
0
1
0
81
0
212
0
249
0
248
0
253
0
247
0
237
0
249
0
253
0
253
0
248
0
254
0
252
0
243
0
253
0
255
0
255
0
254
0
252
0
247
0
249
0
251
0
254
0
241
0
175
0
96
0
29
0
2
0
9
0
1
0
2
0
17
0
7
0
23
0
46
0
25
0
12
0
7
0
1
0
1
0
5
0
8
0
1
0
4
0
1
0
25
0
65
0
74
0
45
0
2
0
2
0
6
0
1
0
0
0
2
0
1
0
1
0
2
0
0
0
0
0
0
0
0
0
0
0
0
0
0
0
0
0
1
0
1
0
1
0
1
0
1
0
1
0
1
0
1
0
56
0
74
0
82
0
83
0
87
0
90
0
82
0
78
0
81
0
91
0
98
0
81
0
43
0
12
0
11
0
25
0
66
0
91
0
95
0
95
0
79
0
29
0
69
0
71
0
59
0
57
0
68
0
28
0
3
0
55
0
30
0
6
0
30
0
29
0
47
0
52
0
65
0
55
0
35
0
71
0
70
0
74
0
79
0
83
255
175
255
178
255
172
255
163
255
191
255
188
255
167
255
163
255
170
255
179
255
192
255
182
255
203
255
218
255
219
255
195
255
189
255
213
255
204
255
158
255
138
255
132
255
157
255
169
255
189
255
205
255
186
255
185
255
187
255
155
255
137
255
144
255
146
255
147
255
186
255
236
255
215
255
194
255
192
255
192
255
178
255
183
255
210
255
225
255
210
255
198
255
183
255
171
255
165
255
163
255
162
255
159
255
159
255
151
255
168
255
211
255
234
255
208
255
160
255
127
255
150
255
145
255
139
255
143
255
151
255
140
255
132
255
140
255
137
255
144
255
172
255
180
255
147
255
125
255
128
0
124
0
44
0
71
0
119
0
139
0
140
0
150
0
149
0
143
0
151
0
154
0
145
0
158
0
158
0
119
0
60
0
150
0
155
0
165
0
150
0
167
0
118
0
67
0
139
0
0
0
0
0
0
0
0
0
0
0
0
0
0
0
0
0
0
0
0
0
0
0
0
0
0
0
0
0
0
0
0
0
0
0
0
0
0
0
0
0
0
0
0
0
0
0
0
0
0
0
0
0
0
0
0
0
0
0
0
0
0
0
0
0
0
0
0
0
0
0
0
0
0
0
0
0
0
0
0
0
0
0
0
0
0
0
0
0
0
0
0
0
0
0
0
0
0
0
0
0
0
0
0
0
0
0
0
0
0
0
0
0
0
0
0
0
0
0
0
0
0
0
0
0
0
0
0
0
0
0
0
0
0
0
0
0
0
0
0
0
0
0
0
0
0
0
0
0
0
0
0
0
0
0
0
0
0
0
0
0
0
0
0
0
0
0
0
0
0
0
0
0
0
0
0
0
0
0
0
0
0
0
0
0
0
0
0
0
0
0
0
0
0
0
0
0
0
0
0
0
0
0
0
0
0
0
0
0
0
0
0
0
0
0
0
0
0
0
0
0
0
0
0
0
0
0
0
0
0
0
0
0
0
0
0
0
0
0
0
0
0
0
0
0
0
0
255
255
255
255
255
255
255
255
255
255
255
255
255
255
255
255
255
255
255
255
255
255
255
255
255
255
255
255
255
255
255
255
255
255
255
255
255
255
255
255
255
255
255
255
255
255
255
255
255
255
255
255
255
255
255
255
255
255
255
255
255
255
255
255
255
255
255
255
255
255
255
255
255
255
255
255
255
255
255
255
255
255
255
255
255
255
255
255
255
255
255
255
255
255
255
255
255
255
255
255
255
255
255
255
255
255
255
255
255
255
255
255
255
255
255
255
255
255
255
255
255
255
255
255
255
255
255
255
255
255
255
255
255
255
255
255
255
255
255
255
255
255
255
255
255
255
255
255
255
255
0
0
0
0
0
0
0
0
0
0
0
0
0
0
0
0
0
0
0
0
0
0
0
0
0
0
0
0
0
0
0
0
0
0
0
0
0
0
0
0
0
0
0
0
0
0
0
0
166
0
104
0
33
0
2
0
15
0
118
0
218
0
254
0
252
0
252
0
252
0
252
0
252
0
252
0
252
0
252
0
252
0
252
0
252
0
252
0
252
0
252
0
252
0
252
0
252
0
252
0
252
0
252
0
252
0
252
0
252
0
252
0
175
0
124
0
75
0
55
0
50
0
65
0
115
0
170
0
183
0
30
0
17
0
0
0
6
0
5
0
6
0
0
0
4
0
3
0
2
0
21
0
63
0
59
0
17
0
1
0
2
0
2
0
2
0
1
0
1
0
0
0
0
0
0
0
0
0
0
0
0
0
0
0
0
0
0
0
0
0
0
0
0
0
0
0
0
0
1
0
1
0
2
0
2
0
2
0
70
0
73
0
82
0
84
0
80
0
81
0
85
0
85
0
80
0
43
0
48
0
71
0
46
0
10
0
5
0
22
0
51
0
70
0
57
0
67
0
47
0
40
0
99
0
113
0
120
0
116
0
124
0
51
0
20
0
57
0
82
0
32
0
53
0
28
0
70
0
70
0
83
0
102
0
53
0
57
0
73
0
63
0
73
0
88
255
169
255
173
255
172
255
178
255
177
255
187
255
175
255
152
255
165
255
174
255
167
255
194
255
205
255
210
255
228
255
217
255
187
255
195
255
202
255
174
255
151
255
176
255
203
255
191
255
151
255
128
255
122
255
115
255
153
255
168
255
151
255
128
255
134
255
155
255
182
255
213
255
213
255
201
255
195
255
195
255
187
255
180
255
195
255
217
255
202
255
185
255
170
255
163
255
155
255
156
255
166
255
173
255
184
255
209
255
204
255
175
255
175
255
200
255
193
255
156
255
135
255
153
255
147
255
135
255
144
255
145
255
137
255
139
255
131
255
135
255
155
255
172
255
154
255
133
255
151
0
63
0
79
0
106
0
138
0
144
0
144
0
140
0
142
0
146
0
154
0
148
0
155
0
159
0
151
0
137
0
112
0
78
0
145
0
158
0
156
0
109
0
78
0
121
0
164
0
0
0
0
0
0
0
0
0
0
0
0
0
0
0
0
0
0
0
0
0
0
0
0
0
0
0
0
0
0
0
0
0
0
0
0
0
0
0
0
0
0
0
0
0
0
0
0
0
0
0
0
0
0
0
0
0
0
0
0
0
0
0
0
0
0
0
0
0
0
0
0
0
0
0
0
0
0
0
0
0
0
0
0
0
0
0
0
0
0
0
0
0
0
0
0
0
0
0
0
0
0
0
0
0
0
0
0
0
0
0
0
0
0
0
0
0
0
0
0
0
0
0
0
0
0
0
0
0
0
0
0
0
0
0
0
0
0
0
0
0
0
0
0
0
0
0
0
0
0
0
0
0
0
0
0
0
0
0
0
0
0
0
0
0
0
0
0
0
0
0
0
0
0
0
0
0
0
0
0
0
0
0
0
0
0
0
0
0
0
0
0
0
0
0
0
0
0
0
0
0
0
0
0
0
0
0
0
0
0
0
0
0
0
0
0
0
0
0
0
0
0
0
0
0
0
0
0
0
0
0
0
0
0
0
0
0
0
0
0
0
0
0
0
0
0
0
255
255
255
255
255
255
255
255
255
255
255
255
255
255
255
255
255
255
255
255
255
255
255
255
255
255
255
255
255
255
255
255
255
255
255
255
255
255
255
255
255
255
255
255
255
255
255
255
255
255
255
255
255
255
255
255
255
255
255
255
255
255
255
255
255
255
255
255
255
255
255
255
255
255
255
255
255
255
255
255
255
255
255
255
255
255
255
255
255
255
255
255
255
255
255
255
255
255
255
255
255
255
255
255
255
255
255
255
255
255
255
255
255
255
255
255
255
255
255
255
255
255
255
255
255
255
255
255
255
255
255
255
255
255
255
255
255
255
255
255
255
255
255
255
255
255
255
255
255
255
0
0
0
0
0
0
0
0
0
0
0
0
0
0
0
0
0
0
0
0
0
0
0
0
0
0
0
0
0
0
0
0
0
0
0
0
0
0
0
0
0
0
0
0
0
0
0
0
110
0
44
0
5
0
21
0
122
0
229
0
254
0
245
0
253
0
253
0
253
0
253
0
253
0
253
0
253
0
253
0
253
0
253
0
253
0
253
0
253
0
253
0
253
0
253
0
253
0
253
0
253
0
253
0
253
0
253
0
253
0
253
0
255
0
243
0
221
0
214
0
211
0
213
0
237
0
255
0
203
0
60
0
10
0
0
0
5
0
2
0
4
0
0
0
1
0
4
0
2
0
13
0
44
0
40
0
11
0
1
0
2
0
2
0
2
0
1
0
1
0
0
0
0
0
0
0
0
0
0
0
0
0
0
0
0
0
0
0
0
0
0
0
0
0
0
0
0
0
1
0
1
0
2
0
2
0
2
0
68
0
78
0
87
0
83
0
77
0
83
0
86
0
76
0
38
0
16
0
27
0
54
0
42
0
9
0
6
0
33
0
65
0
88
0
81
0
95
0
71
0
56
0
105
0
114
0
115
0
112
0
113
0
45
0
35
0
73
0
88
0
35
0
56
0
30
0
68
0
70
0
83
0
101
0
56
0
55
0
80
0
69
0
77
0
86
255
172
255
172
255
165
255
164
255
171
255
185
255
176
255
146
255
152
255
162
255
163
255
190
255
212
255
222
255
212
255
198
255
208
255
219
255
207
255
191
255
184
255
176
255
168
255
149
255
127
255
127
255
136
255
133
255
132
255
160
255
170
255
152
255
139
255
150
255
183
255
211
255
198
255
188
255
184
255
188
255
192
255
196
255
208
255
223
255
210
255
181
255
164
255
169
255
174
255
177
255
189
255
199
255
203
255
186
255
163
255
149
255
153
255
169
255
187
255
198
255
144
255
142
255
148
255
152
255
143
255
137
255
140
255
144
255
140
255
136
255
142
255
159
255
171
255
171
255
166
0
90
0
108
0
125
0
139
0
140
0
138
0
142
0
146
0
146
0
150
0
143
0
145
0
152
0
160
0
166
0
139
0
95
0
128
0
142
0
102
0
81
0
128
0
164
0
160
0
0
0
0
0
0
0
0
0
0
0
0
0
0
0
0
0
0
0
0
0
0
0
0
0
0
0
0
0
0
0
0
0
0
0
0
0
0
0
0
0
0
0
0
0
0
0
0
0
0
0
0
0
0
0
0
0
0
0
0
0
0
0
0
0
0
0
0
0
0
0
0
0
0
0
0
0
0
0
0
0
0
0
0
0
0
0
0
0
0
0
0
0
0
0
0
0
0
0
0
0
0
0
0
0
0
0
0
0
0
0
0
0
0
0
0
0
0
0
0
0
0
0
0
0
0
0
0
0
0
0
0
0
0
0
0
0
0
0
0
0
0
0
0
0
0
0
0
0
0
0
0
0
0
0
0
0
0
0
0
0
0
0
0
0
0
0
0
0
0
0
0
0
0
0
0
0
0
0
0
0
0
0
0
0
0
0
0
0
0
0
0
0
0
0
0
0
0
0
0
0
0
0
0
0
0
0
0
0
0
0
0
0
0
0
0
0
0
0
0
0
0
0
0
0
0
0
0
0
0
0
0
0
0
0
0
0
0
0
0
0
0
0
0
0
0
0
255
255
255
255
255
255
255
255
255
255
255
255
255
255
255
255
255
255
255
255
255
255
255
255
255
255
255
255
255
255
255
255
255
255
255
255
255
255
255
255
255
255
255
255
255
255
255
255
255
255
255
255
255
255
255
255
255
255
255
255
255
255
255
255
255
255
255
255
255
255
255
255
255
255
255
255
255
255
255
255
255
255
255
255
255
255
255
255
255
255
255
255
255
255
255
255
255
255
255
255
255
255
255
255
255
255
255
255
255
255
255
255
255
255
255
255
255
255
255
255
255
255
255
255
255
255
255
255
255
255
255
255
255
255
255
255
255
255
255
255
255
255
255
255
255
255
255
255
255
255
0
0
0
0
0
0
0
0
0
0
0
0
0
0
0
0
0
0
0
0
0
0
0
0
0
0
0
0
0
0
0
0
0
0
0
0
0
0
0
0
0
0
0
0
0
0
0
0
37
0
5
0
44
0
163
0
243
0
252
0
250
0
255
0
254
0
254
0
254
0
254
0
254
0
254
0
254
0
254
0
254
0
254
0
254
0
254
0
254
0
254
0
254
0
254
0
254
0
254
0
254
0
254
0
254
0
254
0
254
0
254
0
255
0
251
0
252
0
255
0
253
0
247
0
248
0
254
0
230
0
103
0
0
0
10
0
2
0
0
0
2
0
0
0
1
0
5
0
1
0
4
0
19
0
16
0
2
0
3
0
2
0
2
0
2
0
1
0
1
0
0
0
0
0
0
0
0
0
0
0
0
0
0
0
0
0
0
0
0
0
0
0
0
0
0
0
0
0
1
0
1
0
2
0
2
0
2
0
60
0
81
0
92
0
81
0
75
0
88
0
83
0
58
0
8
0
2
0
6
0
27
0
28
0
4
0
14
0
55
0
88
0
109
0
103
0
117
0
90
0
67
0
111
0
119
0
114
0
110
0
101
0
39
0
52
0
91
0
89
0
34
0
61
0
34
0
62
0
69
0
84
0
99
0
61
0
51
0
82
0
77
0
82
0
87
255
173
255
173
255
164
255
158
255
149
255
167
255
166
255
141
255
147
255
165
255
167
255
187
255
216
255
217
255
203
255
199
255
223
255
238
255
222
255
204
255
184
255
164
255
147
255
133
255
121
255
128
255
138
255
134
255
132
255
154
255
178
255
165
255
136
255
145
255
188
255
216
255
210
255
200
255
189
255
187
255
189
255
192
255
194
255
196
255
225
255
182
255
162
255
183
255
206
255
206
255
191
255
179
255
170
255
154
255
152
255
165
255
168
255
160
255
164
255
181
255
183
255
144
255
135
255
146
255
138
255
135
255
144
255
144
255
145
255
122
255
115
255
149
255
212
255
237
255
192
0
128
0
132
0
140
0
140
0
134
0
134
0
144
0
148
0
146
0
150
0
156
0
158
0
150
0
147
0
157
0
152
0
130
0
75
0
72
0
95
0
139
0
158
0
165
0
164
0
0
0
0
0
0
0
0
0
0
0
0
0
0
0
0
0
0
0
0
0
0
0
0
0
0
0
0
0
0
0
0
0
0
0
0
0
0
0
0
0
0
0
0
0
0
0
0
0
0
0
0
0
0
0
0
0
0
0
0
0
0
0
0
0
0
0
0
0
0
0
0
0
0
0
0
0
0
0
0
0
0
0
0
0
0
0
0
0
0
0
0
0
0
0
0
0
0
0
0
0
0
0
0
0
0
0
0
0
0
0
0
0
0
0
0
0
0
0
0
0
0
0
0
0
0
0
0
0
0
0
0
0
0
0
0
0
0
0
0
0
0
0
0
0
0
0
0
0
0
0
0
0
0
0
0
0
0
0
0
0
0
0
0
0
0
0
0
0
0
0
0
0
0
0
0
0
0
0
0
0
0
0
0
0
0
0
0
0
0
0
0
0
0
0
0
0
0
0
0
0
0
0
0
0
0
0
0
0
0
0
0
0
0
0
0
0
0
0
0
0
0
0
0
0
0
0
0
0
0
0
0
0
0
0
0
0
0
0
0
0
0
0
0
0
0
0
255
255
255
255
255
255
255
255
255
255
255
255
255
255
255
255
255
255
255
255
255
255
255
255
255
255
255
255
255
255
255
255
255
255
255
255
255
255
255
255
255
255
255
255
255
255
255
255
255
255
255
255
255
255
255
255
255
255
255
255
255
255
255
255
255
255
255
255
255
255
255
255
255
255
255
255
255
255
255
255
255
255
255
255
255
255
255
255
255
255
255
255
255
255
255
255
255
255
255
255
255
255
255
255
255
255
255
255
255
255
255
255
255
255
255
255
255
255
255
255
255
255
255
255
255
255
255
255
255
255
255
255
255
255
255
255
255
255
255
255
255
255
255
255
255
255
255
255
255
255
0
0
0
0
0
0
0
0
0
0
0
0
0
0
0
0
0
0
0
0
0
0
0
0
0
0
0
0
0
0
0
0
0
0
0
0
0
0
0
0
0
0
0
0
0
0
0
0
34
0
117
0
210
0
251
0
252
0
252
0
253
0
250
0
255
0
255
0
255
0
255
0
255
0
255
0
255
0
255
0
255
0
255
0
255
0
255
0
255
0
255
0
255
0
255
0
255
0
255
0
255
0
255
0
255
0
255
0
255
0
255
0
249
0
255
0
255
0
255
0
255
0
255
0
255
0
251
0
250
0
144
0
0
0
10
0
1
0
2
0
3
0
0
0
1
0
5
0
0
0
0
0
3
0
0
0
1
0
3
0
2
0
2
0
2
0
1
0
1
0
0
0
0
0
0
0
0
0
0
0
0
0
0
0
0
0
0
0
0
0
0
0
0
0
0
0
0
0
1
0
1
0
2
0
2
0
2
0
45
0
76
0
94
0
83
0
79
0
91
0
75
0
36
0
6
0
5
0
1
0
6
0
11
0
1
0
25
0
80
0
105
0
118
0
107
0
118
0
88
0
63
0
109
0
122
0
115
0
114
0
95
0
33
0
60
0
97
0
85
0
31
0
65
0
38
0
55
0
69
0
84
0
97
0
68
0
48
0
79
0
82
0
88
0
90
255
171
255
174
255
166
255
157
255
139
255
158
255
165
255
144
255
148
255
165
255
167
255
174
255
212
255
205
255
214
255
222
255
219
255
233
255
234
255
206
255
159
255
150
255
150
255
143
255
129
255
126
255
130
255
126
255
133
255
146
255
177
255
174
255
137
255
143
255
187
255
208
255
210
255
204
255
195
255
189
255
189
255
194
255
191
255
186
255
221
255
207
255
200
255
199
255
190
255
176
255
168
255
163
255
158
255
160
255
161
255
159
255
158
255
158
255
161
255
163
255
206
255
160
255
132
255
134
255
142
255
145
255
142
255
129
255
119
255
147
255
171
255
179
255
181
255
183
255
179
0
84
0
121
0
133
0
140
0
137
0
137
0
143
0
146
0
143
0
134
0
141
0
150
0
153
0
154
0
156
0
153
0
144
0
53
0
40
0
101
0
172
0
165
0
152
0
157
0
0
0
0
0
0
0
0
0
0
0
0
0
0
0
0
0
0
0
0
0
0
0
0
0
0
0
0
0
0
0
0
0
0
0
0
0
0
0
0
0
0
0
0
0
0
0
0
0
0
0
0
0
0
0
0
0
0
0
0
0
0
0
0
0
0
0
0
0
0
0
0
0
0
0
0
0
0
0
0
0
0
0
0
0
0
0
0
0
0
0
0
0
0
0
0
0
0
0
0
0
0
0
0
0
0
0
0
0
0
0
0
0
0
0
0
0
0
0
0
0
0
0
0
0
0
0
0
0
0
0
0
0
0
0
0
0
0
0
0
0
0
0
0
0
0
0
0
0
0
0
0
0
0
0
0
0
0
0
0
0
0
0
0
0
0
0
0
0
0
0
0
0
0
0
0
0
0
0
0
0
0
0
0
0
0
0
0
0
0
0
0
0
0
0
0
0
0
0
0
0
0
0
0
0
0
0
0
0
0
0
0
0
0
0
0
0
0
0
0
0
0
0
0
0
0
0
0
0
0
0
0
0
0
0
0
0
0
0
0
0
0
0
0
0
0
0
255
255
255
255
255
255
255
255
255
255
255
255
255
255
255
255
255
255
255
255
255
255
255
255
255
255
255
255
255
255
255
255
255
255
255
255
255
255
255
255
255
255
255
255
255
255
255
255
255
255
255
255
255
255
255
255
255
255
255
255
255
255
255
255
255
255
255
255
255
255
255
255
255
255
255
255
255
255
255
255
255
255
255
255
255
255
255
255
255
255
255
255
255
255
255
255
255
255
255
255
255
255
255
255
255
255
255
255
255
255
255
255
255
255
255
255
255
255
255
255
255
255
255
255
255
255
255
255
255
255
255
255
255
255
255
255
255
255
255
255
255
255
255
255
255
255
255
255
255
255
0
0
0
0
0
0
0
0
0
0
0
0
0
0
0
0
0
0
0
0
0
0
0
0
0
0
0
0
0
0
0
0
0
0
0
0
0
0
0
0
0
0
0
0
0
0
0
0
180
0
238
0
253
0
254
0
246
0
255
0
255
0
252
0
255
0
255
0
255
0
255
0
255
0
255
0
255
0
255
0
255
0
255
0
255
0
255
0
255
0
255
0
255
0
255
0
255
0
255
0
255
0
255
0
255
0
255
0
255
0
255
0
250
0
255
0
253
0
247
0
248
0
255
0
255
0
251
0
255
0
177
0
2
0
3
0
2
0
5
0
6
0
0
0
2
0
3
0
0
0
0
0
0
0
0
0
1
0
1
0
2
0
2
0
2
0
1
0
1
0
0
0
0
0
0
0
0
0
0
0
0
0
0
0
0
0
0
0
0
0
0
0
0
0
0
0
0
0
1
0
1
0
2
0
2
0
2
0
25
0
60
0
86
0
85
0
83
0
87
0
62
0
14
0
7
0
11
0
3
0
1
0
5
0
4
0
38
0
92
0
106
0
116
0
101
0
114
0
84
0
57
0
105
0
120
0
113
0
116
0
95
0
34
0
59
0
96
0
82
0
32
0
67
0
43
0
49
0
70
0
84
0
93
0
77
0
47
0
78
0
85
0
89
0
88
255
171
255
170
255
161
255
147
255
144
255
163
255
177
255
153
255
136
255
149
255
157
255
170
255
209
255
212
255
228
255
228
255
206
255
204
255
215
255
210
255
156
255
147
255
147
255
146
255
131
255
125
255
127
255
124
255
120
255
134
255
176
255
182
255
141
255
138
255
178
255
198
255
197
255
199
255
198
255
197
255
204
255
213
255
216
255
213
255
234
255
222
255
202
255
181
255
167
255
166
255
164
255
154
255
162
255
169
255
165
255
150
255
145
255
154
255
159
255
159
255
179
255
179
255
159
255
141
255
144
255
145
255
138
255
134
255
163
255
183
255
190
255
166
255
129
255
118
255
148
0
72
0
91
0
109
0
132
0
143
0
144
0
142
0
140
0
140
0
156
0
147
0
145
0
159
0
164
0
142
0
108
0
90
0
107
0
107
0
89
0
102
0
154
0
164
0
153
0
0
0
0
0
0
0
0
0
0
0
0
0
0
0
0
0
0
0
0
0
0
0
0
0
0
0
0
0
0
0
0
0
0
0
0
0
0
0
0
0
0
0
0
0
0
0
0
0
0
0
0
0
0
0
0
0
0
0
0
0
0
0
0
0
0
0
0
0
0
0
0
0
0
0
0
0
0
0
0
0
0
0
0
0
0
0
0
0
0
0
0
0
0
0
0
0
0
0
0
0
0
0
0
0
0
0
0
0
0
0
0
0
0
0
0
0
0
0
0
0
0
0
0
0
0
0
0
0
0
0
0
0
0
0
0
0
0
0
0
0
0
0
0
0
0
0
0
0
0
0
0
0
0
0
0
0
0
0
0
0
0
0
0
0
0
0
0
0
0
0
0
0
0
0
0
0
0
0
0
0
0
0
0
0
0
0
0
0
0
0
0
0
0
0
0
0
0
0
0
0
0
0
0
0
0
0
0
0
0
0
0
0
0
0
0
0
0
0
0
0
0
0
0
0
0
0
0
0
0
0
0
0
0
0
0
0
0
0
0
0
0
0
0
0
0
0
255
255
255
255
255
255
255
255
255
255
255
255
255
255
255
255
255
255
255
255
255
255
255
255
255
255
255
255
255
255
255
255
255
255
255
255
255
255
255
255
255
255
255
255
255
255
255
255
255
255
255
255
255
255
255
255
255
255
255
255
255
255
255
255
255
255
255
255
255
255
255
255
255
255
255
255
255
255
255
255
255
255
255
255
255
255
255
255
255
255
255
255
255
255
255
255
255
255
255
255
255
255
255
255
255
255
255
255
255
255
255
255
255
255
255
255
255
255
255
255
255
255
255
255
255
255
255
255
255
255
255
255
255
255
255
255
255
255
255
255
255
255
255
255
255
255
255
255
255
255
0
0
0
0
0
0
0
0
0
0
0
0
0
0
0
0
0
0
0
0
0
0
0
0
0
0
0
0
0
0
0
0
0
0
0
0
0
0
0
0
0
0
0
0
0
0
0
0
253
0
253
0
240
0
253
0
255
0
245
0
243
0
255
0
255
0
255
0
255
0
255
0
255
0
255
0
255
0
255
0
255
0
255
0
255
0
255
0
255
0
255
0
255
0
255
0
255
0
255
0
255
0
255
0
255
0
255
0
255
0
255
0
253
0
255
0
255
0
251
0
252
0
255
0
255
0
252
0
254
0
209
0
47
0
0
0
4
0
4
0
7
0
0
0
3
0
1
0
1
0
2
0
2
0
2
0
0
0
0
0
2
0
2
0
2
0
1
0
1
0
0
0
0
0
0
0
0
0
0
0
0
0
0
0
0
0
0
0
0
0
0
0
0
0
0
0
0
0
1
0
1
0
2
0
2
0
2
0
8
0
37
0
70
0
84
0
86
0
79
0
45
0
2
0
0
0
4
0
5
0
6
0
6
0
11
0
52
0
98
0
100
0
111
0
101
0
118
0
88
0
57
0
102
0
117
0
110
0
114
0
100
0
37
0
58
0
94
0
82
0
32
0
67
0
46
0
44
0
71
0
84
0
89
0
86
0
49
0
78
0
87
0
88
0
85
255
171
255
168
255
155
255
138
255
139
255
159
255
182
255
161
255
131
255
144
255
170
255
197
255
209
255
233
255
225
255
205
255
196
255
179
255
182
255
215
255
169
255
148
255
143
255
149
255
144
255
135
255
126
255
117
255
120
255
132
255
170
255
178
255
140
255
139
255
184
255
218
255
218
255
218
255
216
255
212
255
210
255
211
255
211
255
210
255
197
255
207
255
212
255
191
255
161
255
155
255
165
255
171
255
157
255
157
255
161
255
164
255
160
255
152
255
149
255
151
255
151
255
190
255
183
255
142
255
129
255
136
255
153
255
173
255
198
255
169
255
141
255
131
255
130
255
130
255
133
0
116
0
83
0
92
0
114
0
138
0
145
0
141
0
137
0
140
0
149
0
148
0
145
0
140
0
128
0
109
0
106
0
123
0
157
0
158
0
124
0
85
0
101
0
148
0
165
0
0
0
0
0
0
0
0
0
0
0
0
0
0
0
0
0
0
0
0
0
0
0
0
0
0
0
0
0
0
0
0
0
0
0
0
0
0
0
0
0
0
0
0
0
0
0
0
0
0
0
0
0
0
0
0
0
0
0
0
0
0
0
0
0
0
0
0
0
0
0
0
0
0
0
0
0
0
0
0
0
0
0
0
0
0
0
0
0
0
0
0
0
0
0
0
0
0
0
0
0
0
0
0
0
0
0
0
0
0
0
0
0
0
0
0
0
0
0
0
0
0
0
0
0
0
0
0
0
0
0
0
0
0
0
0
0
0
0
0
0
0
0
0
0
0
0
0
0
0
0
0
0
0
0
0
0
0
0
0
0
0
0
0
0
0
0
0
0
0
0
0
0
0
0
0
0
0
0
0
0
0
0
0
0
0
0
0
0
0
0
0
0
0
0
0
0
0
0
0
0
0
0
0
0
0
0
0
0
0
0
0
0
0
0
0
0
0
0
0
0
0
0
0
0
0
0
0
0
0
0
0
0
0
0
0
0
0
0
0
0
0
0
0
0
0
0
255
255
255
255
255
255
255
255
255
255
255
255
255
255
255
255
255
255
255
255
255
255
255
255
255
255
255
255
255
255
255
255
255
255
255
255
255
255
255
255
255
255
255
255
255
255
255
255
255
255
255
255
255
255
255
255
255
255
255
255
255
255
255
255
255
255
255
255
255
255
255
255
255
255
255
255
255
255
255
255
255
255
255
255
255
255
255
255
255
255
255
255
255
255
255
255
255
255
255
255
255
255
255
255
255
255
255
255
255
255
255
255
255
255
255
255
255
255
255
255
255
255
255
255
255
255
255
255
255
255
255
255
255
255
255
255
255
255
255
255
255
255
255
255
255
255
255
255
255
255
0
0
0
0
0
0
0
0
0
0
0
0
0
0
0
0
0
0
0
0
0
0
0
0
0
0
0
0
0
0
0
0
0
0
0
0
0
0
0
0
0
0
0
0
0
0
0
0
240
0
254
0
253
0
238
0
246
0
254
0
250
0
247
0
254
0
254
0
254
0
254
0
254
0
254
0
254
0
254
0
254
0
254
0
254
0
254
0
254
0
254
0
254
0
254
0
254
0
254
0
254
0
254
0
254
0
254
0
254
0
254
0
254
0
255
0
254
0
254
0
255
0
255
0
254
0
249
0
252
0
239
0
109
0
0
0
7
0
0
0
6
0
1
0
2
0
0
0
2
0
4
0
2
0
2
0
3
0
1
0
2
0
2
0
2
0
1
0
1
0
0
0
0
0
0
0
0
0
0
0
0
0
0
0
0
0
0
0
0
0
0
0
0
0
0
0
0
0
1
0
1
0
2
0
2
0
2
0
2
0
15
0
51
0
81
0
84
0
66
0
31
0
1
0
1
0
1
0
6
0
9
0
4
0
22
0
70
0
107
0
102
0
111
0
103
0
122
0
93
0
58
0
103
0
119
0
114
0
115
0
109
0
49
0
60
0
93
0
79
0
23
0
66
0
49
0
42
0
73
0
83
0
85
0
93
0
50
0
72
0
87
0
91
0
88
255
167
255
171
255
168
255
156
255
148
255
154
255
181
255
174
255
156
255
170
255
193
255
213
255
210
255
222
255
206
255
191
255
192
255
176
255
173
255
204
255
187
255
157
255
146
255
151
255
147
255
138
255
127
255
114
255
127
255
132
255
162
255
183
255
174
255
174
255
206
255
234
255
228
255
222
255
215
255
209
255
203
255
195
255
190
255
187
255
191
255
178
255
181
255
193
255
194
255
182
255
169
255
160
255
167
255
158
255
155
255
159
255
157
255
149
255
152
255
161
255
152
255
178
255
178
255
149
255
141
255
159
255
176
255
182
255
144
255
144
255
144
255
140
255
130
255
123
255
126
0
120
0
111
0
90
0
92
0
121
0
142
0
141
0
139
0
146
0
151
0
161
0
143
0
107
0
89
0
96
0
124
0
158
0
157
0
154
0
165
0
141
0
89
0
103
0
149
0
0
0
0
0
0
0
0
0
0
0
0
0
0
0
0
0
0
0
0
0
0
0
0
0
0
0
0
0
0
0
0
0
0
0
0
0
0
0
0
0
0
0
0
0
0
0
0
0
0
0
0
0
0
0
0
0
0
0
0
0
0
0
0
0
0
0
0
0
0
0
0
0
0
0
0
0
0
0
0
0
0
0
0
0
0
0
0
0
0
0
0
0
0
0
0
0
0
0
0
0
0
0
0
0
0
0
0
0
0
0
0
0
0
0
0
0
0
0
0
0
0
0
0
0
0
0
0
0
0
0
0
0
0
0
0
0
0
0
0
0
0
0
0
0
0
0
0
0
0
0
0
0
0
0
0
0
0
0
0
0
0
0
0
0
0
0
0
0
0
0
0
0
0
0
0
0
0
0
0
0
0
0
0
0
0
0
0
0
0
0
0
0
0
0
0
0
0
0
0
0
0
0
0
0
0
0
0
0
0
0
0
0
0
0
0
0
0
0
0
0
0
0
0
0
0
0
0
0
0
0
0
0
0
0
0
0
0
0
0
0
0
0
0
0
0
0
255
255
255
255
255
255
255
255
255
255
255
255
255
255
255
255
255
255
255
255
255
255
255
255
255
255
255
255
255
255
255
255
255
255
255
255
255
255
255
255
255
255
255
255
255
255
255
255
255
255
255
255
255
255
255
255
255
255
255
255
255
255
255
255
255
255
255
255
255
255
255
255
255
255
255
255
255
255
255
255
255
255
255
255
255
255
255
255
255
255
255
255
255
255
255
255
255
255
255
255
255
255
255
255
255
255
255
255
255
255
255
255
255
255
255
255
255
255
255
255
255
255
255
255
255
255
255
255
255
255
255
255
255
255
255
255
255
255
255
255
255
255
255
255
255
255
255
255
255
255
0
0
0
0
0
0
0
0
0
0
0
0
0
0
0
0
0
0
0
0
0
0
0
0
0
0
0
0
0
0
0
0
0
0
0
0
0
0
0
0
0
0
0
0
0
0
0
0
248
0
252
0
249
0
253
0
253
0
250
0
247
0
254
0
254
0
254
0
254
0
254
0
254
0
254
0
254
0
254
0
254
0
254
0
254
0
254
0
254
0
254
0
254
0
254
0
254
0
254
0
254
0
254
0
254
0
254
0
254
0
254
0
255
0
254
0
253
0
255
0
255
0
255
0
253
0
251
0
251
0
255
0
155
0
1
0
9
0
0
0
4
0
2
0
1
0
0
0
4
0
5
0
0
0
1
0
4
0
3
0
2
0
2
0
2
0
1
0
1
0
0
0
0
0
0
0
0
0
0
0
0
0
0
0
0
0
0
0
0
0
0
0
0
0
0
0
0
0
1
0
1
0
2
0
2
0
2
0
3
0
2
0
36
0
76
0
82
0
58
0
24
0
1
0
7
0
2
0
7
0
9
0
1
0
27
0
85
0
118
0
109
0
114
0
101
0
120
0
91
0
57
0
105
0
125
0
122
0
120
0
118
0
59
0
63
0
92
0
74
0
10
0
66
0
50
0
41
0
74
0
83
0
82
0
96
0
53
0
66
0
86
0
96
0
95
255
163
255
177
255
189
255
186
255
179
255
166
255
185
255
192
255
187
255
194
255
195
255
192
255
208
255
193
255
187
255
192
255
189
255
185
255
188
255
189
255
207
255
171
255
149
255
142
255
131
255
127
255
132
255
135
255
120
255
126
255
161
255
209
255
229
255
227
255
219
255
218
255
196
255
188
255
184
255
190
255
195
255
195
255
194
255
196
255
203
255
169
255
162
255
189
255
199
255
179
255
164
255
161
255
163
255
164
255
164
255
162
255
161
255
158
255
156
255
153
255
156
255
153
255
159
255
169
255
181
255
200
255
187
255
144
255
141
255
136
255
131
255
131
255
137
255
140
255
129
0
139
0
143
0
98
0
75
0
104
0
137
0
142
0
143
0
150
0
141
0
140
0
105
0
80
0
107
0
151
0
163
0
156
0
152
0
151
0
152
0
160
0
135
0
82
0
91
0
0
0
0
0
0
0
0
0
0
0
0
0
0
0
0
0
0
0
0
0
0
0
0
0
0
0
0
0
0
0
0
0
0
0
0
0
0
0
0
0
0
0
0
0
0
0
0
0
0
0
0
0
0
0
0
0
0
0
0
0
0
0
0
0
0
0
0
0
0
0
0
0
0
0
0
0
0
0
0
0
0
0
0
0
0
0
0
0
0
0
0
0
0
0
0
0
0
0
0
0
0
0
0
0
0
0
0
0
0
0
0
0
0
0
0
0
0
0
0
0
0
0
0
0
0
0
0
0
0
0
0
0
0
0
0
0
0
0
0
0
0
0
0
0
0
0
0
0
0
0
0
0
0
0
0
0
0
0
0
0
0
0
0
0
0
0
0
0
0
0
0
0
0
0
0
0
0
0
0
0
0
0
0
0
0
0
0
0
0
0
0
0
0
0
0
0
0
0
0
0
0
0
0
0
0
0
0
0
0
0
0
0
0
0
0
0
0
0
0
0
0
0
0
0
0
0
0
0
0
0
0
0
0
0
0
0
0
0
0
0
0
0
0
0
0
0
255
255
255
255
255
255
255
255
255
255
255
255
255
255
255
255
255
255
255
255
255
255
255
255
255
255
255
255
255
255
255
255
255
255
255
255
255
255
255
255
255
255
255
255
255
255
255
255
255
255
255
255
255
255
255
255
255
255
255
255
255
255
255
255
255
255
255
255
255
255
255
255
255
255
255
255
255
255
255
255
255
255
255
255
255
255
255
255
255
255
255
255
255
255
255
255
255
255
255
255
255
255
255
255
255
255
255
255
255
255
255
255
255
255
255
255
255
255
255
255
255
255
255
255
255
255
255
255
255
255
255
255
255
255
255
255
255
255
255
255
255
255
255
255
255
255
255
255
255
255
0
0
0
0
0
0
0
0
0
0
0
0
0
0
0
0
0
0
0
0
0
0
0
0
0
0
0
0
0
0
0
0
0
0
0
0
0
0
0
0
0
0
0
0
0
0
0
0
255
0
255
0
255
0
255
0
255
0
255
0
255
0
255
0
255
0
255
0
255
0
255
0
255
0
255
0
255
0
255
0
255
0
255
0
255
0
255
0
255
0
255
0
255
0
255
0
255
0
255
0
255
0
255
0
255
0
255
0
255
0
255
0
255
0
254
0
254
0
255
0
255
0
255
0
253
0
250
0
251
0
255
0
209
0
71
0
0
0
18
0
0
0
0
0
0
0
0
0
0
0
0
0
0
0
0
0
0
0
0
0
0
0
0
0
0
0
0
0
0
0
0
0
0
0
0
0
0
0
0
0
0
0
0
0
0
0
0
0
0
0
0
0
1
0
1
0
1
0
1
0
1
0
1
0
1
0
1
0
10
0
5
0
5
0
44
0
81
0
51
0
4
0
2
0
7
0
3
0
10
0
6
0
3
0
44
0
95
0
114
0
105
0
111
0
108
0
123
0
85
0
65
0
113
0
107
0
112
0
129
0
97
0
47
0
64
0
97
0
62
0
1
0
30
0
24
0
48
0
60
0
51
0
70
0
76
0
37
0
63
0
84
0
86
0
70
255
194
255
186
255
166
255
146
255
155
255
170
255
205
255
210
255
167
255
142
255
161
255
181
255
196
255
209
255
204
255
188
255
185
255
189
255
186
255
180
255
205
255
163
255
157
255
145
255
134
255
136
255
129
255
154
255
173
255
180
255
182
255
198
255
206
255
172
255
153
255
175
255
199
255
197
255
191
255
188
255
188
255
189
255
192
255
194
255
202
255
184
255
161
255
158
255
184
255
204
255
188
255
155
255
161
255
160
255
160
255
160
255
154
255
148
255
147
255
152
255
153
255
175
255
211
255
234
255
215
255
170
255
140
255
134
255
138
255
135
255
132
255
129
255
131
255
132
255
132
0
125
0
120
0
142
0
113
0
77
0
100
0
134
0
139
0
131
0
102
0
77
0
100
0
143
0
153
0
154
0
157
0
148
0
141
0
157
0
161
0
162
0
165
0
137
0
93
0
0
0
0
0
0
0
0
0
0
0
0
0
0
0
0
0
0
0
0
0
0
0
0
0
0
0
0
0
0
0
0
0
0
0
0
0
0
0
0
0
0
0
0
0
0
0
0
0
0
0
0
0
0
0
0
0
0
0
0
0
0
0
0
0
0
0
0
0
0
0
0
0
0
0
0
0
0
0
0
0
0
0
0
0
0
0
0
0
0
0
0
0
0
0
0
0
0
0
0
0
0
0
0
0
0
0
0
0
0
0
0
0
0
0
0
0
0
0
0
0
0
0
0
0
0
0
0
0
0
0
0
0
0
0
0
0
0
0
0
0
0
0
0
0
0
0
0
0
0
0
0
0
0
0
0
0
0
0
0
0
0
0
0
0
0
0
0
0
0
0
0
0
0
0
0
0
0
0
0
0
0
0
0
0
0
0
0
0
0
0
0
0
0
0
0
0
0
0
0
0
0
0
0
0
0
0
0
0
0
0
0
0
0
0
0
0
0
0
0
0
0
0
0
0
0
0
0
0
0
0
0
0
0
0
0
0
0
0
0
0
0
0
0
0
0
0
255
255
255
255
255
255
255
255
255
255
255
255
255
255
255
255
255
255
255
255
255
255
255
255
255
255
255
255
255
255
255
255
255
255
255
255
255
255
255
255
255
255
255
255
255
255
255
255
255
255
255
255
255
255
255
255
255
255
255
255
255
255
255
255
255
255
255
255
255
255
255
255
255
255
255
255
255
255
255
255
255
255
255
255
255
255
255
255
255
255
255
255
255
255
255
255
255
255
255
255
255
255
255
255
255
255
255
255
255
255
255
255
255
255
255
255
255
255
255
255
255
255
255
255
255
255
255
255
255
255
255
255
255
255
255
255
255
255
255
255
255
255
255
255
255
255
255
255
255
255
0
0
0
0
0
0
0
0
0
0
0
0
0
0
0
0
0
0
0
0
0
0
0
0
0
0
0
0
0
0
0
0
0
0
0
0
0
0
0
0
0
0
0
0
0
0
0
0
255
0
255
0
255
0
255
0
255
0
255
0
255
0
255
0
255
0
255
0
255
0
255
0
255
0
255
0
255
0
255
0
255
0
255
0
255
0
255
0
255
0
255
0
255
0
255
0
255
0
255
0
255
0
255
0
255
0
255
0
255
0
255
0
255
0
254
0
254
0
255
0
255
0
255
0
253
0
250
0
252
0
255
0
221
0
93
0
0
0
13
0
0
0
2
0
0
0
0
0
0
0
0
0
0
0
0
0
0
0
0
0
0
0
0
0
0
0
0
0
0
0
0
0
0
0
0
0
0
0
0
0
0
0
0
0
0
0
0
0
0
0
0
0
1
0
1
0
1
0
1
0
1
0
1
0
1
0
1
0
11
0
4
0
0
0
33
0
75
0
56
0
11
0
2
0
9
0
3
0
4
0
0
0
6
0
51
0
96
0
108
0
98
0
109
0
107
0
114
0
82
0
72
0
121
0
113
0
84
0
95
0
66
0
29
0
62
0
103
0
71
0
9
0
36
0
17
0
32
0
47
0
44
0
64
0
69
0
33
0
27
0
47
0
62
0
71
255
168
255
148
255
137
255
131
255
141
255
147
255
173
255
190
255
168
255
143
255
158
255
186
255
197
255
211
255
211
255
192
255
184
255
183
255
176
255
165
255
176
255
176
255
155
255
152
255
163
255
157
255
156
255
162
255
156
255
154
255
152
255
158
255
170
255
179
255
176
255
170
255
199
255
197
255
195
255
192
255
190
255
190
255
191
255
192
255
191
255
178
255
161
255
160
255
177
255
195
255
192
255
176
255
174
255
163
255
156
255
156
255
160
255
160
255
159
255
159
255
189
255
190
255
188
255
184
255
184
255
180
255
163
255
142
255
135
255
138
255
140
255
138
255
132
255
126
255
127
0
123
0
137
0
116
0
117
0
109
0
88
0
106
0
123
0
97
0
102
0
114
0
137
0
149
0
147
0
156
0
160
0
146
0
146
0
162
0
156
0
145
0
159
0
158
0
104
0
0
0
0
0
0
0
0
0
0
0
0
0
0
0
0
0
0
0
0
0
0
0
0
0
0
0
0
0
0
0
0
0
0
0
0
0
0
0
0
0
0
0
0
0
0
0
0
0
0
0
0
0
0
0
0
0
0
0
0
0
0
0
0
0
0
0
0
0
0
0
0
0
0
0
0
0
0
0
0
0
0
0
0
0
0
0
0
0
0
0
0
0
0
0
0
0
0
0
0
0
0
0
0
0
0
0
0
0
0
0
0
0
0
0
0
0
0
0
0
0
0
0
0
0
0
0
0
0
0
0
0
0
0
0
0
0
0
0
0
0
0
0
0
0
0
0
0
0
0
0
0
0
0
0
0
0
0
0
0
0
0
0
0
0
0
0
0
0
0
0
0
0
0
0
0
0
0
0
0
0
0
0
0
0
0
0
0
0
0
0
0
0
0
0
0
0
0
0
0
0
0
0
0
0
0
0
0
0
0
0
0
0
0
0
0
0
0
0
0
0
0
0
0
0
0
0
0
0
0
0
0
0
0
0
0
0
0
0
0
0
0
0
0
0
0
0
255
255
255
255
255
255
255
255
255
255
255
255
255
255
255
255
255
255
255
255
255
255
255
255
255
255
255
255
255
255
255
255
255
255
255
255
255
255
255
255
255
255
255
255
255
255
255
255
255
255
255
255
255
255
255
255
255
255
255
255
255
255
255
255
255
255
255
255
255
255
255
255
255
255
255
255
255
255
255
255
255
255
255
255
255
255
255
255
255
255
255
255
255
255
255
255
255
255
255
255
255
255
255
255
255
255
255
255
255
255
255
255
255
255
255
255
255
255
255
255
255
255
255
255
255
255
255
255
255
255
255
255
255
255
255
255
255
255
255
255
255
255
255
255
255
255
255
255
255
255
0
0
0
0
0
0
0
0
0
0
0
0
0
0
0
0
0
0
0
0
0
0
0
0
0
0
0
0
0
0
0
0
0
0
0
0
0
0
0
0
0
0
0
0
0
0
0
0
255
0
255
0
255
0
255
0
255
0
255
0
255
0
255
0
255
0
255
0
255
0
255
0
255
0
255
0
255
0
255
0
255
0
255
0
255
0
255
0
255
0
255
0
255
0
255
0
255
0
255
0
255
0
255
0
255
0
255
0
255
0
255
0
255
0
254
0
254
0
255
0
255
0
255
0
253
0
250
0
252
0
255
0
238
0
127
0
0
0
5
0
0
0
3
0
0
0
0
0
0
0
0
0
0
0
0
0
0
0
0
0
0
0
0
0
0
0
0
0
0
0
0
0
0
0
0
0
0
0
0
0
0
0
0
0
0
0
0
0
0
0
0
0
1
0
1
0
1
0
1
0
1
0
1
0
1
0
1
0
9
0
4
0
0
0
18
0
60
0
56
0
17
0
1
0
8
0
2
0
0
0
1
0
16
0
65
0
102
0
105
0
99
0
117
0
117
0
112
0
74
0
57
0
88
0
76
0
89
0
95
0
66
0
31
0
51
0
84
0
58
0
6
0
58
0
28
0
28
0
52
0
62
0
75
0
79
0
61
0
47
0
60
0
74
0
85
255
156
255
145
255
145
255
148
255
133
255
130
255
143
255
170
255
173
255
152
255
160
255
193
255
193
255
208
255
211
255
195
255
182
255
182
255
178
255
169
255
178
255
211
255
170
255
157
255
167
255
157
255
158
255
143
255
130
255
129
255
129
255
122
255
130
255
170
255
193
255
179
255
192
255
193
255
193
255
193
255
193
255
192
255
191
255
190
255
190
255
178
255
164
255
160
255
168
255
179
255
190
255
194
255
167
255
164
255
159
255
159
255
162
255
173
255
192
255
207
255
192
255
175
255
151
255
141
255
157
255
180
255
183
255
174
255
144
255
142
255
142
255
144
255
139
255
128
255
122
0
132
0
134
0
116
0
133
0
125
0
72
0
56
0
83
0
94
0
123
0
146
0
156
0
147
0
146
0
153
0
155
0
149
0
159
0
153
0
149
0
159
0
156
0
123
0
93
0
0
0
0
0
0
0
0
0
0
0
0
0
0
0
0
0
0
0
0
0
0
0
0
0
0
0
0
0
0
0
0
0
0
0
0
0
0
0
0
0
0
0
0
0
0
0
0
0
0
0
0
0
0
0
0
0
0
0
0
0
0
0
0
0
0
0
0
0
0
0
0
0
0
0
0
0
0
0
0
0
0
0
0
0
0
0
0
0
0
0
0
0
0
0
0
0
0
0
0
0
0
0
0
0
0
0
0
0
0
0
0
0
0
0
0
0
0
0
0
0
0
0
0
0
0
0
0
0
0
0
0
0
0
0
0
0
0
0
0
0
0
0
0
0
0
0
0
0
0
0
0
0
0
0
0
0
0
0
0
0
0
0
0
0
0
0
0
0
0
0
0
0
0
0
0
0
0
0
0
0
0
0
0
0
0
0
0
0
0
0
0
0
0
0
0
0
0
0
0
0
0
0
0
0
0
0
0
0
0
0
0
0
0
0
0
0
0
0
0
0
0
0
0
0
0
0
0
0
0
0
0
0
0
0
0
0
0
0
0
0
0
0
0
0
0
0
255
255
255
255
255
255
255
255
255
255
255
255
255
255
255
255
255
255
255
255
255
255
255
255
255
255
255
255
255
255
255
255
255
255
255
255
255
255
255
255
255
255
255
255
255
255
255
255
255
255
255
255
255
255
255
255
255
255
255
255
255
255
255
255
255
255
255
255
255
255
255
255
255
255
255
255
255
255
255
255
255
255
255
255
255
255
255
255
255
255
255
255
255
255
255
255
255
255
255
255
255
255
255
255
255
255
255
255
255
255
255
255
255
255
255
255
255
255
255
255
255
255
255
255
255
255
255
255
255
255
255
255
255
255
255
255
255
255
255
255
255
255
255
255
255
255
255
255
255
255
0
0
0
0
0
0
0
0
0
0
0
0
0
0
0
0
0
0
0
0
0
0
0
0
0
0
0
0
0
0
0
0
0
0
0
0
0
0
0
0
0
0
0
0
0
0
0
0
255
0
255
0
255
0
255
0
255
0
255
0
255
0
255
0
255
0
255
0
255
0
255
0
255
0
255
0
255
0
255
0
255
0
255
0
255
0
255
0
255
0
255
0
255
0
255
0
255
0
255
0
255
0
255
0
255
0
255
0
255
0
255
0
255
0
254
0
254
0
255
0
255
0
255
0
253
0
250
0
250
0
252
0
252
0
164
0
12
0
0
0
0
0
3
0
0
0
0
0
0
0
0
0
0
0
0
0
0
0
0
0
0
0
0
0
0
0
0
0
0
0
0
0
0
0
0
0
0
0
0
0
0
0
0
0
0
0
0
0
0
0
0
0
1
0
1
0
1
0
1
0
1
0
1
0
1
0
1
0
6
0
4
0
0
0
4
0
38
0
43
0
16
0
1
0
4
0
2
0
1
0
1
0
21
0
69
0
101
0
102
0
117
0
115
0
92
0
74
0
43
0
35
0
77
0
94
0
111
0
121
0
98
0
54
0
42
0
59
0
51
0
23
0
76
0
44
0
37
0
62
0
83
0
92
0
94
0
94
0
58
0
71
0
86
0
96
255
157
255
150
255
140
255
136
255
136
255
137
255
137
255
155
255
173
255
166
255
167
255
193
255
188
255
203
255
209
255
196
255
185
255
191
255
195
255
189
255
187
255
219
255
192
255
155
255
141
255
137
255
140
255
123
255
119
255
126
255
127
255
117
255
116
255
146
255
182
255
195
255
184
255
185
255
187
255
189
255
190
255
191
255
192
255
192
255
195
255
180
255
166
255
160
255
159
255
166
255
185
255
204
255
165
255
163
255
170
255
189
255
208
255
207
255
191
255
174
255
168
255
151
255
139
255
143
255
148
255
152
255
168
255
189
255
167
255
149
255
136
255
138
255
141
255
135
255
124
0
136
0
112
0
135
0
133
0
108
0
71
0
33
0
53
0
119
0
148
0
150
0
143
0
142
0
151
0
148
0
146
0
157
0
156
0
156
0
164
0
162
0
125
0
88
0
105
0
0
0
0
0
0
0
0
0
0
0
0
0
0
0
0
0
0
0
0
0
0
0
0
0
0
0
0
0
0
0
0
0
0
0
0
0
0
0
0
0
0
0
0
0
0
0
0
0
0
0
0
0
0
0
0
0
0
0
0
0
0
0
0
0
0
0
0
0
0
0
0
0
0
0
0
0
0
0
0
0
0
0
0
0
0
0
0
0
0
0
0
0
0
0
0
0
0
0
0
0
0
0
0
0
0
0
0
0
0
0
0
0
0
0
0
0
0
0
0
0
0
0
0
0
0
0
0
0
0
0
0
0
0
0
0
0
0
0
0
0
0
0
0
0
0
0
0
0
0
0
0
0
0
0
0
0
0
0
0
0
0
0
0
0
0
0
0
0
0
0
0
0
0
0
0
0
0
0
0
0
0
0
0
0
0
0
0
0
0
0
0
0
0
0
0
0
0
0
0
0
0
0
0
0
0
0
0
0
0
0
0
0
0
0
0
0
0
0
0
0
0
0
0
0
0
0
0
0
0
0
0
0
0
0
0
0
0
0
0
0
0
0
0
0
0
0
255
255
255
255
255
255
255
255
255
255
255
255
255
255
255
255
255
255
255
255
255
255
255
255
255
255
255
255
255
255
255
255
255
255
255
255
255
255
255
255
255
255
255
255
255
255
255
255
255
255
255
255
255
255
255
255
255
255
255
255
255
255
255
255
255
255
255
255
255
255
255
255
255
255
255
255
255
255
255
255
255
255
255
255
255
255
255
255
255
255
255
255
255
255
255
255
255
255
255
255
255
255
255
255
255
255
255
255
255
255
255
255
255
255
255
255
255
255
255
255
255
255
255
255
255
255
255
255
255
255
255
255
255
255
255
255
255
255
255
255
255
255
255
255
255
255
255
255
255
255
0
0
0
0
0
0
0
0
0
0
0
0
0
0
0
0
0
0
0
0
0
0
0
0
0
0
0
0
0
0
0
0
0
0
0
0
0
0
0
0
0
0
0
0
0
0
0
0
255
0
255
0
255
0
255
0
255
0
255
0
255
0
255
0
255
0
255
0
255
0
255
0
255
0
255
0
255
0
255
0
255
0
255
0
255
0
255
0
255
0
255
0
255
0
255
0
255
0
255
0
255
0
255
0
255
0
255
0
255
0
255
0
255
0
254
0
254
0
255
0
255
0
255
0
253
0
250
0
249
0
248
0
255
0
193
0
30
0
0
0
0
0
1
0
0
0
0
0
0
0
0
0
0
0
0
0
0
0
0
0
0
0
0
0
0
0
0
0
0
0
0
0
0
0
0
0
0
0
0
0
0
0
0
0
0
0
0
0
0
0
0
0
1
0
1
0
1
0
1
0
1
0
1
0
1
0
1
0
2
0
5
0
1
0
0
0
17
0
24
0
9
0
1
0
1
0
3
0
2
0
2
0
16
0
51
0
78
0
86
0
79
0
76
0
69
0
71
0
62
0
59
0
96
0
131
0
118
0
126
0
112
0
73
0
51
0
63
0
74
0
70
0
78
0
57
0
44
0
59
0
85
0
90
0
91
0
103
0
60
0
64
0
82
0
96
255
156
255
147
255
133
255
127
255
140
255
148
255
142
255
144
255
165
255
172
255
172
255
183
255
190
255
205
255
217
255
207
255
194
255
199
255
203
255
192
255
167
255
184
255
202
255
157
255
117
255
130
255
133
255
127
255
127
255
132
255
127
255
127
255
130
255
125
255
147
255
193
255
187
255
187
255
187
255
188
255
188
255
190
255
191
255
192
255
192
255
177
255
164
255
160
255
160
255
168
255
190
255
212
255
193
255
201
255
207
255
203
255
188
255
173
255
161
255
156
255
153
255
152
255
157
255
158
255
145
255
131
255
143
255
165
255
187
255
162
255
138
255
127
255
128
255
133
255
135
0
119
0
128
0
105
0
69
0
77
0
119
0
118
0
86
0
76
0
134
0
142
0
141
0
144
0
153
0
149
0
147
0
158
0
145
0
167
0
160
0
115
0
91
0
118
0
152
0
0
0
0
0
0
0
0
0
0
0
0
0
0
0
0
0
0
0
0
0
0
0
0
0
0
0
0
0
0
0
0
0
0
0
0
0
0
0
0
0
0
0
0
0
0
0
0
0
0
0
0
0
0
0
0
0
0
0
0
0
0
0
0
0
0
0
0
0
0
0
0
0
0
0
0
0
0
0
0
0
0
0
0
0
0
0
0
0
0
0
0
0
0
0
0
0
0
0
0
0
0
0
0
0
0
0
0
0
0
0
0
0
0
0
0
0
0
0
0
0
0
0
0
0
0
0
0
0
0
0
0
0
0
0
0
0
0
0
0
0
0
0
0
0
0
0
0
0
0
0
0
0
0
0
0
0
0
0
0
0
0
0
0
0
0
0
0
0
0
0
0
0
0
0
0
0
0
0
0
0
0
0
0
0
0
0
0
0
0
0
0
0
0
0
0
0
0
0
0
0
0
0
0
0
0
0
0
0
0
0
0
0
0
0
0
0
0
0
0
0
0
0
0
0
0
0
0
0
0
0
0
0
0
0
0
0
0
0
0
0
0
0
0
0
0
0
255
255
255
255
255
255
255
255
255
255
255
255
255
255
255
255
255
255
255
255
255
255
255
255
255
255
255
255
255
255
255
255
255
255
255
255
255
255
255
255
255
255
255
255
255
255
255
255
255
255
255
255
255
255
255
255
255
255
255
255
255
255
255
255
255
255
255
255
255
255
255
255
255
255
255
255
255
255
255
255
255
255
255
255
255
255
255
255
255
255
255
255
255
255
255
255
255
255
255
255
255
255
255
255
255
255
255
255
255
255
255
255
255
255
255
255
255
255
255
255
255
255
255
255
255
255
255
255
255
255
255
255
255
255
255
255
255
255
255
255
255
255
255
255
255
255
255
255
255
255
0
0
0
0
0
0
0
0
0
0
0
0
0
0
0
0
0
0
0
0
0
0
0
0
0
0
0
0
0
0
0
0
0
0
0
0
0
0
0
0
0
0
0
0
0
0
0
0
255
0
255
0
255
0
255
0
255
0
255
0
255
0
255
0
255
0
255
0
255
0
255
0
255
0
255
0
255
0
255
0
255
0
255
0
255
0
255
0
255
0
255
0
255
0
255
0
255
0
255
0
255
0
255
0
255
0
255
0
255
0
255
0
255
0
254
0
254
0
255
0
255
0
255
0
253
0
250
0
250
0
248
0
255
0
213
0
52
0
0
0
0
0
0
0
0
0
0
0
0
0
0
0
0
0
0
0
0
0
0
0
0
0
0
0
0
0
0
0
0
0
0
0
0
0
0
0
0
0
0
0
0
0
0
0
0
0
0
0
0
0
0
0
1
0
1
0
1
0
1
0
1
0
1
0
1
0
1
0
0
0
5
0
2
0
1
0
3
0
7
0
3
0
1
0
1
0
5
0
4
0
1
0
3
0
20
0
43
0
58
0
57
0
72
0
95
0
112
0
110
0
91
0
84
0
100
0
124
0
119
0
105
0
80
0
65
0
76
0
94
0
95
0
78
0
74
0
53
0
50
0
79
0
88
0
85
0
101
0
75
0
63
0
72
0
92
255
151
255
142
255
141
255
149
255
138
255
147
255
143
255
140
255
157
255
178
255
182
255
180
255
197
255
211
255
227
255
218
255
199
255
198
255
193
255
172
255
150
255
153
255
199
255
171
255
124
255
129
255
125
255
129
255
136
255
133
255
122
255
130
255
143
255
122
255
121
255
163
255
191
255
190
255
190
255
188
255
189
255
188
255
189
255
189
255
183
255
173
255
167
255
167
255
172
255
181
255
198
255
213
255
239
255
219
255
188
255
162
255
153
255
155
255
157
255
157
255
144
255
158
255
164
255
155
255
145
255
144
255
147
255
147
255
184
255
175
255
154
255
129
255
120
255
132
255
151
0
92
0
98
0
77
0
95
0
120
0
122
0
137
0
131
0
85
0
94
0
129
0
153
0
153
0
149
0
154
0
155
0
150
0
160
0
135
0
106
0
94
0
116
0
157
0
168
0
0
0
0
0
0
0
0
0
0
0
0
0
0
0
0
0
0
0
0
0
0
0
0
0
0
0
0
0
0
0
0
0
0
0
0
0
0
0
0
0
0
0
0
0
0
0
0
0
0
0
0
0
0
0
0
0
0
0
0
0
0
0
0
0
0
0
0
0
0
0
0
0
0
0
0
0
0
0
0
0
0
0
0
0
0
0
0
0
0
0
0
0
0
0
0
0
0
0
0
0
0
0
0
0
0
0
0
0
0
0
0
0
0
0
0
0
0
0
0
0
0
0
0
0
0
0
0
0
0
0
0
0
0
0
0
0
0
0
0
0
0
0
0
0
0
0
0
0
0
0
0
0
0
0
0
0
0
0
0
0
0
0
0
0
0
0
0
0
0
0
0
0
0
0
0
0
0
0
0
0
0
0
0
0
0
0
0
0
0
0
0
0
0
0
0
0
0
0
0
0
0
0
0
0
0
0
0
0
0
0
0
0
0
0
0
0
0
0
0
0
0
0
0
0
0
0
0
0
0
0
0
0
0
0
0
0
0
0
0
0
0
0
0
0
0
0
255
255
255
255
255
255
255
255
255
255
255
255
255
255
255
255
255
255
255
255
255
255
255
255
255
255
255
255
255
255
255
255
255
255
255
255
255
255
255
255
255
255
255
255
255
255
255
255
255
255
255
255
255
255
255
255
255
255
255
255
255
255
255
255
255
255
255
255
255
255
255
255
255
255
255
255
255
255
255
255
255
255
255
255
255
255
255
255
255
255
255
255
255
255
255
255
255
255
255
255
255
255
255
255
255
255
255
255
255
255
255
255
255
255
255
255
255
255
255
255
255
255
255
255
255
255
255
255
255
255
255
255
255
255
255
255
255
255
255
255
255
255
255
255
255
255
255
255
255
255
0
0
0
0
0
0
0
0
0
0
0
0
0
0
0
0
0
0
0
0
0
0
0
0
0
0
0
0
0
0
0
0
0
0
0
0
0
0
0
0
0
0
0
0
0
0
0
0
255
0
255
0
255
0
255
0
255
0
255
0
255
0
255
0
255
0
255
0
255
0
255
0
255
0
255
0
255
0
255
0
255
0
255
0
255
0
255
0
255
0
255
0
255
0
255
0
255
0
255
0
255
0
255
0
255
0
255
0
255
0
255
0
255
0
254
0
254
0
255
0
255
0
255
0
253
0
250
0
253
0
250
0
255
0
225
0
74
0
1
0
0
0
1
0
0
0
0
0
0
0
0
0
0
0
0
0
0
0
0
0
0
0
0
0
0
0
0
0
0
0
0
0
0
0
0
0
0
0
0
0
0
0
0
0
0
0
0
0
0
0
0
0
1
0
1
0
1
0
1
0
1
0
1
0
1
0
1
0
1
0
3
0
2
0
1
0
1
0
2
0
1
0
1
0
2
0
3
0
1
0
1
0
1
0
2
0
17
0
40
0
83
0
106
0
122
0
117
0
113
0
98
0
76
0
80
0
128
0
115
0
103
0
86
0
70
0
76
0
92
0
97
0
78
0
89
0
58
0
41
0
73
0
95
0
91
0
100
0
79
0
55
0
59
0
87
255
147
255
133
255
133
255
148
255
142
255
136
255
137
255
148
255
166
255
193
255
205
255
199
255
203
255
212
255
222
255
211
255
190
255
188
255
182
255
159
255
149
255
152
255
178
255
182
255
149
255
123
255
119
255
125
255
131
255
129
255
123
255
128
255
134
255
128
255
124
255
134
255
183
255
184
255
186
255
188
255
189
255
188
255
188
255
187
255
184
255
184
255
185
255
186
255
187
255
190
255
193
255
197
255
183
255
196
255
197
255
180
255
160
255
152
255
154
255
160
255
151
255
157
255
156
255
149
255
149
255
154
255
155
255
151
255
161
255
173
255
171
255
151
255
140
255
151
255
164
0
89
0
93
0
94
0
128
0
142
0
123
0
133
0
143
0
118
0
80
0
104
0
141
0
156
0
147
0
150
0
155
0
145
0
144
0
96
0
87
0
126
0
155
0
158
0
157
0
0
0
0
0
0
0
0
0
0
0
0
0
0
0
0
0
0
0
0
0
0
0
0
0
0
0
0
0
0
0
0
0
0
0
0
0
0
0
0
0
0
0
0
0
0
0
0
0
0
0
0
0
0
0
0
0
0
0
0
0
0
0
0
0
0
0
0
0
0
0
0
0
0
0
0
0
0
0
0
0
0
0
0
0
0
0
0
0
0
0
0
0
0
0
0
0
0
0
0
0
0
0
0
0
0
0
0
0
0
0
0
0
0
0
0
0
0
0
0
0
0
0
0
0
0
0
0
0
0
0
0
0
0
0
0
0
0
0
0
0
0
0
0
0
0
0
0
0
0
0
0
0
0
0
0
0
0
0
0
0
0
0
0
0
0
0
0
0
0
0
0
0
0
0
0
0
0
0
0
0
0
0
0
0
0
0
0
0
0
0
0
0
0
0
0
0
0
0
0
0
0
0
0
0
0
0
0
0
0
0
0
0
0
0
0
0
0
0
0
0
0
0
0
0
0
0
0
0
0
0
0
0
0
0
0
0
0
0
0
0
0
0
0
0
0
0
255
255
255
255
255
255
255
255
255
255
255
255
255
255
255
255
255
255
255
255
255
255
255
255
255
255
255
255
255
255
255
255
255
255
255
255
255
255
255
255
255
255
255
255
255
255
255
255
255
255
255
255
255
255
255
255
255
255
255
255
255
255
255
255
255
255
255
255
255
255
255
255
255
255
255
255
255
255
255
255
255
255
255
255
255
255
255
255
255
255
255
255
255
255
255
255
255
255
255
255
255
255
255
255
255
255
255
255
255
255
255
255
255
255
255
255
255
255
255
255
255
255
255
255
255
255
255
255
255
255
255
255
255
255
255
255
255
255
255
255
255
255
255
255
255
255
255
255
255
255
0
0
0
0
0
0
0
0
0
0
0
0
0
0
0
0
0
0
0
0
0
0
0
0
0
0
0
0
0
0
0
0
0
0
0
0
0
0
0
0
0
0
0
0
0
0
0
0
255
0
255
0
255
0
255
0
255
0
255
0
255
0
255
0
255
0
255
0
255
0
255
0
255
0
255
0
255
0
255
0
255
0
255
0
255
0
255
0
255
0
255
0
255
0
255
0
255
0
255
0
255
0
255
0
255
0
255
0
255
0
255
0
255
0
254
0
254
0
255
0
255
0
255
0
253
0
250
0
255
0
253
0
252
0
231
0
88
0
7
0
0
0
2
0
0
0
0
0
0
0
0
0
0
0
0
0
0
0
0
0
0
0
0
0
0
0
0
0
0
0
0
0
0
0
0
0
0
0
0
0
0
0
0
0
0
0
0
0
0
0
0
0
1
0
1
0
1
0
1
0
1
0
1
0
1
0
1
0
2
0
1
0
3
0
3
0
2
0
2
0
2
0
3
0
4
0
0
0
1
0
3
0
6
0
0
0
10
0
37
0
67
0
106
0
127
0
113
0
115
0
114
0
82
0
68
0
118
0
108
0
104
0
91
0
70
0
70
0
90
0
101
0
71
0
91
0
53
0
29
0
68
0
101
0
97
0
102
0
92
0
63
0
63
0
88
255
152
255
138
255
132
255
142
255
147
255
127
255
133
255
159
255
181
255
210
255
228
255
223
255
205
255
206
255
210
255
194
255
175
255
180
255
181
255
163
255
146
255
153
255
148
255
178
255
172
255
122
255
126
255
134
255
118
255
125
255
133
255
124
255
118
255
132
255
138
255
120
255
168
255
172
255
179
255
185
255
187
255
188
255
187
255
187
255
193
255
200
255
205
255
203
255
196
255
190
255
181
255
174
255
163
255
181
255
196
255
192
255
177
255
163
255
155
255
150
255
171
255
159
255
151
255
153
255
151
255
141
255
141
255
151
255
139
255
165
255
179
255
173
255
172
255
179
255
170
0
105
0
121
0
139
0
130
0
120
0
134
0
131
0
127
0
144
0
96
0
80
0
111
0
150
0
150
0
143
0
148
0
145
0
85
0
98
0
132
0
154
0
152
0
153
0
161
0
0
0
0
0
0
0
0
0
0
0
0
0
0
0
0
0
0
0
0
0
0
0
0
0
0
0
0
0
0
0
0
0
0
0
0
0
0
0
0
0
0
0
0
0
0
0
0
0
0
0
0
0
0
0
0
0
0
0
0
0
0
0
0
0
0
0
0
0
0
0
0
0
0
0
0
0
0
0
0
0
0
0
0
0
0
0
0
0
0
0
0
0
0
0
0
0
0
0
0
0
0
0
0
0
0
0
0
0
0
0
0
0
0
0
0
0
0
0
0
0
0
0
0
0
0
0
0
0
0
0
0
0
0
0
0
0
0
0
0
0
0
0
0
0
0
0
0
0
0
0
0
0
0
0
0
0
0
0
0
0
0
0
0
0
0
0
0
0
0
0
0
0
0
0
0
0
0
0
0
0
0
0
0
0
0
0
0
0
0
0
0
0
0
0
0
0
0
0
0
0
0
0
0
0
0
0
0
0
0
0
0
0
0
0
0
0
0
0
0
0
0
0
0
0
0
0
0
0
0
0
0
0
0
0
0
0
0
0
0
0
0
0
0
0
0
0
255
255
255
255
255
255
255
255
255
255
255
255
255
255
255
255
255
255
255
255
255
255
255
255
255
255
255
255
255
255
255
255
255
255
255
255
255
255
255
255
255
255
255
255
255
255
255
255
255
255
255
255
255
255
255
255
255
255
255
255
255
255
255
255
255
255
255
255
255
255
255
255
255
255
255
255
255
255
255
255
255
255
255
255
255
255
255
255
255
255
255
255
255
255
255
255
255
255
255
255
255
255
255
255
255
255
255
255
255
255
255
255
255
255
255
255
255
255
255
255
255
255
255
255
255
255
255
255
255
255
255
255
255
255
255
255
255
255
255
255
255
255
255
255
255
255
255
255
255
255
0
0
0
0
0
0
0
0
0
0
0
0
0
0
0
0
0
0
0
0
0
0
0
0
0
0
0
0
0
0
0
0
0
0
0
0
0
0
0
0
0
0
0
0
0
0
0
0
255
0
255
0
255
0
255
0
255
0
255
0
255
0
255
0
255
0
255
0
255
0
255
0
255
0
255
0
255
0
255
0
255
0
255
0
255
0
255
0
255
0
255
0
255
0
255
0
255
0
255
0
255
0
255
0
255
0
255
0
255
0
255
0
255
0
255
0
255
0
255
0
255
0
255
0
255
0
255
0
252
0
252
0
255
0
240
0
116
0
0
0
0
0
0
0
0
0
0
0
0
0
0
0
0
0
0
0
0
0
0
0
0
0
0
0
0
0
0
0
0
0
0
0
0
0
0
0
0
0
0
0
0
0
0
0
0
0
0
0
0
0
0
0
0
0
0
0
0
0
0
0
0
0
0
0
0
0
0
0
0
0
0
0
0
0
0
0
0
0
0
0
0
0
0
0
1
0
1
0
2
0
3
0
3
0
2
0
1
0
1
0
9
0
56
0
107
0
120
0
111
0
115
0
110
0
83
0
93
0
125
0
106
0
75
0
100
0
37
0
95
0
93
0
79
0
85
0
64
0
53
0
80
0
97
0
90
0
89
0
104
0
60
0
51
0
94
255
143
255
150
255
144
255
156
255
170
255
174
255
177
255
167
255
158
255
180
255
208
255
213
255
182
255
190
255
203
255
202
255
188
255
182
255
174
255
154
255
151
255
156
255
141
255
143
255
168
255
158
255
129
255
130
255
136
255
127
255
131
255
132
255
122
255
128
255
130
255
114
255
138
255
165
255
165
255
160
255
189
255
210
255
209
255
212
255
193
255
188
255
178
255
169
255
164
255
162
255
165
255
167
255
159
255
159
255
163
255
191
255
207
255
180
255
151
255
155
255
159
255
157
255
153
255
154
255
152
255
148
255
144
255
143
255
149
255
165
255
203
255
225
255
197
255
160
255
138
0
124
0
125
0
130
0
130
0
124
0
123
0
129
0
131
0
129
0
135
0
97
0
79
0
113
0
157
0
152
0
111
0
78
0
94
0
136
0
162
0
154
0
149
0
158
0
162
0
0
0
0
0
0
0
0
0
0
0
0
0
0
0
0
0
0
0
0
0
0
0
0
0
0
0
0
0
0
0
0
0
0
0
0
0
0
0
0
0
0
0
0
0
0
0
0
0
0
0
0
0
0
0
0
0
0
0
0
0
0
0
0
0
0
0
0
0
0
0
0
0
0
0
0
0
0
0
0
0
0
0
0
0
0
0
0
0
0
0
0
0
0
0
0
0
0
0
0
0
0
0
0
0
0
0
0
0
0
0
0
0
0
0
0
0
0
0
0
0
0
0
0
0
0
0
0
0
0
0
0
0
0
0
0
0
0
0
0
0
0
0
0
0
0
0
0
0
0
0
0
0
0
0
0
0
0
0
0
0
0
0
0
0
0
0
0
0
0
0
0
0
0
0
0
0
0
0
0
0
0
0
0
0
0
0
0
0
0
0
0
0
0
0
0
0
0
0
0
0
0
0
0
0
0
0
0
0
0
0
0
0
0
0
0
0
0
0
0
0
0
0
0
0
0
0
0
0
0
0
0
0
0
0
0
0
0
0
0
0
0
0
0
0
0
0
255
255
255
255
255
255
255
255
255
255
255
255
255
255
255
255
255
255
255
255
255
255
255
255
255
255
255
255
255
255
255
255
255
255
255
255
255
255
255
255
255
255
255
255
255
255
255
255
255
255
255
255
255
255
255
255
255
255
255
255
255
255
255
255
255
255
255
255
255
255
255
255
255
255
255
255
255
255
255
255
255
255
255
255
255
255
255
255
255
255
255
255
255
255
255
255
255
255
255
255
255
255
255
255
255
255
255
255
255
255
255
255
255
255
255
255
255
255
255
255
255
255
255
255
255
255
255
255
255
255
255
255
255
255
255
255
255
255
255
255
255
255
255
255
255
255
255
255
255
255
0
0
0
0
0
0
0
0
0
0
0
0
0
0
0
0
0
0
0
0
0
0
0
0
0
0
0
0
0
0
0
0
0
0
0
0
0
0
0
0
0
0
0
0
0
0
0
0
255
0
255
0
255
0
255
0
255
0
255
0
255
0
255
0
255
0
255
0
255
0
255
0
255
0
255
0
255
0
255
0
255
0
255
0
255
0
255
0
255
0
255
0
255
0
255
0
255
0
255
0
255
0
255
0
255
0
255
0
255
0
255
0
255
0
255
0
255
0
255
0
255
0
255
0
255
0
255
0
252
0
252
0
255
0
240
0
116
0
0
0
0
0
0
0
0
0
0
0
0
0
0
0
0
0
0
0
0
0
0
0
0
0
0
0
0
0
0
0
0
0
0
0
0
0
0
0
0
0
0
0
0
0
0
0
0
0
0
0
0
0
0
0
0
0
0
0
0
0
0
0
0
0
0
0
0
0
0
0
0
0
0
0
0
0
0
0
0
0
0
0
0
0
0
0
0
0
1
0
2
0
3
0
3
0
2
0
1
0
0
0
8
0
31
0
72
0
100
0
112
0
121
0
118
0
101
0
61
0
116
0
124
0
86
0
85
0
43
0
104
0
83
0
94
0
88
0
69
0
50
0
61
0
80
0
88
0
89
0
103
0
76
0
45
0
62
255
171
255
173
255
171
255
173
255
165
255
160
255
155
255
144
255
141
255
164
255
196
255
208
255
199
255
195
255
200
255
199
255
187
255
182
255
174
255
159
255
154
255
159
255
144
255
142
255
169
255
174
255
141
255
114
255
123
255
124
255
120
255
116
255
121
255
128
255
129
255
130
255
158
255
181
255
190
255
190
255
194
255
190
255
189
255
197
255
180
255
174
255
166
255
163
255
161
255
164
255
164
255
165
255
161
255
165
255
167
255
168
255
179
255
194
255
187
255
163
255
168
255
158
255
150
255
151
255
156
255
158
255
157
255
155
255
184
255
187
255
176
255
177
255
189
255
175
255
143
0
123
0
126
0
117
0
127
0
134
0
127
0
128
0
133
0
125
0
139
0
145
0
103
0
85
0
121
0
111
0
82
0
101
0
144
0
145
0
149
0
156
0
155
0
150
0
147
0
0
0
0
0
0
0
0
0
0
0
0
0
0
0
0
0
0
0
0
0
0
0
0
0
0
0
0
0
0
0
0
0
0
0
0
0
0
0
0
0
0
0
0
0
0
0
0
0
0
0
0
0
0
0
0
0
0
0
0
0
0
0
0
0
0
0
0
0
0
0
0
0
0
0
0
0
0
0
0
0
0
0
0
0
0
0
0
0
0
0
0
0
0
0
0
0
0
0
0
0
0
0
0
0
0
0
0
0
0
0
0
0
0
0
0
0
0
0
0
0
0
0
0
0
0
0
0
0
0
0
0
0
0
0
0
0
0
0
0
0
0
0
0
0
0
0
0
0
0
0
0
0
0
0
0
0
0
0
0
0
0
0
0
0
0
0
0
0
0
0
0
0
0
0
0
0
0
0
0
0
0
0
0
0
0
0
0
0
0
0
0
0
0
0
0
0
0
0
0
0
0
0
0
0
0
0
0
0
0
0
0
0
0
0
0
0
0
0
0
0
0
0
0
0
0
0
0
0
0
0
0
0
0
0
0
0
0
0
0
0
0
0
0
0
0
0
255
255
255
255
255
255
255
255
255
255
255
255
255
255
255
255
255
255
255
255
255
255
255
255
255
255
255
255
255
255
255
255
255
255
255
255
255
255
255
255
255
255
255
255
255
255
255
255
255
255
255
255
255
255
255
255
255
255
255
255
255
255
255
255
255
255
255
255
255
255
255
255
255
255
255
255
255
255
255
255
255
255
255
255
255
255
255
255
255
255
255
255
255
255
255
255
255
255
255
255
255
255
255
255
255
255
255
255
255
255
255
255
255
255
255
255
255
255
255
255
255
255
255
255
255
255
255
255
255
255
255
255
255
255
255
255
255
255
255
255
255
255
255
255
255
255
255
255
255
255
0
0
0
0
0
0
0
0
0
0
0
0
0
0
0
0
0
0
0
0
0
0
0
0
0
0
0
0
0
0
0
0
0
0
0
0
0
0
0
0
0
0
0
0
0
0
0
0
255
0
255
0
255
0
255
0
255
0
255
0
255
0
255
0
255
0
255
0
255
0
255
0
255
0
255
0
255
0
255
0
255
0
255
0
255
0
255
0
255
0
255
0
255
0
255
0
255
0
255
0
255
0
255
0
255
0
255
0
255
0
255
0
255
0
255
0
255
0
255
0
255
0
255
0
255
0
255
0
252
0
252
0
255
0
240
0
116
0
0
0
0
0
0
0
0
0
0
0
0
0
0
0
0
0
0
0
0
0
0
0
0
0
0
0
0
0
0
0
0
0
0
0
0
0
0
0
0
0
0
0
0
0
0
0
0
0
0
0
0
0
0
0
0
0
0
0
0
0
0
0
0
0
0
0
0
0
0
0
0
0
0
0
0
0
0
0
0
0
0
0
0
0
0
0
0
0
1
0
2
0
3
0
3
0
2
0
1
0
0
0
5
0
3
0
27
0
68
0
102
0
122
0
126
0
120
0
61
0
93
0
103
0
84
0
64
0
28
0
89
0
87
0
81
0
59
0
44
0
32
0
26
0
51
0
73
0
63
0
60
0
65
0
34
0
33
255
187
255
169
255
158
255
156
255
153
255
142
255
135
255
131
255
134
255
154
255
182
255
197
255
215
255
203
255
200
255
200
255
194
255
184
255
171
255
158
255
158
255
152
255
128
255
116
255
139
255
173
255
162
255
123
255
119
255
133
255
126
255
122
255
140
255
142
255
137
255
149
255
170
255
178
255
193
255
201
255
192
255
175
255
170
255
172
255
171
255
166
255
162
255
160
255
162
255
164
255
163
255
162
255
161
255
162
255
168
255
159
255
156
255
191
255
211
255
188
255
158
255
156
255
154
255
154
255
156
255
166
255
186
255
205
255
184
255
169
255
153
255
147
255
159
255
177
255
173
0
101
0
122
0
119
0
122
0
131
0
135
0
127
0
125
0
131
0
139
0
133
0
116
0
78
0
43
0
71
0
128
0
149
0
151
0
145
0
144
0
155
0
160
0
156
0
156
0
0
0
0
0
0
0
0
0
0
0
0
0
0
0
0
0
0
0
0
0
0
0
0
0
0
0
0
0
0
0
0
0
0
0
0
0
0
0
0
0
0
0
0
0
0
0
0
0
0
0
0
0
0
0
0
0
0
0
0
0
0
0
0
0
0
0
0
0
0
0
0
0
0
0
0
0
0
0
0
0
0
0
0
0
0
0
0
0
0
0
0
0
0
0
0
0
0
0
0
0
0
0
0
0
0
0
0
0
0
0
0
0
0
0
0
0
0
0
0
0
0
0
0
0
0
0
0
0
0
0
0
0
0
0
0
0
0
0
0
0
0
0
0
0
0
0
0
0
0
0
0
0
0
0
0
0
0
0
0
0
0
0
0
0
0
0
0
0
0
0
0
0
0
0
0
0
0
0
0
0
0
0
0
0
0
0
0
0
0
0
0
0
0
0
0
0
0
0
0
0
0
0
0
0
0
0
0
0
0
0
0
0
0
0
0
0
0
0
0
0
0
0
0
0
0
0
0
0
0
0
0
0
0
0
0
0
0
0
0
0
0
0
0
0
0
0
255
255
255
255
255
255
255
255
255
255
255
255
255
255
255
255
255
255
255
255
255
255
255
255
255
255
255
255
255
255
255
255
255
255
255
255
255
255
255
255
255
255
255
255
255
255
255
255
255
255
255
255
255
255
255
255
255
255
255
255
255
255
255
255
255
255
255
255
255
255
255
255
255
255
255
255
255
255
255
255
255
255
255
255
255
255
255
255
255
255
255
255
255
255
255
255
255
255
255
255
255
255
255
255
255
255
255
255
255
255
255
255
255
255
255
255
255
255
255
255
255
255
255
255
255
255
255
255
255
255
255
255
255
255
255
255
255
255
255
255
255
255
255
255
255
255
255
255
255
255
0
0
0
0
0
0
0
0
0
0
0
0
0
0
0
0
0
0
0
0
0
0
0
0
0
0
0
0
0
0
0
0
0
0
0
0
0
0
0
0
0
0
0
0
0
0
0
0
255
0
255
0
255
0
255
0
255
0
255
0
255
0
255
0
255
0
255
0
255
0
255
0
255
0
255
0
255
0
255
0
255
0
255
0
255
0
255
0
255
0
255
0
255
0
255
0
255
0
255
0
255
0
255
0
255
0
255
0
255
0
255
0
255
0
255
0
255
0
255
0
255
0
255
0
255
0
255
0
252
0
252
0
255
0
240
0
116
0
0
0
0
0
0
0
0
0
0
0
0
0
0
0
0
0
0
0
0
0
0
0
0
0
0
0
0
0
0
0
0
0
0
0
0
0
0
0
0
0
0
0
0
0
0
0
0
0
0
0
0
0
0
0
0
0
0
0
0
0
0
0
0
0
0
0
0
0
0
0
0
0
0
0
0
0
0
0
0
0
0
0
0
0
0
0
0
0
1
0
2
0
2
0
2
0
2
0
1
0
0
0
2
0
2
0
6
0
32
0
73
0
107
0
122
0
121
0
93
0
72
0
59
0
84
0
70
0
14
0
39
0
63
0
71
0
39
0
33
0
36
0
33
0
57
0
78
0
55
0
41
0
63
0
46
0
42
0
68
0
100
0
123
0
117
0
114
0
122
0
124
0
118
0
111
0
98
0
82
0
69
0
36
0
48
0
53
0
48
0
53
0
72
0
94
0
107
0
97
0
110
0
126
0
136
0
129
0
97
0
93
0
124
0
119
0
104
0
98
0
91
0
78
0
77
0
83
0
79
0
100
0
108
0
98
0
82
0
80
0
77
0
80
0
93
0
86
0
87
0
87
0
89
0
91
0
92
0
93
0
93
0
88
0
91
0
85
0
87
0
99
0
91
0
65
0
49
0
97
0
100
0
92
0
71
0
54
0
53
0
69
0
84
0
107
0
109
0
103
0
108
0
118
0
104
0
80
0
75
0
110
0
128
0
119
0
117
0
135
0
127
0
119
0
141
0
134
0
147
0
120
0
70
0
46
0
50
0
88
0
146
0
143
0
154
0
159
0
156
0
151
0
152
0
154
0
0
0
0
0
0
0
0
0
0
0
0
0
0
0
0
0
0
0
0
0
0
0
0
0
0
0
0
0
0
0
0
0
0
0
0
0
0
0
0
0
0
0
0
0
0
0
0
0
0
0
0
0
0
0
0
0
0
0
0
0
0
0
0
0
0
0
0
0
0
0
0
0
0
0
0
0
0
0
0
0
0
0
0
0
0
0
0
0
0
0
0
0
0
0
0
0
0
0
0
0
0
0
0
0
0
0
0
0
0
0
0
0
0
0
0
0
0
0
0
0
0
0
0
0
0
0
0
0
0
0
0
0
0
0
0
0
0
0
0
0
0
0
0
0
0
0
0
0
0
0
0
0
0
0
0
0
0
0
0
0
0
0
0
0
0
0
0
0
0
0
0
0
0
0
0
0
0
0
0
0
0
0
0
0
0
0
0
0
0
0
0
0
0
0
0
0
0
0
0
0
0
0
0
0
0
0
0
0
0
0
0
0
0
0
0
0
0
0
0
0
0
0
0
0
0
0
0
0
0
0
0
0
0
0
0
0
0
0
0
0
0
0
0
0
0
0
0
0
0
0
0
0
0
0
0
0
0
0
0
0
0
0
0
0
0
0
0
0
0
0
0
0
0
0
0
0
0
0
0
0
0
0
0
0
0
0
0
0
0
0
0
0
0
0
0
0
0
0
0
0
0
0
0
0
0
0
0
0
0
0
0
0
0
0
0
0
0
0
0
0
0
0
0
0
0
0
0
0
0
0
0
0
0
0
0
0
0
0
0
0
0
0
0
0
0
0
0
0
0
0
0
0
0
0
0
0
0
0
0
0
0
0
0
0
0
0
0
0
0
0
0
0
0
0
0
0
0
0
0
0
0
0
0
0
0
0
0
0
0
0
0
0
0
0
0
0
0
0
0
0
0
0
0
0
0
0
0
0
0
0
0
0
0
0
0
0
0
0
0
0
0
0
0
0
0
0
0
0
0
0
0
0
0
0
0
0
0
0
0
0
0
0
0
0
255
0
255
0
255
0
255
0
255
0
255
0
255
0
255
0
255
0
255
0
255
0
255
0
255
0
255
0
255
0
255
0
255
0
255
0
255
0
255
0
255
0
255
0
255
0
255
0
255
0
255
0
255
0
255
0
255
0
255
0
255
0
255
0
255
0
255
0
255
0
255
0
255
0
255
0
255
0
255
0
252
0
252
0
255
0
240
0
116
0
0
0
0
0
0
0
0
0
0
0
0
0
0
0
0
0
0
0
0
0
0
0
0
0
0
0
0
0
0
0
0
0
0
0
0
0
0
0
0
0
0
0
0
0
0
0
0
0
0
0
0
0
0
0
0
0
0
0
0
0
0
0
0
0
0
0
0
0
0
0
0
0
0
0
0
0
0
0
0
0
0
0
0
0
0
0
0
0
0
0
1
0
2
0
2
0
1
0
0
0
0
0
4
0
3
0
5
0
4
0
35
0
76
0
99
0
105
0
77
0
39
0
25
0
72
0
94
0
71
0
52
0
58
0
89
0
67
0
73
0
77
0
62
0
78
0
100
0
88
0
82
0
95
0
85
0
69
0
64
0
89
0
121
0
109
0
116
0
121
0
122
0
113
0
101
0
92
0
84
0
74
0
42
0
49
0
54
0
52
0
57
0
80
0
101
0
110
0
93
0
109
0
115
0
122
0
124
0
94
0
58
0
51
0
84
0
90
0
85
0
85
0
99
0
109
0
117
0
131
0
127
0
132
0
129
0
121
0
105
0
78
0
65
0
78
0
87
0
83
0
79
0
82
0
88
0
93
0
93
0
90
0
77
0
82
0
91
0
90
0
91
0
99
0
88
0
52
0
62
0
60
0
58
0
60
0
70
0
86
0
99
0
104
0
113
0
101
0
100
0
106
0
112
0
125
0
114
0
82
0
90
0
109
0
119
0
119
0
126
0
129
0
129
0
131
0
128
0
102
0
73
0
85
0
120
0
113
0
81
0
67
0
107
0
123
0
139
0
147
0
150
0
155
0
153
0
0
0
0
0
0
0
0
0
0
0
0
0
0
0
0
0
0
0
0
0
0
0
0
0
0
0
0
0
0
0
0
0
0
0
0
0
0
0
0
0
0
0
0
0
0
0
0
0
0
0
0
0
0
0
0
0
0
0
0
0
0
0
0
0
0
0
0
0
0
0
0
0
0
0
0
0
0
0
0
0
0
0
0
0
0
0
0
0
0
0
0
0
0
0
0
0
0
0
0
0
0
0
0
0
0
0
0
0
0
0
0
0
0
0
0
0
0
0
0
0
0
0
0
0
0
0
0
0
0
0
0
0
0
0
0
0
0
0
0
0
0
0
0
0
0
0
0
0
0
0
0
0
0
0
0
0
0
0
0
0
0
0
0
0
0
0
0
0
0
0
0
0
0
0
0
0
0
0
0
0
0
0
0
0
0
0
0
0
0
0
0
0
0
0
0
0
0
0
0
0
0
0
0
0
0
0
0
0
0
0
0
0
0
0
0
0
0
0
0
0
0
0
0
0
0
0
0
0
0
0
0
0
0
0
0
0
0
0
0
0
0
0
0
0
0
0
0
0
0
0
0
0
0
0
0
0
0
0
0
0
0
0
0
0
0
0
0
0
0
0
0
0
0
0
0
0
0
0
0
0
0
0
0
0
0
0
0
0
0
0
0
0
0
0
0
0
0
0
0
0
0
0
0
0
0
0
0
0
0
0
0
0
0
0
0
0
0
0
0
0
0
0
0
0
0
0
0
0
0
0
0
0
0
0
0
0
0
0
0
0
0
0
0
0
0
0
0
0
0
0
0
0
0
0
0
0
0
0
0
0
0
0
0
0
0
0
0
0
0
0
0
0
0
0
0
0
0
0
0
0
0
0
0
0
0
0
0
0
0
0
0
0
0
0
0
0
0
0
0
0
0
0
0
0
0
0
0
0
0
0
0
0
0
0
0
0
0
0
0
0
0
0
0
0
0
0
0
0
0
0
0
0
0
0
0
0
0
0
0
0
0
0
0
0
255
0
255
0
255
0
255
0
255
0
255
0
255
0
255
0
255
0
255
0
255
0
255
0
255
0
255
0
255
0
255
0
255
0
255
0
255
0
255
0
255
0
255
0
255
0
255
0
255
0
255
0
255
0
255
0
255
0
255
0
255
0
255
0
255
0
255
0
255
0
255
0
255
0
255
0
255
0
255
0
252
0
252
0
255
0
240
0
116
0
0
0
0
0
0
0
0
0
0
0
0
0
0
0
0
0
0
0
0
0
0
0
0
0
0
0
0
0
0
0
0
0
0
0
0
0
0
0
0
0
0
0
0
0
0
0
0
0
0
0
0
0
0
0
0
0
0
0
0
0
0
0
0
0
0
0
0
0
0
0
0
0
0
0
0
0
0
0
0
0
0
0
0
0
0
0
0
0
0
0
1
0
2
0
2
0
1
0
0
0
0
0
4
0
10
0
6
0
1
0
6
0
38
0
64
0
81
0
99
0
91
0
59
0
65
0
72
0
109
0
65
0
42
0
86
0
92
0
101
0
95
0
74
0
69
0
87
0
100
0
98
0
100
0
95
0
85
0
63
0
77
0
119
0
122
0
116
0
116
0
121
0
118
0
104
0
92
0
84
0
76
0
53
0
51
0
54
0
59
0
67
0
83
0
97
0
96
0
96
0
101
0
87
0
77
0
86
0
80
0
55
0
44
0
101
0
122
0
123
0
123
0
138
0
137
0
131
0
141
0
140
0
132
0
130
0
135
0
124
0
94
0
69
0
62
0
86
0
81
0
77
0
80
0
86
0
92
0
92
0
89
0
96
0
91
0
103
0
102
0
78
0
69
0
67
0
50
0
12
0
43
0
78
0
99
0
103
0
102
0
101
0
102
0
91
0
104
0
111
0
105
0
103
0
114
0
113
0
100
0
81
0
77
0
111
0
133
0
115
0
124
0
134
0
105
0
82
0
61
0
95
0
141
0
138
0
135
0
134
0
110
0
89
0
84
0
95
0
124
0
147
0
151
0
152
0
0
0
0
0
0
0
0
0
0
0
0
0
0
0
0
0
0
0
0
0
0
0
0
0
0
0
0
0
0
0
0
0
0
0
0
0
0
0
0
0
0
0
0
0
0
0
0
0
0
0
0
0
0
0
0
0
0
0
0
0
0
0
0
0
0
0
0
0
0
0
0
0
0
0
0
0
0
0
0
0
0
0
0
0
0
0
0
0
0
0
0
0
0
0
0
0
0
0
0
0
0
0
0
0
0
0
0
0
0
0
0
0
0
0
0
0
0
0
0
0
0
0
0
0
0
0
0
0
0
0
0
0
0
0
0
0
0
0
0
0
0
0
0
0
0
0
0
0
0
0
0
0
0
0
0
0
0
0
0
0
0
0
0
0
0
0
0
0
0
0
0
0
0
0
0
0
0
0
0
0
0
0
0
0
0
0
0
0
0
0
0
0
0
0
0
0
0
0
0
0
0
0
0
0
0
0
0
0
0
0
0
0
0
0
0
0
0
0
0
0
0
0
0
0
0
0
0
0
0
0
0
0
0
0
0
0
0
0
0
0
0
0
0
0
0
0
0
0
0
0
0
0
0
0
0
0
0
0
0
0
0
0
0
0
0
0
0
0
0
0
0
0
0
0
0
0
0
0
0
0
0
0
0
0
0
0
0
0
0
0
0
0
0
0
0
0
0
0
0
0
0
0
0
0
0
0
0
0
0
0
0
0
0
0
0
0
0
0
0
0
0
0
0
0
0
0
0
0
0
0
0
0
0
0
0
0
0
0
0
0
0
0
0
0
0
0
0
0
0
0
0
0
0
0
0
0
0
0
0
0
0
0
0
0
0
0
0
0
0
0
0
0
0
0
0
0
0
0
0
0
0
0
0
0
0
0
0
0
0
0
0
0
0
0
0
0
0
0
0
0
0
0
0
0
0
0
0
0
0
0
0
0
0
0
0
0
0
0
0
0
0
0
0
0
0
0
0
0
0
0
0
0
0
0
0
0
0
0
0
0
0
0
0
0
255
0
255
0
255
0
255
0
255
0
255
0
255
0
255
0
255
0
255
0
255
0
255
0
255
0
255
0
255
0
255
0
255
0
255
0
255
0
255
0
255
0
255
0
255
0
255
0
255
0
255
0
255
0
255
0
255
0
255
0
255
0
255
0
255
0
255
0
255
0
255
0
255
0
255
0
255
0
255
0
252
0
252
0
255
0
240
0
116
0
0
0
0
0
0
0
0
0
0
0
0
0
0
0
0
0
0
0
0
0
0
0
0
0
0
0
0
0
0
0
0
0
0
0
0
0
0
0
0
0
0
0
0
0
0
0
0
0
0
0
0
0
0
0
0
0
0
0
0
0
0
0
0
0
0
0
0
0
0
0
0
0
0
0
0
0
0
0
0
0
0
0
0
0
0
0
0
0
0
0
1
0
1
0
1
0
1
0
0
0
0
0
1
0
8
0
3
0
1
0
1
0
6
0
32
0
64
0
110
0
123
0
101
0
75
0
40
0
108
0
84
0
73
0
56
0
86
0
95
0
89
0
82
0
59
0
56
0
85
0
85
0
88
0
87
0
90
0
74
0
65
0
103
0
135
0
121
0
113
0
119
0
122
0
108
0
94
0
88
0
82
0
66
0
47
0
42
0
52
0
61
0
74
0
81
0
74
0
67
0
76
0
84
0
93
0
107
0
115
0
107
0
95
0
80
0
101
0
121
0
130
0
135
0
133
0
129
0
128
0
134
0
122
0
125
0
134
0
128
0
119
0
99
0
73
0
72
0
73
0
75
0
78
0
81
0
87
0
91
0
94
0
105
0
94
0
87
0
81
0
66
0
54
0
56
0
63
0
68
0
64
0
65
0
78
0
94
0
107
0
102
0
93
0
88
0
110
0
110
0
100
0
103
0
100
0
100
0
114
0
91
0
73
0
92
0
122
0
118
0
108
0
102
0
87
0
86
0
116
0
122
0
130
0
145
0
132
0
123
0
150
0
122
0
107
0
94
0
97
0
109
0
123
0
135
0
0
0
0
0
0
0
0
0
0
0
0
0
0
0
0
0
0
0
0
0
0
0
0
0
0
0
0
0
0
0
0
0
0
0
0
0
0
0
0
0
0
0
0
0
0
0
0
0
0
0
0
0
0
0
0
0
0
0
0
0
0
0
0
0
0
0
0
0
0
0
0
0
0
0
0
0
0
0
0
0
0
0
0
0
0
0
0
0
0
0
0
0
0
0
0
0
0
0
0
0
0
0
0
0
0
0
0
0
0
0
0
0
0
0
0
0
0
0
0
0
0
0
0
0
0
0
0
0
0
0
0
0
0
0
0
0
0
0
0
0
0
0
0
0
0
0
0
0
0
0
0
0
0
0
0
0
0
0
0
0
0
0
0
0
0
0
0
0
0
0
0
0
0
0
0
0
0
0
0
0
0
0
0
0
0
0
0
0
0
0
0
0
0
0
0
0
0
0
0
0
0
0
0
0
0
0
0
0
0
0
0
0
0
0
0
0
0
0
0
0
0
0
0
0
0
0
0
0
0
0
0
0
0
0
0
0
0
0
0
0
0
0
0
0
0
0
0
0
0
0
0
0
0
0
0
0
0
0
0
0
0
0
0
0
0
0
0
0
0
0
0
0
0
0
0
0
0
0
0
0
0
0
0
0
0
0
0
0
0
0
0
0
0
0
0
0
0
0
0
0
0
0
0
0
0
0
0
0
0
0
0
0
0
0
0
0
0
0
0
0
0
0
0
0
0
0
0
0
0
0
0
0
0
0
0
0
0
0
0
0
0
0
0
0
0
0
0
0
0
0
0
0
0
0
0
0
0
0
0
0
0
0
0
0
0
0
0
0
0
0
0
0
0
0
0
0
0
0
0
0
0
0
0
0
0
0
0
0
0
0
0
0
0
0
0
0
0
0
0
0
0
0
0
0
0
0
0
0
0
0
0
0
0
0
0
0
0
0
0
0
0
0
0
0
0
0
0
0
0
0
0
0
0
0
0
0
0
0
0
0
0
0
0
0
255
0
255
0
255
0
255
0
255
0
255
0
255
0
255
0
255
0
255
0
255
0
255
0
255
0
255
0
255
0
255
0
255
0
255
0
255
0
255
0
255
0
255
0
255
0
255
0
255
0
255
0
255
0
255
0
255
0
255
0
255
0
255
0
255
0
255
0
255
0
255
0
255
0
255
0
255
0
255
0
252
0
252
0
255
0
240
0
116
0
0
0
0
0
0
0
0
0
0
0
0
0
0
0
0
0
0
0
0
0
0
0
0
0
0
0
0
0
0
0
0
0
0
0
0
0
0
0
0
0
0
0
0
0
0
0
0
0
0
0
0
0
0
0
0
0
0
0
0
0
0
0
0
0
0
0
0
0
0
0
0
0
0
0
0
0
0
0
0
0
0
0
0
0
0
0
0
0
0
0
0
0
1
0
1
0
0
0
0
0
0
0
7
0
2
0
2
0
4
0
8
0
2
0
12
0
55
0
104
0
118
0
127
0
113
0
38
0
85
0
78
0
104
0
37
0
79
0
85
0
91
0
108
0
80
0
51
0
77
0
89
0
98
0
92
0
100
0
84
0
48
0
66
0
112
0
127
0
114
0
115
0
120
0
106
0
94
0
92
0
90
0
78
0
43
0
27
0
35
0
46
0
59
0
64
0
58
0
98
0
105
0
120
0
130
0
132
0
135
0
139
0
137
0
68
0
83
0
116
0
133
0
126
0
131
0
138
0
126
0
123
0
118
0
128
0
132
0
126
0
136
0
131
0
95
0
56
0
63
0
71
0
75
0
77
0
83
0
93
0
101
0
83
0
75
0
49
0
38
0
61
0
76
0
83
0
99
0
90
0
77
0
63
0
63
0
78
0
96
0
101
0
97
0
102
0
89
0
91
0
101
0
101
0
106
0
116
0
120
0
108
0
93
0
75
0
96
0
128
0
93
0
61
0
85
0
116
0
121
0
139
0
136
0
111
0
114
0
126
0
119
0
136
0
135
0
111
0
75
0
73
0
110
0
143
0
0
0
0
0
0
0
0
0
0
0
0
0
0
0
0
0
0
0
0
0
0
0
0
0
0
0
0
0
0
0
0
0
0
0
0
0
0
0
0
0
0
0
0
0
0
0
0
0
0
0
0
0
0
0
0
0
0
0
0
0
0
0
0
0
0
0
0
0
0
0
0
0
0
0
0
0
0
0
0
0
0
0
0
0
0
0
0
0
0
0
0
0
0
0
0
0
0
0
0
0
0
0
0
0
0
0
0
0
0
0
0
0
0
0
0
0
0
0
0
0
0
0
0
0
0
0
0
0
0
0
0
0
0
0
0
0
0
0
0
0
0
0
0
0
0
0
0
0
0
0
0
0
0
0
0
0
0
0
0
0
0
0
0
0
0
0
0
0
0
0
0
0
0
0
0
0
0
0
0
0
0
0
0
0
0
0
0
0
0
0
0
0
0
0
0
0
0
0
0
0
0
0
0
0
0
0
0
0
0
0
0
0
0
0
0
0
0
0
0
0
0
0
0
0
0
0
0
0
0
0
0
0
0
0
0
0
0
0
0
0
0
0
0
0
0
0
0
0
0
0
0
0
0
0
0
0
0
0
0
0
0
0
0
0
0
0
0
0
0
0
0
0
0
0
0
0
0
0
0
0
0
0
0
0
0
0
0
0
0
0
0
0
0
0
0
0
0
0
0
0
0
0
0
0
0
0
0
0
0
0
0
0
0
0
0
0
0
0
0
0
0
0
0
0
0
0
0
0
0
0
0
0
0
0
0
0
0
0
0
0
0
0
0
0
0
0
0
0
0
0
0
0
0
0
0
0
0
0
0
0
0
0
0
0
0
0
0
0
0
0
0
0
0
0
0
0
0
0
0
0
0
0
0
0
0
0
0
0
0
0
0
0
0
0
0
0
0
0
0
0
0
0
0
0
0
0
0
0
0
0
0
0
0
0
0
0
0
0
0
0
0
0
0
0
0
0
0
0
0
0
0
0
0
0
0
0
0
0
0
0
0
0
0
0
255
0
255
0
255
0
255
0
255
0
255
0
255
0
255
0
255
0
255
0
255
0
255
0
255
0
255
0
255
0
255
0
255
0
255
0
255
0
255
0
255
0
255
0
255
0
255
0
255
0
255
0
255
0
255
0
255
0
255
0
255
0
255
0
255
0
255
0
255
0
255
0
255
0
255
0
255
0
255
0
255
0
248
0
255
0
237
0
110
0
5
0
0
0
0
0
0
0
0
0
0
0
0
0
0
0
0
0
0
0
0
0
0
0
0
0
0
0
0
0
0
0
0
0
0
0
0
0
0
0
0
0
0
0
0
0
0
0
0
0
0
0
0
0
0
0
0
0
0
0
0
0
0
0
0
0
0
0
0
0
0
0
0
0
0
0
0
0
0
0
0
0
0
0
0
0
0
0
0
0
0
0
0
0
0
0
0
0
0
0
0
0
1
0
1
0
1
0
2
0
2
0
3
0
3
0
3
0
32
0
110
0
128
0
129
0
81
0
25
0
67
0
97
0
97
0
40
0
62
0
110
0
102
0
85
0
82
0
53
0
98
0
97
0
88
0
89
0
93
0
78
0
69
0
85
0
131
0
111
0
106
0
107
0
93
0
68
0
53
0
47
0
37
0
37
0
25
0
21
0
50
0
94
0
109
0
99
0
92
0
114
0
130
0
126
0
122
0
127
0
130
0
127
0
118
0
79
0
75
0
109
0
126
0
127
0
124
0
120
0
133
0
126
0
123
0
127
0
131
0
130
0
132
0
135
0
60
0
61
0
71
0
69
0
65
0
83
0
87
0
64
0
31
0
48
0
71
0
87
0
92
0
93
0
96
0
100
0
87
0
93
0
92
0
78
0
62
0
64
0
90
0
115
0
107
0
90
0
99
0
112
0
100
0
94
0
105
0
109
0
126
0
118
0
85
0
38
0
30
0
71
0
113
0
129
0
112
0
115
0
113
0
115
0
123
0
125
0
120
0
116
0
129
0
126
0
127
0
130
0
111
0
84
0
91
0
0
0
0
0
0
0
0
0
0
0
0
0
0
0
0
0
0
0
0
0
0
0
0
0
0
0
0
0
0
0
0
0
0
0
0
0
0
0
0
0
0
0
0
0
0
0
0
0
0
0
0
0
0
0
0
0
0
0
0
0
0
0
0
0
0
0
0
0
0
0
0
0
0
0
0
0
0
0
0
0
0
0
0
0
0
0
0
0
0
0
0
0
0
0
0
0
0
0
0
0
0
0
0
0
0
0
0
0
0
0
0
0
0
0
0
0
0
0
0
0
0
0
0
0
0
0
0
0
0
0
0
0
0
0
0
0
0
0
0
0
0
0
0
0
0
0
0
0
0
0
0
0
0
0
0
0
0
0
0
0
0
0
0
0
0
0
0
0
0
0
0
0
0
0
0
0
0
0
0
0
0
0
0
0
0
0
0
0
0
0
0
0
0
0
0
0
0
0
0
0
0
0
0
0
0
0
0
0
0
0
0
0
0
0
0
0
0
0
0
0
0
0
0
0
0
0
0
0
0
0
0
0
0
0
0
0
0
0
0
0
0
0
0
0
0
0
0
0
0
0
0
0
0
0
0
0
0
0
0
0
0
0
0
0
0
0
0
0
0
0
0
0
0
0
0
0
0
0
0
0
0
0
0
0
0
0
0
0
0
0
0
0
0
0
0
0
0
0
0
0
0
0
0
0
0
0
0
0
0
0
0
0
0
0
0
0
0
0
0
0
0
0
0
0
0
0
0
0
0
0
0
0
0
0
0
0
0
0
0
0
0
0
0
0
0
0
0
0
0
0
0
0
0
0
0
0
0
0
0
0
0
0
0
0
0
0
0
0
0
0
0
0
0
0
0
0
0
0
0
0
0
0
0
0
0
0
0
0
0
0
0
0
0
0
0
0
0
0
0
0
0
0
0
0
0
0
0
0
0
0
0
0
0
0
0
0
0
0
0
0
0
0
0
0
0
0
0
0
0
0
0
0
0
0
0
0
0
0
0
0
0
0
0
0
255
0
255
0
255
0
255
0
255
0
255
0
255
0
255
0
255
0
255
0
255
0
255
0
255
0
255
0
255
0
255
0
255
0
255
0
255
0
255
0
255
0
255
0
255
0
255
0
255
0
255
0
255
0
255
0
255
0
255
0
255
0
255
0
255
0
255
0
255
0
255
0
255
0
255
0
255
0
255
0
255
0
248
0
255
0
235
0
107
0
3
0
0
0
0
0
0
0
0
0
0
0
0
0
0
0
0
0
0
0
0
0
0
0
0
0
0
0
0
0
0
0
0
0
0
0
0
0
0
0
0
0
0
0
0
0
0
0
0
0
0
0
0
0
0
0
0
0
0
0
0
0
0
0
0
0
0
0
0
0
0
0
0
0
0
0
0
0
0
0
0
0
0
0
0
0
0
0
0
0
0
0
0
0
0
0
0
0
0
0
0
0
1
0
1
0
1
0
2
0
2
0
2
0
3
0
3
0
20
0
49
0
104
0
121
0
99
0
62
0
56
0
94
0
98
0
55
0
48
0
76
0
97
0
101
0
78
0
41
0
70
0
87
0
95
0
100
0
108
0
92
0
67
0
62
0
102
0
93
0
93
0
81
0
58
0
61
0
73
0
60
0
74
0
70
0
59
0
46
0
46
0
63
0
86
0
100
0
99
0
108
0
121
0
129
0
129
0
125
0
126
0
128
0
135
0
120
0
88
0
88
0
119
0
128
0
124
0
137
0
118
0
135
0
140
0
128
0
125
0
134
0
137
0
129
0
109
0
73
0
61
0
64
0
43
0
36
0
45
0
50
0
78
0
84
0
93
0
97
0
96
0
94
0
92
0
91
0
92
0
98
0
99
0
88
0
74
0
64
0
67
0
75
0
89
0
105
0
104
0
90
0
94
0
108
0
110
0
101
0
110
0
87
0
60
0
42
0
43
0
60
0
89
0
113
0
107
0
113
0
114
0
115
0
121
0
121
0
118
0
117
0
125
0
112
0
99
0
92
0
72
0
42
0
31
0
0
0
0
0
0
0
0
0
0
0
0
0
0
0
0
0
0
0
0
0
0
0
0
0
0
0
0
0
0
0
0
0
0
0
0
0
0
0
0
0
0
0
0
0
0
0
0
0
0
0
0
0
0
0
0
0
0
0
0
0
0
0
0
0
0
0
0
0
0
0
0
0
0
0
0
0
0
0
0
0
0
0
0
0
0
0
0
0
0
0
0
0
0
0
0
0
0
0
0
0
0
0
0
0
0
0
0
0
0
0
0
0
0
0
0
0
0
0
0
0
0
0
0
0
0
0
0
0
0
0
0
0
0
0
0
0
0
0
0
0
0
0
0
0
0
0
0
0
0
0
0
0
0
0
0
0
0
0
0
0
0
0
0
0
0
0
0
0
0
0
0
0
0
0
0
0
0
0
0
0
0
0
0
0
0
0
0
0
0
0
0
0
0
0
0
0
0
0
0
0
0
0
0
0
0
0
0
0
0
0
0
0
0
0
0
0
0
0
0
0
0
0
0
0
0
0
0
0
0
0
0
0
0
0
0
0
0
0
0
0
0
0
0
0
0
0
0
0
0
0
0
0
0
0
0
0
0
0
0
0
0
0
0
0
0
0
0
0
0
0
0
0
0
0
0
0
0
0
0
0
0
0
0
0
0
0
0
0
0
0
0
0
0
0
0
0
0
0
0
0
0
0
0
0
0
0
0
0
0
0
0
0
0
0
0
0
0
0
0
0
0
0
0
0
0
0
0
0
0
0
0
0
0
0
0
0
0
0
0
0
0
0
0
0
0
0
0
0
0
0
0
0
0
0
0
0
0
0
0
0
0
0
0
0
0
0
0
0
0
0
0
0
0
0
0
0
0
0
0
0
0
0
0
0
0
0
0
0
0
0
0
0
0
0
0
0
0
0
0
0
0
0
0
0
0
0
0
0
0
0
0
0
0
0
0
0
0
0
0
0
0
0
0
0
0
0
0
0
0
0
0
0
0
0
0
0
0
0
0
0
0
0
0
0
255
0
255
0
255
0
255
0
255
0
255
0
255
0
255
0
255
0
255
0
255
0
255
0
255
0
255
0
255
0
255
0
255
0
255
0
255
0
255
0
255
0
255
0
255
0
255
0
255
0
255
0
255
0
255
0
255
0
255
0
255
0
255
0
255
0
255
0
255
0
255
0
255
0
255
0
255
0
255
0
255
0
249
0
255
0
230
0
102
0
1
0
0
0
0
0
0
0
0
0
0
0
0
0
0
0
0
0
0
0
0
0
0
0
0
0
0
0
0
0
0
0
0
0
0
0
0
0
0
0
0
0
0
0
0
0
0
0
0
0
0
0
0
0
0
0
0
0
0
0
0
0
0
0
0
0
0
0
0
0
0
0
0
0
0
0
0
0
0
0
0
0
0
0
0
0
0
0
0
0
0
0
0
0
0
0
0
0
0
0
0
0
0
0
0
0
1
0
1
0
2
0
2
0
2
0
3
0
10
0
20
0
63
0
95
0
114
0
105
0
47
0
66
0
92
0
95
0
69
0
51
0
72
0
93
0
91
0
85
0
61
0
84
0
91
0
81
0
77
0
64
0
40
0
27
0
33
0
80
0
99
0
87
0
91
0
93
0
88
0
91
0
85
0
74
0
64
0
59
0
48
0
45
0
64
0
92
0
104
0
102
0
113
0
130
0
134
0
124
0
120
0
126
0
128
0
139
0
116
0
95
0
106
0
117
0
120
0
135
0
135
0
120
0
123
0
138
0
136
0
120
0
126
0
147
0
116
0
59
0
21
0
15
0
26
0
49
0
79
0
92
0
88
0
89
0
89
0
92
0
94
0
97
0
98
0
97
0
91
0
93
0
96
0
97
0
93
0
84
0
73
0
65
0
89
0
96
0
91
0
101
0
112
0
94
0
82
0
97
0
54
0
56
0
72
0
95
0
102
0
84
0
64
0
56
0
106
0
119
0
125
0
121
0
111
0
93
0
73
0
65
0
25
0
29
0
36
0
56
0
74
0
79
0
85
0
0
0
0
0
0
0
0
0
0
0
0
0
0
0
0
0
0
0
0
0
0
0
0
0
0
0
0
0
0
0
0
0
0
0
0
0
0
0
0
0
0
0
0
0
0
0
0
0
0
0
0
0
0
0
0
0
0
0
0
0
0
0
0
0
0
0
0
0
0
0
0
0
0
0
0
0
0
0
0
0
0
0
0
0
0
0
0
0
0
0
0
0
0
0
0
0
0
0
0
0
0
0
0
0
0
0
0
0
0
0
0
0
0
0
0
0
0
0
0
0
0
0
0
0
0
0
0
0
0
0
0
0
0
0
0
0
0
0
0
0
0
0
0
0
0
0
0
0
0
0
0
0
0
0
0
0
0
0
0
0
0
0
0
0
0
0
0
0
0
0
0
0
0
0
0
0
0
0
0
0
0
0
0
0
0
0
0
0
0
0
0
0
0
0
0
0
0
0
0
0
0
0
0
0
0
0
0
0
0
0
0
0
0
0
0
0
0
0
0
0
0
0
0
0
0
0
0
0
0
0
0
0
0
0
0
0
0
0
0
0
0
0
0
0
0
0
0
0
0
0
0
0
0
0
0
0
0
0
0
0
0
0
0
0
0
0
0
0
0
0
0
0
0
0
0
0
0
0
0
0
0
0
0
0
0
0
0
0
0
0
0
0
0
0
0
0
0
0
0
0
0
0
0
0
0
0
0
0
0
0
0
0
0
0
0
0
0
0
0
0
0
0
0
0
0
0
0
0
0
0
0
0
0
0
0
0
0
0
0
0
0
0
0
0
0
0
0
0
0
0
0
0
0
0
0
0
0
0
0
0
0
0
0
0
0
0
0
0
0
0
0
0
0
0
0
0
0
0
0
0
0
0
0
0
0
0
0
0
0
0
0
0
0
0
0
0
0
0
0
0
0
0
0
0
0
0
0
0
0
0
0
0
0
0
0
0
0
0
0
0
0
0
0
0
0
0
0
0
0
0
0
0
0
0
0
0
0
0
0
0
0
0
0
0
255
0
255
0
255
0
255
0
255
0
255
0
255
0
255
0
255
0
255
0
255
0
255
0
255
0
255
0
255
0
255
0
255
0
255
0
255
0
255
0
255
0
255
0
255
0
255
0
255
0
255
0
255
0
255
0
255
0
255
0
255
0
255
0
255
0
255
0
255
0
255
0
255
0
255
0
255
0
255
0
255
0
250
0
255
0
226
0
96
0
0
0
0
0
0
0
0
0
0
0
0
0
0
0
0
0
0
0
0
0
0
0
0
0
0
0
0
0
0
0
0
0
0
0
0
0
0
0
0
0
0
0
0
0
0
0
0
0
0
0
0
0
0
0
0
0
0
0
0
0
0
0
0
0
0
0
0
0
0
0
0
0
0
0
0
0
0
0
0
0
0
0
0
0
0
0
0
0
0
0
0
0
0
0
0
0
0
0
0
0
0
0
0
0
0
0
0
0
1
0
1
0
2
0
2
0
2
0
7
0
6
0
18
0
49
0
98
0
117
0
64
0
35
0
87
0
116
0
95
0
53
0
64
0
97
0
107
0
103
0
42
0
58
0
59
0
47
0
42
0
45
0
51
0
60
0
30
0
70
0
112
0
130
0
129
0
114
0
97
0
87
0
85
0
69
0
58
0
60
0
61
0
55
0
57
0
66
0
95
0
96
0
108
0
125
0
131
0
125
0
123
0
126
0
112
0
124
0
134
0
113
0
80
0
86
0
115
0
128
0
125
0
132
0
126
0
120
0
137
0
136
0
106
0
50
0
74
0
84
0
82
0
57
0
35
0
56
0
85
0
93
0
91
0
91
0
89
0
89
0
87
0
86
0
84
0
83
0
85
0
83
0
83
0
87
0
92
0
90
0
82
0
74
0
42
0
91
0
118
0
111
0
115
0
112
0
79
0
46
0
85
0
91
0
99
0
109
0
118
0
119
0
109
0
96
0
70
0
70
0
57
0
38
0
30
0
39
0
58
0
79
0
109
0
124
0
136
0
139
0
142
0
144
0
150
0
0
0
0
0
0
0
0
0
0
0
0
0
0
0
0
0
0
0
0
0
0
0
0
0
0
0
0
0
0
0
0
0
0
0
0
0
0
0
0
0
0
0
0
0
0
0
0
0
0
0
0
0
0
0
0
0
0
0
0
0
0
0
0
0
0
0
0
0
0
0
0
0
0
0
0
0
0
0
0
0
0
0
0
0
0
0
0
0
0
0
0
0
0
0
0
0
0
0
0
0
0
0
0
0
0
0
0
0
0
0
0
0
0
0
0
0
0
0
0
0
0
0
0
0
0
0
0
0
0
0
0
0
0
0
0
0
0
0
0
0
0
0
0
0
0
0
0
0
0
0
0
0
0
0
0
0
0
0
0
0
0
0
0
0
0
0
0
0
0
0
0
0
0
0
0
0
0
0
0
0
0
0
0
0
0
0
0
0
0
0
0
0
0
0
0
0
0
0
0
0
0
0
0
0
0
0
0
0
0
0
0
0
0
0
0
0
0
0
0
0
0
0
0
0
0
0
0
0
0
0
0
0
0
0
0
0
0
0
0
0
0
0
0
0
0
0
0
0
0
0
0
0
0
0
0
0
0
0
0
0
0
0
0
0
0
0
0
0
0
0
0
0
0
0
0
0
0
0
0
0
0
0
0
0
0
0
0
0
0
0
0
0
0
0
0
0
0
0
0
0
0
0
0
0
0
0
0
0
0
0
0
0
0
0
0
0
0
0
0
0
0
0
0
0
0
0
0
0
0
0
0
0
0
0
0
0
0
0
0
0
0
0
0
0
0
0
0
0
0
0
0
0
0
0
0
0
0
0
0
0
0
0
0
0
0
0
0
0
0
0
0
0
0
0
0
0
0
0
0
0
0
0
0
0
0
0
0
0
0
0
0
0
0
0
0
0
0
0
0
0
0
0
0
0
0
0
0
0
0
0
0
0
0
0
0
0
0
0
0
0
0
0
0
0
0
0
0
0
0
0
0
0
0
0
0
0
0
0
0
0
0
0
0
0
255
0
255
0
255
0
255
0
255
0
255
0
255
0
255
0
255
0
255
0
255
0
255
0
255
0
255
0
255
0
255
0
255
0
255
0
255
0
255
0
255
0
255
0
255
0
255
0
255
0
255
0
255
0
255
0
255
0
255
0
255
0
255
0
255
0
255
0
255
0
255
0
255
0
255
0
255
0
255
0
255
0
250
0
255
0
223
0
92
0
0
0
0
0
1
0
0
0
0
0
0
0
0
0
0
0
0
0
0
0
0
0
0
0
0
0
0
0
0
0
0
0
0
0
0
0
0
0
0
0
0
0
0
0
0
0
0
0
0
0
0
0
0
0
0
0
0
0
0
0
0
0
0
0
0
0
0
0
0
0
0
0
0
0
0
0
0
0
0
0
0
0
0
0
0
0
0
0
0
0
0
0
0
0
0
0
0
0
0
0
0
0
0
0
0
0
0
0
0
0
1
0
1
0
2
0
2
0
6
0
13
0
5
0
10
0
55
0
94
0
101
0
45
0
66
0
93
0
91
0
66
0
69
0
95
0
89
0
58
0
6
0
17
0
42
0
72
0
93
0
98
0
96
0
96
0
64
0
29
0
73
0
127
0
125
0
129
0
134
0
100
0
94
0
80
0
66
0
62
0
69
0
74
0
67
0
59
0
72
0
86
0
101
0
112
0
120
0
125
0
128
0
126
0
131
0
133
0
143
0
130
0
96
0
91
0
122
0
144
0
113
0
121
0
138
0
138
0
95
0
53
0
68
0
116
0
120
0
128
0
129
0
105
0
66
0
41
0
50
0
67
0
92
0
98
0
104
0
106
0
104
0
101
0
99
0
100
0
97
0
93
0
90
0
92
0
98
0
99
0
94
0
88
0
74
0
51
0
69
0
104
0
92
0
60
0
63
0
88
0
109
0
109
0
105
0
95
0
79
0
61
0
40
0
26
0
9
0
39
0
70
0
95
0
118
0
135
0
148
0
160
0
138
0
150
0
149
0
140
0
136
0
134
0
135
0
0
0
0
0
0
0
0
0
0
0
0
0
0
0
0
0
0
0
0
0
0
0
0
0
0
0
0
0
0
0
0
0
0
0
0
0
0
0
0
0
0
0
0
0
0
0
0
0
0
0
0
0
0
0
0
0
0
0
0
0
0
0
0
0
0
0
0
0
0
0
0
0
0
0
0
0
0
0
0
0
0
0
0
0
0
0
0
0
0
0
0
0
0
0
0
0
0
0
0
0
0
0
0
0
0
0
0
0
0
0
0
0
0
0
0
0
0
0
0
0
0
0
0
0
0
0
0
0
0
0
0
0
0
0
0
0
0
0
0
0
0
0
0
0
0
0
0
0
0
0
0
0
0
0
0
0
0
0
0
0
0
0
0
0
0
0
0
0
0
0
0
0
0
0
0
0
0
0
0
0
0
0
0
0
0
0
0
0
0
0
0
0
0
0
0
0
0
0
0
0
0
0
0
0
0
0
0
0
0
0
0
0
0
0
0
0
0
0
0
0
0
0
0
0
0
0
0
0
0
0
0
0
0
0
0
0
0
0
0
0
0
0
0
0
0
0
0
0
0
0
0
0
0
0
0
0
0
0
0
0
0
0
0
0
0
0
0
0
0
0
0
0
0
0
0
0
0
0
0
0
0
0
0
0
0
0
0
0
0
0
0
0
0
0
0
0
0
0
0
0
0
0
0
0
0
0
0
0
0
0
0
0
0
0
0
0
0
0
0
0
0
0
0
0
0
0
0
0
0
0
0
0
0
0
0
0
0
0
0
0
0
0
0
0
0
0
0
0
0
0
0
0
0
0
0
0
0
0
0
0
0
0
0
0
0
0
0
0
0
0
0
0
0
0
0
0
0
0
0
0
0
0
0
0
0
0
0
0
0
0
0
0
0
0
0
0
0
0
0
0
0
0
0
0
0
0
0
0
0
0
0
0
0
0
0
0
0
0
0
0
0
0
0
0
0
0
0
0
0
0
0
0
0
0
0
0
0
0
0
0
0
0
0
0
255
0
255
0
255
0
255
0
255
0
255
0
255
0
255
0
255
0
255
0
255
0
255
0
255
0
255
0
255
0
255
0
255
0
255
0
255
0
255
0
255
0
255
0
255
0
255
0
255
0
255
0
255
0
255
0
255
0
255
0
255
0
255
0
255
0
255
0
255
0
255
0
255
0
255
0
255
0
255
0
254
0
251
0
255
0
222
0
90
0
0
0
1
0
1
0
0
0
0
0
0
0
0
0
0
0
0
0
0
0
0
0
0
0
0
0
0
0
0
0
0
0
0
0
0
0
0
0
0
0
0
0
0
0
0
0
0
0
0
0
0
0
0
0
0
0
0
0
0
0
0
0
0
0
0
0
0
0
0
0
0
0
0
0
0
0
0
0
0
0
0
0
0
0
0
0
0
0
0
0
0
0
0
0
0
0
0
0
0
0
0
0
0
0
0
0
0
0
0
0
1
0
1
0
1
0
1
0
2
0
22
0
12
0
9
0
13
0
54
0
115
0
80
0
37
0
64
0
96
0
76
0
35
0
32
0
50
0
55
0
100
0
75
0
61
0
68
0
82
0
89
0
90
0
87
0
103
0
65
0
45
0
79
0
126
0
130
0
111
0
104
0
88
0
84
0
69
0
54
0
59
0
79
0
88
0
82
0
57
0
73
0
89
0
98
0
107
0
118
0
121
0
119
0
122
0
130
0
123
0
124
0
127
0
104
0
94
0
118
0
129
0
107
0
58
0
18
0
20
0
56
0
74
0
65
0
33
0
8
0
8
0
19
0
23
0
16
0
28
0
51
0
55
0
64
0
75
0
81
0
82
0
80
0
80
0
81
0
76
0
76
0
77
0
84
0
93
0
97
0
95
0
91
0
105
0
83
0
67
0
48
0
18
0
31
0
63
0
70
0
72
0
51
0
31
0
30
0
38
0
46
0
73
0
105
0
105
0
124
0
137
0
143
0
145
0
140
0
132
0
129
0
140
0
141
0
133
0
131
0
141
0
146
0
142
0
0
0
0
0
0
0
0
0
0
0
0
0
0
0
0
0
0
0
0
0
0
0
0
0
0
0
0
0
0
0
0
0
0
0
0
0
0
0
0
0
0
0
0
0
0
0
0
0
0
0
0
0
0
0
0
0
0
0
0
0
0
0
0
0
0
0
0
0
0
0
0
0
0
0
0
0
0
0
0
0
0
0
0
0
0
0
0
0
0
0
0
0
0
0
0
0
0
0
0
0
0
0
0
0
0
0
0
0
0
0
0
0
0
0
0
0
0
0
0
0
0
0
0
0
0
0
0
0
0
0
0
0
0
0
0
0
0
0
0
0
0
0
0
0
0
0
0
0
0
0
0
0
0
0
0
0
0
0
0
0
0
0
0
0
0
0
0
0
0
0
0
0
0
0
0
0
0
0
0
0
0
0
0
0
0
0
0
0
0
0
0
0
0
0
0
0
0
0
0
0
0
0
0
0
0
0
0
0
0
0
0
0
0
0
0
0
0
0
0
0
0
0
0
0
0
0
0
0
0
0
0
0
0
0
0
0
0
0
0
0
0
0
0
0
0
0
0
0
0
0
0
0
0
0
0
0
0
0
0
0
0
0
0
0
0
0
0
0
0
0
0
0
0
0
0
0
0
0
0
0
0
0
0
0
0
0
0
0
0
0
0
0
0
0
0
0
0
0
0
0
0
0
0
0
0
0
0
0
0
0
0
0
0
0
0
0
0
0
0
0
0
0
0
0
0
0
0
0
0
0
0
0
0
0
0
0
0
0
0
0
0
0
0
0
0
0
0
0
0
0
0
0
0
0
0
0
0
0
0
0
0
0
0
0
0
0
0
0
0
0
0
0
0
0
0
0
0
0
0
0
0
0
0
0
0
0
0
0
0
0
0
0
0
0
0
0
0
0
0
0
0
0
0
0
0
0
0
0
0
0
0
0
0
0
0
0
0
0
0
0
0
0
0
0
0
0
0
0
0
0
0
0
0
0
0
0
0
0
0
0
0
0
0
0
255
0
255
0
255
0
255
0
255
0
255
0
255
0
255
0
255
0
255
0
255
0
255
0
255
0
255
0
255
0
255
0
255
0
255
0
255
0
255
0
255
0
255
0
255
0
255
0
255
0
255
0
255
0
255
0
255
0
255
0
255
0
255
0
255
0
255
0
255
0
255
0
255
0
255
0
255
0
255
0
253
0
252
0
255
0
222
0
90
0
0
0
1
0
1
0
0
0
0
0
0
0
0
0
0
0
0
0
0
0
0
0
0
0
0
0
0
0
0
0
0
0
0
0
0
0
0
0
0
0
0
0
0
0
0
0
0
0
0
0
0
0
0
0
0
0
0
0
0
0
0
0
0
0
0
0
0
0
0
0
0
0
0
0
0
0
0
0
0
0
0
0
0
0
0
0
0
0
0
0
0
0
0
0
0
0
0
0
0
0
0
0
0
0
0
0
0
0
0
0
0
0
1
0
1
0
1
0
4
0
6
0
10
0
8
0
2
0
16
0
66
0
84
0
36
0
47
0
70
0
66
0
29
0
16
0
38
0
71
0
115
0
97
0
77
0
64
0
69
0
86
0
94
0
90
0
90
0
94
0
54
0
50
0
107
0
124
0
106
0
117
0
89
0
83
0
68
0
51
0
53
0
74
0
95
0
103
0
66
0
67
0
75
0
87
0
96
0
97
0
96
0
97
0
112
0
118
0
113
0
124
0
139
0
108
0
68
0
65
0
76
0
34
0
2
0
1
0
0
0
0
0
3
0
11
0
9
0
1
0
24
0
61
0
57
0
17
0
8
0
36
0
4
0
5
0
5
0
4
0
3
0
1
0
2
0
2
0
9
0
4
0
5
0
12
0
24
0
30
0
29
0
23
0
26
0
3
0
5
0
21
0
23
0
24
0
42
0
64
0
67
0
72
0
94
0
122
0
131
0
124
0
122
0
131
0
143
0
144
0
135
0
128
0
130
0
132
0
133
0
136
0
142
0
142
0
138
0
140
0
150
0
150
0
145
0
0
0
0
0
0
0
0
0
0
0
0
0
0
0
0
0
0
0
0
0
0
0
0
0
0
0
0
0
0
0
0
0
0
0
0
0
0
0
0
0
0
0
0
0
0
0
0
0
0
0
0
0
0
0
0
0
0
0
0
0
0
0
0
0
0
0
0
0
0
0
0
0
0
0
0
0
0
0
0
0
0
0
0
0
0
0
0
0
0
0
0
0
0
0
0
0
0
0
0
0
0
0
0
0
0
0
0
0
0
0
0
0
0
0
0
0
0
0
0
0
0
0
0
0
0
0
0
0
0
0
0
0
0
0
0
0
0
0
0
0
0
0
0
0
0
0
0
0
0
0
0
0
0
0
0
0
0
0
0
0
0
0
0
0
0
0
0
0
0
0
0
0
0
0
0
0
0
0
0
0
0
0
0
0
0
0
0
0
0
0
0
0
0
0
0
0
0
0
0
0
0
0
0
0
0
0
0
0
0
0
0
0
0
0
0
0
0
0
0
0
0
0
0
0
0
0
0
0
0
0
0
0
0
0
0
0
0
0
0
0
0
0
0
0
0
0
0
0
0
0
0
0
0
0
0
0
0
0
0
0
0
0
0
0
0
0
0
0
0
0
0
0
0
0
0
0
0
0
0
0
0
0
0
0
0
0
0
0
0
0
0
0
0
0
0
0
0
0
0
0
0
0
0
0
0
0
0
0
0
0
0
0
0
0
0
0
0
0
0
0
0
0
0
0
0
0
0
0
0
0
0
0
0
0
0
0
0
0
0
0
0
0
0
0
0
0
0
0
0
0
0
0
0
0
0
0
0
0
0
0
0
0
0
0
0
0
0
0
0
0
0
0
0
0
0
0
0
0
0
0
0
0
0
0
0
0
0
0
0
0
0
0
0
0
0
0
0
0
0
0
0
0
0
0
0
0
0
0
0
0
0
0
0
0
0
0
0
0
0
0
0
0
0
0
0
0
0
0
0
0
0
0
0
0
0
0
0
0
0
0
0
0
0
0
255
0
255
0
255
0
255
0
255
0
255
0
255
0
255
0
255
0
255
0
255
0
255
0
255
0
255
0
255
0
255
0
255
0
255
0
255
0
255
0
255
0
255
0
255
0
255
0
255
0
255
0
255
0
255
0
255
0
255
0
255
0
255
0
255
0
255
0
255
0
255
0
255
0
255
0
255
0
255
0
252
0
253
0
255
0
222
0
90
0
0
0
2
0
1
0
0
0
0
0
0
0
0
0
0
0
0
0
0
0
0
0
0
0
0
0
0
0
0
0
0
0
0
0
0
0
0
0
0
0
0
0
0
0
0
0
0
0
0
0
0
0
0
0
0
0
0
0
0
0
0
0
0
0
0
0
0
0
0
0
0
0
0
0
0
0
0
0
0
0
0
0
0
0
0
0
0
0
0
0
0
0
0
0
0
0
0
0
0
0
0
0
0
0
0
0
0
0
0
0
0
0
1
0
1
0
1
0
18
0
4
0
13
0
4
0
7
0
14
0
14
0
60
0
92
0
32
0
14
0
44
0
89
0
83
0
53
0
43
0
74
0
90
0
97
0
82
0
73
0
84
0
95
0
89
0
97
0
90
0
94
0
67
0
38
0
86
0
126
0
95
0
114
0
98
0
78
0
61
0
59
0
70
0
85
0
95
0
85
0
68
0
67
0
85
0
91
0
78
0
70
0
73
0
73
0
59
0
65
0
73
0
63
0
46
0
20
0
5
0
9
0
3
0
7
0
3
0
3
0
21
0
49
0
69
0
51
0
81
0
111
0
129
0
134
0
115
0
79
0
58
0
67
0
63
0
61
0
67
0
79
0
88
0
91
0
92
0
87
0
87
0
88
0
86
0
82
0
79
0
79
0
79
0
77
0
89
0
79
0
77
0
101
0
114
0
115
0
127
0
123
0
135
0
134
0
122
0
125
0
138
0
140
0
128
0
120
0
124
0
120
0
122
0
133
0
139
0
134
0
132
0
122
0
132
0
139
0
141
0
139
0
130
0
132
0
0
0
0
0
0
0
0
0
0
0
0
0
0
0
0
0
0
0
0
0
0
0
0
0
0
0
0
0
0
0
0
0
0
0
0
0
0
0
0
0
0
0
0
0
0
0
0
0
0
0
0
0
0
0
0
0
0
0
0
0
0
0
0
0
0
0
0
0
0
0
0
0
0
0
0
0
0
0
0
0
0
0
0
0
0
0
0
0
0
0
0
0
0
0
0
0
0
0
0
0
0
0
0
0
0
0
0
0
0
0
0
0
0
0
0
0
0
0
0
0
0
0
0
0
0
0
0
0
0
0
0
0
0
0
0
0
0
0
0
0
0
0
0
0
0
0
0
0
0
0
0
0
0
0
0
0
0
0
0
0
0
0
0
0
0
0
0
0
0
0
0
0
0
0
0
0
0
0
0
0
0
0
0
0
0
0
0
0
0
0
0
0
0
0
0
0
0
0
0
0
0
0
0
0
0
0
0
0
0
0
0
0
0
0
0
0
0
0
0
0
0
0
0
0
0
0
0
0
0
0
0
0
0
0
0
0
0
0
0
0
0
0
0
0
0
0
0
0
0
0
0
0
0
0
0
0
0
0
0
0
0
0
0
0
0
0
0
0
0
0
0
0
0
0
0
0
0
0
0
0
0
0
0
0
0
0
0
0
0
0
0
0
0
0
0
0
0
0
0
0
0
0
0
0
0
0
0
0
0
0
0
0
0
0
0
0
0
0
0
0
0
0
0
0
0
0
0
0
0
0
0
0
0
0
0
0
0
0
0
0
0
0
0
0
0
0
0
0
0
0
0
0
0
0
0
0
0
0
0
0
0
0
0
0
0
0
0
0
0
0
0
0
0
0
0
0
0
0
0
0
0
0
0
0
0
0
0
0
0
0
0
0
0
0
0
0
0
0
0
0
0
0
0
0
0
0
0
0
0
0
0
0
0
0
0
0
0
0
0
0
0
0
0
0
0
0
0
0
0
0
0
0
0
0
0
0
0
0
0
0
0
0
0
0
255
0
255
0
255
0
255
0
255
0
255
0
255
0
255
0
255
0
255
0
255
0
255
0
255
0
255
0
255
0
255
0
255
0
255
0
255
0
255
0
255
0
255
0
255
0
255
0
255
0
255
0
255
0
255
0
255
0
255
0
255
0
255
0
255
0
255
0
255
0
255
0
255
0
255
0
255
0
255
0
255
0
247
0
255
0
217
0
87
0
1
0
0
0
0
0
0
0
0
0
0
0
0
0
0
0
0
0
0
0
0
0
0
0
0
0
0
0
0
0
0
0
0
0
0
0
0
0
0
0
0
0
0
0
0
0
0
0
0
0
0
0
0
0
0
0
0
0
0
0
0
0
0
0
0
0
0
0
0
0
0
0
0
0
0
0
0
0
0
0
0
0
0
0
0
0
0
0
0
0
0
0
0
0
0
0
0
0
0
0
0
0
0
0
0
0
0
0
0
0
0
0
0
0
0
0
0
0
3
0
3
0
2
0
2
0
3
0
5
0
7
0
8
0
85
0
100
0
34
0
54
0
98
0
90
0
99
0
74
0
41
0
66
0
83
0
72
0
53
0
53
0
76
0
98
0
84
0
79
0
70
0
62
0
56
0
54
0
55
0
56
0
41
0
44
0
33
0
17
0
16
0
20
0
19
0
18
0
14
0
10
0
16
0
20
0
9
0
1
0
3
0
7
0
7
0
3
0
1
0
1
0
1
0
1
0
3
0
5
0
4
0
4
0
10
0
14
0
10
0
10
0
36
0
67
0
96
0
131
0
155
0
149
0
138
0
131
0
112
0
87
0
72
0
71
0
73
0
77
0
78
0
77
0
87
0
97
0
100
0
98
0
76
0
77
0
103
0
97
0
77
0
83
0
70
0
72
0
85
0
87
0
73
0
76
0
101
0
122
0
119
0
120
0
120
0
120
0
118
0
120
0
125
0
128
0
122
0
124
0
128
0
131
0
131
0
130
0
127
0
124
0
129
0
128
0
132
0
139
0
144
0
137
0
121
0
0
0
0
0
0
0
0
0
0
0
0
0
0
0
0
0
0
0
0
0
0
0
0
0
0
0
0
0
0
0
0
0
0
0
0
0
0
0
0
0
0
0
0
0
0
0
0
0
0
0
0
0
0
0
0
0
0
0
0
0
0
0
0
0
0
0
0
0
0
0
0
0
0
0
0
0
0
0
0
0
0
0
0
0
0
0
0
0
0
0
0
0
0
0
0
0
0
0
0
0
0
0
0
0
0
0
0
0
0
0
0
0
0
0
0
0
0
0
0
0
0
0
0
0
0
0
0
0
0
0
0
0
0
0
0
0
0
0
0
0
0
0
0
0
0
0
0
0
0
0
0
0
0
0
0
0
0
0
0
0
0
0
0
0
0
0
0
0
0
0
0
0
0
0
0
0
0
0
0
0
0
0
0
0
0
0
0
0
0
0
0
0
0
0
0
0
0
0
0
0
0
0
0
0
0
0
0
0
0
0
0
0
0
0
0
0
0
0
0
0
0
0
0
0
0
0
0
0
0
0
0
0
0
0
0
0
0
0
0
0
0
0
0
0
0
0
0
0
0
0
0
0
0
0
0
0
0
0
0
0
0
0
0
0
0
0
0
0
0
0
0
0
0
0
0
0
0
0
0
0
0
0
0
0
0
0
0
0
0
0
0
0
0
0
0
0
0
0
0
0
0
0
0
0
0
0
0
0
0
0
0
0
0
0
0
0
0
0
0
0
0
0
0
0
0
0
0
0
0
0
0
0
0
0
0
0
0
0
0
0
0
0
0
0
0
0
0
0
0
0
0
0
0
0
0
0
0
0
0
0
0
0
0
0
0
0
0
0
0
0
0
0
0
0
0
0
0
0
0
0
0
0
0
0
0
0
0
0
0
0
0
0
0
0
0
0
0
0
0
0
0
0
0
0
0
0
0
0
0
0
0
0
0
0
0
0
0
0
0
0
0
0
0
0
0
0
0
0
0
0
0
0
0
0
0
0
0
0
0
0
0
0
0
0
255
0
255
0
255
0
255
0
255
0
255
0
255
0
255
0
255
0
255
0
255
0
255
0
255
0
255
0
255
0
255
0
255
0
255
0
255
0
255
0
255
0
255
0
255
0
255
0
255
0
255
0
255
0
255
0
255
0
255
0
255
0
255
0
255
0
255
0
255
0
255
0
255
0
255
0
255
0
255
0
254
0
249
0
255
0
221
0
91
0
0
0
0
0
0
0
0
0
0
0
0
0
0
0
0
0
0
0
0
0
0
0
0
0
0
0
0
0
0
0
0
0
0
0
0
0
0
0
0
0
0
0
0
0
0
0
0
0
0
0
0
0
0
0
0
0
0
0
0
0
0
0
0
0
0
0
0
0
0
0
0
0
0
0
0
0
0
0
0
0
0
0
0
0
0
0
0
0
0
0
0
0
0
0
0
0
0
0
0
0
0
0
0
0
0
0
0
0
0
0
0
0
0
0
0
0
0
0
2
0
2
0
1
0
1
0
2
0
4
0
6
0
7
0
33
0
70
0
98
0
43
0
51
0
95
0
74
0
64
0
32
0
32
0
24
0
9
0
3
0
3
0
15
0
25
0
8
0
5
0
2
0
2
0
1
0
1
0
4
0
5
0
10
0
13
0
7
0
6
0
16
0
17
0
6
0
2
0
6
0
2
0
5
0
8
0
3
0
2
0
5
0
3
0
0
0
2
0
12
0
15
0
11
0
5
0
3
0
2
0
10
0
6
0
4
0
3
0
1
0
0
0
3
0
11
0
33
0
81
0
135
0
157
0
148
0
133
0
120
0
115
0
96
0
80
0
65
0
62
0
64
0
67
0
70
0
74
0
69
0
79
0
80
0
80
0
81
0
66
0
56
0
64
0
70
0
78
0
54
0
44
0
64
0
54
0
30
0
40
0
79
0
89
0
101
0
109
0
114
0
112
0
111
0
109
0
108
0
112
0
118
0
123
0
125
0
126
0
125
0
124
0
126
0
119
0
110
0
102
0
94
0
78
0
59
0
0
0
0
0
0
0
0
0
0
0
0
0
0
0
0
0
0
0
0
0
0
0
0
0
0
0
0
0
0
0
0
0
0
0
0
0
0
0
0
0
0
0
0
0
0
0
0
0
0
0
0
0
0
0
0
0
0
0
0
0
0
0
0
0
0
0
0
0
0
0
0
0
0
0
0
0
0
0
0
0
0
0
0
0
0
0
0
0
0
0
0
0
0
0
0
0
0
0
0
0
0
0
0
0
0
0
0
0
0
0
0
0
0
0
0
0
0
0
0
0
0
0
0
0
0
0
0
0
0
0
0
0
0
0
0
0
0
0
0
0
0
0
0
0
0
0
0
0
0
0
0
0
0
0
0
0
0
0
0
0
0
0
0
0
0
0
0
0
0
0
0
0
0
0
0
0
0
0
0
0
0
0
0
0
0
0
0
0
0
0
0
0
0
0
0
0
0
0
0
0
0
0
0
0
0
0
0
0
0
0
0
0
0
0
0
0
0
0
0
0
0
0
0
0
0
0
0
0
0
0
0
0
0
0
0
0
0
0
0
0
0
0
0
0
0
0
0
0
0
0
0
0
0
0
0
0
0
0
0
0
0
0
0
0
0
0
0
0
0
0
0
0
0
0
0
0
0
0
0
0
0
0
0
0
0
0
0
0
0
0
0
0
0
0
0
0
0
0
0
0
0
0
0
0
0
0
0
0
0
0
0
0
0
0
0
0
0
0
0
0
0
0
0
0
0
0
0
0
0
0
0
0
0
0
0
0
0
0
0
0
0
0
0
0
0
0
0
0
0
0
0
0
0
0
0
0
0
0
0
0
0
0
0
0
0
0
0
0
0
0
0
0
0
0
0
0
0
0
0
0
0
0
0
0
0
0
0
0
0
0
0
0
0
0
0
0
0
0
0
0
0
0
0
0
0
0
0
0
0
0
0
0
0
0
0
0
0
0
0
0
0
0
0
0
0
0
0
0
0
0
0
0
0
0
0
0
0
0
0
0
0
0
0
0
255
0
255
0
255
0
255
0
255
0
255
0
255
0
255
0
255
0
255
0
255
0
255
0
255
0
255
0
255
0
255
0
255
0
255
0
255
0
255
0
255
0
255
0
255
0
255
0
255
0
255
0
255
0
255
0
255
0
255
0
255
0
255
0
255
0
255
0
255
0
255
0
255
0
255
0
255
0
255
0
252
0
251
0
255
0
227
0
99
0
0
0
0
0
1
0
0
0
0
0
0
0
0
0
0
0
0
0
0
0
0
0
0
0
0
0
0
0
0
0
0
0
0
0
0
0
0
0
0
0
0
0
0
0
0
0
0
0
0
0
0
0
0
0
0
0
0
0
0
0
0
0
0
0
0
0
0
0
0
0
0
0
0
0
0
0
0
0
0
0
0
0
0
0
0
0
0
0
0
0
0
0
0
0
0
0
0
0
0
0
0
0
0
0
0
0
0
0
0
0
0
0
0
0
0
0
0
0
1
0
1
0
0
0
0
0
1
0
3
0
5
0
6
0
16
0
27
0
102
0
70
0
52
0
72
0
20
0
13
0
17
0
10
0
2
0
0
0
5
0
11
0
8
0
3
0
1
0
2
0
2
0
2
0
5
0
5
0
5
0
4
0
1
0
1
0
0
0
0
0
7
0
3
0
0
0
1
0
2
0
0
0
1
0
1
0
0
0
3
0
5
0
0
0
1
0
1
0
2
0
3
0
4
0
3
0
6
0
7
0
4
0
4
0
1
0
1
0
2
0
2
0
1
0
0
0
5
0
17
0
50
0
94
0
125
0
137
0
138
0
141
0
113
0
106
0
93
0
78
0
61
0
50
0
52
0
59
0
78
0
74
0
77
0
79
0
69
0
59
0
52
0
46
0
30
0
55
0
36
0
12
0
24
0
25
0
27
0
57
0
14
0
25
0
41
0
53
0
58
0
56
0
52
0
49
0
60
0
63
0
68
0
73
0
77
0
79
0
79
0
78
0
62
0
53
0
42
0
32
0
26
0
16
0
3
0
0
0
0
0
0
0
0
0
0
0
0
0
0
0
0
0
0
0
0
0
0
0
0
0
0
0
0
0
0
0
0
0
0
0
0
0
0
0
0
0
0
0
0
0
0
0
0
0
0
0
0
0
0
0
0
0
0
0
0
0
0
0
0
0
0
0
0
0
0
0
0
0
0
0
0
0
0
0
0
0
0
0
0
0
0
0
0
0
0
0
0
0
0
0
0
0
0
0
0
0
0
0
0
0
0
0
0
0
0
0
0
0
0
0
0
0
0
0
0
0
0
0
0
0
0
0
0
0
0
0
0
0
0
0
0
0
0
0
0
0
0
0
0
0
0
0
0
0
0
0
0
0
0
0
0
0
0
0
0
0
0
0
0
0
0
0
0
0
0
0
0
0
0
0
0
0
0
0
0
0
0
0
0
0
0
0
0
0
0
0
0
0
0
0
0
0
0
0
0
0
0
0
0
0
0
0
0
0
0
0
0
0
0
0
0
0
0
0
0
0
0
0
0
0
0
0
0
0
0
0
0
0
0
0
0
0
0
0
0
0
0
0
0
0
0
0
0
0
0
0
0
0
0
0
0
0
0
0
0
0
0
0
0
0
0
0
0
0
0
0
0
0
0
0
0
0
0
0
0
0
0
0
0
0
0
0
0
0
0
0
0
0
0
0
0
0
0
0
0
0
0
0
0
0
0
0
0
0
0
0
0
0
0
0
0
0
0
0
0
0
0
0
0
0
0
0
0
0
0
0
0
0
0
0
0
0
0
0
0
0
0
0
0
0
0
0
0
0
0
0
0
0
0
0
0
0
0
0
0
0
0
0
0
0
0
0
0
0
0
0
0
0
0
0
0
0
0
0
0
0
0
0
0
0
0
0
0
0
0
0
0
0
0
0
0
0
0
0
0
0
0
0
0
0
0
0
0
0
0
0
0
0
0
0
0
0
0
0
0
0
0
0
0
0
0
0
0
0
0
0
0
0
0
0
0
0
0
0
0
0
0
0
0
0
255
0
255
0
255
0
255
0
255
0
255
0
255
0
255
0
255
0
255
0
255
0
255
0
255
0
255
0
255
0
255
0
255
0
255
0
255
0
255
0
255
0
255
0
255
0
255
0
255
0
255
0
255
0
255
0
255
0
255
0
255
0
255
0
255
0
255
0
255
0
255
0
255
0
255
0
255
0
255
0
250
0
254
0
255
0
235
0
110
0
0
0
0
0
2
0
0
0
0
0
0
0
0
0
0
0
0
0
0
0
0
0
0
0
0
0
0
0
0
0
0
0
0
0
0
0
0
0
0
0
0
0
0
0
0
0
0
0
0
0
0
0
0
0
0
0
0
0
0
0
0
0
0
0
0
0
0
0
0
0
0
0
0
0
0
0
0
0
0
0
0
0
0
0
0
0
0
0
0
0
0
0
0
0
0
0
0
0
0
0
0
0
0
0
0
0
0
0
0
0
0
0
0
0
0
0
0
0
0
0
0
0
0
0
0
0
0
0
2
0
4
0
5
0
2
0
10
0
32
0
80
0
87
0
50
0
23
0
9
0
1
0
1
0
3
0
5
0
5
0
4
0
4
0
4
0
3
0
3
0
4
0
4
0
4
0
5
0
4
0
4
0
4
0
5
0
6
0
6
0
2
0
1
0
1
0
14
0
1
0
4
0
7
0
4
0
0
0
3
0
4
0
0
0
7
0
1
0
0
0
1
0
2
0
8
0
6
0
3
0
1
0
0
0
0
0
1
0
2
0
14
0
15
0
6
0
12
0
1
0
0
0
19
0
56
0
89
0
113
0
123
0
151
0
133
0
112
0
102
0
97
0
80
0
53
0
31
0
43
0
29
0
37
0
42
0
32
0
43
0
59
0
52
0
38
0
33
0
28
0
19
0
19
0
31
0
28
0
7
0
2
0
2
0
3
0
5
0
7
0
8
0
6
0
7
0
3
0
3
0
3
0
4
0
4
0
4
0
3
0
3
0
2
0
1
0
0
0
0
0
0
0
0
0
0
0
0
0
0
0
0
0
0
0
0
0
0
0
0
0
0
0
0
0
0
0
0
0
0
0
0
0
0
0
0
0
0
0
0
0
0
0
0
0
0
0
0
0
0
0
0
0
0
0
0
0
0
0
0
0
0
0
0
0
0
0
0
0
0
0
0
0
0
0
0
0
0
0
0
0
0
0
0
0
0
0
0
0
0
0
0
0
0
0
0
0
0
0
0
0
0
0
0
0
0
0
0
0
0
0
0
0
0
0
0
0
0
0
0
0
0
0
0
0
0
0
0
0
0
0
0
0
0
0
0
0
0
0
0
0
0
0
0
0
0
0
0
0
0
0
0
0
0
0
0
0
0
0
0
0
0
0
0
0
0
0
0
0
0
0
0
0
0
0
0
0
0
0
0
0
0
0
0
0
0
0
0
0
0
0
0
0
0
0
0
0
0
0
0
0
0
0
0
0
0
0
0
0
0
0
0
0
0
0
0
0
0
0
0
0
0
0
0
0
0
0
0
0
0
0
0
0
0
0
0
0
0
0
0
0
0
0
0
0
0
0
0
0
0
0
0
0
0
0
0
0
0
0
0
0
0
0
0
0
0
0
0
0
0
0
0
0
0
0
0
0
0
0
0
0
0
0
0
0
0
0
0
0
0
0
0
0
0
0
0
0
0
0
0
0
0
0
0
0
0
0
0
0
0
0
0
0
0
0
0
0
0
0
0
0
0
0
0
0
0
0
0
0
0
0
0
0
0
0
0
0
0
0
0
0
0
0
0
0
0
0
0
0
0
0
0
0
0
0
0
0
0
0
0
0
0
0
0
0
0
0
0
0
0
0
0
0
0
0
0
0
0
0
0
0
0
0
0
0
0
0
0
0
0
0
0
0
0
0
0
0
0
0
0
0
0
0
0
0
0
0
0
0
0
0
0
0
0
0
0
0
0
0
0
0
0
0
0
0
0
0
0
0
0
0
0
0
0
0
0
0
0
0
0
0
0
0
0
0
0
0
0
0
0
0
255
0
255
0
255
0
255
0
255
0
255
0
255
0
255
0
255
0
255
0
255
0
255
0
255
0
255
0
255
0
255
0
255
0
255
0
255
0
255
0
255
0
255
0
255
0
255
0
255
0
255
0
255
0
255
0
255
0
255
0
255
0
255
0
255
0
255
0
255
0
255
0
255
0
255
0
255
0
255
0
250
0
255
0
254
0
242
0
123
0
0
0
0
0
2
0
0
0
0
0
0
0
0
0
0
0
0
0
0
0
0
0
0
0
0
0
0
0
0
0
0
0
0
0
0
0
0
0
0
0
0
0
0
0
0
0
0
0
0
0
0
0
0
0
0
0
0
0
0
0
0
0
0
0
0
0
0
0
0
0
0
0
0
0
0
0
0
0
0
0
0
0
0
0
0
0
0
0
0
0
0
0
0
0
0
0
0
0
0
0
0
0
0
0
0
0
0
0
0
0
0
0
0
0
0
0
0
0
0
0
0
0
0
0
0
0
0
0
2
0
3
0
5
0
7
0
12
0
4
0
39
0
66
0
60
0
77
0
46
0
13
0
9
0
3
0
0
0
1
0
2
0
2
0
4
0
3
0
3
0
2
0
1
0
1
0
1
0
1
0
1
0
11
0
11
0
13
0
19
0
20
0
4
0
1
0
1
0
0
0
2
0
9
0
7
0
0
0
1
0
3
0
0
0
4
0
2
0
3
0
7
0
8
0
6
0
0
0
0
0
11
0
26
0
26
0
8
0
0
0
2
0
6
0
2
0
1
0
13
0
18
0
4
0
1
0
24
0
62
0
87
0
88
0
100
0
113
0
117
0
114
0
110
0
106
0
105
0
56
0
48
0
59
0
48
0
13
0
13
0
39
0
40
0
51
0
44
0
34
0
16
0
4
0
11
0
10
0
1
0
10
0
8
0
5
0
4
0
4
0
4
0
3
0
3
0
4
0
4
0
3
0
3
0
3
0
2
0
2
0
2
0
1
0
1
0
2
0
3
0
4
0
7
0
6
0
0
0
0
0
0
0
0
0
0
0
0
0
0
0
0
0
0
0
0
0
0
0
0
0
0
0
0
0
0
0
0
0
0
0
0
0
0
0
0
0
0
0
0
0
0
0
0
0
0
0
0
0
0
0
0
0
0
0
0
0
0
0
0
0
0
0
0
0
0
0
0
0
0
0
0
0
0
0
0
0
0
0
0
0
0
0
0
0
0
0
0
0
0
0
0
0
0
0
0
0
0
0
0
0
0
0
0
0
0
0
0
0
0
0
0
0
0
0
0
0
0
0
0
0
0
0
0
0
0
0
0
0
0
0
0
0
0
0
0
0
0
0
0
0
0
0
0
0
0
0
0
0
0
0
0
0
0
0
0
0
0
0
0
0
0
0
0
0
0
0
0
0
0
0
0
0
0
0
0
0
0
0
0
0
0
0
0
0
0
0
0
0
0
0
0
0
0
0
0
0
0
0
0
0
0
0
0
0
0
0
0
0
0
0
0
0
0
0
0
0
0
0
0
0
0
0
0
0
0
0
0
0
0
0
0
0
0
0
0
0
0
0
0
0
0
0
0
0
0
0
0
0
0
0
0
0
0
0
0
0
0
0
0
0
0
0
0
0
0
0
0
0
0
0
0
0
0
0
0
0
0
0
0
0
0
0
0
0
0
0
0
0
0
0
0
0
0
0
0
0
0
0
0
0
0
0
0
0
0
0
0
0
0
0
0
0
0
0
0
0
0
0
0
0
0
0
0
0
0
0
0
0
0
0
0
0
0
0
0
0
0
0
0
0
0
0
0
0
0
0
0
0
0
0
0
0
0
0
0
0
0
0
0
0
0
0
0
0
0
0
0
0
0
0
0
0
0
0
0
0
0
0
0
0
0
0
0
0
0
0
0
0
0
0
0
0
0
0
0
0
0
0
0
0
0
0
0
0
0
0
0
0
0
0
0
0
0
0
0
0
0
0
0
0
0
0
0
0
0
0
0
0
0
0
0
0
0
0
0
0
0
0
0
0
255
0
255
0
255
0
255
0
255
0
255
0
255
0
255
0
255
0
255
0
255
0
255
0
255
0
255
0
255
0
255
0
255
0
255
0
255
0
255
0
255
0
255
0
255
0
255
0
255
0
255
0
255
0
255
0
255
0
255
0
255
0
255
0
255
0
255
0
255
0
255
0
255
0
255
0
255
0
255
0
251
0
255
0
248
0
248
0
136
0
2
0
0
0
1
0
0
0
0
0
0
0
0
0
0
0
0
0
0
0
0
0
0
0
0
0
0
0
0
0
0
0
0
0
0
0
0
0
0
0
0
0
0
0
0
0
0
0
0
0
0
0
0
0
0
0
0
0
0
0
0
0
0
0
0
0
0
0
0
0
0
0
0
0
0
0
0
0
0
0
0
0
0
0
0
0
0
0
0
0
0
0
0
0
0
0
0
0
0
0
0
0
0
0
0
0
0
0
0
0
0
0
0
0
0
0
0
0
0
0
0
0
0
0
0
0
0
0
2
0
4
0
5
0
2
0
5
0
1
0
4
0
20
0
45
0
63
0
65
0
31
0
14
0
4
0
6
0
6
0
7
0
6
0
4
0
6
0
5
0
4
0
4
0
4
0
5
0
7
0
8
0
4
0
2
0
5
0
27
0
49
0
41
0
10
0
1
0
2
0
0
0
2
0
5
0
0
0
0
0
2
0
1
0
2
0
1
0
5
0
1
0
1
0
2
0
14
0
29
0
84
0
94
0
86
0
55
0
25
0
8
0
1
0
0
0
0
0
8
0
8
0
0
0
5
0
39
0
70
0
81
0
93
0
90
0
88
0
96
0
111
0
118
0
110
0
96
0
109
0
77
0
65
0
70
0
72
0
83
0
74
0
40
0
10
0
55
0
63
0
50
0
51
0
27
0
3
0
15
0
4
0
3
0
2
0
1
0
1
0
3
0
4
0
3
0
1
0
1
0
1
0
1
0
1
0
1
0
1
0
1
0
4
0
5
0
5
0
3
0
1
0
1
0
2
0
0
0
0
0
0
0
0
0
0
0
0
0
0
0
0
0
0
0
0
0
0
0
0
0
0
0
0
0
0
0
0
0
0
0
0
0
0
0
0
0
0
0
0
0
0
0
0
0
0
0
0
0
0
0
0
0
0
0
0
0
0
0
0
0
0
0
0
0
0
0
0
0
0
0
0
0
0
0
0
0
0
0
0
0
0
0
0
0
0
0
0
0
0
0
0
0
0
0
0
0
0
0
0
0
0
0
0
0
0
0
0
0
0
0
0
0
0
0
0
0
0
0
0
0
0
0
0
0
0
0
0
0
0
0
0
0
0
0
0
0
0
0
0
0
0
0
0
0
0
0
0
0
0
0
0
0
0
0
0
0
0
0
0
0
0
0
0
0
0
0
0
0
0
0
0
0
0
0
0
0
0
0
0
0
0
0
0
0
0
0
0
0
0
0
0
0
0
0
0
0
0
0
0
0
0
0
0
0
0
0
0
0
0
0
0
0
0
0
0
0
0
0
0
0
0
0
0
0
0
0
0
0
0
0
0
0
0
0
0
0
0
0
0
0
0
0
0
0
0
0
0
0
0
0
0
0
0
0
0
0
0
0
0
0
0
0
0
0
0
0
0
0
0
0
0
0
0
0
0
0
0
0
0
0
0
0
0
0
0
0
0
0
0
0
0
0
0
0
0
0
0
0
0
0
0
0
0
0
0
0
0
0
0
0
0
0
0
0
0
0
0
0
0
0
0
0
0
0
0
0
0
0
0
0
0
0
0
0
0
0
0
0
0
0
0
0
0
0
0
0
0
0
0
0
0
0
0
0
0
0
0
0
0
0
0
0
0
0
0
0
0
0
0
0
0
0
0
0
0
0
0
0
0
0
0
0
0
0
0
0
0
0
0
0
0
0
0
0
0
0
0
0
0
0
0
0
0
0
0
0
0
0
0
0
0
0
0
0
0
0
0
0
0
0
0
0
0
0
0
0
0
0
0
0
0
0
0
0
0
0
0
0
0
0
255
0
255
0
255
0
255
0
255
0
255
0
255
0
255
0
255
0
255
0
255
0
255
0
255
0
255
0
255
0
255
0
255
0
255
0
255
0
255
0
255
0
255
0
255
0
255
0
255
0
255
0
255
0
255
0
255
0
255
0
255
0
255
0
255
0
255
0
255
0
255
0
255
0
255
0
255
0
255
0
252
0
255
0
243
0
252
0
147
0
5
0
0
0
0
0
0
0
0
0
0
0
0
0
0
0
0
0
0
0
0
0
0
0
0
0
0
0
0
0
0
0
0
0
0
0
0
0
0
0
0
0
0
0
0
0
0
0
0
0
0
0
0
0
0
0
0
0
0
0
0
0
0
0
0
0
0
0
0
0
0
0
0
0
0
0
0
0
0
0
0
0
0
0
0
0
0
0
0
0
0
0
0
0
0
0
0
0
0
0
0
0
0
0
0
0
0
0
0
0
0
0
0
0
0
0
0
0
0
0
0
0
0
0
0
0
1
0
2
0
4
0
5
0
5
0
7
0
16
0
2
0
4
0
19
0
14
0
63
0
54
0
26
0
2
0
4
0
9
0
8
0
3
0
3
0
2
0
2
0
2
0
2
0
2
0
1
0
2
0
2
0
2
0
1
0
0
0
19
0
54
0
69
0
59
0
44
0
30
0
6
0
0
0
3
0
2
0
0
0
0
0
1
0
0
0
0
0
0
0
0
0
7
0
35
0
72
0
99
0
139
0
140
0
133
0
113
0
86
0
60
0
37
0
21
0
19
0
1
0
2
0
10
0
53
0
88
0
97
0
89
0
76
0
86
0
91
0
88
0
86
0
88
0
93
0
94
0
86
0
100
0
115
0
104
0
76
0
68
0
77
0
80
0
71
0
83
0
63
0
58
0
81
0
66
0
33
0
37
0
15
0
12
0
10
0
12
0
18
0
25
0
29
0
32
0
35
0
34
0
33
0
32
0
32
0
32
0
33
0
33
0
25
0
23
0
19
0
11
0
1
0
0
0
1
0
0
0
0
0
0
0
0
0
0
0
0
0
0
0
0
0
0
0
0
0
0
0
0
0
0
0
0
0
0
0
0
0
0
0
0
0
0
0
0
0
0
0
0
0
0
0
0
0
0
0
0
0
0
0
0
0
0
0
0
0
0
0
0
0
0
0
0
0
0
0
0
0
0
0
0
0
0
0
0
0
0
0
0
0
0
0
0
0
0
0
0
0
0
0
0
0
0
0
0
0
0
0
0
0
0
0
0
0
0
0
0
0
0
0
0
0
0
0
0
0
0
0
0
0
0
0
0
0
0
0
0
0
0
0
0
0
0
0
0
0
0
0
0
0
0
0
0
0
0
0
0
0
0
0
0
0
0
0
0
0
0
0
0
0
0
0
0
0
0
0
0
0
0
0
0
0
0
0
0
0
0
0
0
0
0
0
0
0
0
0
0
0
0
0
0
0
0
0
0
0
0
0
0
0
0
0
0
0
0
0
0
0
0
0
0
0
0
0
0
0
0
0
0
0
0
0
0
0
0
0
0
0
0
0
0
0
0
0
0
0
0
0
0
0
0
0
0
0
0
0
0
0
0
0
0
0
0
0
0
0
0
0
0
0
0
0
0
0
0
0
0
0
0
0
0
0
0
0
0
0
0
0
0
0
0
0
0
0
0
0
0
0
0
0
0
0
0
0
0
0
0
0
0
0
0
0
0
0
0
0
0
0
0
0
0
0
0
0
0
0
0
0
0
0
0
0
0
0
0
0
0
0
0
0
0
0
0
0
0
0
0
0
0
0
0
0
0
0
0
0
0
0
0
0
0
0
0
0
0
0
0
0
0
0
0
0
0
0
0
0
0
0
0
0
0
0
0
0
0
0
0
0
0
0
0
0
0
0
0
0
0
0
0
0
0
0
0
0
0
0
0
0
0
0
0
0
0
0
0
0
0
0
0
0
0
0
0
0
0
0
0
0
0
0
0
0
0
0
0
0
0
0
0
0
0
0
0
0
0
0
0
0
0
0
255
0
255
0
255
0
255
0
255
0
255
0
255
0
255
0
255
0
255
0
255
0
255
0
255
0
255
0
255
0
255
0
255
0
255
0
255
0
255
0
255
0
255
0
255
0
255
0
255
0
255
0
255
0
255
0
255
0
255
0
255
0
255
0
255
0
255
0
255
0
255
0
255
0
255
0
255
0
255
0
254
0
255
0
239
0
254
0
152
0
6
0
1
0
0
0
0
0
0
0
0
0
0
0
0
0
0
0
0
0
0
0
0
0
0
0
0
0
0
0
0
0
0
0
0
0
0
0
0
0
0
0
0
0
0
0
0
0
0
0
0
0
0
0
0
0
0
0
0
0
0
0
0
0
0
0
0
0
0
0
0
0
0
0
0
0
0
0
0
0
0
0
0
0
0
0
0
0
0
0
0
0
0
0
0
0
0
0
0
0
0
0
0
0
0
0
0
0
0
0
0
0
0
0
0
0
0
0
1
0
0
0
0
0
0
0
1
0
3
0
5
0
6
0
17
0
17
0
6
0
2
0
18
0
9
0
16
0
75
0
117
0
80
0
34
0
4
0
1
0
2
0
1
0
8
0
1
0
2
0
2
0
1
0
1
0
1
0
1
0
1
0
4
0
7
0
3
0
8
0
39
0
80
0
108
0
123
0
61
0
21
0
1
0
3
0
5
0
1
0
1
0
1
0
5
0
1
0
1
0
22
0
63
0
106
0
136
0
149
0
144
0
142
0
142
0
141
0
134
0
112
0
82
0
59
0
30
0
16
0
25
0
59
0
88
0
91
0
85
0
84
0
85
0
89
0
89
0
84
0
80
0
80
0
75
0
67
0
73
0
77
0
81
0
85
0
96
0
107
0
110
0
104
0
89
0
81
0
86
0
86
0
75
0
67
0
69
0
70
0
63
0
56
0
49
0
49
0
58
0
72
0
85
0
92
0
86
0
85
0
82
0
79
0
79
0
78
0
79
0
79
0
81
0
76
0
63
0
44
0
24
0
12
0
7
0
0
0
0
0
0
0
0
0
0
0
0
0
0
0
0
0
0
0
0
0
0
0
0
0
0
0
0
0
0
0
0
0
0
0
0
0
0
0
0
0
0
0
0
0
0
0
0
0
0
0
0
0
0
0
0
0
0
0
0
0
0
0
0
0
0
0
0
0
0
0
0
0
0
0
0
0
0
0
0
0
0
0
0
0
0
0
0
0
0
0
0
0
0
0
0
0
0
0
0
0
0
0
0
0
0
0
0
0
0
0
0
0
0
0
0
0
0
0
0
0
0
0
0
0
0
0
0
0
0
0
0
0
0
0
0
0
0
0
0
0
0
0
0
0
0
0
0
0
0
0
0
0
0
0
0
0
0
0
0
0
0
0
0
0
0
0
0
0
0
0
0
0
0
0
0
0
0
0
0
0
0
0
0
0
0
0
0
0
0
0
0
0
0
0
0
0
0
0
0
0
0
0
0
0
0
0
0
0
0
0
0
0
0
0
0
0
0
0
0
0
0
0
0
0
0
0
0
0
0
0
0
0
0
0
0
0
0
0
0
0
0
0
0
0
0
0
0
0
0
0
0
0
0
0
0
0
0
0
0
0
0
0
0
0
0
0
0
0
0
0
0
0
0
0
0
0
0
0
0
0
0
0
0
0
0
0
0
0
0
0
0
0
0
0
0
0
0
0
0
0
0
0
0
0
0
0
0
0
0
0
0
0
0
0
0
0
0
0
0
0
0
0
0
0
0
0
0
0
0
0
0
0
0
0
0
0
0
0
0
0
0
0
0
0
0
0
0
0
0
0
0
0
0
0
0
0
0
0
0
0
0
0
0
0
0
0
0
0
0
0
0
0
0
0
0
0
0
0
0
0
0
0
0
0
0
0
0
0
0
0
0
0
0
0
0
0
0
0
0
0
0
0
0
0
0
0
0
0
0
0
0
0
0
0
0
0
0
0
0
0
0
0
0
0
0
0
0
0
0
0
0
0
0
0
0
0
0
0
0
0
0
0
0
0
255
0
255
0
255
0
255
0
255
0
255
0
255
0
255
0
255
0
255
0
255
0
255
0
255
0
255
0
255
0
255
0
255
0
255
0
255
0
255
0
255
0
255
0
255
0
255
0
255
0
255
0
255
0
255
0
255
0
255
0
255
0
255
0
255
0
255
0
255
0
255
0
255
0
255
0
255
0
255
0
251
0
255
0
249
0
255
0
169
0
0
0
0
0
3
0
0
0
0
0
0
0
0
0
0
0
0
0
0
0
0
0
0
0
0
0
0
0
0
0
0
0
0
0
0
0
0
0
0
0
0
0
0
0
0
0
0
0
0
0
0
0
0
0
0
0
0
0
0
0
0
0
0
0
0
0
0
0
0
0
0
0
0
0
0
0
0
0
0
0
0
0
0
0
0
0
0
0
0
0
0
0
0
0
0
0
0
0
0
0
0
0
0
0
0
0
0
0
0
0
0
0
0
0
0
0
0
0
0
0
0
0
0
0
0
0
0
0
0
0
0
0
0
0
0
0
0
0
4
0
3
0
2
0
6
0
16
0
25
0
87
0
122
0
101
0
33
0
14
0
20
0
7
0
8
0
10
0
8
0
43
0
52
0
11
0
4
0
9
0
10
0
3
0
9
0
0
0
1
0
34
0
90
0
126
0
137
0
135
0
58
0
3
0
2
0
4
0
3
0
6
0
8
0
9
0
40
0
79
0
106
0
127
0
140
0
142
0
134
0
142
0
155
0
155
0
142
0
134
0
132
0
117
0
96
0
81
0
77
0
82
0
90
0
92
0
83
0
55
0
24
0
52
0
70
0
87
0
91
0
89
0
88
0
86
0
83
0
83
0
84
0
85
0
88
0
91
0
91
0
87
0
84
0
85
0
87
0
87
0
85
0
81
0
78
0
77
0
76
0
80
0
81
0
82
0
83
0
84
0
85
0
86
0
86
0
94
0
93
0
93
0
93
0
92
0
92
0
91
0
91
0
82
0
81
0
83
0
84
0
79
0
60
0
32
0
0
0
0
0
0
0
0
0
0
0
0
0
0
0
0
0
0
0
0
0
0
0
0
0
0
0
0
0
0
0
0
0
0
0
0
0
0
0
0
0
0
0
0
0
0
0
0
0
0
0
0
0
0
0
0
0
0
0
0
0
0
0
0
0
0
0
0
0
0
0
0
0
0
0
0
0
0
0
0
0
0
0
0
0
0
0
0
0
0
0
0
0
0
0
0
0
0
0
0
0
0
0
0
0
0
0
0
0
0
0
0
0
0
0
0
0
0
0
0
0
0
0
0
0
0
0
0
0
0
0
0
0
0
0
0
0
0
0
0
0
0
0
0
0
0
0
0
0
0
0
0
0
0
0
0
0
0
0
0
0
0
0
0
0
0
0
0
0
0
0
0
0
0
0
0
0
0
0
0
0
0
0
0
0
0
0
0
0
0
0
0
0
0
0
0
0
0
0
0
0
0
0
0
0
0
0
0
0
0
0
0
0
0
0
0
0
0
0
0
0
0
0
0
0
0
0
0
0
0
0
0
0
0
0
0
0
0
0
0
0
0
0
0
0
0
0
0
0
0
0
0
0
0
0
0
0
0
0
0
0
0
0
0
0
0
0
0
0
0
0
0
0
0
0
0
0
0
0
0
0
0
0
0
0
0
0
0
0
0
0
0
0
0
0
0
0
0
0
0
0
0
0
0
0
0
0
0
0
0
0
0
0
0
0
0
0
0
0
0
0
0
0
0
0
0
0
0
0
0
0
0
0
0
0
0
0
0
0
0
0
0
0
0
0
0
0
0
0
0
0
0
0
0
0
0
0
0
0
0
0
0
0
0
0
0
0
0
0
0
0
0
0
0
0
0
0
0
0
0
0
0
0
0
0
0
0
0
0
0
0
0
0
0
0
0
0
0
0
0
0
0
0
0
0
0
0
0
0
0
0
0
0
0
0
0
0
0
0
0
0
0
0
0
0
0
0
0
0
0
0
0
0
0
0
0
0
0
0
0
0
0
0
0
0
255
0
255
0
255
0
255
0
255
0
255
0
255
0
255
0
255
0
255
0
255
0
255
0
255
0
255
0
255
0
255
0
255
0
255
0
255
0
255
0
255
0
255
0
255
0
255
0
255
0
255
0
255
0
255
0
255
0
255
0
255
0
255
0
255
0
255
0
255
0
255
0
255
0
255
0
255
0
255
0
251
0
255
0
248
0
255
0
178
0
9
0
0
0
1
0
0
0
0
0
0
0
0
0
0
0
0
0
0
0
0
0
0
0
0
0
0
0
0
0
0
0
0
0
0
0
0
0
0
0
0
0
0
0
0
0
0
0
0
0
0
0
0
0
0
0
0
0
0
0
0
0
0
0
0
0
0
0
0
0
0
0
0
0
0
0
0
0
0
0
0
0
0
0
0
0
0
0
0
0
0
0
0
0
0
0
0
0
0
0
0
0
0
0
0
0
0
0
0
0
0
0
0
0
0
0
0
0
0
0
0
0
0
0
0
0
0
0
0
0
0
0
0
0
0
0
1
0
2
0
0
0
0
0
0
0
2
0
7
0
32
0
77
0
111
0
101
0
57
0
14
0
4
0
3
0
6
0
4
0
39
0
83
0
78
0
34
0
3
0
4
0
1
0
8
0
5
0
5
0
31
0
73
0
113
0
141
0
148
0
118
0
55
0
4
0
1
0
1
0
1
0
2
0
59
0
93
0
128
0
136
0
129
0
124
0
119
0
115
0
141
0
138
0
132
0
129
0
130
0
118
0
83
0
46
0
56
0
65
0
77
0
86
0
95
0
92
0
55
0
7
0
7
0
22
0
38
0
53
0
66
0
79
0
84
0
84
0
79
0
83
0
87
0
87
0
84
0
82
0
81
0
82
0
81
0
84
0
87
0
89
0
89
0
89
0
90
0
91
0
85
0
86
0
86
0
87
0
88
0
89
0
90
0
90
0
87
0
86
0
86
0
86
0
85
0
85
0
84
0
84
0
97
0
94
0
90
0
89
0
88
0
82
0
71
0
0
0
0
0
0
0
0
0
0
0
0
0
0
0
0
0
0
0
0
0
0
0
0
0
0
0
0
0
0
0
0
0
0
0
0
0
0
0
0
0
0
0
0
0
0
0
0
0
0
0
0
0
0
0
0
0
0
0
0
0
0
0
0
0
0
0
0
0
0
0
0
0
0
0
0
0
0
0
0
0
0
0
0
0
0
0
0
0
0
0
0
0
0
0
0
0
0
0
0
0
0
0
0
0
0
0
0
0
0
0
0
0
0
0
0
0
0
0
0
0
0
0
0
0
0
0
0
0
0
0
0
0
0
0
0
0
0
0
0
0
0
0
0
0
0
0
0
0
0
0
0
0
0
0
0
0
0
0
0
0
0
0
0
0
0
0
0
0
0
0
0
0
0
0
0
0
0
0
0
0
0
0
0
0
0
0
0
0
0
0
0
0
0
0
0
0
0
0
0
0
0
0
0
0
0
0
0
0
0
0
0
0
0
0
0
0
0
0
0
0
0
0
0
0
0
0
0
0
0
0
0
0
0
0
0
0
0
0
0
0
0
0
0
0
0
0
0
0
0
0
0
0
0
0
0
0
0
0
0
0
0
0
0
0
0
0
0
0
0
0
0
0
0
0
0
0
0
0
0
0
0
0
0
0
0
0
0
0
0
0
0
0
0
0
0
0
0
0
0
0
0
0
0
0
0
0
0
0
0
0
0
0
0
0
0
0
0
0
0
0
0
0
0
0
0
0
0
0
0
0
0
0
0
0
0
0
0
0
0
0
0
0
0
0
0
0
0
0
0
0
0
0
0
0
0
0
0
0
0
0
0
0
0
0
0
0
0
0
0
0
0
0
0
0
0
0
0
0
0
0
0
0
0
0
0
0
0
0
0
0
0
0
0
0
0
0
0
0
0
0
0
0
0
0
0
0
0
0
0
0
0
0
0
0
0
0
0
0
0
0
0
0
0
0
0
0
0
0
0
0
0
0
0
0
0
0
0
0
0
0
0
0
0
0
255
0
255
0
255
0
255
0
255
0
255
0
255
0
255
0
255
0
255
0
255
0
255
0
255
0
255
0
255
0
255
0
255
0
255
0
255
0
255
0
255
0
255
0
255
0
255
0
255
0
255
0
255
0
255
0
255
0
255
0
255
0
255
0
255
0
255
0
255
0
255
0
255
0
255
0
255
0
255
0
251
0
254
0
249
0
255
0
187
0
22
0
0
0
0
0
0
0
0
0
0
0
0
0
0
0
0
0
0
0
0
0
0
0
0
0
0
0
0
0
0
0
0
0
0
0
0
0
0
0
0
0
0
0
0
0
0
0
0
0
0
0
0
0
0
0
0
0
0
0
0
0
0
0
0
0
0
0
0
0
0
0
0
0
0
0
0
0
0
0
0
0
0
0
0
0
0
0
0
0
0
0
0
0
0
0
0
0
0
0
0
0
0
0
0
0
0
0
0
0
0
0
0
0
0
0
0
0
0
0
0
0
0
0
0
0
0
0
0
0
0
0
0
0
2
0
2
0
1
0
0
0
0
0
0
0
0
0
0
0
1
0
23
0
89
0
138
0
110
0
38
0
6
0
6
0
2
0
3
0
12
0
55
0
93
0
69
0
22
0
15
0
1
0
3
0
5
0
11
0
21
0
43
0
83
0
126
0
140
0
148
0
97
0
33
0
14
0
4
0
0
0
11
0
36
0
69
0
104
0
120
0
122
0
124
0
124
0
124
0
128
0
114
0
101
0
100
0
98
0
76
0
36
0
5
0
14
0
29
0
43
0
52
0
67
0
78
0
46
0
2
0
0
0
2
0
9
0
20
0
34
0
45
0
51
0
49
0
58
0
64
0
68
0
65
0
57
0
52
0
53
0
56
0
55
0
58
0
63
0
68
0
71
0
75
0
79
0
82
0
82
0
82
0
83
0
84
0
85
0
85
0
86
0
86
0
88
0
88
0
87
0
87
0
86
0
86
0
86
0
85
0
85
0
83
0
79
0
79
0
80
0
82
0
83
0
0
0
0
0
0
0
0
0
0
0
0
0
0
0
0
0
0
0
0
0
0
0
0
0
0
0
0
0
0
0
0
0
0
0
0
0
0
0
0
0
0
0
0
0
0
0
0
0
0
0
0
0
0
0
0
0
0
0
0
0
0
0
0
0
0
0
0
0
0
0
0
0
0
0
0
0
0
0
0
0
0
0
0
0
0
0
0
0
0
0
0
0
0
0
0
0
0
0
0
0
0
0
0
0
0
0
0
0
0
0
0
0
0
0
0
0
0
0
0
0
0
0
0
0
0
0
0
0
0
0
0
0
0
0
0
0
0
0
0
0
0
0
0
0
0
0
0
0
0
0
0
0
0
0
0
0
0
0
0
0
0
0
0
0
0
0
0
0
0
0
0
0
0
0
0
0
0
0
0
0
0
0
0
0
0
0
0
0
0
0
0
0
0
0
0
0
0
0
0
0
0
0
0
0
0
0
0
0
0
0
0
0
0
0
0
0
0
0
0
0
0
0
0
0
0
0
0
0
0
0
0
0
0
0
0
0
0
0
0
0
0
0
0
0
0
0
0
0
0
0
0
0
0
0
0
0
0
0
0
0
0
0
0
0
0
0
0
0
0
0
0
0
0
0
0
0
0
0
0
0
0
0
0
0
0
0
0
0
0
0
0
0
0
0
0
0
0
0
0
0
0
0
0
0
0
0
0
0
0
0
0
0
0
0
0
0
0
0
0
0
0
0
0
0
0
0
0
0
0
0
0
0
0
0
0
0
0
0
0
0
0
0
0
0
0
0
0
0
0
0
0
0
0
0
0
0
0
0
0
0
0
0
0
0
0
0
0
0
0
0
0
0
0
0
0
0
0
0
0
0
0
0
0
0
0
0
0
0
0
0
0
0
0
0
0
0
0
0
0
0
0
0
0
0
0
0
0
0
0
0
0
0
0
0
0
0
0
0
0
0
0
0
0
0
0
0
0
0
0
0
0
0
0
0
0
0
0
0
0
0
0
0
0
0
255
0
255
0
255
0
255
0
255
0
255
0
255
0
255
0
255
0
255
0
255
0
255
0
255
0
255
0
255
0
255
0
255
0
255
0
255
0
255
0
255
0
255
0
255
0
255
0
255
0
255
0
255
0
255
0
255
0
255
0
255
0
255
0
255
0
255
0
255
0
255
0
255
0
255
0
255
0
255
0
253
0
254
0
252
0
255
0
191
0
31
0
0
0
1
0
0
0
0
0
0
0
0
0
0
0
0
0
0
0
0
0
0
0
0
0
0
0
0
0
0
0
0
0
0
0
0
0
0
0
0
0
0
0
0
0
0
0
0
0
0
0
0
0
0
0
0
0
0
0
0
0
0
0
0
0
0
0
0
0
0
0
0
0
0
0
0
0
0
0
0
0
0
0
0
0
0
0
0
0
0
0
0
0
0
0
0
0
0
0
0
0
0
0
0
0
0
0
0
0
0
0
0
0
0
0
0
0
0
0
0
0
0
0
0
0
0
0
0
0
0
0
0
0
1
0
0
0
0
0
3
0
6
0
7
0
4
0
1
0
8
0
1
0
33
0
91
0
106
0
86
0
51
0
16
0
7
0
2
0
2
0
3
0
51
0
81
0
67
0
44
0
12
0
4
0
1
0
5
0
8
0
13
0
42
0
84
0
115
0
128
0
111
0
84
0
61
0
26
0
2
0
13
0
24
0
41
0
65
0
88
0
109
0
121
0
120
0
114
0
117
0
104
0
91
0
82
0
64
0
39
0
20
0
13
0
1
0
1
0
2
0
9
0
25
0
42
0
30
0
0
0
1
0
1
0
0
0
0
0
2
0
5
0
4
0
2
0
16
0
20
0
22
0
19
0
11
0
7
0
6
0
7
0
15
0
19
0
24
0
26
0
29
0
32
0
36
0
39
0
46
0
47
0
47
0
48
0
48
0
49
0
49
0
50
0
48
0
47
0
47
0
47
0
46
0
46
0
45
0
45
0
38
0
41
0
45
0
46
0
45
0
44
0
42
0
0
0
0
0
0
0
0
0
0
0
0
0
0
0
0
0
0
0
0
0
0
0
0
0
0
0
0
0
0
0
0
0
0
0
0
0
0
0
0
0
0
0
0
0
0
0
0
0
0
0
0
0
0
0
0
0
0
0
0
0
0
0
0
0
0
0
0
0
0
0
0
0
0
0
0
0
0
0
0
0
0
0
0
0
0
0
0
0
0
0
0
0
0
0
0
0
0
0
0
0
0
0
0
0
0
0
0
0
0
0
0
0
0
0
0
0
0
0
0
0
0
0
0
0
0
0
0
0
0
0
0
0
0
0
0
0
0
0
0
0
0
0
0
0
0
0
0
0
0
0
0
0
0
0
0
0
0
0
0
0
0
0
0
0
0
0
0
0
0
0
0
0
0
0
0
0
0
0
0
0
0
0
0
0
0
0
0
0
0
0
0
0
0
0
0
0
0
0
0
0
0
0
0
0
0
0
0
0
0
0
0
0
0
0
0
0
0
0
0
0
0
0
0
0
0
0
0
0
0
0
0
0
0
0
0
0
0
0
0
0
0
0
0
0
0
0
0
0
0
0
0
0
0
0
0
0
0
0
0
0
0
0
0
0
0
0
0
0
0
0
0
0
0
0
0
0
0
0
0
0
0
0
0
0
0
0
0
0
0
0
0
0
0
0
0
0
0
0
0
0
0
0
0
0
0
0
0
0
0
0
0
0
0
0
0
0
0
0
0
0
0
0
0
0
0
0
0
0
0
0
0
0
0
0
0
0
0
0
0
0
0
0
0
0
0
0
0
0
0
0
0
0
0
0
0
0
0
0
0
0
0
0
0
0
0
0
0
0
0
0
0
0
0
0
0
0
0
0
0
0
0
0
0
0
0
0
0
0
0
0
0
0
0
0
0
0
0
0
0
0
0
0
0
0
0
0
0
0
0
0
0
0
0
0
0
0
0
0
0
0
0
0
0
0
0
0
0
0
0
0
0
0
0
0
0
0
0
0
0
0
0
0
0
0
255
0
255
0
255
0
255
0
255
0
255
0
255
0
255
0
255
0
255
0
255
0
255
0
255
0
255
0
255
0
255
0
255
0
255
0
255
0
255
0
255
0
255
0
255
0
255
0
255
0
255
0
255
0
255
0
255
0
255
0
255
0
255
0
255
0
255
0
255
0
255
0
255
0
255
0
255
0
255
0
255
0
255
0
255
0
252
0
193
0
38
0
0
0
2
0
0
0
0
0
0
0
0
0
0
0
0
0
0
0
0
0
0
0
0
0
0
0
0
0
0
0
0
0
0
0
0
0
0
0
0
0
0
0
0
0
0
0
0
0
0
0
0
0
0
0
0
0
0
0
0
0
0
0
0
0
0
0
0
0
0
0
0
0
0
0
0
0
0
0
0
0
0
0
0
0
0
0
0
0
0
0
0
0
0
0
0
0
0
0
0
0
0
0
0
0
0
0
0
0
0
0
0
0
0
0
0
0
0
0
0
0
0
0
0
0
0
0
0
0
0
0
0
0
0
0
0
0
0
0
4
0
9
0
11
0
8
0
4
0
15
0
2
0
2
0
19
0
59
0
113
0
122
0
84
0
36
0
14
0
1
0
1
0
20
0
64
0
88
0
80
0
42
0
19
0
1
0
0
0
2
0
1
0
9
0
36
0
76
0
87
0
109
0
118
0
100
0
69
0
32
0
1
0
34
0
41
0
54
0
73
0
96
0
113
0
117
0
113
0
113
0
102
0
90
0
81
0
60
0
39
0
35
0
43
0
18
0
2
0
1
0
0
0
4
0
7
0
9
0
6
0
3
0
4
0
5
0
6
0
4
0
2
0
3
0
6
0
3
0
3
0
3
0
3
0
4
0
4
0
2
0
1
0
1
0
1
0
1
0
1
0
1
0
1
0
2
0
3
0
4
0
5
0
5
0
5
0
5
0
6
0
6
0
6
0
7
0
7
0
6
0
6
0
5
0
5
0
5
0
4
0
3
0
7
0
10
0
11
0
8
0
5
0
3
0
0
0
0
0
0
0
0
0
0
0
0
0
0
0
0
0
0
0
0
0
0
0
0
0
0
0
0
0
0
0
0
0
0
0
0
0
0
0
0
0
0
0
0
0
0
0
0
0
0
0
0
0
0
0
0
0
0
0
0
0
0
0
0
0
0
0
0
0
0
0
0
0
0
0
0
0
0
0
0
0
0
0
0
0
0
0
0
0
0
0
0
0
0
0
0
0
0
0
0
0
0
0
0
0
0
0
0
0
0
0
0
0
0
0
0
0
0
0
0
0
0
0
0
0
0
0
0
0
0
0
0
0
0
0
0
0
0
0
0
0
0
0
0
0
0
0
0
0
0
0
0
0
0
0
0
0
0
0
0
0
0
0
0
0
0
0
0
0
0
0
0
0
0
0
0
0
0
0
0
0
0
0
0
0
0
0
0
0
0
0
0
0
0
0
0
0
0
0
0
0
0
0
0
0
0
0
0
0
0
0
0
0
0
0
0
0
0
0
0
0
0
0
0
0
0
0
0
0
0
0
0
0
0
0
0
0
0
0
0
0
0
0
0
0
0
0
0
0
0
0
0
0
0
0
0
0
0
0
0
0
0
0
0
0
0
0
0
0
0
0
0
0
0
0
0
0
0
0
0
0
0
0
0
0
0
0
0
0
0
0
0
0
0
0
0
0
0
0
0
0
0
0
0
0
0
0
0
0
0
0
0
0
0
0
0
0
0
0
0
0
0
0
0
0
0
0
0
0
0
0
0
0
0
0
0
0
0
0
0
0
0
0
0
0
0
0
0
0
0
0
0
0
0
0
0
0
0
0
0
0
0
0
0
0
0
0
0
0
0
0
0
0
0
0
0
0
0
0
0
0
0
0
0
0
0
0
0
0
0
0
0
0
0
0
0
0
0
0
0
0
0
0
0
0
0
0
0
0
0
0
0
0
0
0
0
0
0
0
0
0
0
0
0
0
0
0
0
0
0
0
0
0
0
0
0
0
0
0
0
0
0
0
0
0
255
0
255
0
255
0
255
0
255
0
255
0
255
0
255
0
255
0
255
0
255
0
255
0
255
0
255
0
255
0
255
0
255
0
255
0
255
0
255
0
255
0
255
0
255
0
255
0
255
0
255
0
255
0
255
0
255
0
255
0
255
0
255
0
255
0
255
0
255
0
255
0
255
0
255
0
255
0
255
0
255
0
253
0
255
0
252
0
202
0
53
0
0
0
1
0
0
0
0
0
0
0
0
0
0
0
0
0
0
0
0
0
0
0
0
0
0
0
0
0
0
0
0
0
0
0
0
0
0
0
0
0
0
0
0
0
0
0
0
0
0
0
0
0
0
0
0
0
0
0
0
0
0
0
0
0
0
0
0
0
0
0
0
0
0
0
0
0
0
0
0
0
0
0
0
0
0
0
0
0
0
0
0
0
0
0
0
0
0
0
0
0
0
0
0
0
0
0
0
0
0
0
0
0
0
0
0
0
0
0
0
0
0
0
0
0
0
0
0
0
0
0
0
0
1
0
0
0
0
0
1
0
5
0
5
0
2
0
0
0
2
0
13
0
13
0
11
0
19
0
90
0
140
0
138
0
103
0
50
0
12
0
8
0
4
0
16
0
62
0
95
0
73
0
49
0
17
0
2
0
2
0
0
0
1
0
7
0
15
0
38
0
78
0
101
0
110
0
119
0
91
0
33
0
26
0
31
0
41
0
52
0
68
0
88
0
108
0
122
0
101
0
87
0
76
0
72
0
65
0
53
0
45
0
46
0
34
0
12
0
10
0
21
0
16
0
2
0
1
0
1
0
4
0
2
0
2
0
2
0
1
0
1
0
0
0
3
0
2
0
1
0
1
0
2
0
6
0
8
0
7
0
4
0
5
0
5
0
4
0
1
0
0
0
0
0
0
0
0
0
1
0
1
0
1
0
1
0
1
0
1
0
1
0
1
0
4
0
4
0
3
0
3
0
3
0
2
0
2
0
2
0
2
0
2
0
1
0
1
0
0
0
1
0
1
0
0
0
0
0
0
0
0
0
0
0
0
0
0
0
0
0
0
0
0
0
0
0
0
0
0
0
0
0
0
0
0
0
0
0
0
0
0
0
0
0
0
0
0
0
0
0
0
0
0
0
0
0
0
0
0
0
0
0
0
0
0
0
0
0
0
0
0
0
0
0
0
0
0
0
0
0
0
0
0
0
0
0
0
0
0
0
0
0
0
0
0
0
0
0
0
0
0
0
0
0
0
0
0
0
0
0
0
0
0
0
0
0
0
0
0
0
0
0
0
0
0
0
0
0
0
0
0
0
0
0
0
0
0
0
0
0
0
0
0
0
0
0
0
0
0
0
0
0
0
0
0
0
0
0
0
0
0
0
0
0
0
0
0
0
0
0
0
0
0
0
0
0
0
0
0
0
0
0
0
0
0
0
0
0
0
0
0
0
0
0
0
0
0
0
0
0
0
0
0
0
0
0
0
0
0
0
0
0
0
0
0
0
0
0
0
0
0
0
0
0
0
0
0
0
0
0
0
0
0
0
0
0
0
0
0
0
0
0
0
0
0
0
0
0
0
0
0
0
0
0
0
0
0
0
0
0
0
0
0
0
0
0
0
0
0
0
0
0
0
0
0
0
0
0
0
0
0
0
0
0
0
0
0
0
0
0
0
0
0
0
0
0
0
0
0
0
0
0
0
0
0
0
0
0
0
0
0
0
0
0
0
0
0
0
0
0
0
0
0
0
0
0
0
0
0
0
0
0
0
0
0
0
0
0
0
0
0
0
0
0
0
0
0
0
0
0
0
0
0
0
0
0
0
0
0
0
0
0
0
0
0
0
0
0
0
0
0
0
0
0
0
0
0
0
0
0
0
0
0
0
0
0
0
0
0
0
0
0
0
0
0
0
0
0
0
0
0
0
0
0
0
0
0
0
0
0
0
0
0
0
0
0
0
0
0
0
0
0
0
0
0
0
0
0
0
0
0
0
0
0
0
0
0
0
0
0
0
0
0
0
0
0
0
0
255
0
255
0
255
0
255
0
255
0
255
0
255
0
255
0
255
0
255
0
255
0
255
0
255
0
255
0
255
0
255
0
255
0
255
0
255
0
255
0
255
0
255
0
255
0
255
0
255
0
255
0
255
0
255
0
255
0
255
0
255
0
255
0
255
0
255
0
255
0
255
0
255
0
255
0
255
0
255
0
255
0
248
0
255
0
254
0
219
0
76
0
1
0
0
0
0
0
0
0
0
0
0
0
0
0
0
0
0
0
0
0
0
0
0
0
0
0
0
0
0
0
0
0
0
0
0
0
0
0
0
0
0
0
0
0
0
0
0
0
0
0
0
0
0
0
0
0
0
0
0
0
0
0
0
0
0
0
0
0
0
0
0
0
0
0
0
0
0
0
0
0
0
0
0
0
0
0
0
0
0
0
0
0
0
0
0
0
0
0
0
0
0
0
0
0
0
0
0
0
0
0
0
0
0
0
0
0
0
0
0
0
0
0
0
0
0
0
0
0
0
0
0
0
0
0
0
0
0
0
0
0
1
0
1
0
0
0
0
0
1
0
11
0
15
0
9
0
8
0
36
0
87
0
129
0
139
0
106
0
65
0
35
0
6
0
3
0
25
0
81
0
89
0
75
0
42
0
9
0
2
0
3
0
3
0
3
0
1
0
6
0
26
0
53
0
93
0
123
0
117
0
91
0
61
0
54
0
44
0
42
0
50
0
66
0
87
0
102
0
91
0
82
0
70
0
63
0
61
0
56
0
50
0
45
0
42
0
33
0
42
0
58
0
59
0
49
0
38
0
29
0
20
0
9
0
3
0
1
0
1
0
0
0
1
0
2
0
5
0
4
0
3
0
0
0
0
0
0
0
0
0
0
0
7
0
7
0
7
0
5
0
2
0
2
0
3
0
5
0
6
0
6
0
5
0
5
0
5
0
5
0
5
0
5
0
0
0
0
0
0
0
0
0
0
0
0
0
0
0
0
0
2
0
1
0
0
0
1
0
0
0
2
0
3
0
0
0
0
0
0
0
0
0
0
0
0
0
0
0
0
0
0
0
0
0
0
0
0
0
0
0
0
0
0
0
0
0
0
0
0
0
0
0
0
0
0
0
0
0
0
0
0
0
0
0
0
0
0
0
0
0
0
0
0
0
0
0
0
0
0
0
0
0
0
0
0
0
0
0
0
0
0
0
0
0
0
0
0
0
0
0
0
0
0
0
0
0
0
0
0
0
0
0
0
0
0
0
0
0
0
0
0
0
0
0
0
0
0
0
0
0
0
0
0
0
0
0
0
0
0
0
0
0
0
0
0
0
0
0
0
0
0
0
0
0
0
0
0
0
0
0
0
0
0
0
0
0
0
0
0
0
0
0
0
0
0
0
0
0
0
0
0
0
0
0
0
0
0
0
0
0
0
0
0
0
0
0
0
0
0
0
0
0
0
0
0
0
0
0
0
0
0
0
0
0
0
0
0
0
0
0
0
0
0
0
0
0
0
0
0
0
0
0
0
0
0
0
0
0
0
0
0
0
0
0
0
0
0
0
0
0
0
0
0
0
0
0
0
0
0
0
0
0
0
0
0
0
0
0
0
0
0
0
0
0
0
0
0
0
0
0
0
0
0
0
0
0
0
0
0
0
0
0
0
0
0
0
0
0
0
0
0
0
0
0
0
0
0
0
0
0
0
0
0
0
0
0
0
0
0
0
0
0
0
0
0
0
0
0
0
0
0
0
0
0
0
0
0
0
0
0
0
0
0
0
0
0
0
0
0
0
0
0
0
0
0
0
0
0
0
0
0
0
0
0
0
0
0
0
0
0
0
0
0
0
0
0
0
0
0
0
0
0
0
0
0
0
0
0
0
0
0
0
0
0
0
0
0
0
0
0
0
0
0
0
0
0
0
0
0
0
0
0
0
0
0
0
0
0
0
0
0
0
0
0
0
0
0
0
0
0
0
0
0
0
0
0
0
0
0
0
0
0
0
0
0
0
0
0
0
0
0
0
0
0
0
0
0
0
255
0
255
0
255
0
255
0
255
0
255
0
255
0
255
0
255
0
255
0
255
0
255
0
255
0
255
0
255
0
255
0
255
0
255
0
255
0
255
0
255
0
255
0
255
0
255
0
255
0
255
0
255
0
255
0
255
0
255
0
255
0
255
0
255
0
255
0
255
0
255
0
255
0
255
0
255
0
255
0
255
0
243
0
252
0
255
0
233
0
94
0
6
0
0
0
0
0
0
0
0
0
0
0
0
0
0
0
0
0
0
0
0
0
0
0
0
0
0
0
0
0
0
0
0
0
0
0
0
0
0
0
0
0
0
0
0
0
0
0
0
0
0
0
0
0
0
0
0
0
0
0
0
0
0
0
0
0
0
0
0
0
0
0
0
0
0
0
0
0
0
0
0
0
0
0
0
0
0
0
0
0
0
0
0
0
0
0
0
0
0
0
0
0
0
0
0
0
0
0
0
0
0
0
0
0
0
0
0
0
0
0
0
0
0
0
0
0
0
0
0
0
0
0
0
0
0
0
0
0
1
0
1
0
2
0
4
0
5
0
4
0
6
0
3
0
4
0
7
0
3
0
24
0
86
0
130
0
148
0
135
0
90
0
50
0
10
0
10
0
53
0
90
0
90
0
59
0
13
0
1
0
4
0
8
0
6
0
13
0
8
0
1
0
20
0
71
0
88
0
92
0
119
0
110
0
83
0
57
0
51
0
67
0
88
0
103
0
109
0
97
0
93
0
83
0
66
0
56
0
55
0
58
0
61
0
53
0
57
0
73
0
92
0
108
0
114
0
103
0
82
0
66
0
50
0
36
0
36
0
42
0
47
0
51
0
56
0
48
0
49
0
46
0
35
0
21
0
9
0
6
0
7
0
0
0
0
0
0
0
0
0
0
0
1
0
4
0
7
0
0
0
0
0
0
0
0
0
0
0
0
0
0
0
0
0
4
0
4
0
3
0
3
0
3
0
3
0
3
0
3
0
1
0
2
0
2
0
3
0
4
0
2
0
0
0
0
0
0
0
0
0
0
0
0
0
0
0
0
0
0
0
0
0
0
0
0
0
0
0
0
0
0
0
0
0
0
0
0
0
0
0
0
0
0
0
0
0
0
0
0
0
0
0
0
0
0
0
0
0
0
0
0
0
0
0
0
0
0
0
0
0
0
0
0
0
0
0
0
0
0
0
0
0
0
0
0
0
0
0
0
0
0
0
0
0
0
0
0
0
0
0
0
0
0
0
0
0
0
0
0
0
0
0
0
0
0
0
0
0
0
0
0
0
0
0
0
0
0
0
0
0
0
0
0
0
0
0
0
0
0
0
0
0
0
0
0
0
0
0
0
0
0
0
0
0
0
0
0
0
0
0
0
0
0
0
0
0
0
0
0
0
0
0
0
0
0
0
0
0
0
0
0
0
0
0
0
0
0
0
0
0
0
0
0
0
0
0
0
0
0
0
0
0
0
0
0
0
0
0
0
0
0
0
0
0
0
0
0
0
0
0
0
0
0
0
0
0
0
0
0
0
0
0
0
0
0
0
0
0
0
0
0
0
0
0
0
0
0
0
0
0
0
0
0
0
0
0
0
0
0
0
0
0
0
0
0
0
0
0
0
0
0
0
0
0
0
0
0
0
0
0
0
0
0
0
0
0
0
0
0
0
0
0
0
0
0
0
0
0
0
0
0
0
0
0
0
0
0
0
0
0
0
0
0
0
0
0
0
0
0
0
0
0
0
0
0
0
0
0
0
0
0
0
0
0
0
0
0
0
0
0
0
0
0
0
0
0
0
0
0
0
0
0
0
0
0
0
0
0
0
0
0
0
0
0
0
0
0
0
0
0
0
0
0
0
0
0
0
0
0
0
0
0
0
0
0
0
0
0
0
0
0
0
0
0
0
0
0
0
0
0
0
0
0
0
0
0
0
0
0
0
0
0
0
0
0
0
0
0
0
0
0
0
0
0
0
0
0
0
0
0
0
0
0
0
0
0
0
0
0
0
0
0
0
0
0
0
0
0
255
0
255
0
255
0
255
0
255
0
255
0
255
0
255
0
255
0
255
0
255
0
255
0
255
0
255
0
255
0
255
0
255
0
255
0
255
0
255
0
255
0
255
0
255
0
255
0
255
0
255
0
255
0
255
0
255
0
255
0
255
0
255
0
255
0
255
0
255
0
255
0
255
0
255
0
255
0
255
0
251
0
255
0
242
0
255
0
240
0
132
0
3
0
0
0
2
0
2
0
2
0
1
0
1
0
0
0
0
0
0
0
0
0
0
0
0
0
0
0
0
0
0
0
0
0
0
0
0
0
0
0
0
0
0
0
0
0
0
0
0
0
0
0
0
0
0
0
0
0
0
0
0
0
0
0
0
0
0
0
0
0
0
0
0
0
0
0
0
0
0
0
0
0
0
0
0
0
0
0
0
0
0
0
0
0
0
0
0
0
0
0
0
0
0
0
0
0
0
0
0
0
0
0
0
0
0
0
0
0
0
0
0
0
0
0
0
0
0
0
0
0
0
0
0
0
0
0
0
0
0
0
0
0
0
0
0
0
0
0
0
0
0
0
0
0
0
0
1
0
6
0
12
0
16
0
85
0
131
0
142
0
131
0
131
0
98
0
37
0
31
0
72
0
83
0
72
0
39
0
13
0
2
0
4
0
10
0
5
0
8
0
15
0
9
0
23
0
80
0
117
0
104
0
110
0
105
0
96
0
90
0
89
0
96
0
107
0
115
0
109
0
121
0
119
0
97
0
80
0
81
0
84
0
83
0
67
0
68
0
85
0
107
0
118
0
112
0
113
0
124
0
108
0
102
0
97
0
96
0
97
0
98
0
106
0
118
0
116
0
110
0
106
0
101
0
91
0
73
0
55
0
47
0
39
0
15
0
1
0
0
0
2
0
3
0
3
0
6
0
2
0
3
0
1
0
0
0
1
0
2
0
1
0
0
0
0
0
0
0
0
0
0
0
0
0
0
0
0
0
0
0
1
0
1
0
0
0
3
0
3
0
0
0
0
0
0
0
0
0
0
0
0
0
0
0
0
0
0
0
0
0
0
0
0
0
0
0
0
0
0
0
0
0
0
0
0
0
0
0
0
0
0
0
0
0
0
0
0
0
0
0
0
0
0
0
0
0
0
0
0
0
0
0
0
0
0
0
0
0
0
0
0
0
0
0
0
0
0
0
0
0
0
0
0
0
0
0
0
0
0
0
0
0
0
0
0
0
0
0
0
0
0
0
0
0
0
0
0
0
0
0
0
0
0
0
0
0
0
0
0
0
0
0
0
0
0
0
0
0
0
0
0
0
0
0
0
0
0
0
0
0
0
0
0
0
0
0
0
0
0
0
0
0
0
0
0
0
0
0
0
0
0
0
0
0
0
0
0
0
0
0
0
0
0
0
0
0
0
0
0
0
0
0
0
0
0
0
0
0
0
0
0
0
0
0
0
0
0
0
0
0
0
0
0
0
0
0
0
0
0
0
0
0
0
0
0
0
0
0
0
0
0
0
0
0
0
0
0
0
0
0
0
0
0
0
0
0
0
0
0
0
0
0
0
0
0
0
0
0
0
0
0
0
0
0
0
0
0
0
0
0
0
0
0
0
0
0
0
0
0
0
0
0
0
0
0
0
0
0
0
0
0
0
0
0
0
0
0
0
0
0
0
0
0
0
0
0
0
0
0
0
0
0
0
0
0
0
0
0
0
0
0
0
0
0
0
0
0
0
0
0
0
0
0
0
0
0
0
0
0
0
0
0
0
0
0
0
0
0
0
0
0
0
0
0
0
0
0
0
0
0
0
0
0
0
0
0
0
0
0
0
0
0
0
0
0
0
0
0
0
0
0
0
0
0
0
0
0
0
0
0
0
0
0
0
0
0
0
0
0
0
0
0
0
0
0
0
0
0
0
0
0
0
0
0
0
0
0
0
0
0
0
0
0
0
0
0
0
0
0
0
0
0
0
0
0
0
0
0
0
0
0
0
0
0
0
0
0
0
0
0
0
0
0
0
0
0
0
0
255
0
255
0
255
0
255
0
255
0
255
0
255
0
255
0
255
0
255
0
255
0
255
0
255
0
255
0
255
0
255
0
255
0
255
0
255
0
255
0
255
0
255
0
255
0
255
0
255
0
255
0
255
0
255
0
255
0
255
0
255
0
255
0
255
0
255
0
255
0
255
0
255
0
255
0
255
0
255
0
251
0
255
0
246
0
255
0
247
0
148
0
2
0
1
0
2
0
2
0
2
0
1
0
1
0
0
0
0
0
0
0
0
0
0
0
0
0
0
0
0
0
0
0
0
0
0
0
0
0
0
0
0
0
0
0
0
0
0
0
0
0
0
0
0
0
0
0
0
0
0
0
0
0
0
0
0
0
0
0
0
0
0
0
0
0
0
0
0
0
0
0
0
0
0
0
0
0
0
0
0
0
0
0
0
0
0
0
0
0
0
0
0
0
0
0
0
0
0
0
0
0
0
0
0
0
0
0
0
0
0
0
0
0
0
0
0
0
0
0
0
0
0
0
0
0
0
0
0
0
0
0
0
0
0
0
0
0
0
0
0
0
0
0
1
0
1
0
2
0
5
0
9
0
13
0
55
0
76
0
96
0
123
0
144
0
115
0
62
0
37
0
24
0
45
0
72
0
84
0
78
0
48
0
14
0
11
0
7
0
4
0
20
0
37
0
39
0
60
0
94
0
108
0
107
0
107
0
106
0
105
0
105
0
107
0
110
0
112
0
109
0
115
0
110
0
92
0
80
0
81
0
88
0
91
0
88
0
91
0
101
0
113
0
116
0
111
0
108
0
111
0
121
0
120
0
121
0
125
0
124
0
122
0
123
0
129
0
121
0
118
0
118
0
120
0
119
0
113
0
109
0
108
0
92
0
83
0
55
0
18
0
0
0
1
0
4
0
0
0
1
0
0
0
1
0
1
0
1
0
1
0
1
0
0
0
0
0
0
0
0
0
0
0
0
0
0
0
0
0
0
0
2
0
1
0
1
0
1
0
0
0
0
0
0
0
0
0
0
0
0
0
0
0
0
0
0
0
0
0
0
0
0
0
0
0
0
0
0
0
0
0
0
0
0
0
0
0
0
0
0
0
0
0
0
0
0
0
0
0
0
0
0
0
0
0
0
0
0
0
0
0
0
0
0
0
0
0
0
0
0
0
0
0
0
0
0
0
0
0
0
0
0
0
0
0
0
0
0
0
0
0
0
0
0
0
0
0
0
0
0
0
0
0
0
0
0
0
0
0
0
0
0
0
0
0
0
0
0
0
0
0
0
0
0
0
0
0
0
0
0
0
0
0
0
0
0
0
0
0
0
0
0
0
0
0
0
0
0
0
0
0
0
0
0
0
0
0
0
0
0
0
0
0
0
0
0
0
0
0
0
0
0
0
0
0
0
0
0
0
0
0
0
0
0
0
0
0
0
0
0
0
0
0
0
0
0
0
0
0
0
0
0
0
0
0
0
0
0
0
0
0
0
0
0
0
0
0
0
0
0
0
0
0
0
0
0
0
0
0
0
0
0
0
0
0
0
0
0
0
0
0
0
0
0
0
0
0
0
0
0
0
0
0
0
0
0
0
0
0
0
0
0
0
0
0
0
0
0
0
0
0
0
0
0
0
0
0
0
0
0
0
0
0
0
0
0
0
0
0
0
0
0
0
0
0
0
0
0
0
0
0
0
0
0
0
0
0
0
0
0
0
0
0
0
0
0
0
0
0
0
0
0
0
0
0
0
0
0
0
0
0
0
0
0
0
0
0
0
0
0
0
0
0
0
0
0
0
0
0
0
0
0
0
0
0
0
0
0
0
0
0
0
0
0
0
0
0
0
0
0
0
0
0
0
0
0
0
0
0
0
0
0
0
0
0
0
0
0
0
0
0
0
0
0
0
0
0
0
0
0
0
0
0
0
0
0
0
0
0
0
0
0
0
0
0
0
0
0
0
0
0
0
0
0
0
0
0
0
0
0
0
0
0
0
0
0
0
0
0
0
0
0
0
0
0
0
0
0
0
255
0
255
0
255
0
255
0
255
0
255
0
255
0
255
0
255
0
255
0
255
0
255
0
255
0
255
0
255
0
255
0
255
0
255
0
255
0
255
0
255
0
255
0
255
0
255
0
255
0
255
0
255
0
255
0
255
0
255
0
255
0
255
0
255
0
255
0
255
0
255
0
255
0
255
0
255
0
255
0
251
0
255
0
253
0
255
0
255
0
172
0
4
0
5
0
2
0
2
0
2
0
1
0
1
0
0
0
0
0
0
0
0
0
0
0
0
0
0
0
0
0
0
0
0
0
0
0
0
0
0
0
0
0
0
0
0
0
0
0
0
0
0
0
0
0
0
0
0
0
0
0
0
0
0
0
0
0
0
0
0
0
0
0
0
0
0
0
0
0
0
0
0
0
0
0
0
0
0
0
0
0
0
0
0
0
0
0
0
0
0
0
0
0
0
0
0
0
0
0
0
0
0
0
0
0
0
0
0
0
0
0
0
0
0
0
0
0
0
0
0
0
0
0
0
0
0
0
0
0
0
0
0
0
0
0
0
0
0
0
0
0
0
0
2
0
3
0
3
0
4
0
6
0
8
0
1
0
34
0
90
0
118
0
95
0
65
0
88
0
133
0
128
0
87
0
41
0
45
0
76
0
75
0
40
0
11
0
3
0
3
0
23
0
44
0
38
0
39
0
61
0
81
0
105
0
106
0
109
0
111
0
113
0
115
0
116
0
116
0
113
0
113
0
109
0
102
0
93
0
87
0
88
0
90
0
78
0
87
0
99
0
109
0
115
0
117
0
118
0
116
0
116
0
116
0
121
0
124
0
122
0
118
0
117
0
120
0
120
0
117
0
117
0
116
0
115
0
112
0
113
0
116
0
113
0
109
0
88
0
49
0
13
0
1
0
0
0
0
0
0
0
0
0
0
0
1
0
1
0
0
0
1
0
2
0
0
0
0
0
0
0
0
0
0
0
0
0
0
0
0
0
2
0
1
0
0
0
1
0
1
0
1
0
2
0
0
0
0
0
0
0
0
0
0
0
0
0
0
0
0
0
0
0
0
0
0
0
0
0
0
0
0
0
0
0
0
0
0
0
0
0
0
0
0
0
0
0
0
0
0
0
0
0
0
0
0
0
0
0
0
0
0
0
0
0
0
0
0
0
0
0
0
0
0
0
0
0
0
0
0
0
0
0
0
0
0
0
0
0
0
0
0
0
0
0
0
0
0
0
0
0
0
0
0
0
0
0
0
0
0
0
0
0
0
0
0
0
0
0
0
0
0
0
0
0
0
0
0
0
0
0
0
0
0
0
0
0
0
0
0
0
0
0
0
0
0
0
0
0
0
0
0
0
0
0
0
0
0
0
0
0
0
0
0
0
0
0
0
0
0
0
0
0
0
0
0
0
0
0
0
0
0
0
0
0
0
0
0
0
0
0
0
0
0
0
0
0
0
0
0
0
0
0
0
0
0
0
0
0
0
0
0
0
0
0
0
0
0
0
0
0
0
0
0
0
0
0
0
0
0
0
0
0
0
0
0
0
0
0
0
0
0
0
0
0
0
0
0
0
0
0
0
0
0
0
0
0
0
0
0
0
0
0
0
0
0
0
0
0
0
0
0
0
0
0
0
0
0
0
0
0
0
0
0
0
0
0
0
0
0
0
0
0
0
0
0
0
0
0
0
0
0
0
0
0
0
0
0
0
0
0
0
0
0
0
0
0
0
0
0
0
0
0
0
0
0
0
0
0
0
0
0
0
0
0
0
0
0
0
0
0
0
0
0
0
0
0
0
0
0
0
0
0
0
0
0
0
0
0
0
0
0
0
0
0
0
0
0
0
0
0
0
0
0
0
0
0
0
0
0
0
0
0
0
0
0
0
0
0
0
0
0
0
0
0
0
0
0
0
0
0
0
0
0
0
0
0
0
0
0
0
0
0
0
0
0
0
0
0
0
0
0
0
0
0
0
0
0
0
0
0
0
0
0
0
0
0
0
0
0
0
0
0
0
0
0
0
0
0
255
0
255
0
255
0
255
0
255
0
255
0
255
0
255
0
255
0
255
0
255
0
255
0
255
0
255
0
255
0
255
0
255
0
255
0
255
0
255
0
255
0
255
0
255
0
255
0
255
0
255
0
255
0
255
0
255
0
255
0
255
0
255
0
255
0
255
0
255
0
255
0
255
0
255
0
255
0
255
0
253
0
250
0
255
0
255
0
255
0
197
0
13
0
5
0
2
0
2
0
2
0
1
0
1
0
0
0
0
0
0
0
0
0
0
0
0
0
0
0
0
0
0
0
0
0
0
0
0
0
0
0
0
0
0
0
0
0
0
0
0
0
0
0
0
0
0
0
0
0
0
0
0
0
0
0
0
0
0
0
0
0
0
0
0
0
0
0
0
0
0
0
0
0
0
0
0
0
0
0
0
0
0
0
0
0
0
0
0
0
0
0
0
0
0
0
0
0
0
0
0
0
0
0
0
0
0
0
0
0
0
0
0
0
0
0
0
0
0
0
0
0
0
0
0
0
0
0
0
0
0
0
0
0
0
0
0
0
0
0
0
0
1
0
4
0
5
0
3
0
2
0
3
0
3
0
5
0
11
0
48
0
73
0
65
0
73
0
114
0
146
0
155
0
141
0
116
0
94
0
72
0
50
0
48
0
65
0
24
0
22
0
30
0
34
0
32
0
41
0
52
0
49
0
77
0
75
0
75
0
75
0
80
0
85
0
89
0
91
0
110
0
108
0
111
0
114
0
106
0
90
0
78
0
75
0
75
0
89
0
102
0
109
0
115
0
120
0
119
0
114
0
117
0
116
0
114
0
113
0
110
0
109
0
111
0
116
0
121
0
120
0
118
0
116
0
110
0
104
0
106
0
111
0
121
0
107
0
102
0
99
0
68
0
19
0
1
0
7
0
0
0
0
0
0
0
2
0
1
0
0
0
0
0
3
0
1
0
1
0
1
0
1
0
1
0
1
0
1
0
1
0
0
0
0
0
0
0
1
0
1
0
2
0
3
0
0
0
0
0
0
0
0
0
0
0
0
0
0
0
0
0
0
0
0
0
0
0
0
0
0
0
0
0
0
0
0
0
0
0
0
0
0
0
0
0
0
0
0
0
0
0
0
0
0
0
0
0
0
0
0
0
0
0
0
0
0
0
0
0
0
0
0
0
0
0
0
0
0
0
0
0
0
0
0
0
0
0
0
0
0
0
0
0
0
0
0
0
0
0
0
0
0
0
0
0
0
0
0
0
0
0
0
0
0
0
0
0
0
0
0
0
0
0
0
0
0
0
0
0
0
0
0
0
0
0
0
0
0
0
0
0
0
0
0
0
0
0
0
0
0
0
0
0
0
0
0
0
0
0
0
0
0
0
0
0
0
0
0
0
0
0
0
0
0
0
0
0
0
0
0
0
0
0
0
0
0
0
0
0
0
0
0
0
0
0
0
0
0
0
0
0
0
0
0
0
0
0
0
0
0
0
0
0
0
0
0
0
0
0
0
0
0
0
0
0
0
0
0
0
0
0
0
0
0
0
0
0
0
0
0
0
0
0
0
0
0
0
0
0
0
0
0
0
0
0
0
0
0
0
0
0
0
0
0
0
0
0
0
0
0
0
0
0
0
0
0
0
0
0
0
0
0
0
0
0
0
0
0
0
0
0
0
0
0
0
0
0
0
0
0
0
0
0
0
0
0
0
0
0
0
0
0
0
0
0
0
0
0
0
0
0
0
0
0
0
0
0
0
0
0
0
0
0
0
0
0
0
0
0
0
0
0
0
0
0
0
0
0
0
0
0
0
0
0
0
0
0
0
0
0
0
0
0
0
0
0
0
0
0
0
0
0
0
0
0
0
0
0
0
0
0
0
0
0
0
0
0
0
0
0
0
0
0
0
0
0
0
0
0
0
0
0
0
0
0
0
0
0
0
0
0
0
0
0
0
0
0
0
0
0
0
0
0
0
0
0
0
0
0
0
0
0
0
0
0
0
0
0
0
0
0
0
0
0
0
0
0
0
0
255
0
255
0
255
0
255
0
255
0
255
0
255
0
255
0
255
0
255
0
255
0
255
0
255
0
255
0
255
0
255
0
255
0
255
0
255
0
255
0
255
0
255
0
255
0
255
0
255
0
255
0
255
0
255
0
255
0
255
0
255
0
255
0
255
0
255
0
255
0
255
0
255
0
255
0
255
0
255
0
255
0
249
0
255
0
253
0
255
0
219
0
38
0
0
0
2
0
2
0
2
0
1
0
1
0
0
0
0
0
0
0
0
0
0
0
0
0
0
0
0
0
0
0
0
0
0
0
0
0
0
0
0
0
0
0
0
0
0
0
0
0
0
0
0
0
0
0
0
0
0
0
0
0
0
0
0
0
0
0
0
0
0
0
0
0
0
0
0
0
0
0
0
0
0
0
0
0
0
0
0
0
0
0
0
0
0
0
0
0
0
0
0
0
0
0
0
0
0
0
0
0
0
0
0
0
0
0
0
0
0
0
0
0
0
0
0
0
0
0
0
0
0
0
0
0
0
0
0
0
0
0
0
0
0
0
0
0
0
0
0
0
1
0
4
0
5
0
3
0
1
0
0
0
0
0
9
0
1
0
4
0
30
0
58
0
105
0
123
0
100
0
125
0
139
0
149
0
148
0
127
0
99
0
91
0
106
0
103
0
72
0
38
0
17
0
11
0
15
0
11
0
3
0
20
0
18
0
16
0
16
0
20
0
20
0
19
0
17
0
32
0
35
0
47
0
63
0
69
0
65
0
61
0
60
0
85
0
97
0
109
0
114
0
119
0
122
0
119
0
114
0
112
0
113
0
113
0
111
0
109
0
110
0
111
0
113
0
106
0
108
0
112
0
115
0
114
0
111
0
114
0
120
0
119
0
107
0
108
0
119
0
100
0
51
0
12
0
1
0
7
0
1
0
0
0
2
0
3
0
0
0
0
0
3
0
1
0
1
0
1
0
1
0
1
0
1
0
1
0
1
0
0
0
2
0
3
0
1
0
1
0
2
0
1
0
0
0
0
0
0
0
0
0
0
0
0
0
0
0
0
0
0
0
0
0
0
0
0
0
0
0
0
0
0
0
0
0
0
0
0
0
0
0
0
0
0
0
0
0
0
0
0
0
0
0
0
0
0
0
0
0
0
0
0
0
0
0
0
0
0
0
0
0
0
0
0
0
0
0
0
0
0
0
0
0
0
0
0
0
0
0
0
0
0
0
0
0
0
0
0
0
0
0
0
0
0
0
0
0
0
0
0
0
0
0
0
0
0
0
0
0
0
0
0
0
0
0
0
0
0
0
0
0
0
0
0
0
0
0
0
0
0
0
0
0
0
0
0
0
0
0
0
0
0
0
0
0
0
0
0
0
0
0
0
0
0
0
0
0
0
0
0
0
0
0
0
0
0
0
0
0
0
0
0
0
0
0
0
0
0
0
0
0
0
0
0
0
0
0
0
0
0
0
0
0
0
0
0
0
0
0
0
0
0
0
0
0
0
0
0
0
0
0
0
0
0
0
0
0
0
0
0
0
0
0
0
0
0
0
0
0
0
0
0
0
0
0
0
0
0
0
0
0
0
0
0
0
0
0
0
0
0
0
0
0
0
0
0
0
0
0
0
0
0
0
0
0
0
0
0
0
0
0
0
0
0
0
0
0
0
0
0
0
0
0
0
0
0
0
0
0
0
0
0
0
0
0
0
0
0
0
0
0
0
0
0
0
0
0
0
0
0
0
0
0
0
0
0
0
0
0
0
0
0
0
0
0
0
0
0
0
0
0
0
0
0
0
0
0
0
0
0
0
0
0
0
0
0
0
0
0
0
0
0
0
0
0
0
0
0
0
0
0
0
0
0
0
0
0
0
0
0
0
0
0
0
0
0
0
0
0
0
0
0
0
0
0
0
0
0
0
0
0
0
0
0
0
0
0
0
0
0
0
0
0
0
0
0
0
0
0
0
0
0
0
0
0
0
0
0
0
0
0
0
0
0
0
0
0
0
0
0
0
0
0
0
0
0
0
255
0
255
0
255
0
255
0
255
0
255
0
255
0
255
0
255
0
255
0
255
0
255
0
255
0
255
0
255
0
255
0
255
0
255
0
255
0
255
0
255
0
255
0
255
0
255
0
255
0
255
0
255
0
255
0
255
0
255
0
255
0
255
0
255
0
255
0
255
0
255
0
255
0
255
0
255
0
255
0
255
0
252
0
255
0
254
0
255
0
239
0
78
0
0
0
2
0
2
0
2
0
1
0
1
0
0
0
0
0
0
0
0
0
0
0
0
0
0
0
0
0
0
0
0
0
0
0
0
0
0
0
0
0
0
0
0
0
0
0
0
0
0
0
0
0
0
0
0
0
0
0
0
0
0
0
0
0
0
0
0
0
0
0
0
0
0
0
0
0
0
0
0
0
0
0
0
0
0
0
0
0
0
0
0
0
0
0
0
0
0
0
0
0
0
0
0
0
0
0
0
0
0
0
0
0
0
0
0
0
0
0
0
0
0
0
0
0
0
0
0
0
0
0
0
0
0
0
0
0
0
0
0
0
0
0
0
0
0
0
0
0
1
0
3
0
3
0
2
0
0
0
0
0
0
0
1
0
3
0
9
0
16
0
21
0
76
0
111
0
105
0
94
0
112
0
132
0
146
0
149
0
140
0
131
0
135
0
84
0
39
0
2
0
1
0
4
0
1
0
6
0
19
0
18
0
18
0
20
0
22
0
21
0
14
0
3
0
0
0
2
0
3
0
3
0
3
0
2
0
3
0
3
0
4
0
13
0
23
0
39
0
54
0
70
0
84
0
92
0
99
0
99
0
107
0
115
0
119
0
120
0
121
0
120
0
116
0
106
0
106
0
111
0
116
0
116
0
113
0
113
0
116
0
104
0
110
0
112
0
109
0
109
0
99
0
68
0
33
0
20
0
7
0
0
0
1
0
4
0
1
0
0
0
2
0
1
0
1
0
1
0
1
0
1
0
1
0
1
0
1
0
3
0
8
0
8
0
2
0
1
0
4
0
3
0
0
0
0
0
0
0
0
0
0
0
0
0
0
0
0
0
0
0
0
0
0
0
0
0
0
0
0
0
0
0
0
0
0
0
0
0
0
0
0
0
0
0
0
0
0
0
0
0
0
0
0
0
0
0
0
0
0
0
0
0
0
0
0
0
0
0
0
0
0
0
0
0
0
0
0
0
0
0
0
0
0
0
0
0
0
0
0
0
0
0
0
0
0
0
0
0
0
0
0
0
0
0
0
0
0
0
0
0
0
0
0
0
0
0
0
0
0
0
0
0
0
0
0
0
0
0
0
0
0
0
0
0
0
0
0
0
0
0
0
0
0
0
0
0
0
0
0
0
0
0
0
0
0
0
0
0
0
0
0
0
0
0
0
0
0
0
0
0
0
0
0
0
0
0
0
0
0
0
0
0
0
0
0
0
0
0
0
0
0
0
0
0
0
0
0
0
0
0
0
0
0
0
0
0
0
0
0
0
0
0
0
0
0
0
0
0
0
0
0
0
0
0
0
0
0
0
0
0
0
0
0
0
0
0
0
0
0
0
0
0
0
0
0
0
0
0
0
0
0
0
0
0
0
0
0
0
0
0
0
0
0
0
0
0
0
0
0
0
0
0
0
0
0
0
0
0
0
0
0
0
0
0
0
0
0
0
0
0
0
0
0
0
0
0
0
0
0
0
0
0
0
0
0
0
0
0
0
0
0
0
0
0
0
0
0
0
0
0
0
0
0
0
0
0
0
0
0
0
0
0
0
0
0
0
0
0
0
0
0
0
0
0
0
0
0
0
0
0
0
0
0
0
0
0
0
0
0
0
0
0
0
0
0
0
0
0
0
0
0
0
0
0
0
0
0
0
0
0
0
0
0
0
0
0
0
0
0
0
0
0
0
0
0
0
0
0
0
0
0
0
0
0
0
0
0
0
0
0
0
0
0
0
0
0
0
0
0
0
0
0
0
0
0
0
0
0
0
0
0
0
0
0
0
0
0
0
0
0
0
0
0
0
0
0
255
0
255
0
255
0
255
0
255
0
255
0
255
0
255
0
255
0
255
0
255
0
255
0
255
0
255
0
255
0
255
0
255
0
255
0
255
0
255
0
255
0
255
0
255
0
255
0
255
0
255
0
255
0
255
0
255
0
255
0
255
0
255
0
255
0
255
0
255
0
255
0
255
0
255
0
255
0
255
0
254
0
255
0
254
0
255
0
253
0
255
0
124
0
0
0
2
0
2
0
2
0
1
0
1
0
0
0
0
0
0
0
0
0
0
0
0
0
0
0
0
0
0
0
0
0
0
0
0
0
0
0
0
0
0
0
0
0
0
0
0
0
0
0
0
0
0
0
0
0
0
0
0
0
0
0
0
0
0
0
0
0
0
0
0
0
0
0
0
0
0
0
0
0
0
0
0
0
0
0
0
0
0
0
0
0
0
0
0
0
0
0
0
0
0
0
0
0
0
0
0
0
0
0
0
0
0
0
0
0
0
0
0
0
0
0
0
0
0
0
0
0
0
0
0
0
0
0
0
0
0
0
0
0
0
0
0
0
0
0
0
0
0
0
2
0
2
0
0
0
0
0
0
0
1
0
7
0
6
0
4
0
4
0
2
0
37
0
85
0
114
0
103
0
92
0
86
0
104
0
134
0
130
0
83
0
41
0
10
0
13
0
31
0
66
0
97
0
112
0
131
0
156
0
172
0
172
0
173
0
176
0
177
0
170
0
158
0
149
0
131
0
126
0
107
0
77
0
51
0
36
0
25
0
15
0
4
0
0
0
0
0
7
0
13
0
17
0
28
0
41
0
63
0
75
0
86
0
92
0
98
0
105
0
107
0
105
0
110
0
107
0
106
0
110
0
109
0
107
0
104
0
104
0
100
0
112
0
112
0
100
0
105
0
117
0
104
0
76
0
35
0
14
0
0
0
1
0
5
0
4
0
0
0
0
0
2
0
2
0
2
0
2
0
2
0
2
0
2
0
2
0
2
0
6
0
5
0
0
0
3
0
15
0
21
0
0
0
0
0
0
0
0
0
0
0
0
0
0
0
0
0
0
0
0
0
0
0
0
0
0
0
0
0
0
0
0
0
0
0
0
0
0
0
0
0
0
0
0
0
0
0
0
0
0
0
0
0
0
0
0
0
0
0
0
0
0
0
0
0
0
0
0
0
0
0
0
0
0
0
0
0
0
0
0
0
0
0
0
0
0
0
0
0
0
0
0
0
0
0
0
0
0
0
0
0
0
0
0
0
0
0
0
0
0
0
0
0
0
0
0
0
0
0
0
0
0
0
0
0
0
0
0
0
0
0
0
0
0
0
0
0
0
0
0
0
0
0
0
0
0
0
0
0
0
0
0
0
0
0
0
0
0
0
0
0
0
0
0
0
0
0
0
0
0
0
0
0
0
0
0
0
0
0
0
0
0
0
0
0
0
0
0
0
0
0
0
0
0
0
0
0
0
0
0
0
0
0
0
0
0
0
0
0
0
0
0
0
0
0
0
0
0
0
0
0
0
0
0
0
0
0
0
0
0
0
0
0
0
0
0
0
0
0
0
0
0
0
0
0
0
0
0
0
0
0
0
0
0
0
0
0
0
0
0
0
0
0
0
0
0
0
0
0
0
0
0
0
0
0
0
0
0
0
0
0
0
0
0
0
0
0
0
0
0
0
0
0
0
0
0
0
0
0
0
0
0
0
0
0
0
0
0
0
0
0
0
0
0
0
0
0
0
0
0
0
0
0
0
0
0
0
0
0
0
0
0
0
0
0
0
0
0
0
0
0
0
0
0
0
0
0
0
0
0
0
0
0
0
0
0
0
0
0
0
0
0
0
0
0
0
0
0
0
0
0
0
0
0
0
0
0
0
0
0
0
0
0
0
0
0
0
0
0
0
0
0
0
0
0
0
0
0
0
0
0
0
0
0
0
0
0
0
0
0
0
0
0
0
0
0
0
0
0
0
0
0
0
0
0
0
0
0
0
0
0
0
0
0
0
0
0
0
0
0
0
0
0
0
0
255
0
255
0
255
0
255
0
255
0
255
0
255
0
255
0
255
0
255
0
255
0
255
0
255
0
255
0
255
0
255
0
255
0
255
0
255
0
255
0
255
0
255
0
255
0
255
0
255
0
255
0
255
0
255
0
255
0
255
0
255
0
255
0
255
0
255
0
255
0
255
0
255
0
255
0
255
0
255
0
253
0
255
0
251
0
255
0
252
0
255
0
154
0
2
0
2
0
2
0
2
0
1
0
1
0
0
0
0
0
0
0
0
0
0
0
0
0
0
0
0
0
0
0
0
0
0
0
0
0
0
0
0
0
0
0
0
0
0
0
0
0
0
0
0
0
0
0
0
0
0
0
0
0
0
0
0
0
0
0
0
0
0
0
0
0
0
0
0
0
0
0
0
0
0
0
0
0
0
0
0
0
0
0
0
0
0
0
0
0
0
0
0
0
0
0
0
0
0
0
0
0
0
0
0
0
0
0
0
0
0
0
0
0
0
0
0
0
0
0
0
0
0
0
0
0
0
0
0
0
0
0
0
0
0
0
0
0
0
0
0
0
0
0
1
0
0
0
0
0
0
0
1
0
2
0
2
0
7
0
12
0
8
0
2
0
8
0
55
0
117
0
99
0
102
0
89
0
64
0
46
0
30
0
12
0
2
0
54
0
118
0
180
0
208
0
229
0
245
0
251
0
254
0
254
0
251
0
249
0
251
0
255
0
255
0
253
0
249
0
249
0
254
0
244
0
217
0
196
0
189
0
180
0
168
0
152
0
124
0
94
0
66
0
34
0
5
0
3
0
4
0
0
0
1
0
10
0
14
0
24
0
39
0
51
0
53
0
69
0
64
0
65
0
70
0
77
0
80
0
81
0
82
0
87
0
87
0
84
0
76
0
71
0
64
0
59
0
55
0
44
0
19
0
0
0
1
0
6
0
4
0
0
0
0
0
2
0
2
0
2
0
2
0
2
0
2
0
2
0
2
0
1
0
1
0
0
0
0
0
5
0
26
0
41
0
0
0
0
0
0
0
0
0
0
0
0
0
0
0
0
0
0
0
0
0
0
0
0
0
0
0
0
0
0
0
0
0
0
0
0
0
0
0
0
0
0
0
0
0
0
0
0
0
0
0
0
0
0
0
0
0
0
0
0
0
0
0
0
0
0
0
0
0
0
0
0
0
0
0
0
0
0
0
0
0
0
0
0
0
0
0
0
0
0
0
0
0
0
0
0
0
0
0
0
0
0
0
0
0
0
0
0
0
0
0
0
0
0
0
0
0
0
0
0
0
0
0
0
0
0
0
0
0
0
0
0
0
0
0
0
0
0
0
0
0
0
0
0
0
0
0
0
0
0
0
0
0
0
0
0
0
0
0
0
0
0
0
0
0
0
0
0
0
0
0
0
0
0
0
0
0
0
0
0
0
0
0
0
0
0
0
0
0
0
0
0
0
0
0
0
0
0
0
0
0
0
0
0
0
0
0
0
0
0
0
0
0
0
0
0
0
0
0
0
0
0
0
0
0
0
0
0
0
0
0
0
0
0
0
0
0
0
0
0
0
0
0
0
0
0
0
0
0
0
0
0
0
0
0
0
0
0
0
0
0
0
0
0
0
0
0
0
0
0
0
0
0
0
0
0
0
0
0
0
0
0
0
0
0
0
0
0
0
0
0
0
0
0
0
0
0
0
0
0
0
0
0
0
0
0
0
0
0
0
0
0
0
0
0
0
0
0
0
0
0
0
0
0
0
0
0
0
0
0
0
0
0
0
0
0
0
0
0
0
0
0
0
0
0
0
0
0
0
0
0
0
0
0
0
0
0
0
0
0
0
0
0
0
0
0
0
0
0
0
0
0
0
0
0
0
0
0
0
0
0
0
0
0
0
0
0
0
0
0
0
0
0
0
0
0
0
0
0
0
0
0
0
0
0
0
0
0
0
0
0
0
0
0
0
0
0
0
0
0
0
0
0
0
0
0
0
0
0
0
0
0
0
0
0
0
0
0
0
0
0
0
0
0
0
255
0
255
0
255
0
255
0
255
0
255
0
255
0
255
0
255
0
255
0
255
0
255
0
255
0
255
0
255
0
255
0
255
0
255
0
255
0
255
0
255
0
255
0
255
0
255
0
255
0
255
0
255
0
255
0
255
0
255
0
255
0
255
0
255
0
255
0
255
0
255
0
255
0
255
0
255
0
255
0
255
0
255
0
248
0
255
0
248
0
255
0
209
0
7
0
0
0
10
0
0
0
0
0
2
0
0
0
3
0
2
0
0
0
0
0
0
0
0
0
0
0
0
0
0
0
0
0
0
0
0
0
0
0
0
0
0
0
0
0
0
0
0
0
0
0
0
0
0
0
0
0
0
0
0
0
0
0
0
0
0
0
0
0
0
0
0
0
0
0
0
0
0
0
0
0
0
0
0
0
0
0
0
0
0
0
0
0
0
0
0
0
0
0
0
0
0
0
0
0
0
0
0
0
0
0
0
0
0
0
0
0
0
0
0
0
0
0
0
0
0
0
0
0
0
0
0
0
0
0
0
0
0
0
0
0
0
0
0
0
0
0
0
0
0
0
0
0
0
0
0
0
0
0
0
0
1
0
18
0
22
0
15
0
10
0
0
0
17
0
61
0
116
0
73
0
35
0
17
0
0
0
1
0
30
0
145
0
232
0
239
0
247
0
252
0
252
0
252
0
252
0
253
0
253
0
253
0
253
0
253
0
253
0
253
0
253
0
253
0
253
0
253
0
253
0
253
0
253
0
253
0
253
0
253
0
254
0
241
0
225
0
212
0
199
0
175
0
142
0
117
0
72
0
43
0
10
0
0
0
0
0
6
0
2
0
0
0
4
0
3
0
2
0
2
0
5
0
6
0
5
0
4
0
10
0
9
0
7
0
4
0
1
0
0
0
0
0
0
0
0
0
1
0
1
0
0
0
0
0
0
0
0
0
0
0
0
0
0
0
0
0
1
0
3
0
2
0
10
0
23
0
101
0
115
0
44
0
0
0
15
0
59
0
78
0
0
0
0
0
0
0
0
0
0
0
0
0
0
0
0
0
0
0
0
0
0
0
0
0
0
0
0
0
0
0
0
0
0
0
0
0
0
0
0
0
0
0
0
0
0
0
0
0
0
0
0
0
0
0
0
0
0
0
0
0
0
0
0
0
0
0
0
0
0
0
0
0
0
0
0
0
0
0
0
0
0
0
0
0
0
0
0
0
0
0
0
0
0
0
0
0
0
0
0
0
0
0
0
0
0
0
0
0
0
0
0
0
0
0
0
0
0
0
0
0
0
0
0
0
0
0
0
0
0
0
0
0
0
0
0
0
0
0
0
0
0
0
0
0
0
0
0
0
0
0
0
0
0
0
0
0
0
0
0
0
0
0
0
0
0
0
0
0
0
0
0
0
0
0
0
0
0
0
0
0
0
0
0
0
0
0
0
0
0
0
0
0
0
0
0
0
0
0
0
0
0
0
0
0
0
0
0
0
0
0
0
0
0
0
0
0
0
0
0
0
0
0
0
0
0
0
0
0
0
0
0
0
0
0
0
0
0
0
0
0
0
0
0
0
0
0
0
0
0
0
0
0
0
0
0
0
0
0
0
0
0
0
0
0
0
0
0
0
0
0
0
0
0
0
0
0
0
0
0
0
0
0
0
0
0
0
0
0
0
0
0
0
0
0
0
0
0
0
0
0
0
0
0
0
0
0
0
0
0
0
0
0
0
0
0
0
0
0
0
0
0
0
0
0
0
0
0
0
0
0
0
0
0
0
0
0
0
0
0
0
0
0
0
0
0
0
0
0
0
0
0
0
0
0
0
0
0
0
0
0
0
0
0
0
0
0
0
0
0
0
0
0
0
0
0
0
0
0
0
0
0
0
0
0
0
0
0
0
0
0
0
0
0
0
0
0
0
0
0
0
0
0
0
0
0
0
0
0
0
0
0
0
0
0
0
0
0
0
0
0
0
0
0
0
0
0
0
0
0
0
0
0
0
0
0
0
0
0
0
0
0
0
0
0
255
0
255
0
255
0
255
0
255
0
255
0
255
0
255
0
255
0
255
0
255
0
255
0
255
0
255
0
255
0
255
0
255
0
255
0
255
0
255
0
255
0
255
0
255
0
255
0
255
0
255
0
255
0
255
0
255
0
255
0
255
0
255
0
255
0
255
0
255
0
255
0
255
0
255
0
255
0
255
0
251
0
255
0
252
0
255
0
250
0
255
0
235
0
70
0
0
0
6
0
1
0
0
0
1
0
0
0
1
0
0
0
0
0
0
0
0
0
0
0
0
0
0
0
0
0
0
0
0
0
0
0
0
0
0
0
0
0
0
0
0
0
0
0
0
0
0
0
0
0
0
0
0
0
0
0
0
0
0
0
0
0
0
0
0
0
0
0
0
0
0
0
0
0
0
0
0
0
0
0
0
0
0
0
0
0
0
0
0
0
0
0
0
0
0
0
0
0
0
0
0
0
0
0
0
0
0
0
0
0
0
0
0
0
0
0
0
0
0
0
0
0
0
0
0
0
0
0
0
0
0
0
0
0
0
0
0
0
0
0
0
0
0
0
0
0
0
0
0
0
0
0
0
0
0
0
1
0
0
0
39
0
69
0
37
0
2
0
9
0
28
0
49
0
14
0
17
0
3
0
54
0
144
0
233
0
246
0
241
0
245
0
251
0
254
0
253
0
252
0
252
0
252
0
253
0
253
0
253
0
253
0
253
0
253
0
253
0
253
0
253
0
253
0
253
0
253
0
253
0
253
0
253
0
253
0
248
0
247
0
248
0
252
0
255
0
254
0
246
0
239
0
252
0
227
0
190
0
158
0
134
0
113
0
93
0
78
0
35
0
30
0
24
0
19
0
17
0
16
0
15
0
14
0
5
0
7
0
11
0
17
0
27
0
37
0
47
0
52
0
39
0
46
0
57
0
69
0
81
0
95
0
108
0
117
0
133
0
167
0
182
0
196
0
222
0
220
0
217
0
243
0
234
0
118
0
13
0
18
0
62
0
83
0
61
0
0
0
0
0
0
0
0
0
0
0
0
0
0
0
0
0
0
0
0
0
0
0
0
0
0
0
0
0
0
0
0
0
0
0
0
0
0
0
0
0
0
0
0
0
0
0
0
0
0
0
0
0
0
0
0
0
0
0
0
0
0
0
0
0
0
0
0
0
0
0
0
0
0
0
0
0
0
0
0
0
0
0
0
0
0
0
0
0
0
0
0
0
0
0
0
0
0
0
0
0
0
0
0
0
0
0
0
0
0
0
0
0
0
0
0
0
0
0
0
0
0
0
0
0
0
0
0
0
0
0
0
0
0
0
0
0
0
0
0
0
0
0
0
0
0
0
0
0
0
0
0
0
0
0
0
0
0
0
0
0
0
0
0
0
0
0
0
0
0
0
0
0
0
0
0
0
0
0
0
0
0
0
0
0
0
0
0
0
0
0
0
0
0
0
0
0
0
0
0
0
0
0
0
0
0
0
0
0
0
0
0
0
0
0
0
0
0
0
0
0
0
0
0
0
0
0
0
0
0
0
0
0
0
0
0
0
0
0
0
0
0
0
0
0
0
0
0
0
0
0
0
0
0
0
0
0
0
0
0
0
0
0
0
0
0
0
0
0
0
0
0
0
0
0
0
0
0
0
0
0
0
0
0
0
0
0
0
0
0
0
0
0
0
0
0
0
0
0
0
0
0
0
0
0
0
0
0
0
0
0
0
0
0
0
0
0
0
0
0
0
0
0
0
0
0
0
0
0
0
0
0
0
0
0
0
0
0
0
0
0
0
0
0
0
0
0
0
0
0
0
0
0
0
0
0
0
0
0
0
0
0
0
0
0
0
0
0
0
0
0
0
0
0
0
0
0
0
0
0
0
0
0
0
0
0
0
0
0
0
0
0
0
0
0
0
0
0
0
0
0
0
0
0
0
0
0
0
0
0
0
0
0
0
0
0
0
0
0
0
0
0
0
0
0
0
0
0
0
0
0
0
0
0
0
0
0
0
0
0
0
0
0
0
0
255
0
255
0
255
0
255
0
255
0
255
0
255
0
255
0
255
0
255
0
255
0
255
0
255
0
255
0
255
0
255
0
255
0
255
0
255
0
255
0
255
0
255
0
255
0
255
0
255
0
255
0
255
0
255
0
255
0
255
0
255
0
255
0
255
0
255
0
255
0
255
0
255
0
255
0
255
0
255
0
251
0
255
0
255
0
255
0
249
0
255
0
255
0
143
0
0
0
0
0
5
0
4
0
0
0
0
0
0
0
0
0
0
0
0
0
0
0
0
0
0
0
0
0
0
0
0
0
0
0
0
0
0
0
0
0
0
0
0
0
0
0
0
0
0
0
0
0
0
0
0
0
0
0
0
0
0
0
0
0
0
0
0
0
0
0
0
0
0
0
0
0
0
0
0
0
0
0
0
0
0
0
0
0
0
0
0
0
0
0
0
0
0
0
0
0
0
0
0
0
0
0
0
0
0
0
0
0
0
0
0
0
0
0
0
0
0
0
0
0
0
0
0
0
0
0
0
0
0
0
0
0
0
0
0
0
0
0
0
0
0
0
0
0
0
0
0
0
0
0
0
0
0
0
0
0
6
0
1
0
33
0
93
0
82
0
33
0
4
0
2
0
2
0
20
0
89
0
191
0
213
0
254
0
242
0
252
0
250
0
252
0
254
0
255
0
253
0
252
0
252
0
252
0
253
0
253
0
253
0
253
0
253
0
253
0
253
0
253
0
253
0
253
0
253
0
253
0
253
0
253
0
253
0
253
0
254
0
255
0
255
0
255
0
253
0
250
0
251
0
252
0
255
0
255
0
253
0
252
0
252
0
252
0
252
0
252
0
231
0
225
0
216
0
209
0
206
0
205
0
205
0
205
0
204
0
204
0
205
0
209
0
216
0
227
0
236
0
242
0
251
0
252
0
252
0
251
0
249
0
249
0
251
0
253
0
245
0
255
0
255
0
255
0
254
0
254
0
248
0
240
0
153
0
29
0
2
0
55
0
88
0
79
0
36
0
0
0
0
0
0
0
0
0
0
0
0
0
0
0
0
0
0
0
0
0
0
0
0
0
0
0
0
0
0
0
0
0
0
0
0
0
0
0
0
0
0
0
0
0
0
0
0
0
0
0
0
0
0
0
0
0
0
0
0
0
0
0
0
0
0
0
0
0
0
0
0
0
0
0
0
0
0
0
0
0
0
0
0
0
0
0
0
0
0
0
0
0
0
0
0
0
0
0
0
0
0
0
0
0
0
0
0
0
0
0
0
0
0
0
0
0
0
0
0
0
0
0
0
0
0
0
0
0
0
0
0
0
0
0
0
0
0
0
0
0
0
0
0
0
0
0
0
0
0
0
0
0
0
0
0
0
0
0
0
0
0
0
0
0
0
0
0
0
0
0
0
0
0
0
0
0
0
0
0
0
0
0
0
0
0
0
0
0
0
0
0
0
0
0
0
0
0
0
0
0
0
0
0
0
0
0
0
0
0
0
0
0
0
0
0
0
0
0
0
0
0
0
0
0
0
0
0
0
0
0
0
0
0
0
0
0
0
0
0
0
0
0
0
0
0
0
0
0
0
0
0
0
0
0
0
0
0
0
0
0
0
0
0
0
0
0
0
0
0
0
0
0
0
0
0
0
0
0
0
0
0
0
0
0
0
0
0
0
0
0
0
0
0
0
0
0
0
0
0
0
0
0
0
0
0
0
0
0
0
0
0
0
0
0
0
0
0
0
0
0
0
0
0
0
0
0
0
0
0
0
0
0
0
0
0
0
0
0
0
0
0
0
0
0
0
0
0
0
0
0
0
0
0
0
0
0
0
0
0
0
0
0
0
0
0
0
0
0
0
0
0
0
0
0
0
0
0
0
0
0
0
0
0
0
0
0
0
0
0
0
0
0
0
0
0
0
0
0
0
0
0
0
0
0
0
0
0
0
0
0
0
0
0
0
0
0
0
0
0
0
0
0
0
0
0
0
0
0
0
0
0
0
0
0
0
0
0
0
0
0
0
0
0
0
255
0
255
0
255
0
255
0
255
0
255
0
255
0
255
0
255
0
255
0
255
0
255
0
255
0
255
0
255
0
255
0
255
0
255
0
255
0
255
0
255
0
255
0
255
0
255
0
255
0
255
0
255
0
255
0
255
0
255
0
255
0
255
0
255
0
255
0
255
0
255
0
255
0
255
0
255
0
255
0
255
0
255
0
255
0
255
0
245
0
254
0
255
0
191
0
7
0
0
0
7
0
7
0
0
0
0
0
0
0
0
0
0
0
0
0
0
0
0
0
0
0
0
0
0
0
0
0
0
0
0
0
0
0
0
0
0
0
0
0
0
0
0
0
0
0
0
0
0
0
0
0
0
0
0
0
0
0
0
0
0
0
0
0
0
0
0
0
0
0
0
0
0
0
0
0
0
0
0
0
0
0
0
0
0
0
0
0
0
0
0
0
0
0
0
0
0
0
0
0
0
0
0
0
0
0
0
0
0
0
0
0
0
0
0
0
0
0
0
0
0
0
0
0
0
0
0
0
0
0
0
0
0
0
0
0
0
0
0
0
0
0
0
0
0
0
0
0
0
0
0
0
0
0
0
0
4
0
1
0
6
0
52
0
105
0
90
0
32
0
4
0
1
0
43
0
198
0
251
0
254
0
243
0
255
0
249
0
254
0
254
0
254
0
253
0
253
0
252
0
253
0
253
0
254
0
254
0
254
0
254
0
254
0
254
0
254
0
254
0
254
0
254
0
254
0
254
0
254
0
254
0
254
0
254
0
253
0
255
0
255
0
253
0
248
0
246
0
247
0
250
0
249
0
253
0
255
0
255
0
255
0
255
0
255
0
255
0
255
0
255
0
253
0
250
0
250
0
251
0
252
0
252
0
255
0
255
0
253
0
251
0
250
0
252
0
254
0
255
0
250
0
251
0
252
0
253
0
254
0
255
0
255
0
255
0
255
0
242
0
255
0
255
0
236
0
255
0
253
0
170
0
25
0
3
0
60
0
98
0
93
0
65
0
10
0
0
0
0
0
0
0
0
0
0
0
0
0
0
0
0
0
0
0
0
0
0
0
0
0
0
0
0
0
0
0
0
0
0
0
0
0
0
0
0
0
0
0
0
0
0
0
0
0
0
0
0
0
0
0
0
0
0
0
0
0
0
0
0
0
0
0
0
0
0
0
0
0
0
0
0
0
0
0
0
0
0
0
0
0
0
0
0
0
0
0
0
0
0
0
0
0
0
0
0
0
0
0
0
0
0
0
0
0
0
0
0
0
0
0
0
0
0
0
0
0
0
0
0
0
0
0
0
0
0
0
0
0
0
0
0
0
0
0
0
0
0
0
0
0
0
0
0
0
0
0
0
0
0
0
0
0
0
0
0
0
0
0
0
0
0
0
0
0
0
0
0
0
0
0
0
0
0
0
0
0
0
0
0
0
0
0
0
0
0
0
0
0
0
0
0
0
0
0
0
0
0
0
0
0
0
0
0
0
0
0
0
0
0
0
0
0
0
0
0
0
0
0
0
0
0
0
0
0
0
0
0
0
0
0
0
0
0
0
0
0
0
0
0
0
0
0
0
0
0
0
0
0
0
0
0
0
0
0
0
0
0
0
0
0
0
0
0
0
0
0
0
0
0
0
0
0
0
0
0
0
0
0
0
0
0
0
0
0
0
0
0
0
0
0
0
0
0
0
0
0
0
0
0
0
0
0
0
0
0
0
0
0
0
0
0
0
0
0
0
0
0
0
0
0
0
0
0
0
0
0
0
0
0
0
0
0
0
0
0
0
0
0
0
0
0
0
0
0
0
0
0
0
0
0
0
0
0
0
0
0
0
0
0
0
0
0
0
0
0
0
0
0
0
0
0
0
0
0
0
0
0
0
0
0
0
0
0
0
0
0
0
0
0
0
0
0
0
0
0
0
0
0
0
0
0
0
0
0
0
0
0
0
0
0
0
0
0
0
0
0
0
0
0
0
0
0
0
0
0
0
0
0
0
0
0
0
0
0
0
0
0
0
0
0
255
0
255
0
255
0
255
0
255
0
255
0
255
0
255
0
255
0
255
0
255
0
255
0
255
0
255
0
255
0
255
0
255
0
255
0
255
0
255
0
255
0
255
0
255
0
255
0
255
0
255
0
255
0
255
0
255
0
255
0
255
0
255
0
255
0
255
0
255
0
255
0
255
0
255
0
255
0
255
0
255
0
255
0
254
0
255
0
248
0
252
0
252
0
219
0
42
0
0
0
5
0
7
0
0
0
4
0
0
0
1
0
0
0
0
0
0
0
0
0
0
0
0
0
0
0
0
0
0
0
0
0
0
0
0
0
0
0
0
0
0
0
0
0
0
0
0
0
0
0
0
0
0
0
0
0
0
0
0
0
0
0
0
0
0
0
0
0
0
0
0
0
0
0
0
0
0
0
0
0
0
0
0
0
0
0
0
0
0
0
0
0
0
0
0
0
0
0
0
0
0
0
0
0
0
0
0
0
0
0
0
0
0
0
0
0
0
0
0
0
0
0
0
0
0
0
0
0
0
0
0
0
0
0
0
0
0
0
0
0
0
0
0
0
0
0
0
0
0
0
0
0
0
0
0
0
4
0
9
0
1
0
5
0
77
0
123
0
94
0
50
0
0
0
0
0
105
0
254
0
245
0
254
0
251
0
252
0
252
0
251
0
250
0
251
0
252
0
253
0
254
0
255
0
254
0
254
0
254
0
254
0
254
0
254
0
254
0
254
0
254
0
254
0
254
0
254
0
254
0
254
0
254
0
254
0
253
0
254
0
255
0
255
0
255
0
255
0
255
0
255
0
252
0
252
0
252
0
254
0
255
0
253
0
249
0
246
0
253
0
252
0
253
0
255
0
255
0
255
0
255
0
255
0
253
0
254
0
254
0
255
0
255
0
255
0
255
0
254
0
255
0
255
0
255
0
255
0
255
0
254
0
252
0
251
0
255
0
239
0
252
0
255
0
251
0
251
0
176
0
43
0
10
0
39
0
89
0
89
0
86
0
62
0
0
0
0
0
0
0
0
0
0
0
0
0
0
0
0
0
0
0
0
0
0
0
0
0
0
0
0
0
0
0
0
0
0
0
0
0
0
0
0
0
0
0
0
0
0
0
0
0
0
0
0
0
0
0
0
0
0
0
0
0
0
0
0
0
0
0
0
0
0
0
0
0
0
0
0
0
0
0
0
0
0
0
0
0
0
0
0
0
0
0
0
0
0
0
0
0
0
0
0
0
0
0
0
0
0
0
0
0
0
0
0
0
0
0
0
0
0
0
0
0
0
0
0
0
0
0
0
0
0
0
0
0
0
0
0
0
0
0
0
0
0
0
0
0
0
0
0
0
0
0
0
0
0
0
0
0
0
0
0
0
0
0
0
0
0
0
0
0
0
0
0
0
0
0
0
0
0
0
0
0
0
0
0
0
0
0
0
0
0
0
0
0
0
0
0
0
0
0
0
0
0
0
0
0
0
0
0
0
0
0
0
0
0
0
0
0
0
0
0
0
0
0
0
0
0
0
0
0
0
0
0
0
0
0
0
0
0
0
0
0
0
0
0
0
0
0
0
0
0
0
0
0
0
0
0
0
0
0
0
0
0
0
0
0
0
0
0
0
0
0
0
0
0
0
0
0
0
0
0
0
0
0
0
0
0
0
0
0
0
0
0
0
0
0
0
0
0
0
0
0
0
0
0
0
0
0
0
0
0
0
0
0
0
0
0
0
0
0
0
0
0
0
0
0
0
0
0
0
0
0
0
0
0
0
0
0
0
0
0
0
0
0
0
0
0
0
0
0
0
0
0
0
0
0
0
0
0
0
0
0
0
0
0
0
0
0
0
0
0
0
0
0
0
0
0
0
0
0
0
0
0
0
0
0
0
0
0
0
0
0
0
0
0
0
0
0
0
0
0
0
0
0
0
0
0
0
0
0
0
0
0
0
0
0
0
0
0
0
0
0
0
0
0
0
0
0
0
0
0
0
0
0
0
0
0
0
0
0
0
0
0
0
0
0
0
0
255
0
255
0
255
0
255
0
255
0
255
0
255
0
255
0
255
0
255
0
255
0
255
0
255
0
255
0
255
0
255
0
255
0
255
0
255
0
255
0
255
0
255
0
255
0
255
0
255
0
255
0
255
0
255
0
255
0
255
0
255
0
255
0
255
0
255
0
255
0
255
0
255
0
255
0
255
0
255
0
255
0
255
0
254
0
254
0
255
0
255
0
252
0
241
0
96
0
7
0
1
0
5
0
0
0
6
0
0
0
2
0
0
0
0
0
0
0
0
0
0
0
0
0
0
0
0
0
0
0
0
0
0
0
0
0
0
0
0
0
0
0
0
0
0
0
0
0
0
0
0
0
0
0
0
0
0
0
0
0
0
0
0
0
0
0
0
0
0
0
0
0
0
0
0
0
0
0
0
0
0
0
0
0
0
0
0
0
0
0
0
0
0
0
0
0
0
0
0
0
0
0
0
0
0
0
0
0
0
0
0
0
0
0
0
0
0
0
0
0
0
0
0
0
0
0
0
0
0
0
0
0
0
0
0
0
0
0
0
0
0
0
0
0
0
0
0
0
0
0
0
0
0
0
0
0
3
0
5
0
4
0
1
0
24
0
105
0
140
0
102
0
70
0
0
0
1
0
102
0
251
0
252
0
236
0
253
0
250
0
249
0
248
0
250
0
253
0
255
0
255
0
254
0
255
0
255
0
255
0
255
0
255
0
255
0
255
0
255
0
255
0
255
0
255
0
255
0
255
0
255
0
255
0
255
0
255
0
254
0
253
0
255
0
255
0
255
0
249
0
244
0
255
0
255
0
254
0
255
0
255
0
255
0
255
0
255
0
251
0
251
0
253
0
255
0
255
0
255
0
255
0
253
0
252
0
253
0
255
0
255
0
255
0
255
0
255
0
253
0
255
0
254
0
254
0
255
0
255
0
255
0
255
0
254
0
247
0
255
0
247
0
249
0
255
0
215
0
86
0
1
0
28
0
64
0
86
0
78
0
72
0
37
0
0
0
0
0
0
0
0
0
0
0
0
0
0
0
0
0
0
0
0
0
0
0
0
0
0
0
0
0
0
0
0
0
0
0
0
0
0
0
0
0
0
0
0
0
0
0
0
0
0
0
0
0
0
0
0
0
0
0
0
0
0
0
0
0
0
0
0
0
0
0
0
0
0
0
0
0
0
0
0
0
0
0
0
0
0
0
0
0
0
0
0
0
0
0
0
0
0
0
0
0
0
0
0
0
0
0
0
0
0
0
0
0
0
0
0
0
0
0
0
0
0
0
0
0
0
0
0
0
0
0
0
0
0
0
0
0
0
0
0
0
0
0
0
0
0
0
0
0
0
0
0
0
0
0
0
0
0
0
0
0
0
0
0
0
0
0
0
0
0
0
0
0
0
0
0
0
0
0
0
0
0
0
0
0
0
0
0
0
0
0
0
0
0
0
0
0
0
0
0
0
0
0
0
0
0
0
0
0
0
0
0
0
0
0
0
0
0
0
0
0
0
0
0
0
0
0
0
0
0
0
0
0
0
0
0
0
0
0
0
0
0
0
0
0
0
0
0
0
0
0
0
0
0
0
0
0
0
0
0
0
0
0
0
0
0
0
0
0
0
0
0
0
0
0
0
0
0
0
0
0
0
0
0
0
0
0
0
0
0
0
0
0
0
0
0
0
0
0
0
0
0
0
0
0
0
0
0
0
0
0
0
0
0
0
0
0
0
0
0
0
0
0
0
0
0
0
0
0
0
0
0
0
0
0
0
0
0
0
0
0
0
0
0
0
0
0
0
0
0
0
0
0
0
0
0
0
0
0
0
0
0
0
0
0
0
0
0
0
0
0
0
0
0
0
0
0
0
0
0
0
0
0
0
0
0
0
0
0
0
0
0
0
0
0
0
0
0
0
0
0
0
0
0
0
0
0
0
0
0
0
0
0
0
0
0
0
0
0
0
0
0
0
0
0
0
0
0
0
0
0
0
0
0
0
0
0
0
0
0
0
0
0
0
0
0
0
255
0
255
0
255
0
255
0
255
0
255
0
255
0
255
0
255
0
255
0
255
0
255
0
255
0
255
0
255
0
255
0
255
0
255
0
255
0
255
0
255
0
255
0
255
0
255
0
255
0
255
0
255
0
255
0
255
0
255
0
255
0
255
0
255
0
255
0
255
0
255
0
255
0
255
0
255
0
255
0
255
0
255
0
255
0
251
0
255
0
255
0
250
0
254
0
154
0
23
0
0
0
2
0
0
0
6
0
0
0
0
0
0
0
0
0
0
0
0
0
0
0
0
0
0
0
0
0
0
0
0
0
0
0
0
0
0
0
0
0
0
0
0
0
0
0
0
0
0
0
0
0
0
0
0
0
0
0
0
0
0
0
0
0
0
0
0
0
0
0
0
0
0
0
0
0
0
0
0
0
0
0
0
0
0
0
0
0
0
0
0
0
0
0
0
0
0
0
0
0
0
0
0
0
0
0
0
0
0
0
0
0
0
0
0
0
0
0
0
0
0
0
0
0
0
0
0
0
0
0
0
0
0
0
0
0
0
0
0
0
0
0
0
0
0
0
0
0
0
0
0
0
0
0
0
0
2
0
4
0
11
0
0
0
5
0
60
0
117
0
125
0
88
0
88
0
2
0
1
0
142
0
253
0
246
0
253
0
251
0
250
0
250
0
252
0
255
0
255
0
255
0
253
0
255
0
255
0
255
0
255
0
255
0
255
0
255
0
255
0
255
0
255
0
255
0
255
0
255
0
255
0
255
0
255
0
250
0
251
0
252
0
255
0
255
0
255
0
255
0
255
0
255
0
255
0
255
0
255
0
255
0
254
0
253
0
252
0
255
0
254
0
253
0
253
0
254
0
254
0
252
0
250
0
255
0
255
0
255
0
255
0
255
0
253
0
252
0
251
0
255
0
255
0
255
0
255
0
255
0
255
0
254
0
251
0
255
0
255
0
242
0
242
0
249
0
134
0
13
0
18
0
65
0
96
0
101
0
95
0
60
0
6
0
0
0
0
0
0
0
0
0
0
0
0
0
0
0
0
0
0
0
0
0
0
0
0
0
0
0
0
0
0
0
0
0
0
0
0
0
0
0
0
0
0
0
0
0
0
0
0
0
0
0
0
0
0
0
0
0
0
0
0
0
0
0
0
0
0
0
0
0
0
0
0
0
0
0
0
0
0
0
0
0
0
0
0
0
0
0
0
0
0
0
0
0
0
0
0
0
0
0
0
0
0
0
0
0
0
0
0
0
0
0
0
0
0
0
0
0
0
0
0
0
0
0
0
0
0
0
0
0
0
0
0
0
0
0
0
0
0
0
0
0
0
0
0
0
0
0
0
0
0
0
0
0
0
0
0
0
0
0
0
0
0
0
0
0
0
0
0
0
0
0
0
0
0
0
0
0
0
0
0
0
0
0
0
0
0
0
0
0
0
0
0
0
0
0
0
0
0
0
0
0
0
0
0
0
0
0
0
0
0
0
0
0
0
0
0
0
0
0
0
0
0
0
0
0
0
0
0
0
0
0
0
0
0
0
0
0
0
0
0
0
0
0
0
0
0
0
0
0
0
0
0
0
0
0
0
0
0
0
0
0
0
0
0
0
0
0
0
0
0
0
0
0
0
0
0
0
0
0
0
0
0
0
0
0
0
0
0
0
0
0
0
0
0
0
0
0
0
0
0
0
0
0
0
0
0
0
0
0
0
0
0
0
0
0
0
0
0
0
0
0
0
0
0
0
0
0
0
0
0
0
0
0
0
0
0
0
0
0
0
0
0
0
0
0
0
0
0
0
0
0
0
0
0
0
0
0
0
0
0
0
0
0
0
0
0
0
0
0
0
0
0
0
0
0
0
0
0
0
0
0
0
0
0
0
0
0
0
0
0
0
0
0
0
0
0
0
0
0
0
0
0
0
0
0
0
0
0
0
0
0
0
0
0
0
0
0
0
0
0
0
0
0
0
0
0
0
0
0
0
0
0
0
0
0
0
0
0
0
0
0
0
0
0
0
0
0
255
0
255
0
255
0
255
0
255
0
255
0
255
0
255
0
255
0
255
0
255
0
255
0
255
0
255
0
255
0
255
0
255
0
255
0
255
0
255
0
255
0
255
0
255
0
255
0
255
0
255
0
255
0
255
0
255
0
255
0
255
0
255
0
255
0
255
0
255
0
255
0
255
0
255
0
255
0
255
0
254
0
255
0
255
0
248
0
255
0
255
0
244
0
255
0
192
0
34
0
0
0
1
0
0
0
5
0
0
0
0
0
0
0
0
0
0
0
0
0
0
0
0
0
0
0
0
0
0
0
0
0
0
0
0
0
0
0
0
0
0
0
0
0
0
0
0
0
0
0
0
0
0
0
0
0
0
0
0
0
0
0
0
0
0
0
0
0
0
0
0
0
0
0
0
0
0
0
0
0
0
0
0
0
0
0
0
0
0
0
0
0
0
0
0
0
0
0
0
0
0
0
0
0
0
0
0
0
0
0
0
0
0
0
0
0
0
0
0
0
0
0
0
0
0
0
0
0
0
0
0
0
0
0
0
0
0
0
0
0
0
0
0
0
0
0
0
0
0
0
0
0
0
0
0
0
1
0
10
0
3
0
1
0
11
0
28
0
68
0
126
0
134
0
104
0
74
0
6
0
32
0
172
0
254
0
244
0
254
0
253
0
252
0
254
0
255
0
255
0
254
0
251
0
255
0
255
0
255
0
255
0
255
0
255
0
255
0
255
0
255
0
255
0
255
0
255
0
255
0
255
0
255
0
255
0
255
0
255
0
255
0
255
0
251
0
250
0
251
0
253
0
248
0
251
0
255
0
255
0
254
0
254
0
255
0
255
0
255
0
255
0
253
0
252
0
253
0
255
0
255
0
255
0
251
0
251
0
250
0
251
0
253
0
255
0
255
0
255
0
255
0
255
0
254
0
254
0
255
0
255
0
251
0
247
0
254
0
254
0
245
0
255
0
227
0
76
0
0
0
43
0
79
0
92
0
75
0
74
0
38
0
1
0
11
0
0
0
0
0
0
0
0
0
0
0
0
0
0
0
0
0
0
0
0
0
0
0
0
0
0
0
0
0
0
0
0
0
0
0
0
0
0
0
0
0
0
0
0
0
0
0
0
0
0
0
0
0
0
0
0
0
0
0
0
0
0
0
0
0
0
0
0
0
0
0
0
0
0
0
0
0
0
0
0
0
0
0
0
0
0
0
0
0
0
0
0
0
0
0
0
0
0
0
0
0
0
0
0
0
0
0
0
0
0
0
0
0
0
0
0
0
0
0
0
0
0
0
0
0
0
0
0
0
0
0
0
0
0
0
0
0
0
0
0
0
0
0
0
0
0
0
0
0
0
0
0
0
0
0
0
0
0
0
0
0
0
0
0
0
0
0
0
0
0
0
0
0
0
0
0
0
0
0
0
0
0
0
0
0
0
0
0
0
0
0
0
0
0
0
0
0
0
0
0
0
0
0
0
0
0
0
0
0
0
0
0
0
0
0
0
0
0
0
0
0
0
0
0
0
0
0
0
0
0
0
0
0
0
0
0
0
0
0
0
0
0
0
0
0
0
0
0
0
0
0
0
0
0
0
0
0
0
0
0
0
0
0
0
0
0
0
0
0
0
0
0
0
0
0
0
0
0
0
0
0
0
0
0
0
0
0
0
0
0
0
0
0
0
0
0
0
0
0
0
0
0
0
0
0
0
0
0
0
0
0
0
0
0
0
0
0
0
0
0
0
0
0
0
0
0
0
0
0
0
0
0
0
0
0
0
0
0
0
0
0
0
0
0
0
0
0
0
0
0
0
0
0
0
0
0
0
0
0
0
0
0
0
0
0
0
0
0
0
0
0
0
0
0
0
0
0
0
0
0
0
0
0
0
0
0
0
0
0
0
0
0
0
0
0
0
0
0
0
0
0
0
0
0
0
0
0
0
0
0
0
0
0
0
0
0
0
0
0
0
0
0
0
0
0
0
0
0
0
0
0
0
0
0
0
0
0
0
0
0
0
0
0
0
0
255
0
255
0
255
0
255
0
255
0
255
0
255
0
255
0
255
0
255
0
255
0
255
0
255
0
255
0
255
0
255
0
255
0
255
0
255
0
255
0
255
0
255
0
255
0
255
0
255
0
255
0
255
0
255
0
255
0
255
0
255
0
255
0
255
0
255
0
255
0
255
0
255
0
255
0
255
0
255
0
255
0
255
0
255
0
254
0
254
0
253
0
253
0
253
0
230
0
101
0
5
0
0
0
3
0
3
0
0
0
0
0
1
0
0
0
0
0
0
0
2
0
3
0
1
0
0
0
0
0
0
0
0
0
0
0
0
0
0
0
0
0
0
0
0
0
0
0
0
0
0
0
0
0
0
0
0
0
0
0
0
0
0
0
0
0
0
0
0
0
0
0
0
0
0
0
1
0
1
0
0
0
1
0
2
0
2
0
2
0
1
0
0
0
0
0
2
0
3
0
2
0
2
0
3
0
4
0
0
0
0
0
0
0
0
0
0
0
0
0
0
0
0
0
0
0
0
0
0
0
0
0
0
0
0
0
0
0
0
0
0
0
0
0
0
0
1
0
1
0
2
0
2
0
1
0
1
0
2
0
2
0
7
0
8
0
4
0
45
0
118
0
117
0
132
0
107
0
82
0
5
0
46
0
224
0
251
0
248
0
250
0
255
0
255
0
250
0
253
0
255
0
252
0
255
0
255
0
255
0
255
0
255
0
255
0
255
0
255
0
255
0
255
0
255
0
255
0
255
0
255
0
255
0
255
0
255
0
255
0
255
0
255
0
255
0
255
0
255
0
255
0
255
0
255
0
255
0
255
0
255
0
255
0
255
0
255
0
255
0
255
0
255
0
255
0
255
0
255
0
255
0
255
0
255
0
255
0
255
0
255
0
255
0
255
0
255
0
255
0
255
0
254
0
254
0
255
0
255
0
255
0
253
0
250
0
255
0
252
0
245
0
249
0
160
0
2
0
18
0
60
0
87
0
85
0
87
0
59
0
9
0
1
0
8
0
0
0
0
0
0
0
0
0
0
0
0
0
0
0
0
0
0
0
0
0
0
0
0
0
0
0
0
0
0
0
0
0
0
0
0
0
0
0
0
0
0
0
0
0
0
0
0
0
0
0
0
0
0
0
0
0
0
0
0
0
0
0
0
0
0
0
0
0
0
0
0
0
0
0
0
0
0
0
0
0
0
0
0
0
0
0
0
0
0
0
0
0
0
0
0
0
0
0
0
0
0
0
0
0
0
0
0
0
0
0
0
0
0
0
0
0
0
0
0
0
0
0
0
0
0
0
0
0
0
0
0
0
0
0
0
0
0
0
0
0
0
0
0
0
0
0
0
0
0
0
0
0
0
0
0
0
0
0
0
0
0
0
0
0
0
0
0
0
0
0
0
0
0
0
0
0
0
0
0
0
0
0
0
0
0
0
0
0
0
0
0
0
0
0
0
0
0
0
0
0
0
0
0
0
0
0
0
0
0
0
0
0
0
0
0
0
0
0
0
0
0
0
0
0
0
0
0
0
0
0
0
0
0
0
0
0
0
0
0
0
0
0
0
0
0
0
0
0
0
0
0
0
0
0
0
0
0
0
0
0
0
0
0
0
0
0
0
0
0
0
0
0
0
0
0
0
0
0
0
0
0
0
0
0
0
0
0
0
0
0
0
0
0
0
0
0
0
0
0
0
0
0
0
0
0
0
0
0
0
0
0
0
0
0
0
0
0
0
0
0
0
0
0
0
0
0
0
0
0
0
0
0
0
0
0
0
0
0
0
0
0
0
0
0
0
0
0
0
0
0
0
0
0
0
0
0
0
0
0
0
0
0
0
0
0
0
0
0
0
0
0
0
0
0
0
0
0
0
0
0
0
0
0
0
0
0
0
0
0
0
0
0
0
0
0
0
0
0
0
0
0
0
0
0
0
0
0
0
0
0
0
0
0
0
0
0
0
0
0
0
0
0
0
0
0
0
0
0
0
0
0
0
0
0
0
0
0
0
0
0
0
0
0
0
255
0
255
0
255
0
255
0
255
0
255
0
255
0
255
0
255
0
255
0
255
0
255
0
255
0
255
0
255
0
255
0
255
0
255
0
255
0
255
0
255
0
255
0
255
0
255
0
255
0
255
0
255
0
255
0
255
0
255
0
255
0
255
0
255
0
255
0
255
0
255
0
255
0
255
0
255
0
255
0
255
0
255
0
255
0
254
0
254
0
253
0
253
0
253
0
244
0
145
0
0
0
0
0
2
0
0
0
0
0
1
0
2
0
0
0
0
0
0
0
2
0
2
0
1
0
0
0
0
0
0
0
0
0
0
0
0
0
0
0
0
0
0
0
0
0
0
0
0
0
0
0
0
0
0
0
0
0
0
0
0
0
0
0
0
0
0
0
0
0
0
0
0
0
0
0
2
0
1
0
0
0
0
0
1
0
1
0
1
0
1
0
2
0
1
0
0
0
0
0
2
0
3
0
0
0
0
0
0
0
0
0
0
0
0
0
0
0
0
0
0
0
0
0
0
0
0
0
0
0
0
0
0
0
0
0
0
0
0
0
2
0
2
0
2
0
1
0
0
0
0
0
0
0
0
0
0
0
2
0
1
0
1
0
4
0
3
0
24
0
77
0
125
0
123
0
118
0
113
0
66
0
18
0
109
0
253
0
249
0
247
0
255
0
254
0
245
0
255
0
254
0
252
0
255
0
255
0
255
0
255
0
255
0
255
0
255
0
255
0
255
0
255
0
255
0
255
0
255
0
255
0
255
0
255
0
255
0
255
0
255
0
255
0
255
0
255
0
255
0
255
0
255
0
255
0
255
0
255
0
255
0
255
0
255
0
255
0
255
0
255
0
255
0
255
0
255
0
255
0
255
0
255
0
255
0
255
0
255
0
255
0
255
0
255
0
255
0
255
0
255
0
254
0
254
0
255
0
255
0
255
0
253
0
250
0
253
0
254
0
251
0
233
0
84
0
2
0
28
0
84
0
85
0
90
0
80
0
39
0
3
0
0
0
7
0
0
0
0
0
0
0
0
0
0
0
0
0
0
0
0
0
0
0
0
0
0
0
0
0
0
0
0
0
0
0
0
0
0
0
0
0
0
0
0
0
0
0
0
0
0
0
0
0
0
0
0
0
0
0
0
0
0
0
0
0
0
0
0
0
0
0
0
0
0
0
0
0
0
0
0
0
0
0
0
0
0
0
0
0
0
0
0
0
0
0
0
0
0
0
0
0
0
0
0
0
0
0
0
0
0
0
0
0
0
0
0
0
0
0
0
0
0
0
0
0
0
0
0
0
0
0
0
0
0
0
0
0
0
0
0
0
0
0
0
0
0
0
0
0
0
0
0
0
0
0
0
0
0
0
0
0
0
0
0
0
0
0
0
0
0
0
0
0
0
0
0
0
0
0
0
0
0
0
0
0
0
0
0
0
0
0
0
0
0
0
0
0
0
0
0
0
0
0
0
0
0
0
0
0
0
0
0
0
0
0
0
0
0
0
0
0
0
0
0
0
0
0
0
0
0
0
0
0
0
0
0
0
0
0
0
0
0
0
0
0
0
0
0
0
0
0
0
0
0
0
0
0
0
0
0
0
0
0
0
0
0
0
0
0
0
0
0
0
0
0
0
0
0
0
0
0
0
0
0
0
0
0
0
0
0
0
0
0
0
0
0
0
0
0
0
0
0
0
0
0
0
0
0
0
0
0
0
0
0
0
0
0
0
0
0
0
0
0
0
0
0
0
0
0
0
0
0
0
0
0
0
0
0
0
0
0
0
0
0
0
0
0
0
0
0
0
0
0
0
0
0
0
0
0
0
0
0
0
0
0
0
0
0
0
0
0
0
0
0
0
0
0
0
0
0
0
0
0
0
0
0
0
0
0
0
0
0
0
0
0
0
0
0
0
0
0
0
0
0
0
0
0
0
0
0
0
0
0
0
0
0
0
0
0
0
0
0
0
0
0
0
0
0
0
0
0
0
0
0
0
0
0
0
0
0
0
0
0
0
0
0
0
0
0
255
0
255
0
255
0
255
0
255
0
255
0
255
0
255
0
255
0
255
0
255
0
255
0
255
0
255
0
255
0
255
0
255
0
255
0
255
0
255
0
255
0
255
0
255
0
255
0
255
0
255
0
255
0
255
0
255
0
255
0
255
0
255
0
255
0
255
0
255
0
255
0
255
0
255
0
255
0
255
0
255
0
255
0
255
0
254
0
254
0
253
0
253
0
253
0
255
0
201
0
26
0
2
0
8
0
1
0
2
0
0
0
3
0
1
0
0
0
0
0
1
0
2
0
1
0
0
0
0
0
0
0
0
0
0
0
0
0
0
0
0
0
0
0
0
0
0
0
0
0
0
0
0
0
0
0
0
0
0
0
0
0
0
0
0
0
0
0
0
0
0
0
0
0
0
0
0
0
0
0
1
0
1
0
2
0
2
0
3
0
3
0
9
0
6
0
2
0
3
0
9
0
12
0
5
0
0
0
0
0
0
0
0
0
0
0
0
0
0
0
0
0
0
0
0
0
0
0
0
0
0
0
0
0
0
0
0
0
0
0
5
0
9
0
11
0
10
0
7
0
4
0
3
0
5
0
4
0
4
0
1
0
1
0
3
0
1
0
5
0
27
0
105
0
116
0
135
0
127
0
120
0
33
0
10
0
212
0
255
0
247
0
255
0
249
0
249
0
255
0
249
0
255
0
255
0
255
0
255
0
255
0
255
0
255
0
255
0
255
0
255
0
255
0
255
0
255
0
255
0
255
0
255
0
255
0
255
0
255
0
255
0
255
0
255
0
255
0
255
0
255
0
255
0
255
0
255
0
255
0
255
0
255
0
255
0
255
0
255
0
255
0
255
0
255
0
255
0
255
0
255
0
255
0
255
0
255
0
255
0
255
0
255
0
255
0
255
0
255
0
255
0
254
0
254
0
255
0
255
0
255
0
253
0
250
0
251
0
254
0
253
0
192
0
10
0
3
0
44
0
97
0
85
0
93
0
63
0
15
0
0
0
3
0
3
0
0
0
0
0
0
0
0
0
0
0
0
0
0
0
0
0
0
0
0
0
0
0
0
0
0
0
0
0
0
0
0
0
0
0
0
0
0
0
0
0
0
0
0
0
0
0
0
0
0
0
0
0
0
0
0
0
0
0
0
0
0
0
0
0
0
0
0
0
0
0
0
0
0
0
0
0
0
0
0
0
0
0
0
0
0
0
0
0
0
0
0
0
0
0
0
0
0
0
0
0
0
0
0
0
0
0
0
0
0
0
0
0
0
0
0
0
0
0
0
0
0
0
0
0
0
0
0
0
0
0
0
0
0
0
0
0
0
0
0
0
0
0
0
0
0
0
0
0
0
0
0
0
0
0
0
0
0
0
0
0
0
0
0
0
0
0
0
0
0
0
0
0
0
0
0
0
0
0
0
0
0
0
0
0
0
0
0
0
0
0
0
0
0
0
0
0
0
0
0
0
0
0
0
0
0
0
0
0
0
0
0
0
0
0
0
0
0
0
0
0
0
0
0
0
0
0
0
0
0
0
0
0
0
0
0
0
0
0
0
0
0
0
0
0
0
0
0
0
0
0
0
0
0
0
0
0
0
0
0
0
0
0
0
0
0
0
0
0
0
0
0
0
0
0
0
0
0
0
0
0
0
0
0
0
0
0
0
0
0
0
0
0
0
0
0
0
0
0
0
0
0
0
0
0
0
0
0
0
0
0
0
0
0
0
0
0
0
0
0
0
0
0
0
0
0
0
0
0
0
0
0
0
0
0
0
0
0
0
0
0
0
0
0
0
0
0
0
0
0
0
0
0
0
0
0
0
0
0
0
0
0
0
0
0
0
0
0
0
0
0
0
0
0
0
0
0
0
0
0
0
0
0
0
0
0
0
0
0
0
0
0
0
0
0
0
0
0
0
0
0
0
0
0
0
0
0
0
0
0
0
0
0
0
0
0
0
0
0
0
0
0
0
0
0
0
0
0
0
0
0
0
0
0
0
0
0
0
0
0
0
0
0
0
0
255
0
255
0
255
0
255
0
255
0
255
0
255
0
255
0
255
0
255
0
255
0
255
0
255
0
255
0
255
0
255
0
255
0
255
0
255
0
255
0
255
0
255
0
255
0
255
0
255
0
255
0
255
0
255
0
255
0
255
0
255
0
255
0
255
0
255
0
255
0
255
0
255
0
255
0
255
0
255
0
255
0
255
0
255
0
254
0
254
0
253
0
253
0
253
0
255
0
236
0
97
0
0
0
14
0
5
0
6
0
0
0
4
0
2
0
0
0
0
0
0
0
1
0
1
0
0
0
0
0
0
0
0
0
0
0
0
0
0
0
0
0
0
0
0
0
0
0
0
0
0
0
0
0
0
0
0
0
0
0
0
0
0
0
0
0
0
0
0
0
0
0
0
0
0
0
0
0
0
0
3
0
5
0
5
0
4
0
3
0
3
0
2
0
3
0
2
0
1
0
6
0
12
0
8
0
0
0
0
0
0
0
0
0
0
0
0
0
0
0
0
0
0
0
0
0
0
0
0
0
0
0
0
0
0
0
0
0
0
0
2
0
1
0
2
0
2
0
1
0
1
0
2
0
2
0
1
0
4
0
1
0
1
0
6
0
4
0
0
0
1
0
54
0
101
0
142
0
118
0
133
0
98
0
17
0
79
0
233
0
255
0
243
0
244
0
255
0
252
0
250
0
255
0
255
0
255
0
255
0
255
0
255
0
255
0
255
0
255
0
255
0
255
0
255
0
255
0
255
0
255
0
255
0
255
0
255
0
255
0
255
0
255
0
255
0
255
0
255
0
255
0
255
0
255
0
255
0
255
0
255
0
255
0
255
0
255
0
255
0
255
0
255
0
255
0
255
0
255
0
255
0
255
0
255
0
255
0
255
0
255
0
255
0
255
0
255
0
255
0
255
0
254
0
254
0
255
0
255
0
255
0
253
0
250
0
252
0
250
0
252
0
125
0
1
0
24
0
62
0
90
0
89
0
83
0
41
0
1
0
0
0
1
0
0
0
0
0
0
0
0
0
0
0
0
0
0
0
0
0
0
0
0
0
0
0
0
0
0
0
0
0
0
0
0
0
0
0
0
0
0
0
0
0
0
0
0
0
0
0
0
0
0
0
0
0
0
0
0
0
0
0
0
0
0
0
0
0
0
0
0
0
0
0
0
0
0
0
0
0
0
0
0
0
0
0
0
0
0
0
0
0
0
0
0
0
0
0
0
0
0
0
0
0
0
0
0
0
0
0
0
0
0
0
0
0
0
0
0
0
0
0
0
0
0
0
0
0
0
0
0
0
0
0
0
0
0
0
0
0
0
0
0
0
0
0
0
0
0
0
0
0
0
0
0
0
0
0
0
0
0
0
0
0
0
0
0
0
0
0
0
0
0
0
0
0
0
0
0
0
0
0
0
0
0
0
0
0
0
0
0
0
0
0
0
0
0
0
0
0
0
0
0
0
0
0
0
0
0
0
0
0
0
0
0
0
0
0
0
0
0
0
0
0
0
0
0
0
0
0
0
0
0
0
0
0
0
0
0
0
0
0
0
0
0
0
0
0
0
0
0
0
0
0
0
0
0
0
0
0
0
0
0
0
0
0
0
0
0
0
0
0
0
0
0
0
0
0
0
0
0
0
0
0
0
0
0
0
0
0
0
0
0
0
0
0
0
0
0
0
0
0
0
0
0
0
0
0
0
0
0
0
0
0
0
0
0
0
0
0
0
0
0
0
0
0
0
0
0
0
0
0
0
0
0
0
0
0
0
0
0
0
0
0
0
0
0
0
0
0
0
0
0
0
0
0
0
0
0
0
0
0
0
0
0
0
0
0
0
0
0
0
0
0
0
0
0
0
0
0
0
0
0
0
0
0
0
0
0
0
0
0
0
0
0
0
0
0
0
0
0
0
0
0
0
0
0
0
0
0
0
0
0
0
0
0
0
0
0
0
0
0
0
0
0
0
0
0
0
0
0
0
0
0
0
0
0
0
0
0
0
0
0
0
0
0
0
0
0
0
255
0
255
0
255
0
255
0
255
0
255
0
255
0
255
0
255
0
255
0
255
0
255
0
255
0
255
0
255
0
255
0
255
0
255
0
255
0
255
0
255
0
255
0
255
0
255
0
255
0
255
0
255
0
255
0
255
0
255
0
255
0
255
0
255
0
255
0
255
0
255
0
255
0
255
0
255
0
255
0
255
0
255
0
255
0
254
0
254
0
253
0
253
0
253
0
255
0
245
0
177
0
0
0
6
0
1
0
7
0
5
0
5
0
3
0
0
0
0
0
0
0
1
0
1
0
0
0
0
0
0
0
0
0
0
0
0
0
0
0
0
0
0
0
0
0
0
0
0
0
0
0
0
0
0
0
0
0
0
0
0
0
0
0
0
0
0
0
0
0
0
0
0
0
0
0
1
0
1
0
4
0
5
0
2
0
1
0
0
0
0
0
2
0
8
0
11
0
2
0
1
0
0
0
0
0
0
0
0
0
0
0
0
0
0
0
0
0
0
0
0
0
0
0
0
0
0
0
0
0
0
0
0
0
0
0
0
0
0
0
1
0
4
0
6
0
5
0
1
0
1
0
1
0
1
0
1
0
1
0
3
0
3
0
6
0
7
0
1
0
0
0
13
0
59
0
116
0
124
0
129
0
144
0
83
0
3
0
146
0
255
0
247
0
246
0
255
0
243
0
255
0
255
0
255
0
255
0
255
0
255
0
255
0
255
0
255
0
255
0
255
0
255
0
255
0
255
0
255
0
255
0
255
0
255
0
255
0
255
0
255
0
255
0
255
0
255
0
255
0
255
0
255
0
255
0
255
0
255
0
255
0
255
0
255
0
255
0
255
0
255
0
255
0
255
0
255
0
255
0
255
0
255
0
255
0
255
0
255
0
255
0
255
0
255
0
255
0
255
0
255
0
254
0
254
0
255
0
255
0
255
0
253
0
250
0
254
0
253
0
249
0
51
0
8
0
37
0
79
0
90
0
89
0
62
0
18
0
1
0
6
0
1
0
0
0
0
0
0
0
0
0
0
0
0
0
0
0
0
0
0
0
0
0
0
0
0
0
0
0
0
0
0
0
0
0
0
0
0
0
0
0
0
0
0
0
0
0
0
0
0
0
0
0
0
0
0
0
0
0
0
0
0
0
0
0
0
0
0
0
0
0
0
0
0
0
0
0
0
0
0
0
0
0
0
0
0
0
0
0
0
0
0
0
0
0
0
0
0
0
0
0
0
0
0
0
0
0
0
0
0
0
0
0
0
0
0
0
0
0
0
0
0
0
0
0
0
0
0
0
0
0
0
0
0
0
0
0
0
0
0
0
0
0
0
0
0
0
0
0
0
0
0
0
0
0
0
0
0
0
0
0
0
0
0
0
0
0
0
0
0
0
0
0
0
0
0
0
0
0
0
0
0
0
0
0
0
0
0
0
0
0
0
0
0
0
0
0
0
0
0
0
0
0
0
0
0
0
0
0
0
0
0
0
0
0
0
0
0
0
0
0
0
0
0
0
0
0
0
0
0
0
0
0
0
0
0
0
0
0
0
0
0
0
0
0
0
0
0
0
0
0
0
0
0
0
0
0
0
0
0
0
0
0
0
0
0
0
0
0
0
0
0
0
0
0
0
0
0
0
0
0
0
0
0
0
0
0
0
0
0
0
0
0
0
0
0
0
0
0
0
0
0
0
0
0
0
0
0
0
0
0
0
0
0
0
0
0
0
0
0
0
0
0
0
0
0
0
0
0
0
0
0
0
0
0
0
0
0
0
0
0
0
0
0
0
0
0
0
0
0
0
0
0
0
0
0
0
0
0
0
0
0
0
0
0
0
0
0
0
0
0
0
0
0
0
0
0
0
0
0
0
0
0
0
0
0
0
0
0
0
0
0
0
0
0
0
0
0
0
0
0
0
0
0
0
0
0
0
0
0
0
0
0
0
0
0
0
0
0
0
0
0
0
0
0
0
0
0
0
0
0
0
0
0
0
0
0
0
0
0
0
0
0
0
0
0
0
0
0
255
0
255
0
255
0
255
0
255
0
255
0
255
0
255
0
255
0
255
0
255
0
255
0
255
0
255
0
255
0
255
0
255
0
255
0
255
0
255
0
255
0
255
0
255
0
255
0
255
0
255
0
255
0
255
0
255
0
255
0
255
0
255
0
255
0
255
0
255
0
255
0
255
0
255
0
255
0
255
0
255
0
255
0
255
0
254
0
254
0
253
0
253
0
253
0
255
0
247
0
227
0
27
0
0
0
0
0
3
0
11
0
6
0
3
0
0
0
0
0
0
0
0
0
0
0
0
0
0
0
0
0
0
0
0
0
0
0
0
0
0
0
0
0
0
0
0
0
0
0
0
0
0
0
0
0
0
0
0
0
0
0
0
0
0
0
0
0
0
0
0
0
0
0
0
0
1
0
2
0
3
0
2
0
1
0
0
0
4
0
7
0
35
0
45
0
43
0
20
0
1
0
0
0
1
0
1
0
0
0
0
0
0
0
0
0
0
0
0
0
0
0
0
0
0
0
0
0
0
0
0
0
0
0
0
0
0
0
0
0
8
0
7
0
6
0
5
0
4
0
4
0
3
0
2
0
0
0
0
0
2
0
1
0
1
0
4
0
3
0
1
0
4
0
8
0
64
0
130
0
130
0
139
0
126
0
15
0
48
0
210
0
254
0
255
0
253
0
244
0
255
0
243
0
255
0
255
0
255
0
255
0
255
0
255
0
255
0
255
0
255
0
255
0
255
0
255
0
255
0
255
0
255
0
255
0
255
0
255
0
255
0
255
0
255
0
255
0
255
0
255
0
255
0
255
0
255
0
255
0
255
0
255
0
255
0
255
0
255
0
255
0
255
0
255
0
255
0
255
0
255
0
255
0
255
0
255
0
255
0
255
0
255
0
255
0
255
0
255
0
255
0
254
0
254
0
255
0
255
0
255
0
253
0
250
0
254
0
255
0
233
0
3
0
18
0
40
0
89
0
100
0
77
0
38
0
3
0
2
0
8
0
1
0
0
0
0
0
0
0
0
0
0
0
0
0
0
0
0
0
0
0
0
0
0
0
0
0
0
0
0
0
0
0
0
0
0
0
0
0
0
0
0
0
0
0
0
0
0
0
0
0
0
0
0
0
0
0
0
0
0
0
0
0
0
0
0
0
0
0
0
0
0
0
0
0
0
0
0
0
0
0
0
0
0
0
0
0
0
0
0
0
0
0
0
0
0
0
0
0
0
0
0
0
0
0
0
0
0
0
0
0
0
0
0
0
0
0
0
0
0
0
0
0
0
0
0
0
0
0
0
0
0
0
0
0
0
0
0
0
0
0
0
0
0
0
0
0
0
0
0
0
0
0
0
0
0
0
0
0
0
0
0
0
0
0
0
0
0
0
0
0
0
0
0
0
0
0
0
0
0
0
0
0
0
0
0
0
0
0
0
0
0
0
0
0
0
0
0
0
0
0
0
0
0
0
0
0
0
0
0
0
0
0
0
0
0
0
0
0
0
0
0
0
0
0
0
0
0
0
0
0
0
0
0
0
0
0
0
0
0
0
0
0
0
0
0
0
0
0
0
0
0
0
0
0
0
0
0
0
0
0
0
0
0
0
0
0
0
0
0
0
0
0
0
0
0
0
0
0
0
0
0
0
0
0
0
0
0
0
0
0
0
0
0
0
0
0
0
0
0
0
0
0
0
0
0
0
0
0
0
0
0
0
0
0
0
0
0
0
0
0
0
0
0
0
0
0
0
0
0
0
0
0
0
0
0
0
0
0
0
0
0
0
0
0
0
0
0
0
0
0
0
0
0
0
0
0
0
0
0
0
0
0
0
0
0
0
0
0
0
0
0
0
0
0
0
0
0
0
0
0
0
0
0
0
0
0
0
0
0
0
0
0
0
0
0
0
0
0
0
0
0
0
0
0
0
0
0
0
0
0
0
0
0
0
0
0
0
0
0
0
0
0
0
0
0
0
0
0
0
0
0
0
0
0
0
0
0
0
0
0
0
0
0
0
0
0
0
0
255
0
255
0
255
0
255
0
255
0
255
0
255
0
255
0
255
0
255
0
255
0
255
0
255
0
255
0
255
0
255
0
255
0
255
0
255
0
255
0
255
0
255
0
255
0
255
0
255
0
255
0
255
0
255
0
255
0
255
0
255
0
255
0
255
0
255
0
255
0
255
0
255
0
255
0
255
0
255
0
255
0
255
0
255
0
254
0
254
0
253
0
253
0
253
0
252
0
255
0
242
0
120
0
5
0
1
0
0
0
8
0
7
0
4
0
0
0
0
0
0
0
0
0
0
0
0
0
0
0
0
0
0
0
0
0
0
0
0
0
0
0
0
0
0
0
0
0
0
0
0
0
0
0
0
0
0
0
0
0
0
0
0
0
0
0
0
0
0
0
0
0
0
0
0
0
2
0
2
0
2
0
1
0
4
0
16
0
32
0
45
0
73
0
82
0
72
0
40
0
11
0
2
0
4
0
4
0
0
0
0
0
0
0
0
0
0
0
0
0
0
0
0
0
0
0
0
0
0
0
0
0
0
0
0
0
0
0
0
0
0
0
0
0
0
0
1
0
2
0
8
0
10
0
10
0
13
0
6
0
4
0
2
0
1
0
1
0
3
0
2
0
8
0
1
0
14
0
88
0
122
0
127
0
131
0
92
0
20
0
103
0
218
0
255
0
246
0
253
0
255
0
247
0
255
0
255
0
255
0
255
0
255
0
255
0
255
0
255
0
255
0
255
0
255
0
255
0
255
0
255
0
255
0
255
0
255
0
255
0
255
0
255
0
255
0
255
0
255
0
255
0
255
0
255
0
255
0
255
0
255
0
255
0
255
0
255
0
255
0
255
0
255
0
255
0
255
0
255
0
255
0
255
0
255
0
255
0
255
0
255
0
255
0
255
0
255
0
255
0
255
0
254
0
254
0
255
0
255
0
255
0
253
0
250
0
254
0
255
0
194
0
0
0
21
0
54
0
91
0
91
0
55
0
17
0
1
0
3
0
2
0
1
0
0
0
0
0
0
0
0
0
0
0
0
0
0
0
0
0
0
0
0
0
0
0
0
0
0
0
0
0
0
0
0
0
0
0
0
0
0
0
0
0
0
0
0
0
0
0
0
0
0
0
0
0
0
0
0
0
0
0
0
0
0
0
0
0
0
0
0
0
0
0
0
0
0
0
0
0
0
0
0
0
0
0
0
0
0
0
0
0
0
0
0
0
0
0
0
0
0
0
0
0
0
0
0
0
0
0
0
0
0
0
0
0
0
0
0
0
0
0
0
0
0
0
0
0
0
0
0
0
0
0
0
0
0
0
0
0
0
0
0
0
0
0
0
0
0
0
0
0
0
0
0
0
0
0
0
0
0
0
0
0
0
0
0
0
0
0
0
0
0
0
0
0
0
0
0
0
0
0
0
0
0
0
0
0
0
0
0
0
0
0
0
0
0
0
0
0
0
0
0
0
0
0
0
0
0
0
0
0
0
0
0
0
0
0
0
0
0
0
0
0
0
0
0
0
0
0
0
0
0
0
0
0
0
0
0
0
0
0
0
0
0
0
0
0
0
0
0
0
0
0
0
0
0
0
0
0
0
0
0
0
0
0
0
0
0
0
0
0
0
0
0
0
0
0
0
0
0
0
0
0
0
0
0
0
0
0
0
0
0
0
0
0
0
0
0
0
0
0
0
0
0
0
0
0
0
0
0
0
0
0
0
0
0
0
0
0
0
0
0
0
0
0
0
0
0
0
0
0
0
0
0
0
0
0
0
0
0
0
0
0
0
0
0
0
0
0
0
0
0
0
0
0
0
0
0
0
0
0
0
0
0
0
0
0
0
0
0
0
0
0
0
0
0
0
0
0
0
0
0
0
0
0
0
0
0
0
0
0
0
0
0
0
0
0
0
0
0
0
0
0
0
0
0
0
0
0
0
0
0
0
0
0
0
0
0
0
0
0
0
0
0
0
0
0
0
0
0
0
0
0
0
0
0
0
0
0
0
0
0
0
0
0
0
0
0
0
255
0
255
0
255
0
255
0
255
0
255
0
255
0
255
0
255
0
255
0
255
0
255
0
255
0
255
0
255
0
255
0
255
0
255
0
255
0
255
0
255
0
255
0
255
0
255
0
255
0
255
0
255
0
255
0
255
0
255
0
255
0
255
0
255
0
255
0
255
0
255
0
255
0
255
0
255
0
255
0
255
0
255
0
255
0
254
0
254
0
253
0
253
0
253
0
245
0
255
0
240
0
208
0
27
0
14
0
0
0
0
0
8
0
4
0
0
0
0
0
0
0
0
0
0
0
0
0
0
0
0
0
0
0
0
0
0
0
0
0
0
0
0
0
0
0
0
0
0
0
0
0
0
0
0
0
0
0
0
0
0
0
0
0
0
0
0
0
0
0
0
0
0
0
0
0
1
0
1
0
1
0
3
0
14
0
37
0
67
0
88
0
85
0
91
0
78
0
41
0
10
0
0
0
1
0
2
0
0
0
0
0
0
0
0
0
0
0
0
0
0
0
0
0
0
0
0
0
0
0
0
0
0
0
0
0
0
0
0
0
5
0
1
0
3
0
11
0
29
0
44
0
49
0
50
0
34
0
16
0
7
0
6
0
1
0
2
0
4
0
2
0
5
0
4
0
1
0
28
0
107
0
132
0
124
0
142
0
46
0
7
0
165
0
255
0
249
0
255
0
248
0
255
0
255
0
255
0
255
0
255
0
255
0
255
0
255
0
255
0
255
0
255
0
255
0
255
0
255
0
255
0
255
0
255
0
255
0
255
0
255
0
255
0
255
0
255
0
255
0
255
0
255
0
255
0
255
0
255
0
255
0
255
0
255
0
255
0
255
0
255
0
255
0
255
0
255
0
255
0
255
0
255
0
255
0
255
0
255
0
255
0
255
0
255
0
255
0
255
0
255
0
254
0
254
0
255
0
255
0
255
0
253
0
250
0
255
0
251
0
156
0
3
0
24
0
77
0
90
0
69
0
37
0
8
0
1
0
1
0
1
0
1
0
5
0
0
0
0
0
0
0
0
0
0
0
0
0
0
0
0
0
0
0
0
0
0
0
0
0
0
0
0
0
0
0
0
0
0
0
0
0
0
0
0
0
0
0
0
0
0
0
0
0
0
0
0
0
0
0
0
0
0
0
0
0
0
0
0
0
0
0
0
0
0
0
0
0
0
0
0
0
0
0
0
0
0
0
0
0
0
0
0
0
0
0
0
0
0
0
0
0
0
0
0
0
0
0
0
0
0
0
0
0
0
0
0
0
0
0
0
0
0
0
0
0
0
0
0
0
0
0
0
0
0
0
0
0
0
0
0
0
0
0
0
0
0
0
0
0
0
0
0
0
0
0
0
0
0
0
0
0
0
0
0
0
0
0
0
0
0
0
0
0
0
0
0
0
0
0
0
0
0
0
0
0
0
0
0
0
0
0
0
0
0
0
0
0
0
0
0
0
0
0
0
0
0
0
0
0
0
0
0
0
0
0
0
0
0
0
0
0
0
0
0
0
0
0
0
0
0
0
0
0
0
0
0
0
0
0
0
0
0
0
0
0
0
0
0
0
0
0
0
0
0
0
0
0
0
0
0
0
0
0
0
0
0
0
0
0
0
0
0
0
0
0
0
0
0
0
0
0
0
0
0
0
0
0
0
0
0
0
0
0
0
0
0
0
0
0
0
0
0
0
0
0
0
0
0
0
0
0
0
0
0
0
0
0
0
0
0
0
0
0
0
0
0
0
0
0
0
0
0
0
0
0
0
0
0
0
0
0
0
0
0
0
0
0
0
0
0
0
0
0
0
0
0
0
0
0
0
0
0
0
0
0
0
0
0
0
0
0
0
0
0
0
0
0
0
0
0
0
0
0
0
0
0
0
0
0
0
0
0
0
0
0
0
0
0
0
0
0
0
0
0
0
0
0
0
0
0
0
0
0
0
0
0
0
0
0
0
0
0
0
0
0
0
0
0
0
0
0
0
0
0
0
0
0
0
0
0
0
0
0
0
0
0
0
0
0
255
0
255
0
255
0
255
0
255
0
255
0
255
0
255
0
255
0
255
0
255
0
255
0
255
0
255
0
255
0
255
0
255
0
255
0
255
0
255
0
255
0
255
0
255
0
255
0
255
0
255
0
255
0
255
0
255
0
255
0
255
0
255
0
255
0
255
0
255
0
255
0
255
0
255
0
255
0
255
0
255
0
255
0
255
0
255
0
255
0
255
0
255
0
255
0
250
0
255
0
250
0
248
0
144
0
0
0
0
0
6
0
7
0
6
0
1
0
0
0
1
0
0
0
0
0
10
0
0
0
0
0
0
0
0
0
0
0
0
0
0
0
0
0
0
0
0
0
0
0
0
0
0
0
0
0
0
0
0
0
1
0
1
0
1
0
1
0
1
0
1
0
1
0
1
0
2
0
1
0
4
0
31
0
62
0
73
0
76
0
83
0
76
0
86
0
80
0
49
0
17
0
3
0
2
0
4
0
0
0
0
0
0
0
0
0
0
0
0
0
0
0
0
0
0
0
0
0
0
0
1
0
1
0
2
0
2
0
2
0
4
0
1
0
26
0
60
0
76
0
98
0
109
0
95
0
93
0
81
0
58
0
30
0
4
0
1
0
0
0
11
0
6
0
10
0
1
0
2
0
47
0
111
0
140
0
136
0
110
0
36
0
36
0
255
0
253
0
254
0
254
0
248
0
253
0
253
0
253
0
254
0
254
0
255
0
255
0
255
0
255
0
255
0
255
0
255
0
255
0
255
0
255
0
255
0
255
0
255
0
255
0
255
0
255
0
255
0
255
0
255
0
255
0
255
0
255
0
255
0
255
0
255
0
255
0
255
0
255
0
255
0
255
0
255
0
255
0
255
0
255
0
255
0
255
0
255
0
255
0
255
0
255
0
255
0
255
0
255
0
255
0
255
0
255
0
255
0
255
0
255
0
255
0
255
0
252
0
254
0
71
0
7
0
30
0
90
0
87
0
59
0
2
0
2
0
2
0
1
0
1
0
0
0
0
0
0
0
0
0
0
0
0
0
0
0
0
0
0
0
0
0
0
0
0
0
0
0
0
0
0
0
0
0
0
0
0
0
0
0
0
0
0
0
0
0
0
0
0
0
0
0
0
0
0
0
0
0
0
0
0
0
0
0
0
0
0
0
0
0
0
0
0
0
0
0
0
0
0
0
0
0
0
0
0
0
0
0
0
0
0
0
0
0
0
0
0
0
0
0
0
0
0
0
0
0
0
0
0
0
0
0
0
0
0
0
0
0
0
0
0
0
0
0
0
0
0
0
0
0
0
0
0
0
0
0
0
0
0
0
0
0
0
0
0
0
0
0
0
0
0
0
0
0
0
0
0
0
0
0
0
0
0
0
0
0
0
0
0
0
0
0
0
0
0
0
0
0
0
0
0
0
0
0
0
0
0
0
0
0
0
0
0
0
0
0
0
0
0
0
0
0
0
0
0
0
0
0
0
0
0
0
0
0
0
0
0
0
0
0
0
0
0
0
0
0
0
0
0
0
0
0
0
0
0
0
0
0
0
0
0
0
0
0
0
0
0
0
0
0
0
0
0
0
0
0
0
0
0
0
0
0
0
0
0
0
0
0
0
0
0
0
0
0
0
0
0
0
0
0
0
0
0
0
0
0
0
0
0
0
0
0
0
0
0
0
0
0
0
0
0
0
0
0
0
0
0
0
0
0
0
0
0
0
0
0
0
0
0
0
0
0
0
0
0
0
0
0
0
0
0
0
0
0
0
0
0
0
0
0
0
0
0
0
0
0
0
0
0
0
0
0
0
0
0
0
0
0
0
0
0
0
0
0
0
0
0
0
0
0
0
0
0
0
0
0
0
0
0
0
0
0
0
0
0
0
0
0
0
0
0
0
0
0
0
0
0
0
0
0
0
0
0
0
0
0
0
0
0
0
0
0
0
0
0
0
0
0
0
0
0
0
0
0
0
0
0
0
0
0
0
0
0
0
0
0
0
0
0
0
0
0
0
0
0
0
0
0
0
0
255
0
255
0
255
0
255
0
255
0
255
0
255
0
255
0
255
0
255
0
255
0
255
0
255
0
255
0
255
0
255
0
255
0
255
0
255
0
255
0
255
0
255
0
255
0
255
0
255
0
255
0
255
0
255
0
255
0
255
0
255
0
255
0
255
0
255
0
255
0
255
0
255
0
255
0
255
0
255
0
255
0
255
0
255
0
255
0
255
0
255
0
255
0
255
0
253
0
255
0
255
0
250
0
179
0
50
0
0
0
9
0
0
0
1
0
0
0
1
0
5
0
1
0
0
0
1
0
0
0
0
0
0
0
0
0
0
0
0
0
0
0
0
0
0
0
0
0
0
0
0
0
0
0
0
0
0
0
0
0
1
0
1
0
1
0
1
0
1
0
1
0
1
0
1
0
1
0
1
0
11
0
40
0
71
0
79
0
77
0
81
0
77
0
83
0
75
0
47
0
15
0
1
0
1
0
5
0
0
0
0
0
0
0
0
0
0
0
0
0
0
0
0
0
0
0
0
0
0
0
1
0
1
0
2
0
2
0
2
0
1
0
10
0
56
0
92
0
92
0
92
0
96
0
89
0
93
0
97
0
96
0
78
0
47
0
17
0
2
0
1
0
1
0
9
0
3
0
0
0
16
0
60
0
110
0
144
0
125
0
76
0
11
0
166
0
255
0
236
0
254
0
249
0
253
0
253
0
253
0
254
0
254
0
255
0
255
0
255
0
255
0
255
0
255
0
255
0
255
0
255
0
255
0
255
0
255
0
255
0
255
0
255
0
255
0
255
0
255
0
255
0
255
0
255
0
255
0
255
0
255
0
255
0
255
0
255
0
255
0
255
0
255
0
255
0
255
0
255
0
255
0
255
0
255
0
255
0
255
0
255
0
255
0
255
0
255
0
255
0
255
0
255
0
255
0
255
0
255
0
255
0
255
0
255
0
252
0
250
0
43
0
2
0
41
0
88
0
66
0
36
0
2
0
2
0
2
0
1
0
1
0
0
0
0
0
0
0
0
0
0
0
0
0
0
0
0
0
0
0
0
0
0
0
0
0
0
0
0
0
0
0
0
0
0
0
0
0
0
0
0
0
0
0
0
0
0
0
0
0
0
0
0
0
0
0
0
0
0
0
0
0
0
0
0
0
0
0
0
0
0
0
0
0
0
0
0
0
0
0
0
0
0
0
0
0
0
0
0
0
0
0
0
0
0
0
0
0
0
0
0
0
0
0
0
0
0
0
0
0
0
0
0
0
0
0
0
0
0
0
0
0
0
0
0
0
0
0
0
0
0
0
0
0
0
0
0
0
0
0
0
0
0
0
0
0
0
0
0
0
0
0
0
0
0
0
0
0
0
0
0
0
0
0
0
0
0
0
0
0
0
0
0
0
0
0
0
0
0
0
0
0
0
0
0
0
0
0
0
0
0
0
0
0
0
0
0
0
0
0
0
0
0
0
0
0
0
0
0
0
0
0
0
0
0
0
0
0
0
0
0
0
0
0
0
0
0
0
0
0
0
0
0
0
0
0
0
0
0
0
0
0
0
0
0
0
0
0
0
0
0
0
0
0
0
0
0
0
0
0
0
0
0
0
0
0
0
0
0
0
0
0
0
0
0
0
0
0
0
0
0
0
0
0
0
0
0
0
0
0
0
0
0
0
0
0
0
0
0
0
0
0
0
0
0
0
0
0
0
0
0
0
0
0
0
0
0
0
0
0
0
0
0
0
0
0
0
0
0
0
0
0
0
0
0
0
0
0
0
0
0
0
0
0
0
0
0
0
0
0
0
0
0
0
0
0
0
0
0
0
0
0
0
0
0
0
0
0
0
0
0
0
0
0
0
0
0
0
0
0
0
0
0
0
0
0
0
0
0
0
0
0
0
0
0
0
0
0
0
0
0
0
0
0
0
0
0
0
0
0
0
0
0
0
0
0
0
0
0
0
0
0
0
0
0
0
0
0
0
0
0
0
0
0
0
0
0
0
0
0
0
0
0
0
0
0
0
0
0
0
255
0
255
0
255
0
255
0
255
0
255
0
255
0
255
0
255
0
255
0
255
0
255
0
255
0
255
0
255
0
255
0
255
0
255
0
255
0
255
0
255
0
255
0
255
0
255
0
255
0
255
0
255
0
255
0
255
0
255
0
255
0
255
0
255
0
255
0
255
0
255
0
255
0
255
0
255
0
255
0
255
0
255
0
255
0
255
0
255
0
255
0
255
0
255
0
255
0
254
0
255
0
253
0
226
0
125
0
10
0
2
0
3
0
4
0
1
0
0
0
3
0
6
0
2
0
0
0
0
0
0
0
0
0
0
0
0
0
0
0
0
0
0
0
0
0
0
0
0
0
0
0
0
0
0
0
0
0
0
0
1
0
1
0
1
0
1
0
1
0
1
0
1
0
1
0
1
0
5
0
20
0
50
0
79
0
86
0
79
0
78
0
78
0
81
0
73
0
46
0
14
0
1
0
0
0
5
0
0
0
0
0
0
0
0
0
0
0
0
0
0
0
0
0
0
0
0
0
0
0
1
0
1
0
2
0
2
0
2
0
0
0
19
0
74
0
109
0
96
0
78
0
79
0
82
0
95
0
103
0
113
0
113
0
97
0
64
0
28
0
4
0
1
0
4
0
9
0
3
0
0
0
8
0
66
0
134
0
142
0
109
0
27
0
53
0
240
0
237
0
255
0
250
0
253
0
253
0
253
0
254
0
254
0
255
0
255
0
255
0
255
0
255
0
255
0
255
0
255
0
255
0
255
0
255
0
255
0
255
0
255
0
255
0
255
0
255
0
255
0
255
0
255
0
255
0
255
0
255
0
255
0
255
0
255
0
255
0
255
0
255
0
255
0
255
0
255
0
255
0
255
0
255
0
255
0
255
0
255
0
255
0
255
0
255
0
255
0
255
0
255
0
255
0
255
0
255
0
255
0
255
0
255
0
255
0
255
0
228
0
12
0
1
0
59
0
84
0
39
0
11
0
2
0
2
0
2
0
1
0
1
0
0
0
0
0
0
0
0
0
0
0
0
0
0
0
0
0
0
0
0
0
0
0
0
0
0
0
0
0
0
0
0
0
0
0
0
0
0
0
0
0
0
0
0
0
0
0
0
0
0
0
0
0
0
0
0
0
0
0
0
0
0
0
0
0
0
0
0
0
0
0
0
0
0
0
0
0
0
0
0
0
0
0
0
0
0
0
0
0
0
0
0
0
0
0
0
0
0
0
0
0
0
0
0
0
0
0
0
0
0
0
0
0
0
0
0
0
0
0
0
0
0
0
0
0
0
0
0
0
0
0
0
0
0
0
0
0
0
0
0
0
0
0
0
0
0
0
0
0
0
0
0
0
0
0
0
0
0
0
0
0
0
0
0
0
0
0
0
0
0
0
0
0
0
0
0
0
0
0
0
0
0
0
0
0
0
0
0
0
0
0
0
0
0
0
0
0
0
0
0
0
0
0
0
0
0
0
0
0
0
0
0
0
0
0
0
0
0
0
0
0
0
0
0
0
0
0
0
0
0
0
0
0
0
0
0
0
0
0
0
0
0
0
0
0
0
0
0
0
0
0
0
0
0
0
0
0
0
0
0
0
0
0
0
0
0
0
0
0
0
0
0
0
0
0
0
0
0
0
0
0
0
0
0
0
0
0
0
0
0
0
0
0
0
0
0
0
0
0
0
0
0
0
0
0
0
0
0
0
0
0
0
0
0
0
0
0
0
0
0
0
0
0
0
0
0
0
0
0
0
0
0
0
0
0
0
0
0
0
0
0
0
0
0
0
0
0
0
0
0
0
0
0
0
0
0
0
0
0
0
0
0
0
0
0
0
0
0
0
0
0
0
0
0
0
0
0
0
0
0
0
0
0
0
0
0
0
0
0
0
0
0
0
0
0
0
0
0
0
0
0
0
0
0
0
0
0
0
0
0
0
0
0
0
0
0
0
0
0
0
0
0
0
0
0
0
0
0
0
0
0
0
0
0
0
0
0
0
0
0
0
0
0
0
0
0
0
0
0
255
0
255
0
255
0
255
0
255
0
255
0
255
0
255
0
255
0
255
0
255
0
255
0
255
0
255
0
255
0
255
0
255
0
255
0
255
0
255
0
255
0
255
0
255
0
255
0
255
0
255
0
255
0
255
0
255
0
255
0
255
0
255
0
255
0
255
0
255
0
255
0
255
0
255
0
255
0
255
0
255
0
255
0
255
0
255
0
255
0
255
0
255
0
255
0
255
0
255
0
255
0
255
0
255
0
191
0
71
0
0
0
9
0
8
0
4
0
0
0
0
0
3
0
7
0
0
0
0
0
0
0
0
0
0
0
0
0
0
0
0
0
0
0
0
0
0
0
0
0
0
0
0
0
0
0
0
0
0
0
1
0
1
0
1
0
1
0
1
0
1
0
1
0
1
0
2
0
8
0
23
0
52
0
80
0
88
0
80
0
77
0
79
0
80
0
75
0
53
0
23
0
1
0
0
0
4
0
0
0
0
0
0
0
0
0
0
0
0
0
0
0
0
0
0
0
0
0
0
0
1
0
1
0
2
0
2
0
2
0
0
0
14
0
54
0
84
0
79
0
64
0
67
0
76
0
95
0
95
0
101
0
112
0
121
0
108
0
73
0
42
0
8
0
0
0
2
0
11
0
2
0
0
0
27
0
91
0
143
0
124
0
89
0
4
0
160
0
250
0
255
0
251
0
253
0
253
0
253
0
254
0
254
0
255
0
255
0
255
0
255
0
255
0
255
0
255
0
255
0
255
0
255
0
255
0
255
0
255
0
255
0
255
0
255
0
255
0
255
0
255
0
255
0
255
0
255
0
255
0
255
0
255
0
255
0
255
0
255
0
255
0
255
0
255
0
255
0
255
0
255
0
255
0
255
0
255
0
255
0
255
0
255
0
255
0
255
0
255
0
255
0
255
0
255
0
255
0
255
0
255
0
255
0
255
0
254
0
212
0
1
0
3
0
68
0
70
0
16
0
1
0
2
0
2
0
2
0
1
0
1
0
0
0
0
0
0
0
0
0
0
0
0
0
0
0
0
0
0
0
0
0
0
0
0
0
0
0
0
0
0
0
0
0
0
0
0
0
0
0
0
0
0
0
0
0
0
0
0
0
0
0
0
0
0
0
0
0
0
0
0
0
0
0
0
0
0
0
0
0
0
0
0
0
0
0
0
0
0
0
0
0
0
0
0
0
0
0
0
0
0
0
0
0
0
0
0
0
0
0
0
0
0
0
0
0
0
0
0
0
0
0
0
0
0
0
0
0
0
0
0
0
0
0
0
0
0
0
0
0
0
0
0
0
0
0
0
0
0
0
0
0
0
0
0
0
0
0
0
0
0
0
0
0
0
0
0
0
0
0
0
0
0
0
0
0
0
0
0
0
0
0
0
0
0
0
0
0
0
0
0
0
0
0
0
0
0
0
0
0
0
0
0
0
0
0
0
0
0
0
0
0
0
0
0
0
0
0
0
0
0
0
0
0
0
0
0
0
0
0
0
0
0
0
0
0
0
0
0
0
0
0
0
0
0
0
0
0
0
0
0
0
0
0
0
0
0
0
0
0
0
0
0
0
0
0
0
0
0
0
0
0
0
0
0
0
0
0
0
0
0
0
0
0
0
0
0
0
0
0
0
0
0
0
0
0
0
0
0
0
0
0
0
0
0
0
0
0
0
0
0
0
0
0
0
0
0
0
0
0
0
0
0
0
0
0
0
0
0
0
0
0
0
0
0
0
0
0
0
0
0
0
0
0
0
0
0
0
0
0
0
0
0
0
0
0
0
0
0
0
0
0
0
0
0
0
0
0
0
0
0
0
0
0
0
0
0
0
0
0
0
0
0
0
0
0
0
0
0
0
0
0
0
0
0
0
0
0
0
0
0
0
0
0
0
0
0
0
0
0
0
0
0
0
0
0
0
0
0
0
0
0
0
0
0
0
0
0
0
0
0
0
0
0
0
0
0
0
0
0
0
0
0
0
0
0
0
0
0
0
0
0
0
0
0
0
0
0
0
0
255
0
255
0
255
0
255
0
255
0
255
0
255
0
255
0
255
0
255
0
255
0
255
0
255
0
255
0
255
0
255
0
255
0
255
0
255
0
255
0
255
0
255
0
255
0
255
0
255
0
255
0
255
0
255
0
255
0
255
0
255
0
255
0
255
0
255
0
255
0
255
0
255
0
255
0
255
0
255
0
255
0
255
0
255
0
255
0
255
0
255
0
255
0
255
0
253
0
255
0
244
0
255
0
255
0
232
0
153
0
0
0
1
0
0
0
2
0
0
0
0
0
0
0
8
0
2
0
0
0
0
0
0
0
0
0
0
0
0
0
0
0
0
0
0
0
0
0
0
0
0
0
0
0
0
0
0
0
0
0
1
0
1
0
1
0
1
0
1
0
1
0
1
0
1
0
3
0
8
0
21
0
46
0
76
0
86
0
80
0
78
0
78
0
81
0
80
0
67
0
38
0
10
0
0
0
2
0
0
0
0
0
0
0
0
0
0
0
0
0
0
0
0
0
0
0
0
0
0
0
1
0
1
0
2
0
2
0
2
0
6
0
2
0
18
0
46
0
61
0
61
0
63
0
65
0
91
0
94
0
100
0
108
0
119
0
121
0
106
0
89
0
46
0
11
0
0
0
3
0
10
0
1
0
6
0
40
0
118
0
140
0
135
0
17
0
63
0
219
0
255
0
251
0
253
0
253
0
253
0
254
0
254
0
255
0
255
0
255
0
255
0
255
0
255
0
255
0
255
0
255
0
255
0
255
0
255
0
255
0
255
0
255
0
255
0
255
0
255
0
255
0
255
0
255
0
255
0
255
0
255
0
255
0
255
0
255
0
255
0
255
0
255
0
255
0
255
0
255
0
255
0
255
0
255
0
255
0
255
0
255
0
255
0
255
0
255
0
255
0
255
0
255
0
255
0
255
0
255
0
255
0
255
0
255
0
250
0
199
0
1
0
12
0
58
0
46
0
2
0
1
0
2
0
2
0
2
0
1
0
1
0
0
0
0
0
0
0
0
0
0
0
0
0
0
0
0
0
0
0
0
0
0
0
0
0
0
0
0
0
0
0
0
0
0
0
0
0
0
0
0
0
0
0
0
0
0
0
0
0
0
0
0
0
0
0
0
0
0
0
0
0
0
0
0
0
0
0
0
0
0
0
0
0
0
0
0
0
0
0
0
0
0
0
0
0
0
0
0
0
0
0
0
0
0
0
0
0
0
0
0
0
0
0
0
0
0
0
0
0
0
0
0
0
0
0
0
0
0
0
0
0
0
0
0
0
0
0
0
0
0
0
0
0
0
0
0
0
0
0
0
0
0
0
0
0
0
0
0
0
0
0
0
0
0
0
0
0
0
0
0
0
0
0
0
0
0
0
0
0
0
0
0
0
0
0
0
0
0
0
0
0
0
0
0
0
0
0
0
0
0
0
0
0
0
0
0
0
0
0
0
0
0
0
0
0
0
0
0
0
0
0
0
0
0
0
0
0
0
0
0
0
0
0
0
0
0
0
0
0
0
0
0
0
0
0
0
0
0
0
0
0
0
0
0
0
0
0
0
0
0
0
0
0
0
0
0
0
0
0
0
0
0
0
0
0
0
0
0
0
0
0
0
0
0
0
0
0
0
0
0
0
0
0
0
0
0
0
0
0
0
0
0
0
0
0
0
0
0
0
0
0
0
0
0
0
0
0
0
0
0
0
0
0
0
0
0
0
0
0
0
0
0
0
0
0
0
0
0
0
0
0
0
0
0
0
0
0
0
0
0
0
0
0
0
0
0
0
0
0
0
0
0
0
0
0
0
0
0
0
0
0
0
0
0
0
0
0
0
0
0
0
0
0
0
0
0
0
0
0
0
0
0
0
0
0
0
0
0
0
0
0
0
0
0
0
0
0
0
0
0
0
0
0
0
0
0
0
0
0
0
0
0
0
0
0
0
0
0
0
0
0
0
0
0
0
0
0
0
0
0
0
0
0
0
0
0
0
0
0
0
0
0
0
0
0
0
0
0
0
255
0
255
0
255
0
255
0
255
0
255
0
255
0
255
0
255
0
255
0
255
0
255
0
255
0
255
0
255
0
255
0
255
0
255
0
255
0
255
0
255
0
255
0
255
0
255
0
255
0
255
0
255
0
255
0
255
0
255
0
255
0
255
0
255
0
255
0
255
0
255
0
255
0
255
0
255
0
255
0
255
0
255
0
255
0
255
0
255
0
255
0
255
0
255
0
252
0
255
0
242
0
255
0
253
0
251
0
220
0
60
0
0
0
0
0
0
0
5
0
0
0
0
0
5
0
0
0
0
0
0
0
0
0
0
0
0
0
0
0
0
0
0
0
0
0
0
0
0
0
0
0
0
0
0
0
0
0
0
0
1
0
1
0
1
0
1
0
1
0
1
0
1
0
1
0
1
0
7
0
16
0
38
0
69
0
82
0
81
0
79
0
78
0
80
0
85
0
79
0
51
0
16
0
0
0
0
0
0
0
0
0
0
0
0
0
0
0
0
0
0
0
0
0
0
0
0
0
0
0
1
0
1
0
2
0
2
0
2
0
4
0
0
0
1
0
18
0
47
0
61
0
59
0
57
0
80
0
100
0
118
0
119
0
112
0
111
0
114
0
116
0
89
0
45
0
2
0
1
0
4
0
4
0
1
0
8
0
71
0
137
0
132
0
77
0
16
0
133
0
249
0
253
0
253
0
253
0
253
0
254
0
254
0
255
0
255
0
255
0
255
0
255
0
255
0
255
0
255
0
255
0
255
0
255
0
255
0
255
0
255
0
255
0
255
0
255
0
255
0
255
0
255
0
255
0
255
0
255
0
255
0
255
0
255
0
255
0
255
0
255
0
255
0
255
0
255
0
255
0
255
0
255
0
255
0
255
0
255
0
255
0
255
0
255
0
255
0
255
0
255
0
255
0
255
0
255
0
255
0
255
0
255
0
255
0
247
0
188
0
1
0
11
0
32
0
19
0
1
0
2
0
2
0
2
0
2
0
1
0
1
0
0
0
0
0
0
0
0
0
0
0
0
0
0
0
0
0
0
0
0
0
0
0
0
0
0
0
0
0
0
0
0
0
0
0
0
0
0
0
0
0
0
0
0
0
0
0
0
0
0
0
0
0
0
0
0
0
0
0
0
0
0
0
0
0
0
0
0
0
0
0
0
0
0
0
0
0
0
0
0
0
0
0
0
0
0
0
0
0
0
0
0
0
0
0
0
0
0
0
0
0
0
0
0
0
0
0
0
0
0
0
0
0
0
0
0
0
0
0
0
0
0
0
0
0
0
0
0
0
0
0
0
0
0
0
0
0
0
0
0
0
0
0
0
0
0
0
0
0
0
0
0
0
0
0
0
0
0
0
0
0
0
0
0
0
0
0
0
0
0
0
0
0
0
0
0
0
0
0
0
0
0
0
0
0
0
0
0
0
0
0
0
0
0
0
0
0
0
0
0
0
0
0
0
0
0
0
0
0
0
0
0
0
0
0
0
0
0
0
0
0
0
0
0
0
0
0
0
0
0
0
0
0
0
0
0
0
0
0
0
0
0
0
0
0
0
0
0
0
0
0
0
0
0
0
0
0
0
0
0
0
0
0
0
0
0
0
0
0
0
0
0
0
0
0
0
0
0
0
0
0
0
0
0
0
0
0
0
0
0
0
0
0
0
0
0
0
0
0
0
0
0
0
0
0
0
0
0
0
0
0
0
0
0
0
0
0
0
0
0
0
0
0
0
0
0
0
0
0
0
0
0
0
0
0
0
0
0
0
0
0
0
0
0
0
0
0
0
0
0
0
0
0
0
0
0
0
0
0
0
0
0
0
0
0
0
0
0
0
0
0
0
0
0
0
0
0
0
0
0
0
0
0
0
0
0
0
0
0
0
0
0
0
0
0
0
0
0
0
0
0
0
0
0
0
0
0
0
0
0
0
0
0
0
0
0
0
0
0
0
0
0
0
0
0
0
0
0
0
0
0
0
0
0
0
0
0
0
0
0
0
0
0
0
0
0
0
0
0
255
0
255
0
255
0
255
0
255
0
255
0
255
0
255
0
255
0
255
0
255
0
255
0
255
0
255
0
255
0
255
0
255
0
255
0
255
0
255
0
255
0
255
0
255
0
255
0
255
0
255
0
255
0
255
0
255
0
255
0
255
0
255
0
255
0
255
0
255
0
255
0
255
0
255
0
255
0
255
0
255
0
255
0
255
0
255
0
255
0
255
0
255
0
255
0
253
0
255
0
252
0
254
0
246
0
255
0
249
0
158
0
31
0
0
0
0
0
6
0
1
0
0
0
5
0
0
0
0
0
0
0
0
0
0
0
0
0
0
0
0
0
0
0
0
0
0
0
0
0
0
0
0
0
0
0
0
0
0
0
1
0
1
0
1
0
1
0
1
0
1
0
1
0
1
0
0
0
4
0
14
0
35
0
65
0
82
0
81
0
78
0
79
0
81
0
86
0
84
0
58
0
19
0
1
0
0
0
0
0
0
0
0
0
0
0
0
0
0
0
0
0
0
0
0
0
0
0
0
0
1
0
1
0
2
0
2
0
2
0
0
0
0
0
1
0
4
0
27
0
48
0
56
0
58
0
71
0
99
0
120
0
119
0
110
0
110
0
116
0
122
0
117
0
93
0
46
0
5
0
1
0
4
0
4
0
2
0
24
0
86
0
117
0
131
0
38
0
54
0
182
0
254
0
253
0
253
0
253
0
254
0
254
0
255
0
255
0
255
0
255
0
255
0
255
0
255
0
255
0
255
0
255
0
255
0
255
0
255
0
255
0
255
0
255
0
255
0
255
0
255
0
255
0
255
0
255
0
255
0
255
0
255
0
255
0
255
0
255
0
255
0
255
0
255
0
255
0
255
0
255
0
255
0
255
0
255
0
255
0
255
0
255
0
255
0
255
0
255
0
255
0
255
0
255
0
255
0
255
0
255
0
255
0
255
0
253
0
183
0
1
0
6
0
7
0
6
0
2
0
2
0
2
0
2
0
2
0
1
0
1
0
0
0
0
0
0
0
0
0
0
0
0
0
0
0
0
0
0
0
0
0
0
0
0
0
0
0
0
0
0
0
0
0
0
0
0
0
0
0
0
0
0
0
0
0
0
0
0
0
0
0
0
0
0
0
0
0
0
0
0
0
0
0
0
0
0
0
0
0
0
0
0
0
0
0
0
0
0
0
0
0
0
0
0
0
0
0
0
0
0
0
0
0
0
0
0
0
0
0
0
0
0
0
0
0
0
0
0
0
0
0
0
0
0
0
0
0
0
0
0
0
0
0
0
0
0
0
0
0
0
0
0
0
0
0
0
0
0
0
0
0
0
0
0
0
0
0
0
0
0
0
0
0
0
0
0
0
0
0
0
0
0
0
0
0
0
0
0
0
0
0
0
0
0
0
0
0
0
0
0
0
0
0
0
0
0
0
0
0
0
0
0
0
0
0
0
0
0
0
0
0
0
0
0
0
0
0
0
0
0
0
0
0
0
0
0
0
0
0
0
0
0
0
0
0
0
0
0
0
0
0
0
0
0
0
0
0
0
0
0
0
0
0
0
0
0
0
0
0
0
0
0
0
0
0
0
0
0
0
0
0
0
0
0
0
0
0
0
0
0
0
0
0
0
0
0
0
0
0
0
0
0
0
0
0
0
0
0
0
0
0
0
0
0
0
0
0
0
0
0
0
0
0
0
0
0
0
0
0
0
0
0
0
0
0
0
0
0
0
0
0
0
0
0
0
0
0
0
0
0
0
0
0
0
0
0
0
0
0
0
0
0
0
0
0
0
0
0
0
0
0
0
0
0
0
0
0
0
0
0
0
0
0
0
0
0
0
0
0
0
0
0
0
0
0
0
0
0
0
0
0
0
0
0
0
0
0
0
0
0
0
0
0
0
0
0
0
0
0
0
0
0
0
0
0
0
0
0
0
0
0
0
0
0
0
0
0
0
0
0
0
0
0
0
0
0
0
0
0
0
0
0
0
0
0
0
0
0
0
0
0
0
0
0
0
0
0
0
0
255
0
255
0
255
0
255
0
255
0
255
0
255
0
255
0
255
0
255
0
255
0
255
0
255
0
255
0
255
0
255
0
255
0
255
0
255
0
255
0
255
0
255
0
255
0
255
0
255
0
255
0
255
0
255
0
255
0
255
0
255
0
255
0
255
0
255
0
255
0
255
0
255
0
255
0
255
0
255
0
255
0
255
0
255
0
255
0
255
0
255
0
255
0
255
0
255
0
251
0
255
0
249
0
243
0
255
0
253
0
234
0
76
0
23
0
0
0
4
0
0
0
0
0
6
0
2
0
0
0
0
0
0
0
0
0
0
0
0
0
0
0
0
0
0
0
0
0
0
0
0
0
0
0
0
0
0
0
0
0
1
0
1
0
1
0
1
0
1
0
1
0
1
0
1
0
0
0
3
0
13
0
34
0
65
0
82
0
81
0
78
0
81
0
81
0
86
0
86
0
59
0
19
0
1
0
2
0
0
0
0
0
0
0
0
0
0
0
0
0
0
0
0
0
0
0
0
0
0
0
1
0
1
0
2
0
2
0
2
0
0
0
8
0
4
0
1
0
6
0
31
0
52
0
65
0
68
0
87
0
104
0
109
0
111
0
120
0
123
0
121
0
125
0
130
0
93
0
30
0
0
0
1
0
7
0
6
0
2
0
21
0
115
0
155
0
79
0
21
0
105
0
254
0
253
0
253
0
253
0
254
0
254
0
255
0
255
0
255
0
255
0
255
0
255
0
255
0
255
0
255
0
255
0
255
0
255
0
255
0
255
0
255
0
255
0
255
0
255
0
255
0
255
0
255
0
255
0
255
0
255
0
255
0
255
0
255
0
255
0
255
0
255
0
255
0
255
0
255
0
255
0
255
0
255
0
255
0
255
0
255
0
255
0
255
0
255
0
255
0
255
0
255
0
255
0
255
0
255
0
255
0
255
0
255
0
254
0
183
0
1
0
4
0
4
0
5
0
10
0
2
0
2
0
2
0
2
0
1
0
1
0
0
0
0
0
0
0
0
0
0
0
0
0
0
0
0
0
0
0
0
0
0
0
0
0
0
0
0
0
0
0
0
0
0
0
0
0
0
0
0
0
0
0
0
0
0
0
0
0
0
0
0
0
0
0
0
0
0
0
0
0
0
0
0
0
0
0
0
0
0
0
0
0
0
0
0
0
0
0
0
0
0
0
0
0
0
0
0
0
0
0
0
0
0
0
0
0
0
0
0
0
0
0
0
0
0
0
0
0
0
0
0
0
0
0
0
0
0
0
0
0
0
0
0
0
0
0
0
0
0
0
0
0
0
0
0
0
0
0
0
0
0
0
0
0
0
0
0
0
0
0
0
0
0
0
0
0
0
0
0
0
0
0
0
0
0
0
0
0
0
0
0
0
0
0
0
0
0
0
0
0
0
0
0
0
0
0
0
0
0
0
0
0
0
0
0
0
0
0
0
0
0
0
0
0
0
0
0
0
0
0
0
0
0
0
0
0
0
0
0
0
0
0
0
0
0
0
0
0
0
0
0
0
0
0
0
0
0
0
0
0
0
0
0
0
0
0
0
0
0
0
0
0
0
0
0
0
0
0
0
0
0
0
0
0
0
0
0
0
0
0
0
0
0
0
0
0
0
0
0
0
0
0
0
0
0
0
0
0
0
0
0
0
0
0
0
0
0
0
0
0
0
0
0
0
0
0
0
0
0
0
0
0
0
0
0
0
0
0
0
0
0
0
0
0
0
0
0
0
0
0
0
0
0
0
0
0
0
0
0
0
0
0
0
0
0
0
0
0
0
0
0
0
0
0
0
0
0
0
0
0
0
0
0
0
0
0
0
0
0
0
0
0
0
0
0
0
0
0
0
0
0
0
0
0
0
0
0
0
0
0
0
0
0
0
0
0
0
0
0
0
0
0
0
0
0
0
0
0
0
0
0
0
0
0
0
0
0
0
0
0
0
0
0
0
0
0
0
0
0
0
0
0
0
0
0
0
0
0
0
0
0
0
0
0
0
0
0
0
255
0
255
0
255
0
255
0
255
0
255
0
255
0
255
0
255
0
255
0
255
0
255
0
255
0
255
0
255
0
255
0
255
0
255
0
255
0
255
0
255
0
255
0
255
0
255
0
255
0
255
0
255
0
255
0
255
0
255
0
255
0
255
0
255
0
255
0
255
0
255
0
255
0
255
0
255
0
255
0
255
0
255
0
255
0
255
0
255
0
255
0
255
0
255
0
255
0
255
0
255
0
254
0
252
0
251
0
251
0
250
0
182
0
57
0
0
0
0
0
7
0
17
0
0
0
1
0
1
0
1
0
1
0
1
0
1
0
1
0
1
0
1
0
0
0
0
0
0
0
0
0
0
0
0
0
0
0
0
0
0
0
0
0
0
0
0
0
4
0
5
0
2
0
0
0
1
0
3
0
16
0
40
0
63
0
79
0
82
0
81
0
79
0
78
0
77
0
84
0
77
0
35
0
1
0
0
0
0
0
0
0
0
0
0
0
0
0
0
0
0
0
0
0
0
0
0
0
0
0
0
0
0
0
0
0
0
0
0
0
2
0
1
0
0
0
3
0
3
0
6
0
27
0
53
0
58
0
82
0
108
0
119
0
120
0
122
0
121
0
118
0
118
0
124
0
131
0
89
0
17
0
2
0
9
0
2
0
8
0
1
0
26
0
124
0
154
0
52
0
49
0
226
0
254
0
254
0
252
0
249
0
253
0
254
0
254
0
254
0
255
0
255
0
255
0
255
0
255
0
255
0
255
0
255
0
255
0
255
0
255
0
255
0
255
0
255
0
255
0
255
0
255
0
255
0
255
0
255
0
255
0
255
0
255
0
255
0
255
0
255
0
255
0
255
0
255
0
255
0
255
0
255
0
255
0
255
0
255
0
255
0
255
0
255
0
255
0
255
0
255
0
255
0
255
0
255
0
255
0
255
0
255
0
255
0
255
0
181
0
0
0
7
0
0
0
0
0
2
0
0
0
0
0
0
0
0
0
0
0
0
0
0
0
0
0
0
0
0
0
0
0
0
0
0
0
0
0
0
0
0
0
0
0
0
0
0
0
0
0
0
0
0
0
0
0
0
0
0
0
0
0
0
0
0
0
0
0
0
0
0
0
0
0
0
0
0
0
0
0
0
0
0
0
0
0
0
0
0
0
0
0
0
0
0
0
0
0
0
0
0
0
0
0
0
0
0
0
0
0
0
0
0
0
0
0
0
0
0
0
0
0
0
0
0
0
0
0
0
0
0
0
0
0
0
0
0
0
0
0
0
0
0
0
0
0
0
0
0
0
0
0
0
0
0
0
0
0
0
0
0
0
0
0
0
0
0
0
0
0
0
0
0
0
0
0
0
0
0
0
0
0
0
0
0
0
0
0
0
0
0
0
0
0
0
0
0
0
0
0
0
0
0
0
0
0
0
0
0
0
0
0
0
0
0
0
0
0
0
0
0
0
0
0
0
0
0
0
0
0
0
0
0
0
0
0
0
0
0
0
0
0
0
0
0
0
0
0
0
0
0
0
0
0
0
0
0
0
0
0
0
0
0
0
0
0
0
0
0
0
0
0
0
0
0
0
0
0
0
0
0
0
0
0
0
0
0
0
0
0
0
0
0
0
0
0
0
0
0
0
0
0
0
0
0
0
0
0
0
0
0
0
0
0
0
0
0
0
0
0
0
0
0
0
0
0
0
0
0
0
0
0
0
0
0
0
0
0
0
0
0
0
0
0
0
0
0
0
0
0
0
0
0
0
0
0
0
0
0
0
0
0
0
0
0
0
0
0
0
0
0
0
0
0
0
0
0
0
0
0
0
0
0
0
0
0
0
0
0
0
0
0
0
0
0
0
0
0
0
0
0
0
0
0
0
0
0
0
0
0
0
0
0
0
0
0
0
0
0
0
0
0
0
0
0
0
0
0
0
0
0
0
0
0
0
0
0
0
0
0
0
0
0
0
0
0
0
0
0
0
0
0
0
0
0
0
0
0
0
0
0
0
0
0
0
0
0
0
0
0
255
0
255
0
255
0
255
0
255
0
255
0
255
0
255
0
255
0
255
0
255
0
255
0
255
0
255
0
255
0
255
0
255
0
255
0
255
0
255
0
255
0
255
0
255
0
255
0
255
0
255
0
255
0
255
0
255
0
255
0
255
0
255
0
255
0
255
0
255
0
255
0
255
0
255
0
255
0
255
0
255
0
255
0
255
0
255
0
255
0
255
0
255
0
255
0
255
0
255
0
255
0
254
0
253
0
252
0
251
0
250
0
232
0
141
0
11
0
0
0
5
0
0
0
6
0
6
0
0
0
0
0
0
0
0
0
0
0
0
0
0
0
0
0
0
0
0
0
0
0
0
0
0
0
0
0
0
0
0
0
0
0
0
0
0
0
0
0
3
0
4
0
1
0
0
0
2
0
0
0
10
0
36
0
64
0
79
0
82
0
82
0
81
0
80
0
78
0
86
0
81
0
43
0
6
0
1
0
0
0
0
0
0
0
0
0
0
0
0
0
0
0
0
0
0
0
0
0
0
0
0
0
0
0
0
0
0
0
0
0
2
0
0
0
0
0
4
0
3
0
4
0
22
0
46
0
58
0
81
0
105
0
116
0
117
0
120
0
121
0
120
0
126
0
118
0
123
0
118
0
73
0
13
0
1
0
8
0
13
0
7
0
20
0
70
0
152
0
91
0
17
0
152
0
251
0
253
0
251
0
254
0
254
0
247
0
252
0
255
0
255
0
255
0
255
0
255
0
255
0
255
0
255
0
255
0
255
0
255
0
255
0
255
0
255
0
255
0
255
0
255
0
255
0
255
0
255
0
255
0
255
0
255
0
255
0
255
0
255
0
255
0
255
0
255
0
255
0
255
0
255
0
255
0
255
0
255
0
255
0
255
0
255
0
255
0
255
0
255
0
255
0
255
0
255
0
255
0
255
0
255
0
255
0
255
0
254
0
182
0
0
0
5
0
0
0
0
0
2
0
0
0
0
0
0
0
0
0
0
0
0
0
0
0
0
0
0
0
0
0
0
0
0
0
0
0
0
0
0
0
0
0
0
0
0
0
0
0
0
0
0
0
0
0
0
0
0
0
0
0
0
0
0
0
0
0
0
0
0
0
0
0
0
0
0
0
0
0
0
0
0
0
0
0
0
0
0
0
0
0
0
0
0
0
0
0
0
0
0
0
0
0
0
0
0
0
0
0
0
0
0
0
0
0
0
0
0
0
0
0
0
0
0
0
0
0
0
0
0
0
0
0
0
0
0
0
0
0
0
0
0
0
0
0
0
0
0
0
0
0
0
0
0
0
0
0
0
0
0
0
0
0
0
0
0
0
0
0
0
0
0
0
0
0
0
0
0
0
0
0
0
0
0
0
0
0
0
0
0
0
0
0
0
0
0
0
0
0
0
0
0
0
0
0
0
0
0
0
0
0
0
0
0
0
0
0
0
0
0
0
0
0
0
0
0
0
0
0
0
0
0
0
0
0
0
0
0
0
0
0
0
0
0
0
0
0
0
0
0
0
0
0
0
0
0
0
0
0
0
0
0
0
0
0
0
0
0
0
0
0
0
0
0
0
0
0
0
0
0
0
0
0
0
0
0
0
0
0
0
0
0
0
0
0
0
0
0
0
0
0
0
0
0
0
0
0
0
0
0
0
0
0
0
0
0
0
0
0
0
0
0
0
0
0
0
0
0
0
0
0
0
0
0
0
0
0
0
0
0
0
0
0
0
0
0
0
0
0
0
0
0
0
0
0
0
0
0
0
0
0
0
0
0
0
0
0
0
0
0
0
0
0
0
0
0
0
0
0
0
0
0
0
0
0
0
0
0
0
0
0
0
0
0
0
0
0
0
0
0
0
0
0
0
0
0
0
0
0
0
0
0
0
0
0
0
0
0
0
0
0
0
0
0
0
0
0
0
0
0
0
0
0
0
0
0
0
0
0
0
0
0
0
0
0
0
0
0
0
0
0
0
0
0
0
0
0
0
0
0
0
0
0
0
0
0
0
0
0
0
0
255
0
255
0
255
0
255
0
255
0
255
0
255
0
255
0
255
0
255
0
255
0
255
0
255
0
255
0
255
0
255
0
255
0
255
0
255
0
255
0
255
0
255
0
255
0
255
0
255
0
255
0
255
0
255
0
255
0
255
0
255
0
255
0
255
0
255
0
255
0
255
0
255
0
255
0
255
0
255
0
255
0
255
0
255
0
255
0
255
0
255
0
255
0
255
0
255
0
255
0
255
0
254
0
253
0
252
0
252
0
251
0
253
0
217
0
83
0
8
0
4
0
0
0
7
0
0
0
0
0
0
0
0
0
0
0
0
0
0
0
0
0
0
0
0
0
0
0
0
0
0
0
0
0
0
0
0
0
0
0
0
0
0
0
0
0
0
0
2
0
2
0
0
0
0
0
3
0
1
0
4
0
28
0
62
0
80
0
81
0
82
0
83
0
81
0
79
0
88
0
87
0
55
0
17
0
2
0
0
0
0
0
0
0
0
0
0
0
0
0
0
0
0
0
0
0
0
0
0
0
0
0
0
0
0
0
0
0
0
0
2
0
0
0
0
0
5
0
3
0
2
0
15
0
33
0
55
0
79
0
104
0
113
0
116
0
120
0
122
0
120
0
128
0
121
0
120
0
134
0
119
0
49
0
1
0
5
0
7
0
1
0
9
0
20
0
121
0
142
0
35
0
69
0
226
0
251
0
245
0
255
0
254
0
241
0
255
0
254
0
255
0
255
0
255
0
255
0
255
0
255
0
255
0
255
0
255
0
255
0
255
0
255
0
255
0
255
0
255
0
255
0
255
0
255
0
255
0
255
0
255
0
255
0
255
0
255
0
255
0
255
0
255
0
255
0
255
0
255
0
255
0
255
0
255
0
255
0
255
0
255
0
255
0
255
0
255
0
255
0
255
0
255
0
255
0
255
0
255
0
255
0
255
0
255
0
252
0
183
0
0
0
3
0
0
0
0
0
1
0
0
0
0
0
0
0
0
0
0
0
0
0
0
0
0
0
0
0
0
0
0
0
0
0
0
0
0
0
0
0
0
0
0
0
0
0
0
0
0
0
0
0
0
0
0
0
0
0
0
0
0
0
0
0
0
0
0
0
0
0
0
0
0
0
0
0
0
0
0
0
0
0
0
0
0
0
0
0
0
0
0
0
0
0
0
0
0
0
0
0
0
0
0
0
0
0
0
0
0
0
0
0
0
0
0
0
0
0
0
0
0
0
0
0
0
0
0
0
0
0
0
0
0
0
0
0
0
0
0
0
0
0
0
0
0
0
0
0
0
0
0
0
0
0
0
0
0
0
0
0
0
0
0
0
0
0
0
0
0
0
0
0
0
0
0
0
0
0
0
0
0
0
0
0
0
0
0
0
0
0
0
0
0
0
0
0
0
0
0
0
0
0
0
0
0
0
0
0
0
0
0
0
0
0
0
0
0
0
0
0
0
0
0
0
0
0
0
0
0
0
0
0
0
0
0
0
0
0
0
0
0
0
0
0
0
0
0
0
0
0
0
0
0
0
0
0
0
0
0
0
0
0
0
0
0
0
0
0
0
0
0
0
0
0
0
0
0
0
0
0
0
0
0
0
0
0
0
0
0
0
0
0
0
0
0
0
0
0
0
0
0
0
0
0
0
0
0
0
0
0
0
0
0
0
0
0
0
0
0
0
0
0
0
0
0
0
0
0
0
0
0
0
0
0
0
0
0
0
0
0
0
0
0
0
0
0
0
0
0
0
0
0
0
0
0
0
0
0
0
0
0
0
0
0
0
0
0
0
0
0
0
0
0
0
0
0
0
0
0
0
0
0
0
0
0
0
0
0
0
0
0
0
0
0
0
0
0
0
0
0
0
0
0
0
0
0
0
0
0
0
0
0
0
0
0
0
0
0
0
0
0
0
0
0
0
0
0
0
0
0
0
0
0
0
0
0
0
0
0
0
0
0
0
0
0
0
0
0
0
0
0
0
0
0
0
0
0
0
0
0
0
0
0
0
0
0
0
0
0
0
255
0
255
0
255
0
255
0
255
0
255
0
255
0
255
0
255
0
255
0
255
0
255
0
255
0
255
0
255
0
255
0
255
0
255
0
255
0
255
0
255
0
255
0
255
0
255
0
255
0
255
0
255
0
255
0
255
0
255
0
255
0
255
0
255
0
255
0
255
0
255
0
255
0
255
0
255
0
255
0
255
0
255
0
255
0
255
0
255
0
255
0
255
0
255
0
255
0
255
0
255
0
254
0
253
0
253
0
252
0
252
0
247
0
247
0
187
0
45
0
0
0
16
0
0
0
1
0
0
0
0
0
0
0
0
0
0
0
0
0
0
0
0
0
0
0
0
0
0
0
0
0
0
0
0
0
0
0
0
0
0
0
0
0
0
0
1
0
1
0
1
0
0
0
0
0
3
0
4
0
4
0
22
0
59
0
81
0
82
0
83
0
83
0
78
0
81
0
90
0
91
0
67
0
28
0
3
0
0
0
0
0
0
0
0
0
0
0
0
0
0
0
0
0
0
0
0
0
0
0
0
0
0
0
0
0
0
0
0
0
1
0
1
0
2
0
6
0
2
0
0
0
6
0
21
0
49
0
75
0
102
0
115
0
119
0
123
0
123
0
120
0
122
0
127
0
127
0
129
0
127
0
95
0
38
0
2
0
7
0
1
0
6
0
7
0
59
0
144
0
96
0
19
0
166
0
247
0
243
0
246
0
254
0
253
0
255
0
250
0
255
0
255
0
255
0
255
0
255
0
255
0
255
0
255
0
255
0
255
0
255
0
255
0
255
0
255
0
255
0
255
0
255
0
255
0
255
0
255
0
255
0
255
0
255
0
255
0
255
0
255
0
255
0
255
0
255
0
255
0
255
0
255
0
255
0
255
0
255
0
255
0
255
0
255
0
255
0
255
0
255
0
255
0
255
0
255
0
255
0
255
0
255
0
255
0
252
0
186
0
0
0
0
0
0
0
1
0
1
0
0
0
0
0
0
0
0
0
0
0
0
0
0
0
0
0
0
0
0
0
0
0
0
0
0
0
0
0
0
0
0
0
0
0
0
0
0
0
0
0
0
0
0
0
0
0
0
0
0
0
0
0
0
0
0
0
0
0
0
0
0
0
0
0
0
0
0
0
0
0
0
0
0
0
0
0
0
0
0
0
0
0
0
0
0
0
0
0
0
0
0
0
0
0
0
0
0
0
0
0
0
0
0
0
0
0
0
0
0
0
0
0
0
0
0
0
0
0
0
0
0
0
0
0
0
0
0
0
0
0
0
0
0
0
0
0
0
0
0
0
0
0
0
0
0
0
0
0
0
0
0
0
0
0
0
0
0
0
0
0
0
0
0
0
0
0
0
0
0
0
0
0
0
0
0
0
0
0
0
0
0
0
0
0
0
0
0
0
0
0
0
0
0
0
0
0
0
0
0
0
0
0
0
0
0
0
0
0
0
0
0
0
0
0
0
0
0
0
0
0
0
0
0
0
0
0
0
0
0
0
0
0
0
0
0
0
0
0
0
0
0
0
0
0
0
0
0
0
0
0
0
0
0
0
0
0
0
0
0
0
0
0
0
0
0
0
0
0
0
0
0
0
0
0
0
0
0
0
0
0
0
0
0
0
0
0
0
0
0
0
0
0
0
0
0
0
0
0
0
0
0
0
0
0
0
0
0
0
0
0
0
0
0
0
0
0
0
0
0
0
0
0
0
0
0
0
0
0
0
0
0
0
0
0
0
0
0
0
0
0
0
0
0
0
0
0
0
0
0
0
0
0
0
0
0
0
0
0
0
0
0
0
0
0
0
0
0
0
0
0
0
0
0
0
0
0
0
0
0
0
0
0
0
0
0
0
0
0
0
0
0
0
0
0
0
0
0
0
0
0
0
0
0
0
0
0
0
0
0
0
0
0
0
0
0
0
0
0
0
0
0
0
0
0
0
0
0
0
0
0
0
0
0
0
0
0
0
0
0
0
0
0
0
0
0
0
0
0
0
0
0
0
0
0
0
0
0
0
0
0
255
0
255
0
255
0
255
0
255
0
255
0
255
0
255
0
255
0
255
0
255
0
255
0
255
0
255
0
255
0
255
0
255
0
255
0
255
0
255
0
255
0
255
0
255
0
255
0
255
0
255
0
255
0
255
0
255
0
255
0
255
0
255
0
255
0
255
0
255
0
255
0
255
0
255
0
255
0
255
0
255
0
255
0
255
0
255
0
255
0
255
0
255
0
255
0
255
0
255
0
255
0
254
0
254
0
254
0
253
0
253
0
253
0
255
0
245
0
116
0
11
0
1
0
0
0
9
0
0
0
0
0
0
0
0
0
0
0
0
0
0
0
0
0
0
0
0
0
0
0
0
0
0
0
0
0
0
0
0
0
0
0
0
0
1
0
2
0
1
0
0
0
0
0
0
0
3
0
17
0
14
0
19
0
55
0
81
0
83
0
82
0
80
0
77
0
81
0
88
0
91
0
76
0
39
0
5
0
0
0
0
0
0
0
0
0
0
0
0
0
0
0
0
0
0
0
0
0
0
0
0
0
0
0
0
0
0
0
0
0
1
0
1
0
2
0
5
0
2
0
0
0
2
0
10
0
41
0
69
0
101
0
117
0
123
0
126
0
123
0
120
0
121
0
122
0
134
0
137
0
135
0
135
0
86
0
8
0
10
0
1
0
13
0
11
0
12
0
97
0
134
0
32
0
76
0
220
0
253
0
242
0
254
0
254
0
255
0
250
0
255
0
255
0
255
0
255
0
255
0
255
0
255
0
255
0
255
0
255
0
255
0
255
0
255
0
255
0
255
0
255
0
255
0
255
0
255
0
255
0
255
0
255
0
255
0
255
0
255
0
255
0
255
0
255
0
255
0
255
0
255
0
255
0
255
0
255
0
255
0
255
0
255
0
255
0
255
0
255
0
255
0
255
0
255
0
255
0
255
0
255
0
255
0
255
0
252
0
191
0
1
0
0
0
0
0
2
0
0
0
0
0
0
0
0
0
0
0
0
0
0
0
0
0
0
0
0
0
0
0
0
0
0
0
0
0
0
0
0
0
0
0
0
0
0
0
0
0
0
0
0
0
0
0
0
0
0
0
0
0
0
0
0
0
0
0
0
0
0
0
0
0
0
0
0
0
0
0
0
0
0
0
0
0
0
0
0
0
0
0
0
0
0
0
0
0
0
0
0
0
0
0
0
0
0
0
0
0
0
0
0
0
0
0
0
0
0
0
0
0
0
0
0
0
0
0
0
0
0
0
0
0
0
0
0
0
0
0
0
0
0
0
0
0
0
0
0
0
0
0
0
0
0
0
0
0
0
0
0
0
0
0
0
0
0
0
0
0
0
0
0
0
0
0
0
0
0
0
0
0
0
0
0
0
0
0
0
0
0
0
0
0
0
0
0
0
0
0
0
0
0
0
0
0
0
0
0
0
0
0
0
0
0
0
0
0
0
0
0
0
0
0
0
0
0
0
0
0
0
0
0
0
0
0
0
0
0
0
0
0
0
0
0
0
0
0
0
0
0
0
0
0
0
0
0
0
0
0
0
0
0
0
0
0
0
0
0
0
0
0
0
0
0
0
0
0
0
0
0
0
0
0
0
0
0
0
0
0
0
0
0
0
0
0
0
0
0
0
0
0
0
0
0
0
0
0
0
0
0
0
0
0
0
0
0
0
0
0
0
0
0
0
0
0
0
0
0
0
0
0
0
0
0
0
0
0
0
0
0
0
0
0
0
0
0
0
0
0
0
0
0
0
0
0
0
0
0
0
0
0
0
0
0
0
0
0
0
0
0
0
0
0
0
0
0
0
0
0
0
0
0
0
0
0
0
0
0
0
0
0
0
0
0
0
0
0
0
0
0
0
0
0
0
0
0
0
0
0
0
0
0
0
0
0
0
0
0
0
0
0
0
0
0
0
0
0
0
0
0
0
0
0
0
0
0
0
0
0
0
0
0
0
0
0
0
0
0
0
0
0
0
0
0
0
0
0
0
0
0
0
0
0
0
0
0
0
0
0
0
0
255
0
255
0
255
0
255
0
255
0
255
0
255
0
255
0
255
0
255
0
255
0
255
0
255
0
255
0
255
0
255
0
255
0
255
0
255
0
255
0
255
0
255
0
255
0
255
0
255
0
255
0
255
0
255
0
255
0
255
0
255
0
255
0
255
0
255
0
255
0
255
0
255
0
255
0
255
0
255
0
255
0
255
0
255
0
255
0
255
0
255
0
255
0
255
0
255
0
255
0
255
0
255
0
255
0
254
0
254
0
254
0
253
0
255
0
252
0
217
0
105
0
4
0
2
0
0
0
1
0
1
0
1
0
1
0
1
0
1
0
1
0
1
0
0
0
0
0
0
0
0
0
0
0
0
0
0
0
0
0
0
0
2
0
4
0
3
0
1
0
0
0
0
0
0
0
3
0
36
0
33
0
20
0
49
0
81
0
84
0
79
0
77
0
77
0
83
0
88
0
89
0
82
0
50
0
9
0
0
0
0
0
0
0
0
0
0
0
0
0
0
0
0
0
0
0
0
0
0
0
0
0
0
0
0
0
0
0
0
0
1
0
1
0
2
0
4
0
1
0
0
0
0
0
5
0
32
0
61
0
96
0
115
0
123
0
127
0
125
0
121
0
125
0
113
0
133
0
155
0
156
0
158
0
120
0
47
0
1
0
13
0
3
0
5
0
2
0
53
0
134
0
105
0
17
0
158
0
254
0
253
0
253
0
254
0
252
0
253
0
255
0
255
0
255
0
255
0
255
0
255
0
255
0
255
0
255
0
255
0
255
0
255
0
255
0
255
0
255
0
255
0
255
0
255
0
255
0
255
0
255
0
255
0
255
0
255
0
255
0
255
0
255
0
255
0
255
0
255
0
255
0
255
0
255
0
255
0
255
0
255
0
255
0
255
0
255
0
255
0
255
0
255
0
255
0
255
0
255
0
255
0
255
0
255
0
255
0
197
0
3
0
0
0
1
0
3
0
0
0
0
0
0
0
0
0
0
0
0
0
0
0
0
0
0
0
0
0
0
0
0
0
0
0
0
0
0
0
0
0
0
0
0
0
0
0
0
0
0
0
0
0
0
0
0
0
0
0
0
0
0
0
0
0
0
0
0
0
0
0
0
0
0
0
0
0
0
0
0
0
0
0
0
0
0
0
0
0
0
0
0
0
0
0
0
0
0
0
0
0
0
0
0
0
0
0
0
0
0
0
0
0
0
0
0
0
0
0
0
0
0
0
0
0
0
0
0
0
0
0
0
0
0
0
0
0
0
0
0
0
0
0
0
0
0
0
0
0
0
0
0
0
0
0
0
0
0
0
0
0
0
0
0
0
0
0
0
0
0
0
0
0
0
0
0
0
0
0
0
0
0
0
0
0
0
0
0
0
0
0
0
0
0
0
0
0
0
0
0
0
0
0
0
0
0
0
0
0
0
0
0
0
0
0
0
0
0
0
0
0
0
0
0
0
0
0
0
0
0
0
0
0
0
0
0
0
0
0
0
0
0
0
0
0
0
0
0
0
0
0
0
0
0
0
0
0
0
0
0
0
0
0
0
0
0
0
0
0
0
0
0
0
0
0
0
0
0
0
0
0
0
0
0
0
0
0
0
0
0
0
0
0
0
0
0
0
0
0
0
0
0
0
0
0
0
0
0
0
0
0
0
0
0
0
0
0
0
0
0
0
0
0
0
0
0
0
0
0
0
0
0
0
0
0
0
0
0
0
0
0
0
0
0
0
0
0
0
0
0
0
0
0
0
0
0
0
0
0
0
0
0
0
0
0
0
0
0
0
0
0
0
0
0
0
0
0
0
0
0
0
0
0
0
0
0
0
0
0
0
0
0
0
0
0
0
0
0
0
0
0
0
0
0
0
0
0
0
0
0
0
0
0
0
0
0
0
0
0
0
0
0
0
0
0
0
0
0
0
0
0
0
0
0
0
0
0
0
0
0
0
0
0
0
0
0
0
0
0
0
0
0
0
0
0
0
0
0
0
0
0
0
0
0
0
0
0
0
0
0
0
255
0
255
0
255
0
255
0
255
0
255
0
255
0
255
0
255
0
255
0
255
0
255
0
255
0
255
0
255
0
255
0
255
0
255
0
255
0
255
0
255
0
255
0
255
0
255
0
255
0
255
0
255
0
255
0
255
0
255
0
255
0
255
0
255
0
255
0
255
0
255
0
255
0
255
0
255
0
255
0
255
0
255
0
255
0
255
0
255
0
255
0
255
0
255
0
255
0
255
0
255
0
255
0
255
0
255
0
255
0
255
0
249
0
255
0
251
0
255
0
210
0
85
0
22
0
0
0
2
0
2
0
2
0
2
0
2
0
2
0
2
0
2
0
0
0
0
0
0
0
0
0
0
0
0
0
0
0
0
0
1
0
3
0
6
0
5
0
2
0
0
0
0
0
1
0
2
0
55
0
54
0
23
0
44
0
82
0
85
0
77
0
77
0
79
0
85
0
89
0
88
0
86
0
59
0
15
0
0
0
0
0
0
0
0
0
0
0
0
0
0
0
0
0
0
0
0
0
0
0
0
0
0
0
0
0
0
0
0
0
2
0
1
0
1
0
3
0
1
0
1
0
0
0
4
0
27
0
56
0
88
0
106
0
115
0
123
0
126
0
125
0
127
0
120
0
129
0
149
0
166
0
170
0
143
0
99
0
13
0
10
0
1
0
2
0
3
0
22
0
98
0
159
0
40
0
78
0
211
0
255
0
249
0
253
0
245
0
254
0
255
0
255
0
255
0
255
0
255
0
255
0
255
0
255
0
255
0
255
0
255
0
255
0
255
0
255
0
255
0
255
0
255
0
255
0
255
0
255
0
255
0
255
0
255
0
255
0
255
0
255
0
255
0
255
0
255
0
255
0
255
0
255
0
255
0
255
0
255
0
255
0
255
0
255
0
255
0
255
0
255
0
255
0
255
0
255
0
255
0
255
0
255
0
255
0
255
0
203
0
6
0
0
0
2
0
4
0
0
0
0
0
0
0
0
0
0
0
0
0
0
0
0
0
0
0
0
0
0
0
0
0
0
0
0
0
0
0
0
0
0
0
0
0
0
0
0
0
0
0
0
0
0
0
0
0
0
0
0
0
0
0
0
0
0
0
0
0
0
0
0
0
0
0
0
0
0
0
0
0
0
0
0
0
0
0
0
0
0
0
0
0
0
0
0
0
0
0
0
0
0
0
0
0
0
0
0
0
0
0
0
0
0
0
0
0
0
0
0
0
0
0
0
0
0
0
0
0
0
0
0
0
0
0
0
0
0
0
0
0
0
0
0
0
0
0
0
0
0
0
0
0
0
0
0
0
0
0
0
0
0
0
0
0
0
0
0
0
0
0
0
0
0
0
0
0
0
0
0
0
0
0
0
0
0
0
0
0
0
0
0
0
0
0
0
0
0
0
0
0
0
0
0
0
0
0
0
0
0
0
0
0
0
0
0
0
0
0
0
0
0
0
0
0
0
0
0
0
0
0
0
0
0
0
0
0
0
0
0
0
0
0
0
0
0
0
0
0
0
0
0
0
0
0
0
0
0
0
0
0
0
0
0
0
0
0
0
0
0
0
0
0
0
0
0
0
0
0
0
0
0
0
0
0
0
0
0
0
0
0
0
0
0
0
0
0
0
0
0
0
0
0
0
0
0
0
0
0
0
0
0
0
0
0
0
0
0
0
0
0
0
0
0
0
0
0
0
0
0
0
0
0
0
0
0
0
0
0
0
0
0
0
0
0
0
0
0
0
0
0
0
0
0
0
0
0
0
0
0
0
0
0
0
0
0
0
0
0
0
0
0
0
0
0
0
0
0
0
0
0
0
0
0
0
0
0
0
0
0
0
0
0
0
0
0
0
0
0
0
0
0
0
0
0
0
0
0
0
0
0
0
0
0
0
0
0
0
0
0
0
0
0
0
0
0
0
0
0
0
0
0
0
0
0
0
0
0
0
0
0
0
0
0
0
0
0
0
0
0
0
0
0
0
0
0
0
0
0
0
0
0
0
0
0
0
0
0
0
0
0
255
0
255
0
255
0
255
0
255
0
255
0
255
0
255
0
255
0
255
0
255
0
255
0
255
0
255
0
255
0
255
0
255
0
255
0
255
0
255
0
255
0
255
0
255
0
255
0
255
0
255
0
255
0
255
0
255
0
255
0
255
0
255
0
255
0
255
0
255
0
255
0
255
0
255
0
255
0
255
0
255
0
255
0
255
0
255
0
255
0
255
0
255
0
255
0
255
0
255
0
255
0
255
0
255
0
255
0
255
0
255
0
255
0
245
0
255
0
254
0
252
0
180
0
48
0
10
0
3
0
3
0
3
0
3
0
3
0
3
0
3
0
3
0
0
0
0
0
0
0
0
0
0
0
0
0
0
0
0
0
1
0
4
0
7
0
6
0
3
0
0
0
0
0
2
0
2
0
67
0
67
0
25
0
40
0
82
0
86
0
74
0
77
0
80
0
88
0
90
0
88
0
89
0
65
0
20
0
0
0
0
0
0
0
0
0
0
0
0
0
0
0
0
0
0
0
0
0
0
0
0
0
0
0
0
0
0
0
0
0
2
0
1
0
0
0
2
0
1
0
1
0
1
0
4
0
24
0
52
0
81
0
98
0
109
0
120
0
126
0
128
0
126
0
136
0
127
0
124
0
157
0
178
0
158
0
133
0
62
0
9
0
5
0
12
0
2
0
2
0
53
0
154
0
97
0
22
0
158
0
255
0
244
0
251
0
244
0
254
0
255
0
255
0
255
0
255
0
255
0
255
0
255
0
255
0
255
0
255
0
255
0
255
0
255
0
255
0
255
0
255
0
255
0
255
0
255
0
255
0
255
0
255
0
255
0
255
0
255
0
255
0
255
0
255
0
255
0
255
0
255
0
255
0
255
0
255
0
255
0
255
0
255
0
255
0
255
0
255
0
255
0
255
0
255
0
255
0
255
0
255
0
255
0
255
0
255
0
206
0
8
0
0
0
3
0
4
0
0
0
0
0
0
0
0
0
0
0
0
0
0
0
0
0
0
0
0
0
0
0
0
0
0
0
0
0
0
0
0
0
0
0
0
0
0
0
0
0
0
0
0
0
0
0
0
0
0
0
0
0
0
0
0
0
0
0
0
0
0
0
0
0
0
0
0
0
0
0
0
0
0
0
0
0
0
0
0
0
0
0
0
0
0
0
0
0
0
0
0
0
0
0
0
0
0
0
0
0
0
0
0
0
0
0
0
0
0
0
0
0
0
0
0
0
0
0
0
0
0
0
0
0
0
0
0
0
0
0
0
0
0
0
0
0
0
0
0
0
0
0
0
0
0
0
0
0
0
0
0
0
0
0
0
0
0
0
0
0
0
0
0
0
0
0
0
0
0
0
0
0
0
0
0
0
0
0
0
0
0
0
0
0
0
0
0
0
0
0
0
0
0
0
0
0
0
0
0
0
0
0
0
0
0
0
0
0
0
0
0
0
0
0
0
0
0
0
0
0
0
0
0
0
0
0
0
0
0
0
0
0
0
0
0
0
0
0
0
0
0
0
0
0
0
0
0
0
0
0
0
0
0
0
0
0
0
0
0
0
0
0
0
0
0
0
0
0
0
0
0
0
0
0
0
0
0
0
0
0
0
0
0
0
0
0
0
0
0
0
0
0
0
0
0
0
0
0
0
0
0
0
0
0
0
0
0
0
0
0
0
0
0
0
0
0
0
0
0
0
0
0
0
0
0
0
0
0
0
0
0
0
0
0
0
0
0
0
0
0
0
0
0
0
0
0
0
0
0
0
0
0
0
0
0
0
0
0
0
0
0
0
0
0
0
0
0
0
0
0
0
0
0
0
0
0
0
0
0
0
0
0
0
0
0
0
0
0
0
0
0
0
0
0
0
0
0
0
0
0
0
0
0
0
0
0
0
0
0
0
0
0
0
0
0
0
0
0
0
0
0
0
0
0
0
0
0
0
0
0
0
0
0
0
0
0
0
0
0
0
0
0
0
0
0
0
0
0
0
0
0
0
0
0
0
0
0
0
0
0
0
0
255
0
255
0
255
0
255
0
255
0
255
0
255
0
255
0
255
0
255
0
255
0
255
0
255
0
255
0
255
0
255
0
255
0
255
0
255
0
255
0
255
0
255
0
255
0
255
0
255
0
255
0
255
0
255
0
255
0
255
0
255
0
255
0
255
0
255
0
255
0
255
0
255
0
255
0
255
0
255
0
255
0
255
0
255
0
255
0
255
0
255
0
255
0
255
0
255
0
255
0
255
0
255
0
255
0
255
0
255
0
255
0
255
0
255
0
255
0
249
0
249
0
247
0
158
0
23
0
0
0
8
0
4
0
0
0
2
0
0
0
0
0
10
0
1
0
0
0
0
0
0
0
0
0
1
0
2
0
3
0
6
0
6
0
5
0
3
0
2
0
2
0
3
0
5
0
5
0
32
0
69
0
35
0
26
0
76
0
83
0
78
0
78
0
70
0
81
0
92
0
91
0
92
0
73
0
32
0
3
0
1
0
2
0
4
0
2
0
1
0
3
0
1
0
0
0
0
0
0
0
0
0
0
0
0
0
0
0
0
0
2
0
2
0
2
0
2
0
2
0
2
0
2
0
2
0
9
0
48
0
92
0
97
0
109
0
125
0
117
0
122
0
123
0
145
0
126
0
126
0
146
0
177
0
192
0
141
0
137
0
37
0
3
0
6
0
8
0
4
0
21
0
123
0
143
0
35
0
100
0
243
0
253
0
249
0
254
0
247
0
255
0
255
0
255
0
255
0
255
0
255
0
255
0
255
0
255
0
255
0
255
0
255
0
255
0
255
0
255
0
255
0
255
0
255
0
255
0
255
0
255
0
255
0
255
0
255
0
255
0
255
0
255
0
255
0
255
0
255
0
255
0
255
0
255
0
255
0
255
0
255
0
255
0
255
0
255
0
255
0
252
0
253
0
255
0
255
0
254
0
251
0
255
0
243
0
255
0
229
0
6
0
0
0
0
0
17
0
0
0
3
0
0
0
0
0
0
0
0
0
0
0
0
0
0
0
0
0
0
0
0
0
0
0
0
0
0
0
0
0
0
0
0
0
0
0
0
0
0
0
0
0
0
0
0
0
0
0
0
0
0
0
0
0
0
0
0
0
0
0
0
0
0
0
0
0
0
0
0
0
0
0
0
0
0
0
0
0
0
0
0
0
0
0
0
0
0
0
0
0
0
0
0
0
0
0
0
0
0
0
0
0
0
0
0
0
0
0
0
0
0
0
0
0
0
0
0
0
0
0
0
0
0
0
0
0
0
0
0
0
0
0
0
0
0
0
0
0
0
0
0
0
0
0
0
0
0
0
0
0
0
0
0
0
0
0
0
0
0
0
0
0
0
0
0
0
0
0
0
0
0
0
0
0
0
0
0
0
0
0
0
0
0
0
0
0
0
0
0
0
0
0
0
0
0
0
0
0
0
0
0
0
0
0
0
0
0
0
0
0
0
0
0
0
0
0
0
0
0
0
0
0
0
0
0
0
0
0
0
0
0
0
0
0
0
0
0
0
0
0
0
0
0
0
0
0
0
0
0
0
0
0
0
0
0
0
0
0
0
0
0
0
0
0
0
0
0
0
0
0
0
0
0
0
0
0
0
0
0
0
0
0
0
0
0
0
0
0
0
0
0
0
0
0
0
0
0
0
0
0
0
0
0
0
0
0
0
0
0
0
0
0
0
0
0
0
0
0
0
0
0
0
0
0
0
0
0
0
0
0
0
0
0
0
0
0
0
0
0
0
0
0
0
0
0
0
0
0
0
0
0
0
0
0
0
0
0
0
0
0
0
0
0
0
0
0
0
0
0
0
0
0
0
0
0
0
0
0
0
0
0
0
0
0
0
0
0
0
0
0
0
0
0
0
0
0
0
0
0
0
0
0
0
0
0
0
0
0
0
0
0
0
0
0
0
0
0
0
0
0
0
0
0
0
0
0
0
0
0
0
0
0
0
0
0
0
0
0
0
0
0
0
0
0
0
0
0
0
0
0
0
0
0
0
0
0
0
0
0
0
255
0
255
0
255
0
255
0
255
0
255
0
255
0
255
0
255
0
255
0
255
0
255
0
255
0
255
0
255
0
255
0
255
0
255
0
255
0
255
0
255
0
255
0
255
0
255
0
255
0
255
0
255
0
255
0
255
0
255
0
255
0
255
0
255
0
255
0
255
0
255
0
255
0
255
0
255
0
255
0
255
0
255
0
255
0
255
0
255
0
255
0
255
0
255
0
255
0
255
0
255
0
255
0
255
0
255
0
255
0
255
0
255
0
252
0
255
0
251
0
252
0
255
0
202
0
102
0
3
0
0
0
0
0
6
0
2
0
3
0
2
0
0
0
1
0
0
0
0
0
0
0
0
0
1
0
2
0
3
0
9
0
0
0
1
0
1
0
1
0
2
0
5
0
9
0
2
0
26
0
71
0
44
0
22
0
66
0
84
0
79
0
79
0
72
0
82
0
92
0
91
0
93
0
75
0
37
0
4
0
0
0
2
0
4
0
1
0
1
0
2
0
1
0
0
0
0
0
0
0
0
0
0
0
0
0
0
0
0
0
2
0
2
0
2
0
2
0
2
0
2
0
2
0
2
0
10
0
42
0
92
0
103
0
107
0
124
0
124
0
127
0
130
0
134
0
127
0
135
0
135
0
163
0
196
0
156
0
137
0
99
0
9
0
1
0
12
0
3
0
23
0
75
0
163
0
83
0
42
0
204
0
252
0
253
0
254
0
251
0
255
0
255
0
255
0
255
0
255
0
255
0
255
0
255
0
255
0
255
0
255
0
255
0
255
0
255
0
255
0
255
0
255
0
255
0
255
0
255
0
255
0
255
0
255
0
255
0
255
0
255
0
255
0
255
0
255
0
255
0
255
0
255
0
255
0
255
0
255
0
255
0
255
0
255
0
255
0
255
0
254
0
252
0
244
0
252
0
249
0
248
0
255
0
251
0
250
0
181
0
6
0
0
0
0
0
11
0
0
0
3
0
0
0
0
0
0
0
0
0
0
0
0
0
0
0
0
0
0
0
0
0
0
0
0
0
0
0
0
0
0
0
0
0
0
0
0
0
0
0
0
0
0
0
0
0
0
0
0
0
0
0
0
0
0
0
0
0
0
0
0
0
0
0
0
0
0
0
0
0
0
0
0
0
0
0
0
0
0
0
0
0
0
0
0
0
0
0
0
0
0
0
0
0
0
0
0
0
0
0
0
0
0
0
0
0
0
0
0
0
0
0
0
0
0
0
0
0
0
0
0
0
0
0
0
0
0
0
0
0
0
0
0
0
0
0
0
0
0
0
0
0
0
0
0
0
0
0
0
0
0
0
0
0
0
0
0
0
0
0
0
0
0
0
0
0
0
0
0
0
0
0
0
0
0
0
0
0
0
0
0
0
0
0
0
0
0
0
0
0
0
0
0
0
0
0
0
0
0
0
0
0
0
0
0
0
0
0
0
0
0
0
0
0
0
0
0
0
0
0
0
0
0
0
0
0
0
0
0
0
0
0
0
0
0
0
0
0
0
0
0
0
0
0
0
0
0
0
0
0
0
0
0
0
0
0
0
0
0
0
0
0
0
0
0
0
0
0
0
0
0
0
0
0
0
0
0
0
0
0
0
0
0
0
0
0
0
0
0
0
0
0
0
0
0
0
0
0
0
0
0
0
0
0
0
0
0
0
0
0
0
0
0
0
0
0
0
0
0
0
0
0
0
0
0
0
0
0
0
0
0
0
0
0
0
0
0
0
0
0
0
0
0
0
0
0
0
0
0
0
0
0
0
0
0
0
0
0
0
0
0
0
0
0
0
0
0
0
0
0
0
0
0
0
0
0
0
0
0
0
0
0
0
0
0
0
0
0
0
0
0
0
0
0
0
0
0
0
0
0
0
0
0
0
0
0
0
0
0
0
0
0
0
0
0
0
0
0
0
0
0
0
0
0
0
0
0
0
0
0
0
0
0
0
0
0
0
0
0
0
0
0
0
0
0
0
0
0
0
0
0
0
0
0
0
0
0
0
0
0
255
0
255
0
255
0
255
0
255
0
255
0
255
0
255
0
255
0
255
0
255
0
255
0
255
0
255
0
255
0
255
0
255
0
255
0
255
0
255
0
255
0
255
0
255
0
255
0
255
0
255
0
255
0
255
0
255
0
255
0
255
0
255
0
255
0
255
0
255
0
255
0
255
0
255
0
255
0
255
0
255
0
255
0
255
0
255
0
255
0
255
0
255
0
255
0
255
0
255
0
255
0
255
0
255
0
255
0
255
0
255
0
254
0
250
0
255
0
252
0
251
0
255
0
245
0
192
0
78
0
12
0
0
0
7
0
2
0
3
0
10
0
0
0
1
0
0
0
0
0
0
0
0
0
1
0
2
0
3
0
5
0
0
0
5
0
28
0
41
0
31
0
13
0
4
0
1
0
16
0
69
0
54
0
20
0
55
0
87
0
79
0
79
0
74
0
84
0
92
0
93
0
94
0
79
0
49
0
6
0
1
0
1
0
4
0
2
0
1
0
1
0
1
0
0
0
0
0
0
0
0
0
0
0
0
0
0
0
0
0
1
0
1
0
1
0
1
0
1
0
1
0
1
0
1
0
5
0
27
0
89
0
108
0
101
0
118
0
128
0
130
0
137
0
124
0
131
0
143
0
126
0
146
0
194
0
182
0
152
0
152
0
52
0
1
0
7
0
2
0
13
0
32
0
156
0
138
0
7
0
146
0
238
0
255
0
252
0
254
0
255
0
255
0
255
0
255
0
255
0
255
0
255
0
255
0
255
0
255
0
255
0
255
0
255
0
255
0
255
0
255
0
255
0
255
0
255
0
255
0
255
0
255
0
255
0
255
0
255
0
255
0
255
0
255
0
255
0
255
0
255
0
255
0
255
0
255
0
255
0
255
0
255
0
255
0
255
0
255
0
255
0
255
0
245
0
253
0
255
0
253
0
255
0
255
0
226
0
107
0
5
0
0
0
7
0
3
0
0
0
3
0
0
0
0
0
0
0
0
0
0
0
0
0
0
0
0
0
0
0
0
0
0
0
0
0
0
0
0
0
0
0
0
0
0
0
0
0
0
0
0
0
0
0
0
0
0
0
0
0
0
0
0
0
0
0
0
0
0
0
0
0
0
0
0
0
0
0
0
0
0
0
0
0
0
0
0
0
0
0
0
0
0
0
0
0
0
0
0
0
0
0
0
0
0
0
0
0
0
0
0
0
0
0
0
0
0
0
0
0
0
0
0
0
0
0
0
0
0
0
0
0
0
0
0
0
0
0
0
0
0
0
0
0
0
0
0
0
0
0
0
0
0
0
0
0
0
0
0
0
0
0
0
0
0
0
0
0
0
0
0
0
0
0
0
0
0
0
0
0
0
0
0
0
0
0
0
0
0
0
0
0
0
0
0
0
0
0
0
0
0
0
0
0
0
0
0
0
0
0
0
0
0
0
0
0
0
0
0
0
0
0
0
0
0
0
0
0
0
0
0
0
0
0
0
0
0
0
0
0
0
0
0
0
0
0
0
0
0
0
0
0
0
0
0
0
0
0
0
0
0
0
0
0
0
0
0
0
0
0
0
0
0
0
0
0
0
0
0
0
0
0
0
0
0
0
0
0
0
0
0
0
0
0
0
0
0
0
0
0
0
0
0
0
0
0
0
0
0
0
0
0
0
0
0
0
0
0
0
0
0
0
0
0
0
0
0
0
0
0
0
0
0
0
0
0
0
0
0
0
0
0
0
0
0
0
0
0
0
0
0
0
0
0
0
0
0
0
0
0
0
0
0
0
0
0
0
0
0
0
0
0
0
0
0
0
0
0
0
0
0
0
0
0
0
0
0
0
0
0
0
0
0
0
0
0
0
0
0
0
0
0
0
0
0
0
0
0
0
0
0
0
0
0
0
0
0
0
0
0
0
0
0
0
0
0
0
0
0
0
0
0
0
0
0
0
0
0
0
0
0
0
0
0
0
0
0
0
0
0
0
0
0
0
0
0
0
0
0
0
0
0
0
0
0
0
0
0
0
0
255
0
255
0
255
0
255
0
255
0
255
0
255
0
255
0
255
0
255
0
255
0
255
0
255
0
255
0
255
0
255
0
255
0
255
0
255
0
255
0
255
0
255
0
255
0
255
0
255
0
255
0
255
0
255
0
255
0
255
0
255
0
255
0
255
0
255
0
255
0
255
0
255
0
255
0
255
0
255
0
255
0
255
0
255
0
255
0
255
0
255
0
255
0
255
0
255
0
255
0
255
0
255
0
255
0
255
0
255
0
255
0
255
0
251
0
254
0
252
0
247
0
255
0
255
0
239
0
184
0
69
0
0
0
8
0
14
0
4
0
5
0
8
0
1
0
0
0
0
0
0
0
0
0
1
0
2
0
3
0
4
0
0
0
18
0
57
0
78
0
58
0
22
0
0
0
1
0
6
0
57
0
63
0
23
0
47
0
87
0
75
0
79
0
77
0
85
0
93
0
93
0
94
0
83
0
62
0
9
0
1
0
1
0
2
0
3
0
2
0
1
0
2
0
0
0
0
0
0
0
0
0
0
0
0
0
0
0
0
0
1
0
1
0
1
0
1
0
1
0
1
0
1
0
1
0
1
0
9
0
76
0
107
0
94
0
109
0
126
0
129
0
138
0
125
0
132
0
142
0
127
0
133
0
179
0
208
0
176
0
165
0
116
0
17
0
4
0
13
0
3
0
23
0
121
0
168
0
37
0
82
0
217
0
254
0
241
0
254
0
255
0
255
0
255
0
255
0
255
0
255
0
255
0
255
0
255
0
255
0
255
0
255
0
255
0
255
0
255
0
255
0
255
0
255
0
255
0
255
0
255
0
255
0
255
0
255
0
255
0
255
0
255
0
255
0
255
0
255
0
255
0
255
0
255
0
255
0
255
0
255
0
255
0
255
0
255
0
255
0
253
0
255
0
249
0
255
0
255
0
253
0
254
0
252
0
187
0
36
0
4
0
0
0
14
0
0
0
1
0
2
0
0
0
0
0
0
0
0
0
0
0
0
0
0
0
0
0
0
0
0
0
0
0
0
0
0
0
0
0
0
0
0
0
0
0
0
0
0
0
0
0
0
0
0
0
0
0
0
0
0
0
0
0
0
0
0
0
0
0
0
0
0
0
0
0
0
0
0
0
0
0
0
0
0
0
0
0
0
0
0
0
0
0
0
0
0
0
0
0
0
0
0
0
0
0
0
0
0
0
0
0
0
0
0
0
0
0
0
0
0
0
0
0
0
0
0
0
0
0
0
0
0
0
0
0
0
0
0
0
0
0
0
0
0
0
0
0
0
0
0
0
0
0
0
0
0
0
0
0
0
0
0
0
0
0
0
0
0
0
0
0
0
0
0
0
0
0
0
0
0
0
0
0
0
0
0
0
0
0
0
0
0
0
0
0
0
0
0
0
0
0
0
0
0
0
0
0
0
0
0
0
0
0
0
0
0
0
0
0
0
0
0
0
0
0
0
0
0
0
0
0
0
0
0
0
0
0
0
0
0
0
0
0
0
0
0
0
0
0
0
0
0
0
0
0
0
0
0
0
0
0
0
0
0
0
0
0
0
0
0
0
0
0
0
0
0
0
0
0
0
0
0
0
0
0
0
0
0
0
0
0
0
0
0
0
0
0
0
0
0
0
0
0
0
0
0
0
0
0
0
0
0
0
0
0
0
0
0
0
0
0
0
0
0
0
0
0
0
0
0
0
0
0
0
0
0
0
0
0
0
0
0
0
0
0
0
0
0
0
0
0
0
0
0
0
0
0
0
0
0
0
0
0
0
0
0
0
0
0
0
0
0
0
0
0
0
0
0
0
0
0
0
0
0
0
0
0
0
0
0
0
0
0
0
0
0
0
0
0
0
0
0
0
0
0
0
0
0
0
0
0
0
0
0
0
0
0
0
0
0
0
0
0
0
0
0
0
0
0
0
0
0
0
0
0
0
0
0
0
0
0
0
0
0
0
0
0
0
0
0
0
0
0
0
0
0
0
0
0
0
0
0
0
0
0
0
0
0
0
255
0
255
0
255
0
255
0
255
0
255
0
255
0
255
0
255
0
255
0
255
0
255
0
255
0
255
0
255
0
255
0
255
0
255
0
255
0
255
0
255
0
255
0
255
0
255
0
255
0
255
0
255
0
255
0
255
0
255
0
255
0
255
0
255
0
255
0
255
0
255
0
255
0
255
0
255
0
255
0
255
0
255
0
255
0
255
0
255
0
255
0
255
0
255
0
255
0
255
0
255
0
255
0
255
0
255
0
255
0
255
0
255
0
253
0
254
0
255
0
250
0
252
0
255
0
250
0
245
0
143
0
35
0
0
0
12
0
9
0
0
0
0
0
1
0
0
0
0
0
0
0
0
0
1
0
2
0
3
0
7
0
0
0
8
0
47
0
74
0
62
0
26
0
1
0
6
0
0
0
41
0
62
0
30
0
45
0
85
0
71
0
79
0
80
0
86
0
91
0
94
0
95
0
87
0
76
0
22
0
2
0
1
0
1
0
2
0
1
0
1
0
2
0
0
0
0
0
0
0
0
0
0
0
0
0
0
0
0
0
1
0
1
0
1
0
1
0
1
0
1
0
1
0
1
0
0
0
2
0
64
0
103
0
95
0
106
0
121
0
128
0
133
0
135
0
134
0
133
0
137
0
131
0
156
0
217
0
193
0
175
0
156
0
68
0
6
0
3
0
1
0
17
0
88
0
166
0
102
0
23
0
189
0
253
0
245
0
253
0
255
0
255
0
255
0
255
0
255
0
255
0
255
0
255
0
255
0
255
0
255
0
255
0
255
0
255
0
255
0
255
0
255
0
255
0
255
0
255
0
255
0
255
0
255
0
255
0
255
0
255
0
255
0
255
0
255
0
255
0
255
0
255
0
255
0
255
0
255
0
255
0
255
0
255
0
255
0
255
0
242
0
254
0
245
0
249
0
253
0
248
0
251
0
241
0
135
0
0
0
4
0
0
0
16
0
0
0
4
0
1
0
0
0
0
0
0
0
0
0
0
0
0
0
0
0
0
0
0
0
0
0
0
0
0
0
0
0
0
0
0
0
0
0
0
0
0
0
0
0
0
0
0
0
0
0
0
0
0
0
0
0
0
0
0
0
0
0
0
0
0
0
0
0
0
0
0
0
0
0
0
0
0
0
0
0
0
0
0
0
0
0
0
0
0
0
0
0
0
0
0
0
0
0
0
0
0
0
0
0
0
0
0
0
0
0
0
0
0
0
0
0
0
0
0
0
0
0
0
0
0
0
0
0
0
0
0
0
0
0
0
0
0
0
0
0
0
0
0
0
0
0
0
0
0
0
0
0
0
0
0
0
0
0
0
0
0
0
0
0
0
0
0
0
0
0
0
0
0
0
0
0
0
0
0
0
0
0
0
0
0
0
0
0
0
0
0
0
0
0
0
0
0
0
0
0
0
0
0
0
0
0
0
0
0
0
0
0
0
0
0
0
0
0
0
0
0
0
0
0
0
0
0
0
0
0
0
0
0
0
0
0
0
0
0
0
0
0
0
0
0
0
0
0
0
0
0
0
0
0
0
0
0
0
0
0
0
0
0
0
0
0
0
0
0
0
0
0
0
0
0
0
0
0
0
0
0
0
0
0
0
0
0
0
0
0
0
0
0
0
0
0
0
0
0
0
0
0
0
0
0
0
0
0
0
0
0
0
0
0
0
0
0
0
0
0
0
0
0
0
0
0
0
0
0
0
0
0
0
0
0
0
0
0
0
0
0
0
0
0
0
0
0
0
0
0
0
0
0
0
0
0
0
0
0
0
0
0
0
0
0
0
0
0
0
0
0
0
0
0
0
0
0
0
0
0
0
0
0
0
0
0
0
0
0
0
0
0
0
0
0
0
0
0
0
0
0
0
0
0
0
0
0
0
0
0
0
0
0
0
0
0
0
0
0
0
0
0
0
0
0
0
0
0
0
0
0
0
0
0
0
0
0
0
0
0
0
0
0
0
0
0
0
0
0
0
0
0
0
0
0
0
0
0
0
0
0
0
0
0
255
0
255
0
255
0
255
0
255
0
255
0
255
0
255
0
255
0
255
0
255
0
255
0
255
0
255
0
255
0
255
0
255
0
255
0
255
0
255
0
255
0
255
0
255
0
255
0
255
0
255
0
255
0
255
0
255
0
255
0
255
0
255
0
255
0
255
0
255
0
255
0
255
0
255
0
255
0
255
0
255
0
255
0
255
0
255
0
255
0
255
0
255
0
255
0
255
0
255
0
255
0
255
0
255
0
255
0
255
0
255
0
255
0
254
0
255
0
255
0
255
0
255
0
255
0
253
0
255
0
213
0
98
0
0
0
0
0
5
0
4
0
0
0
1
0
0
0
0
0
0
0
0
0
1
0
2
0
3
0
1
0
0
0
7
0
45
0
77
0
73
0
34
0
2
0
7
0
0
0
24
0
59
0
39
0
41
0
80
0
72
0
78
0
82
0
86
0
90
0
94
0
94
0
91
0
88
0
47
0
17
0
0
0
1
0
2
0
2
0
1
0
1
0
0
0
0
0
0
0
0
0
0
0
0
0
0
0
0
0
0
0
0
0
0
0
0
0
0
0
0
0
0
0
0
0
1
0
1
0
54
0
98
0
104
0
109
0
115
0
128
0
131
0
142
0
137
0
128
0
145
0
139
0
142
0
206
0
200
0
199
0
167
0
132
0
47
0
2
0
5
0
4
0
65
0
146
0
152
0
4
0
144
0
255
0
252
0
253
0
255
0
255
0
255
0
255
0
255
0
255
0
255
0
255
0
255
0
255
0
255
0
255
0
255
0
255
0
255
0
255
0
255
0
255
0
255
0
255
0
255
0
255
0
255
0
255
0
255
0
255
0
255
0
255
0
255
0
255
0
255
0
255
0
255
0
255
0
255
0
255
0
255
0
255
0
255
0
255
0
250
0
255
0
249
0
249
0
248
0
255
0
255
0
228
0
78
0
0
0
4
0
0
0
13
0
0
0
4
0
0
0
0
0
0
0
0
0
0
0
0
0
0
0
0
0
0
0
0
0
0
0
0
0
0
0
0
0
0
0
0
0
0
0
0
0
0
0
0
0
0
0
0
0
0
0
0
0
0
0
0
0
0
0
0
0
0
0
0
0
0
0
0
0
0
0
0
0
0
0
0
0
0
0
0
0
0
0
0
0
0
0
0
0
0
0
0
0
0
0
0
0
0
0
0
0
0
0
0
0
0
0
0
0
0
0
0
0
0
0
0
0
0
0
0
0
0
0
0
0
0
0
0
0
0
0
0
0
0
0
0
0
0
0
0
0
0
0
0
0
0
0
0
0
0
0
0
0
0
0
0
0
0
0
0
0
0
0
0
0
0
0
0
0
0
0
0
0
0
0
0
0
0
0
0
0
0
0
0
0
0
0
0
0
0
0
0
0
0
0
0
0
0
0
0
0
0
0
0
0
0
0
0
0
0
0
0
0
0
0
0
0
0
0
0
0
0
0
0
0
0
0
0
0
0
0
0
0
0
0
0
0
0
0
0
0
0
0
0
0
0
0
0
0
0
0
0
0
0
0
0
0
0
0
0
0
0
0
0
0
0
0
0
0
0
0
0
0
0
0
0
0
0
0
0
0
0
0
0
0
0
0
0
0
0
0
0
0
0
0
0
0
0
0
0
0
0
0
0
0
0
0
0
0
0
0
0
0
0
0
0
0
0
0
0
0
0
0
0
0
0
0
0
0
0
0
0
0
0
0
0
0
0
0
0
0
0
0
0
0
0
0
0
0
0
0
0
0
0
0
0
0
0
0
0
0
0
0
0
0
0
0
0
0
0
0
0
0
0
0
0
0
0
0
0
0
0
0
0
0
0
0
0
0
0
0
0
0
0
0
0
0
0
0
0
0
0
0
0
0
0
0
0
0
0
0
0
0
0
0
0
0
0
0
0
0
0
0
0
0
0
0
0
0
0
0
0
0
0
0
0
0
0
0
0
0
0
0
0
0
0
0
0
0
0
0
0
0
0
0
0
0
0
0
0
0
0
0
0
0
255
0
255
0
255
0
255
0
255
0
255
0
255
0
255
0
255
0
255
0
255
0
255
0
255
0
255
0
255
0
255
0
255
0
255
0
255
0
255
0
255
0
255
0
255
0
255
0
255
0
255
0
255
0
255
0
255
0
255
0
255
0
255
0
255
0
255
0
255
0
255
0
255
0
255
0
255
0
255
0
255
0
255
0
255
0
255
0
255
0
255
0
255
0
255
0
255
0
255
0
255
0
255
0
255
0
255
0
255
0
255
0
255
0
255
0
255
0
255
0
255
0
255
0
255
0
255
0
255
0
253
0
186
0
75
0
2
0
0
0
10
0
5
0
1
0
0
0
0
0
0
0
0
0
1
0
2
0
3
0
1
0
1
0
11
0
43
0
81
0
87
0
50
0
8
0
5
0
0
0
14
0
55
0
46
0
34
0
72
0
78
0
78
0
83
0
86
0
89
0
94
0
93
0
92
0
97
0
76
0
38
0
9
0
5
0
4
0
2
0
1
0
1
0
0
0
0
0
0
0
0
0
0
0
0
0
0
0
0
0
0
0
0
0
0
0
0
0
0
0
0
0
0
0
0
0
4
0
0
0
41
0
89
0
112
0
111
0
105
0
125
0
134
0
139
0
143
0
130
0
146
0
150
0
139
0
180
0
206
0
211
0
188
0
175
0
105
0
15
0
5
0
1
0
31
0
121
0
171
0
19
0
93
0
234
0
252
0
251
0
255
0
255
0
255
0
255
0
255
0
255
0
255
0
255
0
255
0
255
0
255
0
255
0
255
0
255
0
255
0
255
0
255
0
255
0
255
0
255
0
255
0
255
0
255
0
255
0
255
0
255
0
255
0
255
0
255
0
255
0
255
0
255
0
255
0
255
0
255
0
255
0
255
0
255
0
255
0
255
0
255
0
255
0
255
0
255
0
250
0
255
0
255
0
181
0
27
0
0
0
5
0
0
0
7
0
0
0
2
0
0
0
0
0
0
0
0
0
0
0
0
0
0
0
0
0
0
0
0
0
0
0
0
0
0
0
0
0
0
0
0
0
0
0
0
0
0
0
0
0
0
0
0
0
0
0
0
0
0
0
0
0
0
0
0
0
0
0
0
0
0
0
0
0
0
0
0
0
0
0
0
0
0
0
0
0
0
0
0
0
0
0
0
0
0
0
0
0
0
0
0
0
0
0
0
0
0
0
0
0
0
0
0
0
0
0
0
0
0
0
0
0
0
0
0
0
0
0
0
0
0
0
0
0
0
0
0
0
0
0
0
0
0
0
0
0
0
0
0
0
0
0
0
0
0
0
0
0
0
0
0
0
0
0
0
0
0
0
0
0
0
0
0
0
0
0
0
0
0
0
0
0
0
0
0
0
0
0
0
0
0
0
0
0
0
0
0
0
0
0
0
0
0
0
0
0
0
0
0
0
0
0
0
0
0
0
0
0
0
0
0
0
0
0
0
0
0
0
0
0
0
0
0
0
0
0
0
0
0
0
0
0
0
0
0
0
0
0
0
0
0
0
0
0
0
0
0
0
0
0
0
0
0
0
0
0
0
0
0
0
0
0
0
0
0
0
0
0
0
0
0
0
0
0
0
0
0
0
0
0
0
0
0
0
0
0
0
0
0
0
0
0
0
0
0
0
0
0
0
0
0
0
0
0
0
0
0
0
0
0
0
0
0
0
0
0
0
0
0
0
0
0
0
0
0
0
0
0
0
0
0
0
0
0
0
0
0
0
0
0
0
0
0
0
0
0
0
0
0
0
0
0
0
0
0
0
0
0
0
0
0
0
0
0
0
0
0
0
0
0
0
0
0
0
0
0
0
0
0
0
0
0
0
0
0
0
0
0
0
0
0
0
0
0
0
0
0
0
0
0
0
0
0
0
0
0
0
0
0
0
0
0
0
0
0
0
0
0
0
0
0
0
0
0
0
0
0
0
0
0
0
0
0
0
0
0
0
0
0
0
0
0
0
0
0
0
0
0
0
0
0
0
0
0
0
0
0
0
0
0
255
0
255
0
255
0
255
0
255
0
255
0
255
0
255
0
255
0
255
0
255
0
255
0
255
0
255
0
255
0
255
0
255
0
255
0
255
0
255
0
255
0
255
0
255
0
255
0
255
0
255
0
255
0
255
0
255
0
255
0
255
0
255
0
255
0
255
0
255
0
255
0
255
0
255
0
255
0
255
0
255
0
255
0
255
0
255
0
255
0
255
0
255
0
255
0
255
0
255
0
255
0
255
0
255
0
255
0
255
0
255
0
253
0
255
0
255
0
255
0
253
0
252
0
255
0
255
0
248
0
255
0
255
0
189
0
65
0
1
0
1
0
1
0
1
0
0
0
0
0
0
0
0
0
1
0
2
0
3
0
9
0
3
0
1
0
18
0
58
0
83
0
64
0
30
0
3
0
3
0
10
0
53
0
49
0
29
0
67
0
83
0
77
0
84
0
85
0
88
0
94
0
93
0
93
0
102
0
97
0
54
0
18
0
9
0
4
0
1
0
1
0
0
0
0
0
0
0
0
0
0
0
0
0
0
0
0
0
0
0
0
0
0
0
0
0
0
0
0
0
0
0
0
0
0
0
3
0
0
0
30
0
80
0
113
0
109
0
94
0
119
0
138
0
133
0
148
0
136
0
143
0
157
0
143
0
158
0
215
0
205
0
216
0
191
0
144
0
70
0
2
0
11
0
9
0
102
0
174
0
55
0
55
0
207
0
251
0
248
0
255
0
255
0
255
0
255
0
255
0
255
0
255
0
255
0
255
0
255
0
255
0
255
0
255
0
255
0
255
0
255
0
255
0
255
0
255
0
255
0
255
0
255
0
255
0
255
0
255
0
255
0
255
0
255
0
255
0
255
0
255
0
255
0
255
0
255
0
255
0
255
0
255
0
255
0
255
0
255
0
254
0
248
0
254
0
255
0
246
0
255
0
228
0
119
0
0
0
9
0
5
0
0
0
2
0
1
0
1
0
0
0
0
0
0
0
0
0
0
0
0
0
0
0
0
0
0
0
0
0
0
0
0
0
0
0
0
0
0
0
0
0
0
0
0
0
0
0
0
0
0
0
0
0
0
0
0
0
0
0
0
0
0
0
0
0
0
0
0
0
0
0
0
0
0
0
0
0
0
0
0
0
0
0
0
0
0
0
0
0
0
0
0
0
0
0
0
0
0
0
0
0
0
0
0
0
0
0
0
0
0
0
0
0
0
0
0
0
0
0
0
0
0
0
0
0
0
0
0
0
0
0
0
0
0
0
0
0
0
0
0
0
0
0
0
0
0
0
0
0
0
0
0
0
0
0
0
0
0
0
0
0
0
0
0
0
0
0
0
0
0
0
0
0
0
0
0
0
0
0
0
0
0
0
0
0
0
0
0
0
0
0
0
0
0
0
0
0
0
0
0
0
0
0
0
0
0
0
0
0
0
0
0
0
0
0
0
0
0
0
0
0
0
0
0
0
0
0
0
0
0
0
0
0
0
0
0
0
0
0
0
0
0
0
0
0
0
0
0
0
0
0
0
0
0
0
0
0
0
0
0
0
0
0
0
0
0
0
0
0
0
0
0
0
0
0
0
0
0
0
0
0
0
0
0
0
0
0
0
0
0
0
0
0
0
0
0
0
0
0
0
0
0
0
0
0
0
0
0
0
0
0
0
0
0
0
0
0
0
0
0
0
0
0
0
0
0
0
0
0
0
0
0
0
0
0
0
0
0
0
0
0
0
0
0
0
0
0
0
0
0
0
0
0
0
0
0
0
0
0
0
0
0
0
0
0
0
0
0
0
0
0
0
0
0
0
0
0
0
0
0
0
0
0
0
0
0
0
0
0
0
0
0
0
0
0
0
0
0
0
0
0
0
0
0
0
0
0
0
0
0
0
0
0
0
0
0
0
0
0
0
0
0
0
0
0
0
0
0
0
0
0
0
0
0
0
0
0
0
0
0
0
0
0
0
0
0
0
0
0
0
0
0
0
0
0
0
0
0
0
0
0
0
0
0
0
0
0
0
0
255
0
255
0
255
0
255
0
255
0
255
0
255
0
255
0
255
0
255
0
255
0
255
0
255
0
255
0
255
0
255
0
255
0
255
0
255
0
255
0
255
0
255
0
255
0
255
0
255
0
255
0
255
0
255
0
255
0
255
0
255
0
255
0
255
0
255
0
255
0
255
0
255
0
255
0
255
0
255
0
255
0
255
0
255
0
255
0
255
0
255
0
255
0
255
0
255
0
255
0
255
0
255
0
255
0
255
0
255
0
255
0
255
0
255
0
255
0
255
0
255
0
255
0
255
0
255
0
251
0
253
0
253
0
246
0
179
0
48
0
0
0
10
0
0
0
0
0
4
0
3
0
0
0
2
0
11
0
0
0
1
0
6
0
0
0
21
0
80
0
71
0
77
0
45
0
0
0
5
0
7
0
38
0
54
0
38
0
55
0
88
0
79
0
79
0
83
0
88
0
92
0
93
0
91
0
89
0
83
0
94
0
70
0
16
0
2
0
5
0
7
0
1
0
0
0
0
0
0
0
0
0
0
0
0
0
0
0
0
0
0
0
0
0
0
0
0
0
0
0
0
0
0
0
0
0
2
0
0
0
16
0
70
0
108
0
103
0
97
0
110
0
128
0
134
0
141
0
145
0
145
0
145
0
146
0
149
0
191
0
209
0
213
0
216
0
180
0
108
0
41
0
1
0
3
0
62
0
154
0
133
0
16
0
153
0
250
0
249
0
254
0
254
0
254
0
255
0
255
0
255
0
255
0
255
0
255
0
255
0
255
0
255
0
255
0
255
0
255
0
255
0
255
0
255
0
255
0
255
0
255
0
255
0
255
0
255
0
255
0
255
0
255
0
255
0
255
0
255
0
255
0
255
0
255
0
255
0
255
0
255
0
255
0
255
0
255
0
255
0
255
0
245
0
252
0
255
0
255
0
255
0
182
0
29
0
2
0
4
0
4
0
2
0
0
0
0
0
0
0
0
0
1
0
1
0
1
0
1
0
1
0
1
0
1
0
0
0
0
0
0
0
0
0
0
0
0
0
0
0
0
0
0
0
0
0
0
0
0
0
0
0
0
0
0
0
0
0
0
0
0
0
0
0
0
0
0
0
0
0
0
0
0
0
0
0
0
0
0
0
0
0
0
0
0
0
0
0
0
0
0
0
0
0
0
0
0
0
0
0
0
0
0
0
0
0
0
0
0
0
0
0
0
0
0
0
0
0
0
0
0
0
0
0
0
0
0
0
0
0
0
0
0
0
0
0
0
0
0
0
0
0
0
0
0
0
0
0
0
0
0
0
0
0
0
0
0
0
0
0
0
0
0
0
0
0
0
0
0
0
0
0
0
0
0
0
0
0
0
0
0
0
0
0
0
0
0
0
0
0
0
0
0
0
0
0
0
0
0
0
0
0
0
0
0
0
0
0
0
0
0
0
0
0
0
0
0
0
0
0
0
0
0
0
0
0
0
0
0
0
0
0
0
0
0
0
0
0
0
0
0
0
0
0
0
0
0
0
0
0
0
0
0
0
0
0
0
0
0
0
0
0
0
0
0
0
0
0
0
0
0
0
0
0
0
0
0
0
0
0
0
0
0
0
0
0
0
0
0
0
0
0
0
0
0
0
0
0
0
0
0
0
0
0
0
0
0
0
0
0
0
0
0
0
0
0
0
0
0
0
0
0
0
0
0
0
0
0
0
0
0
0
0
0
0
0
0
0
0
0
0
0
0
0
0
0
0
0
0
0
0
0
0
0
0
0
0
0
0
0
0
0
0
0
0
0
0
0
0
0
0
0
0
0
0
0
0
0
0
0
0
0
0
0
0
0
0
0
0
0
0
0
0
0
0
0
0
0
0
0
0
0
0
0
0
0
0
0
0
0
0
0
0
0
0
0
0
0
0
0
0
0
0
0
0
0
0
0
0
0
0
0
0
0
0
0
0
0
0
0
0
0
0
0
0
0
0
0
0
0
0
0
0
0
0
0
0
0
0
0
0
0
0
0
0
0
0
0
0
0
255
0
255
0
255
0
255
0
255
0
255
0
255
0
255
0
255
0
255
0
255
0
255
0
255
0
255
0
255
0
255
0
255
0
255
0
255
0
255
0
255
0
255
0
255
0
255
0
255
0
255
0
255
0
255
0
255
0
255
0
255
0
255
0
255
0
255
0
255
0
255
0
255
0
255
0
255
0
255
0
255
0
255
0
255
0
255
0
255
0
255
0
255
0
255
0
255
0
255
0
255
0
255
0
255
0
255
0
255
0
255
0
255
0
255
0
255
0
255
0
255
0
255
0
255
0
255
0
253
0
254
0
253
0
251
0
215
0
123
0
34
0
0
0
9
0
1
0
0
0
0
0
6
0
3
0
2
0
10
0
1
0
5
0
0
0
18
0
76
0
71
0
78
0
50
0
7
0
4
0
4
0
38
0
54
0
39
0
50
0
83
0
79
0
79
0
82
0
86
0
91
0
93
0
92
0
90
0
98
0
95
0
86
0
52
0
10
0
0
0
7
0
4
0
0
0
0
0
0
0
0
0
0
0
0
0
0
0
0
0
0
0
0
0
0
0
0
0
0
0
0
0
0
0
0
0
4
0
2
0
21
0
67
0
100
0
102
0
103
0
118
0
125
0
132
0
142
0
147
0
148
0
147
0
147
0
147
0
186
0
220
0
223
0
213
0
197
0
162
0
94
0
7
0
3
0
46
0
147
0
144
0
21
0
140
0
251
0
251
0
254
0
254
0
254
0
255
0
255
0
255
0
255
0
255
0
255
0
255
0
255
0
255
0
255
0
255
0
255
0
255
0
255
0
255
0
255
0
255
0
255
0
255
0
255
0
255
0
255
0
255
0
255
0
255
0
255
0
255
0
255
0
255
0
255
0
255
0
255
0
255
0
255
0
255
0
255
0
255
0
252
0
246
0
255
0
248
0
255
0
246
0
113
0
1
0
1
0
2
0
3
0
3
0
2
0
1
0
1
0
1
0
0
0
0
0
0
0
2
0
4
0
5
0
5
0
0
0
0
0
0
0
0
0
0
0
0
0
0
0
0
0
0
0
0
0
0
0
0
0
0
0
0
0
0
0
0
0
0
0
0
0
0
0
0
0
0
0
0
0
0
0
0
0
0
0
0
0
0
0
0
0
0
0
0
0
0
0
0
0
0
0
0
0
0
0
0
0
0
0
0
0
0
0
0
0
0
0
0
0
0
0
0
0
0
0
0
0
0
0
0
0
0
0
0
0
0
0
0
0
0
0
0
0
0
0
0
0
0
0
0
0
0
0
0
0
0
0
0
0
0
0
0
0
0
0
0
0
0
0
0
0
0
0
0
0
0
0
0
0
0
0
0
0
0
0
0
0
0
0
0
0
0
0
0
0
0
0
0
0
0
0
0
0
0
0
0
0
0
0
0
0
0
0
0
0
0
0
0
0
0
0
0
0
0
0
0
0
0
0
0
0
0
0
0
0
0
0
0
0
0
0
0
0
0
0
0
0
0
0
0
0
0
0
0
0
0
0
0
0
0
0
0
0
0
0
0
0
0
0
0
0
0
0
0
0
0
0
0
0
0
0
0
0
0
0
0
0
0
0
0
0
0
0
0
0
0
0
0
0
0
0
0
0
0
0
0
0
0
0
0
0
0
0
0
0
0
0
0
0
0
0
0
0
0
0
0
0
0
0
0
0
0
0
0
0
0
0
0
0
0
0
0
0
0
0
0
0
0
0
0
0
0
0
0
0
0
0
0
0
0
0
0
0
0
0
0
0
0
0
0
0
0
0
0
0
0
0
0
0
0
0
0
0
0
0
0
0
0
0
0
0
0
0
0
0
0
0
0
0
0
0
0
0
0
0
0
0
0
0
0
0
0
0
0
0
0
0
0
0
0
0
0
0
0
0
0
0
0
0
0
0
0
0
0
0
0
0
0
0
0
0
0
0
0
0
0
0
0
0
0
0
0
0
0
0
0
0
0
0
0
0
0
0
0
0
0
0
0
0
0
0
0
0
0
0
0
0
0
0
255
0
255
0
255
0
255
0
255
0
255
0
255
0
255
0
255
0
255
0
255
0
255
0
255
0
255
0
255
0
255
0
255
0
255
0
255
0
255
0
255
0
255
0
255
0
255
0
255
0
255
0
255
0
255
0
255
0
255
0
255
0
255
0
255
0
255
0
255
0
255
0
255
0
255
0
255
0
255
0
255
0
255
0
255
0
255
0
255
0
255
0
255
0
255
0
255
0
255
0
255
0
255
0
255
0
255
0
255
0
255
0
255
0
255
0
255
0
255
0
255
0
255
0
255
0
255
0
255
0
254
0
254
0
255
0
250
0
209
0
108
0
5
0
0
0
6
0
0
0
0
0
9
0
0
0
0
0
7
0
2
0
4
0
1
0
12
0
69
0
72
0
80
0
59
0
18
0
0
0
1
0
33
0
57
0
42
0
44
0
77
0
81
0
80
0
81
0
85
0
89
0
92
0
93
0
93
0
106
0
94
0
99
0
89
0
37
0
1
0
0
0
13
0
1
0
1
0
0
0
0
0
0
0
0
0
0
0
0
0
0
0
0
0
0
0
0
0
0
0
0
0
0
0
0
0
2
0
0
0
12
0
49
0
89
0
105
0
105
0
109
0
110
0
119
0
132
0
140
0
142
0
142
0
143
0
143
0
165
0
208
0
214
0
206
0
205
0
191
0
133
0
42
0
1
0
12
0
123
0
155
0
28
0
110
0
245
0
246
0
254
0
254
0
254
0
255
0
255
0
255
0
255
0
255
0
255
0
255
0
255
0
255
0
255
0
255
0
255
0
255
0
255
0
255
0
255
0
255
0
255
0
255
0
255
0
255
0
255
0
255
0
255
0
255
0
255
0
255
0
255
0
255
0
255
0
255
0
255
0
255
0
255
0
255
0
255
0
255
0
253
0
255
0
255
0
245
0
255
0
213
0
43
0
0
0
1
0
1
0
1
0
3
0
5
0
5
0
3
0
2
0
2
0
1
0
1
0
1
0
2
0
1
0
1
0
0
0
0
0
0
0
0
0
0
0
0
0
0
0
0
0
0
0
0
0
0
0
0
0
0
0
0
0
0
0
0
0
0
0
0
0
0
0
0
0
0
0
0
0
0
0
0
0
0
0
0
0
0
0
0
0
0
0
0
0
0
0
0
0
0
0
0
0
0
0
0
0
0
0
0
0
0
0
0
0
0
0
0
0
0
0
0
0
0
0
0
0
0
0
0
0
0
0
0
0
0
0
0
0
0
0
0
0
0
0
0
0
0
0
0
0
0
0
0
0
0
0
0
0
0
0
0
0
0
0
0
0
0
0
0
0
0
0
0
0
0
0
0
0
0
0
0
0
0
0
0
0
0
0
0
0
0
0
0
0
0
0
0
0
0
0
0
0
0
0
0
0
0
0
0
0
0
0
0
0
0
0
0
0
0
0
0
0
0
0
0
0
0
0
0
0
0
0
0
0
0
0
0
0
0
0
0
0
0
0
0
0
0
0
0
0
0
0
0
0
0
0
0
0
0
0
0
0
0
0
0
0
0
0
0
0
0
0
0
0
0
0
0
0
0
0
0
0
0
0
0
0
0
0
0
0
0
0
0
0
0
0
0
0
0
0
0
0
0
0
0
0
0
0
0
0
0
0
0
0
0
0
0
0
0
0
0
0
0
0
0
0
0
0
0
0
0
0
0
0
0
0
0
0
0
0
0
0
0
0
0
0
0
0
0
0
0
0
0
0
0
0
0
0
0
0
0
0
0
0
0
0
0
0
0
0
0
0
0
0
0
0
0
0
0
0
0
0
0
0
0
0
0
0
0
0
0
0
0
0
0
0
0
0
0
0
0
0
0
0
0
0
0
0
0
0
0
0
0
0
0
0
0
0
0
0
0
0
0
0
0
0
0
0
0
0
0
0
0
0
0
0
0
0
0
0
0
0
0
0
0
0
0
0
0
0
0
0
0
0
0
0
0
0
0
0
0
0
0
0
0
0
0
0
0
0
0
0
0
0
0
0
0
0
255
0
255
0
255
0
255
0
255
0
255
0
255
0
255
0
255
0
255
0
255
0
255
0
255
0
255
0
255
0
255
0
255
0
255
0
255
0
255
0
255
0
255
0
255
0
255
0
255
0
255
0
255
0
255
0
255
0
255
0
255
0
255
0
255
0
255
0
255
0
255
0
255
0
255
0
255
0
255
0
255
0
255
0
255
0
255
0
255
0
255
0
255
0
255
0
255
0
255
0
255
0
255
0
255
0
255
0
255
0
255
0
255
0
255
0
255
0
255
0
255
0
255
0
255
0
255
0
255
0
252
0
255
0
255
0
255
0
254
0
175
0
59
0
0
0
8
0
7
0
0
0
5
0
2
0
0
0
0
0
3
0
2
0
2
0
4
0
60
0
71
0
81
0
68
0
29
0
1
0
1
0
26
0
57
0
49
0
42
0
73
0
81
0
79
0
79
0
81
0
85
0
89
0
91
0
91
0
98
0
97
0
100
0
98
0
67
0
14
0
1
0
6
0
2
0
1
0
1
0
1
0
0
0
0
0
0
0
0
0
0
0
0
0
0
0
0
0
0
0
0
0
0
0
0
0
2
0
0
0
1
0
34
0
84
0
113
0
109
0
98
0
111
0
122
0
136
0
146
0
151
0
154
0
157
0
159
0
171
0
201
0
210
0
219
0
222
0
208
0
169
0
109
0
8
0
3
0
100
0
169
0
53
0
86
0
236
0
247
0
254
0
254
0
254
0
255
0
255
0
255
0
255
0
255
0
255
0
255
0
255
0
255
0
255
0
255
0
255
0
255
0
255
0
255
0
255
0
255
0
255
0
255
0
255
0
255
0
255
0
255
0
255
0
255
0
255
0
255
0
255
0
255
0
255
0
255
0
255
0
255
0
255
0
255
0
255
0
255
0
255
0
255
0
255
0
251
0
248
0
146
0
6
0
0
0
1
0
0
0
0
0
2
0
4
0
5
0
2
0
0
0
3
0
3
0
4
0
2
0
2
0
0
0
0
0
0
0
0
0
0
0
0
0
0
0
0
0
0
0
0
0
0
0
0
0
0
0
0
0
0
0
0
0
0
0
0
0
0
0
0
0
0
0
0
0
0
0
0
0
0
0
0
0
0
0
0
0
0
0
0
0
0
0
0
0
0
0
0
0
0
0
0
0
0
0
0
0
0
0
0
0
0
0
0
0
0
0
0
0
0
0
0
0
0
0
0
0
0
0
0
0
0
0
0
0
0
0
0
0
0
0
0
0
0
0
0
0
0
0
0
0
0
0
0
0
0
0
0
0
0
0
0
0
0
0
0
0
0
0
0
0
0
0
0
0
0
0
0
0
0
0
0
0
0
0
0
0
0
0
0
0
0
0
0
0
0
0
0
0
0
0
0
0
0
0
0
0
0
0
0
0
0
0
0
0
0
0
0
0
0
0
0
0
0
0
0
0
0
0
0
0
0
0
0
0
0
0
0
0
0
0
0
0
0
0
0
0
0
0
0
0
0
0
0
0
0
0
0
0
0
0
0
0
0
0
0
0
0
0
0
0
0
0
0
0
0
0
0
0
0
0
0
0
0
0
0
0
0
0
0
0
0
0
0
0
0
0
0
0
0
0
0
0
0
0
0
0
0
0
0
0
0
0
0
0
0
0
0
0
0
0
0
0
0
0
0
0
0
0
0
0
0
0
0
0
0
0
0
0
0
0
0
0
0
0
0
0
0
0
0
0
0
0
0
0
0
0
0
0
0
0
0
0
0
0
0
0
0
0
0
0
0
0
0
0
0
0
0
0
0
0
0
0
0
0
0
0
0
0
0
0
0
0
0
0
0
0
0
0
0
0
0
0
0
0
0
0
0
0
0
0
0
0
0
0
0
0
0
0
0
0
0
0
0
0
0
0
0
0
0
0
0
0
0
0
0
0
0
0
0
0
0
0
0
0
0
0
0
0
0
0
0
0
0
0
0
0
0
0
0
0
0
0
0
0
0
0
0
0
0
0
0
0
0
0
0
0
0
0
255
0
255
0
255
0
255
0
255
0
255
0
255
0
255
0
255
0
255
0
255
0
255
0
255
0
255
0
255
0
255
0
255
0
255
0
255
0
255
0
255
0
255
0
255
0
255
0
255
0
255
0
255
0
255
0
255
0
255
0
255
0
255
0
255
0
255
0
255
0
255
0
255
0
255
0
255
0
255
0
255
0
255
0
255
0
255
0
255
0
255
0
255
0
255
0
255
0
255
0
255
0
255
0
255
0
255
0
255
0
255
0
255
0
255
0
255
0
255
0
255
0
255
0
255
0
255
0
255
0
247
0
255
0
255
0
252
0
255
0
227
0
156
0
41
0
7
0
0
0
6
0
7
0
7
0
7
0
0
0
3
0
1
0
5
0
1
0
51
0
69
0
80
0
77
0
41
0
2
0
1
0
16
0
52
0
57
0
42
0
72
0
81
0
79
0
78
0
79
0
82
0
84
0
86
0
87
0
87
0
105
0
99
0
95
0
99
0
55
0
5
0
3
0
3
0
2
0
2
0
1
0
1
0
0
0
0
0
0
0
0
0
0
0
0
0
0
0
0
0
0
0
0
0
0
0
5
0
5
0
3
0
22
0
63
0
95
0
104
0
105
0
110
0
118
0
131
0
144
0
149
0
154
0
157
0
160
0
169
0
185
0
185
0
199
0
216
0
215
0
197
0
154
0
42
0
2
0
79
0
180
0
90
0
67
0
223
0
254
0
254
0
254
0
254
0
255
0
255
0
255
0
255
0
255
0
255
0
255
0
255
0
255
0
255
0
255
0
255
0
255
0
255
0
255
0
255
0
255
0
255
0
255
0
255
0
255
0
255
0
255
0
255
0
255
0
255
0
255
0
255
0
255
0
255
0
255
0
255
0
255
0
255
0
255
0
255
0
255
0
252
0
253
0
239
0
255
0
208
0
63
0
0
0
0
0
1
0
0
0
0
0
0
0
1
0
1
0
1
0
0
0
5
0
5
0
5
0
5
0
5
0
5
0
6
0
0
0
0
0
0
0
0
0
0
0
0
0
0
0
0
0
0
0
0
0
0
0
0
0
0
0
0
0
0
0
0
0
0
0
0
0
0
0
0
0
0
0
0
0
0
0
0
0
0
0
0
0
0
0
0
0
0
0
0
0
0
0
0
0
0
0
0
0
0
0
0
0
0
0
0
0
0
0
0
0
0
0
0
0
0
0
0
0
0
0
0
0
0
0
0
0
0
0
0
0
0
0
0
0
0
0
0
0
0
0
0
0
0
0
0
0
0
0
0
0
0
0
0
0
0
0
0
0
0
0
0
0
0
0
0
0
0
0
0
0
0
0
0
0
0
0
0
0
0
0
0
0
0
0
0
0
0
0
0
0
0
0
0
0
0
0
0
0
0
0
0
0
0
0
0
0
0
0
0
0
0
0
0
0
0
0
0
0
0
0
0
0
0
0
0
0
0
0
0
0
0
0
0
0
0
0
0
0
0
0
0
0
0
0
0
0
0
0
0
0
0
0
0
0
0
0
0
0
0
0
0
0
0
0
0
0
0
0
0
0
0
0
0
0
0
0
0
0
0
0
0
0
0
0
0
0
0
0
0
0
0
0
0
0
0
0
0
0
0
0
0
0
0
0
0
0
0
0
0
0
0
0
0
0
0
0
0
0
0
0
0
0
0
0
0
0
0
0
0
0
0
0
0
0
0
0
0
0
0
0
0
0
0
0
0
0
0
0
0
0
0
0
0
0
0
0
0
0
0
0
0
0
0
0
0
0
0
0
0
0
0
0
0
0
0
0
0
0
0
0
0
0
0
0
0
0
0
0
0
0
0
0
0
0
0
0
0
0
0
0
0
0
0
0
0
0
0
0
0
0
0
0
0
0
0
0
0
0
0
0
0
0
0
0
0
0
0
0
0
0
0
0
0
0
0
0
0
0
0
0
0
0
0
0
0
0
0
0
0
0
0
0
0
0
0
0
0
0
0
0
0
0
0
0
0
0
0
0
0
0
0
0
0
0
255
0
255
0
255
0
255
0
255
0
255
0
255
0
255
0
255
0
255
0
255
0
255
0
255
0
255
0
255
0
255
0
255
0
255
0
255
0
255
0
255
0
255
0
255
0
255
0
255
0
255
0
255
0
255
0
255
0
255
0
255
0
255
0
255
0
255
0
255
0
255
0
255
0
255
0
255
0
255
0
255
0
255
0
255
0
255
0
255
0
255
0
255
0
255
0
255
0
255
0
255
0
255
0
255
0
255
0
255
0
255
0
255
0
255
0
255
0
255
0
255
0
255
0
255
0
255
0
255
0
245
0
255
0
255
0
247
0
253
0
255
0
238
0
130
0
31
0
0
0
0
0
4
0
0
0
2
0
2
0
2
0
1
0
8
0
1
0
43
0
68
0
77
0
80
0
55
0
8
0
1
0
5
0
44
0
64
0
45
0
71
0
81
0
79
0
77
0
77
0
79
0
82
0
82
0
82
0
84
0
109
0
99
0
94
0
116
0
94
0
41
0
19
0
4
0
3
0
3
0
2
0
1
0
0
0
0
0
0
0
0
0
0
0
0
0
0
0
0
0
0
0
0
0
0
0
0
0
6
0
4
0
2
0
17
0
40
0
68
0
90
0
97
0
108
0
124
0
137
0
144
0
148
0
152
0
155
0
151
0
158
0
139
0
144
0
175
0
204
0
206
0
168
0
85
0
5
0
46
0
162
0
112
0
36
0
187
0
250
0
254
0
254
0
254
0
255
0
255
0
255
0
255
0
255
0
255
0
255
0
255
0
255
0
255
0
255
0
255
0
255
0
255
0
255
0
255
0
255
0
255
0
255
0
255
0
255
0
255
0
255
0
255
0
255
0
255
0
255
0
255
0
255
0
255
0
255
0
255
0
255
0
255
0
255
0
255
0
255
0
255
0
255
0
247
0
255
0
162
0
14
0
3
0
0
0
0
0
0
0
0
0
0
0
0
0
0
0
3
0
6
0
1
0
1
0
1
0
1
0
1
0
2
0
6
0
0
0
0
0
0
0
0
0
0
0
0
0
0
0
0
0
0
0
0
0
0
0
0
0
0
0
0
0
0
0
0
0
0
0
0
0
0
0
0
0
0
0
0
0
0
0
0
0
0
0
0
0
0
0
0
0
0
0
0
0
0
0
0
0
0
0
0
0
0
0
0
0
0
0
0
0
0
0
0
0
0
0
0
0
0
0
0
0
0
0
0
0
0
0
0
0
0
0
0
0
0
0
0
0
0
0
0
0
0
0
0
0
0
0
0
0
0
0
0
0
0
0
0
0
0
0
0
0
0
0
0
0
0
0
0
0
0
0
0
0
0
0
0
0
0
0
0
0
0
0
0
0
0
0
0
0
0
0
0
0
0
0
0
0
0
0
0
0
0
0
0
0
0
0
0
0
0
0
0
0
0
0
0
0
0
0
0
0
0
0
0
0
0
0
0
0
0
0
0
0
0
0
0
0
0
0
0
0
0
0
0
0
0
0
0
0
0
0
0
0
0
0
0
0
0
0
0
0
0
0
0
0
0
0
0
0
0
0
0
0
0
0
0
0
0
0
0
0
0
0
0
0
0
0
0
0
0
0
0
0
0
0
0
0
0
0
0
0
0
0
0
0
0
0
0
0
0
0
0
0
0
0
0
0
0
0
0
0
0
0
0
0
0
0
0
0
0
0
0
0
0
0
0
0
0
0
0
0
0
0
0
0
0
0
0
0
0
0
0
0
0
0
0
0
0
0
0
0
0
0
0
0
0
0
0
0
0
0
0
0
0
0
0
0
0
0
0
0
0
0
0
0
0
0
0
0
0
0
0
0
0
0
0
0
0
0
0
0
0
0
0
0
0
0
0
0
0
0
0
0
0
0
0
0
0
0
0
0
0
0
0
0
0
0
0
0
0
0
0
0
0
0
0
0
0
0
0
0
0
0
0
0
0
0
0
0
0
0
0
0
0
0
0
0
0
0
0
0
0
0
0
0
0
0
0
0
0
0
0
0
0
0
0
0
255
0
255
0
255
0
255
0
255
0
255
0
255
0
255
0
255
0
255
0
255
0
255
0
255
0
255
0
255
0
255
0
255
0
255
0
255
0
255
0
255
0
255
0
255
0
255
0
255
0
255
0
255
0
255
0
255
0
255
0
255
0
255
0
255
0
255
0
255
0
255
0
255
0
255
0
255
0
255
0
255
0
255
0
255
0
255
0
255
0
255
0
255
0
255
0
255
0
255
0
255
0
255
0
255
0
255
0
255
0
255
0
255
0
255
0
255
0
255
0
255
0
255
0
255
0
255
0
255
0
249
0
253
0
255
0
251
0
252
0
255
0
255
0
214
0
123
0
38
0
6
0
0
0
0
0
0
0
0
0
1
0
0
0
12
0
1
0
37
0
66
0
73
0
81
0
69
0
19
0
4
0
0
0
33
0
68
0
47
0
69
0
80
0
79
0
77
0
77
0
78
0
78
0
77
0
76
0
82
0
88
0
94
0
96
0
103
0
103
0
76
0
40
0
4
0
4
0
3
0
2
0
1
0
0
0
0
0
0
0
0
0
0
0
0
0
0
0
0
0
0
0
0
0
0
0
0
0
1
0
1
0
1
0
0
0
0
0
18
0
40
0
67
0
83
0
107
0
128
0
140
0
147
0
150
0
152
0
143
0
135
0
111
0
115
0
135
0
161
0
191
0
191
0
135
0
30
0
18
0
135
0
125
0
9
0
151
0
245
0
254
0
254
0
254
0
255
0
255
0
255
0
255
0
255
0
255
0
255
0
255
0
255
0
255
0
255
0
255
0
255
0
255
0
255
0
255
0
255
0
255
0
255
0
255
0
255
0
255
0
255
0
255
0
255
0
255
0
255
0
255
0
255
0
255
0
255
0
255
0
255
0
255
0
255
0
255
0
255
0
254
0
255
0
255
0
227
0
100
0
0
0
9
0
2
0
0
0
0
0
2
0
0
0
0
0
0
0
10
0
19
0
28
0
24
0
16
0
8
0
3
0
0
0
1
0
0
0
0
0
0
0
0
0
0
0
0
0
0
0
0
0
0
0
0
0
0
0
0
0
0
0
0
0
0
0
0
0
0
0
0
0
0
0
0
0
0
0
0
0
0
0
0
0
0
0
0
0
0
0
0
0
0
0
0
0
0
0
0
0
0
0
0
0
0
0
0
0
0
0
0
0
0
0
0
0
0
0
0
0
0
0
0
0
0
0
0
0
0
0
0
0
0
0
0
0
0
0
0
0
0
0
0
0
0
0
0
0
0
0
0
0
0
0
0
0
0
0
0
0
0
0
0
0
0
0
0
0
0
0
0
0
0
0
0
0
0
0
0
0
0
0
0
0
0
0
0
0
0
0
0
0
0
0
0
0
0
0
0
0
0
0
0
0
0
0
0
0
0
0
0
0
0
0
0
0
0
0
0
0
0
0
0
0
0
0
0
0
0
0
0
0
0
0
0
0
0
0
0
0
0
0
0
0
0
0
0
0
0
0
0
0
0
0
0
0
0
0
0
0
0
0
0
0
0
0
0
0
0
0
0
0
0
0
0
0
0
0
0
0
0
0
0
0
0
0
0
0
0
0
0
0
0
0
0
0
0
0
0
0
0
0
0
0
0
0
0
0
0
0
0
0
0
0
0
0
0
0
0
0
0
0
0
0
0
0
0
0
0
0
0
0
0
0
0
0
0
0
0
0
0
0
0
0
0
0
0
0
0
0
0
0
0
0
0
0
0
0
0
0
0
0
0
0
0
0
0
0
0
0
0
0
0
0
0
0
0
0
0
0
0
0
0
0
0
0
0
0
0
0
0
0
0
0
0
0
0
0
0
0
0
0
0
0
0
0
0
0
0
0
0
0
0
0
0
0
0
0
0
0
0
0
0
0
0
0
0
0
0
0
0
0
0
0
0
0
0
0
0
0
0
0
0
0
0
0
0
0
0
0
0
0
0
0
0
0
0
0
0
0
0
0
0
0
0
0
0
0
0
0
0
0
0
0
0
0
0
0
0
0
255
0
255
0
255
0
255
0
255
0
255
0
255
0
255
0
255
0
255
0
255
0
255
0
255
0
255
0
255
0
255
0
255
0
255
0
255
0
255
0
255
0
255
0
255
0
255
0
255
0
255
0
255
0
255
0
255
0
255
0
255
0
255
0
255
0
255
0
255
0
255
0
255
0
255
0
255
0
255
0
255
0
255
0
255
0
255
0
255
0
255
0
255
0
255
0
255
0
255
0
255
0
255
0
255
0
255
0
255
0
255
0
255
0
255
0
255
0
255
0
255
0
255
0
255
0
255
0
255
0
255
0
251
0
254
0
255
0
252
0
247
0
245
0
255
0
230
0
130
0
33
0
6
0
8
0
2
0
0
0
1
0
0
0
14
0
1
0
34
0
65
0
70
0
82
0
78
0
28
0
10
0
0
0
28
0
69
0
46
0
67
0
80
0
79
0
77
0
77
0
77
0
76
0
74
0
72
0
78
0
63
0
84
0
98
0
82
0
93
0
95
0
52
0
5
0
4
0
4
0
2
0
1
0
0
0
0
0
0
0
0
0
0
0
0
0
0
0
0
0
0
0
0
0
0
0
5
0
5
0
4
0
7
0
11
0
1
0
0
0
1
0
6
0
27
0
60
0
89
0
109
0
118
0
122
0
123
0
124
0
101
0
80
0
95
0
92
0
87
0
142
0
199
0
180
0
62
0
13
0
126
0
141
0
2
0
138
0
253
0
254
0
254
0
254
0
255
0
255
0
255
0
255
0
255
0
255
0
255
0
255
0
255
0
255
0
255
0
255
0
255
0
255
0
255
0
255
0
255
0
255
0
255
0
255
0
255
0
255
0
255
0
255
0
255
0
255
0
255
0
255
0
255
0
255
0
255
0
255
0
255
0
255
0
255
0
255
0
255
0
241
0
250
0
252
0
168
0
40
0
0
0
2
0
2
0
0
0
0
0
3
0
0
0
0
0
3
0
16
0
29
0
80
0
71
0
54
0
36
0
20
0
10
0
3
0
0
0
0
0
0
0
0
0
0
0
0
0
0
0
0
0
0
0
0
0
0
0
0
0
0
0
0
0
0
0
0
0
0
0
0
0
0
0
0
0
0
0
0
0
0
0
0
0
0
0
0
0
0
0
0
0
0
0
0
0
0
0
0
0
0
0
0
0
0
0
0
0
0
0
0
0
0
0
0
0
0
0
0
0
0
0
0
0
0
0
0
0
0
0
0
0
0
0
0
0
0
0
0
0
0
0
0
0
0
0
0
0
0
0
0
0
0
0
0
0
0
0
0
0
0
0
0
0
0
0
0
0
0
0
0
0
0
0
0
0
0
0
0
0
0
0
0
0
0
0
0
0
0
0
0
0
0
0
0
0
0
0
0
0
0
0
0
0
0
0
0
0
0
0
0
0
0
0
0
0
0
0
0
0
0
0
0
0
0
0
0
0
0
0
0
0
0
0
0
0
0
0
0
0
0
0
0
0
0
0
0
0
0
0
0
0
0
0
0
0
0
0
0
0
0
0
0
0
0
0
0
0
0
0
0
0
0
0
0
0
0
0
0
0
0
0
0
0
0
0
0
0
0
0
0
0
0
0
0
0
0
0
0
0
0
0
0
0
0
0
0
0
0
0
0
0
0
0
0
0
0
0
0
0
0
0
0
0
0
0
0
0
0
0
0
0
0
0
0
0
0
0
0
0
0
0
0
0
0
0
0
0
0
0
0
0
0
0
0
0
0
0
0
0
0
0
0
0
0
0
0
0
0
0
0
0
0
0
0
0
0
0
0
0
0
0
0
0
0
0
0
0
0
0
0
0
0
0
0
0
0
0
0
0
0
0
0
0
0
0
0
0
0
0
0
0
0
0
0
0
0
0
0
0
0
0
0
0
0
0
0
0
0
0
0
0
0
0
0
0
0
0
0
0
0
0
0
0
0
0
0
0
0
0
0
0
0
0
0
0
0
0
0
0
0
0
0
0
0
0
0
0
0
0
0
0
0
0
0
0
0
0
0
0
255
0
255
0
255
0
255
0
255
0
255
0
255
0
255
0
255
0
255
0
255
0
255
0
255
0
255
0
255
0
255
0
255
0
255
0
255
0
255
0
255
0
255
0
255
0
255
0
255
0
255
0
255
0
255
0
255
0
255
0
255
0
255
0
255
0
255
0
255
0
255
0
255
0
255
0
255
0
255
0
255
0
255
0
255
0
255
0
255
0
255
0
255
0
255
0
255
0
255
0
255
0
255
0
255
0
255
0
255
0
255
0
255
0
255
0
255
0
255
0
255
0
255
0
255
0
255
0
254
0
254
0
254
0
254
0
254
0
254
0
254
0
254
0
255
0
255
0
224
0
135
0
33
0
0
0
8
0
2
0
0
0
0
0
4
0
5
0
12
0
55
0
86
0
78
0
75
0
49
0
9
0
1
0
28
0
59
0
63
0
59
0
76
0
77
0
77
0
75
0
70
0
66
0
64
0
64
0
55
0
48
0
44
0
45
0
46
0
40
0
33
0
30
0
2
0
2
0
2
0
2
0
2
0
2
0
2
0
2
0
0
0
0
0
0
0
0
0
0
0
0
0
0
0
0
0
1
0
4
0
0
0
1
0
5
0
7
0
1
0
1
0
5
0
4
0
4
0
19
0
44
0
73
0
102
0
122
0
127
0
123
0
89
0
75
0
83
0
66
0
84
0
157
0
191
0
120
0
16
0
105
0
163
0
62
0
109
0
250
0
255
0
251
0
255
0
255
0
254
0
254
0
255
0
254
0
255
0
255
0
255
0
255
0
255
0
255
0
255
0
255
0
255
0
255
0
255
0
255
0
255
0
255
0
255
0
255
0
255
0
255
0
255
0
255
0
255
0
255
0
255
0
255
0
255
0
255
0
254
0
255
0
255
0
255
0
255
0
255
0
255
0
247
0
226
0
100
0
1
0
12
0
8
0
4
0
1
0
1
0
1
0
1
0
1
0
1
0
1
0
1
0
38
0
65
0
92
0
95
0
75
0
50
0
31
0
0
0
0
0
0
0
0
0
0
0
0
0
0
0
0
0
0
0
0
0
0
0
0
0
0
0
0
0
0
0
0
0
0
0
0
0
0
0
0
0
0
0
0
0
0
0
0
0
0
0
0
0
0
0
0
0
0
0
0
0
0
0
0
0
0
0
0
0
0
0
0
0
0
0
0
0
0
0
0
0
0
0
0
0
0
0
0
0
0
0
0
0
0
0
0
0
0
0
0
0
0
0
0
0
0
0
0
0
0
0
0
0
0
0
0
0
0
0
0
0
0
0
0
0
0
0
0
0
0
0
0
0
0
0
0
0
0
0
0
0
0
0
0
0
0
0
0
0
0
0
0
0
0
0
0
0
0
0
0
0
0
0
0
0
0
0
0
0
0
0
0
0
0
0
0
0
0
0
0
0
0
0
0
0
0
0
0
0
0
0
0
0
0
0
0
0
0
0
0
0
0
0
0
0
0
0
0
0
0
0
0
0
0
0
0
0
0
0
0
0
0
0
0
0
0
0
0
0
0
0
0
0
0
0
0
0
0
0
0
0
0
0
0
0
0
0
0
0
0
0
0
0
0
0
0
0
0
0
0
0
0
0
0
0
0
0
0
0
0
0
0
0
0
0
0
0
0
0
0
0
0
0
0
0
0
0
0
0
0
0
0
0
0
0
0
0
0
0
0
0
0
0
0
0
0
0
0
0
0
0
0
0
0
0
0
0
0
0
0
0
0
0
0
0
0
0
0
0
0
0
0
0
0
0
0
0
0
0
0
0
0
0
0
0
0
0
0
0
0
0
0
0
0
0
0
0
0
0
0
0
0
0
0
0
0
0
0
0
0
0
0
0
0
0
0
0
0
0
0
0
0
0
0
0
0
0
0
0
0
0
0
0
0
0
0
0
0
0
0
0
0
0
0
0
0
0
0
0
0
0
0
0
0
0
0
0
0
0
0
0
0
0
0
0
0
0
0
0
0
0
0
0
0
0
0
0
0
0
0
0
0
0
0
0
255
0
255
0
255
0
255
0
255
0
255
0
255
0
255
0
255
0
255
0
255
0
255
0
255
0
255
0
255
0
255
0
255
0
255
0
255
0
255
0
255
0
255
0
255
0
255
0
255
0
255
0
255
0
255
0
255
0
255
0
255
0
255
0
255
0
255
0
255
0
255
0
255
0
255
0
255
0
255
0
255
0
255
0
255
0
255
0
255
0
255
0
255
0
255
0
255
0
255
0
255
0
255
0
255
0
255
0
255
0
255
0
255
0
255
0
255
0
255
0
255
0
255
0
255
0
255
0
254
0
254
0
254
0
254
0
254
0
254
0
254
0
254
0
251
0
255
0
255
0
228
0
118
0
27
0
2
0
4
0
8
0
4
0
3
0
0
0
5
0
54
0
90
0
81
0
78
0
57
0
18
0
0
0
20
0
56
0
65
0
56
0
83
0
74
0
65
0
65
0
68
0
67
0
58
0
49
0
42
0
29
0
16
0
10
0
7
0
5
0
5
0
6
0
1
0
1
0
1
0
1
0
1
0
1
0
1
0
1
0
0
0
0
0
0
0
0
0
0
0
0
0
0
0
0
0
0
0
3
0
4
0
2
0
5
0
6
0
3
0
4
0
4
0
6
0
6
0
2
0
1
0
14
0
46
0
75
0
117
0
119
0
92
0
76
0
78
0
54
0
57
0
110
0
192
0
144
0
44
0
104
0
174
0
74
0
77
0
217
0
255
0
252
0
255
0
255
0
255
0
255
0
255
0
254
0
255
0
255
0
255
0
255
0
255
0
255
0
255
0
255
0
255
0
255
0
255
0
255
0
255
0
255
0
255
0
255
0
255
0
255
0
255
0
255
0
255
0
255
0
255
0
255
0
255
0
255
0
255
0
255
0
255
0
255
0
254
0
254
0
252
0
253
0
190
0
55
0
2
0
8
0
5
0
2
0
1
0
1
0
1
0
1
0
1
0
1
0
1
0
1
0
10
0
24
0
45
0
67
0
82
0
87
0
83
0
0
0
0
0
0
0
0
0
0
0
0
0
0
0
0
0
0
0
0
0
0
0
0
0
0
0
0
0
0
0
0
0
0
0
0
0
0
0
0
0
0
0
0
0
0
0
0
0
0
0
0
0
0
0
0
0
0
0
0
0
0
0
0
0
0
0
0
0
0
0
0
0
0
0
0
0
0
0
0
0
0
0
0
0
0
0
0
0
0
0
0
0
0
0
0
0
0
0
0
0
0
0
0
0
0
0
0
0
0
0
0
0
0
0
0
0
0
0
0
0
0
0
0
0
0
0
0
0
0
0
0
0
0
0
0
0
0
0
0
0
0
0
0
0
0
0
0
0
0
0
0
0
0
0
0
0
0
0
0
0
0
0
0
0
0
0
0
0
0
0
0
0
0
0
0
0
0
0
0
0
0
0
0
0
0
0
0
0
0
0
0
0
0
0
0
0
0
0
0
0
0
0
0
0
0
0
0
0
0
0
0
0
0
0
0
0
0
0
0
0
0
0
0
0
0
0
0
0
0
0
0
0
0
0
0
0
0
0
0
0
0
0
0
0
0
0
0
0
0
0
0
0
0
0
0
0
0
0
0
0
0
0
0
0
0
0
0
0
0
0
0
0
0
0
0
0
0
0
0
0
0
0
0
0
0
0
0
0
0
0
0
0
0
0
0
0
0
0
0
0
0
0
0
0
0
0
0
0
0
0
0
0
0
0
0
0
0
0
0
0
0
0
0
0
0
0
0
0
0
0
0
0
0
0
0
0
0
0
0
0
0
0
0
0
0
0
0
0
0
0
0
0
0
0
0
0
0
0
0
0
0
0
0
0
0
0
0
0
0
0
0
0
0
0
0
0
0
0
0
0
0
0
0
0
0
0
0
0
0
0
0
0
0
0
0
0
0
0
0
0
0
0
0
0
0
0
0
0
0
0
0
0
0
0
0
0
0
0
0
0
0
0
0
0
0
0
0
0
0
0
0
0
0
0
0
0
0
0
0
0
0
0
0
0
255
0
255
0
255
0
255
0
255
0
255
0
255
0
255
0
255
0
255
0
255
0
255
0
255
0
255
0
255
0
255
0
255
0
255
0
255
0
255
0
255
0
255
0
255
0
255
0
255
0
255
0
255
0
255
0
255
0
255
0
255
0
255
0
255
0
255
0
255
0
255
0
255
0
255
0
255
0
255
0
255
0
255
0
255
0
255
0
255
0
255
0
255
0
255
0
255
0
255
0
255
0
255
0
255
0
255
0
255
0
255
0
255
0
255
0
255
0
255
0
255
0
255
0
255
0
255
0
254
0
254
0
254
0
254
0
254
0
254
0
254
0
254
0
255
0
244
0
255
0
255
0
219
0
129
0
48
0
0
0
1
0
0
0
3
0
1
0
3
0
45
0
82
0
83
0
82
0
67
0
29
0
1
0
12
0
52
0
66
0
54
0
78
0
72
0
67
0
64
0
61
0
54
0
40
0
29
0
29
0
16
0
1
0
1
0
1
0
1
0
2
0
2
0
0
0
0
0
0
0
0
0
0
0
0
0
0
0
0
0
0
0
0
0
0
0
0
0
0
0
0
0
0
0
0
0
1
0
3
0
3
0
1
0
0
0
1
0
1
0
2
0
2
0
6
0
7
0
2
0
1
0
1
0
4
0
22
0
57
0
69
0
59
0
54
0
62
0
48
0
43
0
72
0
169
0
166
0
80
0
99
0
185
0
94
0
36
0
173
0
255
0
254
0
254
0
255
0
255
0
255
0
255
0
253
0
255
0
255
0
255
0
255
0
255
0
255
0
255
0
255
0
255
0
255
0
255
0
255
0
255
0
255
0
255
0
255
0
255
0
255
0
255
0
255
0
255
0
255
0
255
0
255
0
255
0
255
0
255
0
255
0
253
0
252
0
252
0
253
0
248
0
251
0
124
0
6
0
9
0
9
0
3
0
0
0
1
0
1
0
1
0
1
0
1
0
1
0
1
0
1
0
1
0
6
0
24
0
50
0
78
0
102
0
117
0
0
0
0
0
0
0
0
0
0
0
0
0
0
0
0
0
0
0
0
0
0
0
0
0
0
0
0
0
0
0
0
0
0
0
0
0
0
0
0
0
0
0
0
0
0
0
0
0
0
0
0
0
0
0
0
0
0
0
0
0
0
0
0
0
0
0
0
0
0
0
0
0
0
0
0
0
0
0
0
0
0
0
0
0
0
0
0
0
0
0
0
0
0
0
0
0
0
0
0
0
0
0
0
0
0
0
0
0
0
0
0
0
0
0
0
0
0
0
0
0
0
0
0
0
0
0
0
0
0
0
0
0
0
0
0
0
0
0
0
0
0
0
0
0
0
0
0
0
0
0
0
0
0
0
0
0
0
0
0
0
0
0
0
0
0
0
0
0
0
0
0
0
0
0
0
0
0
0
0
0
0
0
0
0
0
0
0
0
0
0
0
0
0
0
0
0
0
0
0
0
0
0
0
0
0
0
0
0
0
0
0
0
0
0
0
0
0
0
0
0
0
0
0
0
0
0
0
0
0
0
0
0
0
0
0
0
0
0
0
0
0
0
0
0
0
0
0
0
0
0
0
0
0
0
0
0
0
0
0
0
0
0
0
0
0
0
0
0
0
0
0
0
0
0
0
0
0
0
0
0
0
0
0
0
0
0
0
0
0
0
0
0
0
0
0
0
0
0
0
0
0
0
0
0
0
0
0
0
0
0
0
0
0
0
0
0
0
0
0
0
0
0
0
0
0
0
0
0
0
0
0
0
0
0
0
0
0
0
0
0
0
0
0
0
0
0
0
0
0
0
0
0
0
0
0
0
0
0
0
0
0
0
0
0
0
0
0
0
0
0
0
0
0
0
0
0
0
0
0
0
0
0
0
0
0
0
0
0
0
0
0
0
0
0
0
0
0
0
0
0
0
0
0
0
0
0
0
0
0
0
0
0
0
0
0
0
0
0
0
0
0
0
0
0
0
0
0
0
0
0
0
0
0
0
0
0
0
0
0
0
0
0
0
0
255
0
255
0
255
0
255
0
255
0
255
0
255
0
255
0
255
0
255
0
255
0
255
0
255
0
255
0
255
0
255
0
255
0
255
0
255
0
255
0
255
0
255
0
255
0
255
0
255
0
255
0
255
0
255
0
255
0
255
0
255
0
255
0
255
0
255
0
255
0
255
0
255
0
255
0
255
0
255
0
255
0
255
0
255
0
255
0
255
0
255
0
255
0
255
0
255
0
255
0
255
0
255
0
255
0
255
0
255
0
255
0
255
0
255
0
255
0
255
0
255
0
255
0
255
0
255
0
254
0
254
0
254
0
254
0
254
0
254
0
254
0
254
0
254
0
245
0
244
0
253
0
255
0
238
0
155
0
61
0
1
0
0
0
1
0
4
0
6
0
31
0
64
0
82
0
81
0
74
0
41
0
1
0
3
0
48
0
69
0
55
0
69
0
73
0
76
0
65
0
45
0
27
0
16
0
13
0
9
0
5
0
2
0
5
0
5
0
2
0
2
0
2
0
0
0
0
0
0
0
0
0
0
0
0
0
0
0
0
0
0
0
0
0
0
0
0
0
0
0
0
0
0
0
0
0
7
0
1
0
2
0
6
0
4
0
0
0
0
0
1
0
1
0
1
0
1
0
8
0
14
0
12
0
3
0
0
0
2
0
14
0
14
0
18
0
34
0
33
0
28
0
39
0
136
0
183
0
129
0
115
0
210
0
136
0
31
0
153
0
252
0
255
0
254
0
253
0
255
0
255
0
254
0
253
0
255
0
255
0
255
0
255
0
255
0
255
0
255
0
255
0
255
0
255
0
255
0
255
0
255
0
255
0
255
0
255
0
255
0
255
0
255
0
255
0
255
0
255
0
255
0
255
0
254
0
255
0
255
0
255
0
253
0
252
0
254
0
255
0
246
0
200
0
51
0
5
0
32
0
12
0
1
0
5
0
1
0
1
0
1
0
1
0
1
0
1
0
1
0
1
0
2
0
17
0
37
0
50
0
56
0
69
0
93
0
0
0
0
0
0
0
0
0
0
0
0
0
0
0
0
0
0
0
0
0
0
0
0
0
0
0
0
0
0
0
0
0
0
0
0
0
0
0
0
0
0
0
0
0
0
0
0
0
0
0
0
0
0
0
0
0
0
0
0
0
0
0
0
0
0
0
0
0
0
0
0
0
0
0
0
0
0
0
0
0
0
0
0
0
0
0
0
0
0
0
0
0
0
0
0
0
0
0
0
0
0
0
0
0
0
0
0
0
0
0
0
0
0
0
0
0
0
0
0
0
0
0
0
0
0
0
0
0
0
0
0
0
0
0
0
0
0
0
0
0
0
0
0
0
0
0
0
0
0
0
0
0
0
0
0
0
0
0
0
0
0
0
0
0
0
0
0
0
0
0
0
0
0
0
0
0
0
0
0
0
0
0
0
0
0
0
0
0
0
0
0
0
0
0
0
0
0
0
0
0
0
0
0
0
0
0
0
0
0
0
0
0
0
0
0
0
0
0
0
0
0
0
0
0
0
0
0
0
0
0
0
0
0
0
0
0
0
0
0
0
0
0
0
0
0
0
0
0
0
0
0
0
0
0
0
0
0
0
0
0
0
0
0
0
0
0
0
0
0
0
0
0
0
0
0
0
0
0
0
0
0
0
0
0
0
0
0
0
0
0
0
0
0
0
0
0
0
0
0
0
0
0
0
0
0
0
0
0
0
0
0
0
0
0
0
0
0
0
0
0
0
0
0
0
0
0
0
0
0
0
0
0
0
0
0
0
0
0
0
0
0
0
0
0
0
0
0
0
0
0
0
0
0
0
0
0
0
0
0
0
0
0
0
0
0
0
0
0
0
0
0
0
0
0
0
0
0
0
0
0
0
0
0
0
0
0
0
0
0
0
0
0
0
0
0
0
0
0
0
0
0
0
0
0
0
0
0
0
0
0
0
0
0
0
0
0
0
0
0
0
0
0
0
0
0
0
0
0
0
0
0
0
0
0
0
0
0
0
0
0
0
0
0
0
255
0
255
0
255
0
255
0
255
0
255
0
255
0
255
0
255
0
255
0
255
0
255
0
255
0
255
0
255
0
255
0
255
0
255
0
255
0
255
0
255
0
255
0
255
0
255
0
255
0
255
0
255
0
255
0
255
0
255
0
255
0
255
0
255
0
255
0
255
0
255
0
255
0
255
0
255
0
255
0
255
0
255
0
255
0
255
0
255
0
255
0
255
0
255
0
255
0
255
0
255
0
255
0
255
0
255
0
255
0
255
0
255
0
255
0
255
0
255
0
255
0
255
0
255
0
255
0
254
0
254
0
254
0
254
0
254
0
254
0
254
0
254
0
243
0
255
0
255
0
249
0
253
0
255
0
242
0
192
0
75
0
35
0
3
0
1
0
2
0
20
0
54
0
84
0
78
0
76
0
51
0
6
0
0
0
43
0
70
0
57
0
73
0
72
0
64
0
46
0
24
0
7
0
2
0
4
0
1
0
1
0
0
0
5
0
7
0
3
0
0
0
0
0
0
0
0
0
0
0
0
0
0
0
0
0
0
0
0
0
0
0
0
0
0
0
0
0
0
0
0
0
0
0
0
0
6
0
0
0
14
0
40
0
46
0
37
0
22
0
6
0
12
0
1
0
0
0
1
0
12
0
15
0
8
0
1
0
0
0
5
0
3
0
0
0
6
0
9
0
3
0
1
0
87
0
167
0
150
0
124
0
213
0
159
0
34
0
117
0
243
0
255
0
255
0
252
0
255
0
255
0
253
0
254
0
255
0
255
0
255
0
255
0
255
0
255
0
255
0
255
0
255
0
255
0
255
0
255
0
255
0
255
0
255
0
255
0
255
0
255
0
255
0
255
0
255
0
255
0
255
0
255
0
253
0
254
0
255
0
255
0
255
0
255
0
255
0
255
0
242
0
122
0
2
0
29
0
52
0
8
0
3
0
3
0
1
0
1
0
1
0
1
0
1
0
1
0
1
0
1
0
1
0
18
0
42
0
51
0
49
0
51
0
71
0
0
0
0
0
0
0
0
0
0
0
0
0
0
0
0
0
0
0
0
0
0
0
0
0
0
0
0
0
0
0
0
0
0
0
0
0
0
0
0
0
0
0
0
0
0
0
0
0
0
0
0
0
0
0
0
0
0
0
0
0
0
0
0
0
0
0
0
0
0
0
0
0
0
0
0
0
0
0
0
0
0
0
0
0
0
0
0
0
0
0
0
0
0
0
0
0
0
0
0
0
0
0
0
0
0
0
0
0
0
0
0
0
0
0
0
0
0
0
0
0
0
0
0
0
0
0
0
0
0
0
0
0
0
0
0
0
0
0
0
0
0
0
0
0
0
0
0
0
0
0
0
0
0
0
0
0
0
0
0
0
0
0
0
0
0
0
0
0
0
0
0
0
0
0
0
0
0
0
0
0
0
0
0
0
0
0
0
0
0
0
0
0
0
0
0
0
0
0
0
0
0
0
0
0
0
0
0
0
0
0
0
0
0
0
0
0
0
0
0
0
0
0
0
0
0
0
0
0
0
0
0
0
0
0
0
0
0
0
0
0
0
0
0
0
0
0
0
0
0
0
0
0
0
0
0
0
0
0
0
0
0
0
0
0
0
0
0
0
0
0
0
0
0
0
0
0
0
0
0
0
0
0
0
0
0
0
0
0
0
0
0
0
0
0
0
0
0
0
0
0
0
0
0
0
0
0
0
0
0
0
0
0
0
0
0
0
0
0
0
0
0
0
0
0
0
0
0
0
0
0
0
0
0
0
0
0
0
0
0
0
0
0
0
0
0
0
0
0
0
0
0
0
0
0
0
0
0
0
0
0
0
0
0
0
0
0
0
0
0
0
0
0
0
0
0
0
0
0
0
0
0
0
0
0
0
0
0
0
0
0
0
0
0
0
0
0
0
0
0
0
0
0
0
0
0
0
0
0
0
0
0
0
0
0
0
0
0
0
0
0
0
0
0
0
0
0
0
0
0
0
0
0
0
0
0
0
0
0
0
0
0
0
0
0
255
0
255
0
255
0
255
0
255
0
255
0
255
0
255
0
255
0
255
0
255
0
255
0
255
0
255
0
255
0
255
0
255
0
255
0
255
0
255
0
255
0
255
0
255
0
255
0
255
0
255
0
255
0
255
0
255
0
255
0
255
0
255
0
255
0
255
0
255
0
255
0
255
0
255
0
255
0
255
0
255
0
255
0
255
0
255
0
255
0
255
0
255
0
255
0
255
0
255
0
255
0
255
0
255
0
255
0
255
0
255
0
255
0
255
0
255
0
255
0
255
0
255
0
255
0
255
0
254
0
254
0
254
0
254
0
254
0
254
0
254
0
254
0
251
0
255
0
255
0
249
0
248
0
255
0
255
0
255
0
191
0
124
0
43
0
1
0
0
0
14
0
53
0
87
0
76
0
77
0
59
0
17
0
0
0
35
0
66
0
57
0
77
0
58
0
32
0
12
0
4
0
3
0
2
0
0
0
2
0
1
0
1
0
1
0
1
0
1
0
1
0
1
0
0
0
0
0
0
0
0
0
0
0
0
0
0
0
0
0
0
0
0
0
0
0
0
0
0
0
0
0
0
0
0
0
1
0
1
0
32
0
83
0
100
0
90
0
67
0
43
0
42
0
26
0
7
0
2
0
1
0
1
0
1
0
5
0
13
0
8
0
4
0
1
0
1
0
1
0
1
0
1
0
49
0
140
0
155
0
139
0
207
0
173
0
55
0
77
0
231
0
253
0
255
0
252
0
255
0
255
0
251
0
255
0
255
0
255
0
255
0
255
0
255
0
255
0
255
0
255
0
255
0
255
0
255
0
255
0
255
0
255
0
255
0
255
0
255
0
255
0
255
0
255
0
255
0
255
0
255
0
255
0
255
0
253
0
252
0
254
0
255
0
255
0
255
0
255
0
213
0
56
0
7
0
64
0
54
0
2
0
4
0
1
0
1
0
1
0
1
0
1
0
1
0
1
0
1
0
1
0
2
0
12
0
35
0
57
0
67
0
71
0
82
0
0
0
0
0
0
0
0
0
0
0
0
0
0
0
0
0
0
0
0
0
0
0
0
0
0
0
0
0
0
0
0
0
0
0
0
0
0
0
0
0
0
0
0
0
0
0
0
0
0
0
0
0
0
0
0
0
0
0
0
0
0
0
0
0
0
0
0
0
0
0
0
0
0
0
0
0
0
0
0
0
0
0
0
0
0
0
0
0
0
0
0
0
0
0
0
0
0
0
0
0
0
0
0
0
0
0
0
0
0
0
0
0
0
0
0
0
0
0
0
0
0
0
0
0
0
0
0
0
0
0
0
0
0
0
0
0
0
0
0
0
0
0
0
0
0
0
0
0
0
0
0
0
0
0
0
0
0
0
0
0
0
0
0
0
0
0
0
0
0
0
0
0
0
0
0
0
0
0
0
0
0
0
0
0
0
0
0
0
0
0
0
0
0
0
0
0
0
0
0
0
0
0
0
0
0
0
0
0
0
0
0
0
0
0
0
0
0
0
0
0
0
0
0
0
0
0
0
0
0
0
0
0
0
0
0
0
0
0
0
0
0
0
0
0
0
0
0
0
0
0
0
0
0
0
0
0
0
0
0
0
0
0
0
0
0
0
0
0
0
0
0
0
0
0
0
0
0
0
0
0
0
0
0
0
0
0
0
0
0
0
0
0
0
0
0
0
0
0
0
0
0
0
0
0
0
0
0
0
0
0
0
0
0
0
0
0
0
0
0
0
0
0
0
0
0
0
0
0
0
0
0
0
0
0
0
0
0
0
0
0
0
0
0
0
0
0
0
0
0
0
0
0
0
0
0
0
0
0
0
0
0
0
0
0
0
0
0
0
0
0
0
0
0
0
0
0
0
0
0
0
0
0
0
0
0
0
0
0
0
0
0
0
0
0
0
0
0
0
0
0
0
0
0
0
0
0
0
0
0
0
0
0
0
0
0
0
0
0
0
0
0
0
0
0
0
0
0
0
0
0
0
0
0
0
0
0
0
0
0
0
0
0
0
0
255
0
255
0
255
0
255
0
255
0
255
0
255
0
255
0
255
0
255
0
255
0
255
0
255
0
255
0
255
0
255
0
255
0
255
0
255
0
255
0
255
0
255
0
255
0
255
0
255
0
255
0
255
0
255
0
255
0
255
0
255
0
255
0
255
0
255
0
255
0
255
0
255
0
255
0
255
0
255
0
255
0
255
0
255
0
255
0
255
0
255
0
255
0
255
0
255
0
255
0
255
0
255
0
255
0
255
0
255
0
255
0
255
0
255
0
255
0
255
0
255
0
255
0
255
0
255
0
254
0
254
0
254
0
254
0
254
0
254
0
254
0
254
0
255
0
246
0
238
0
247
0
255
0
253
0
247
0
252
0
253
0
217
0
132
0
37
0
0
0
9
0
50
0
81
0
78
0
77
0
66
0
27
0
1
0
27
0
59
0
53
0
50
0
31
0
8
0
0
0
0
0
3
0
4
0
1
0
7
0
4
0
2
0
3
0
1
0
0
0
0
0
4
0
1
0
1
0
1
0
1
0
1
0
1
0
1
0
1
0
0
0
0
0
0
0
0
0
0
0
0
0
0
0
0
0
1
0
2
0
40
0
100
0
121
0
119
0
106
0
87
0
84
0
74
0
60
0
44
0
25
0
9
0
3
0
2
0
10
0
1
0
1
0
4
0
1
0
5
0
10
0
4
0
39
0
121
0
157
0
165
0
215
0
199
0
103
0
58
0
219
0
250
0
255
0
253
0
255
0
255
0
249
0
255
0
255
0
255
0
255
0
255
0
255
0
255
0
255
0
255
0
255
0
255
0
255
0
255
0
255
0
255
0
255
0
255
0
255
0
255
0
255
0
255
0
255
0
255
0
255
0
255
0
255
0
254
0
249
0
250
0
254
0
255
0
251
0
245
0
157
0
18
0
32
0
78
0
34
0
6
0
11
0
3
0
1
0
1
0
1
0
1
0
1
0
1
0
1
0
1
0
5
0
9
0
27
0
52
0
65
0
67
0
69
0
0
0
0
0
0
0
0
0
0
0
0
0
0
0
0
0
0
0
0
0
0
0
0
0
0
0
0
0
0
0
0
0
0
0
0
0
0
0
0
0
0
0
0
0
0
0
0
0
0
0
0
0
0
0
0
0
0
0
0
0
0
0
0
0
0
0
0
0
0
0
0
0
0
0
0
0
0
0
0
0
0
0
0
0
0
0
0
0
0
0
0
0
0
0
0
0
0
0
0
0
0
0
0
0
0
0
0
0
0
0
0
0
0
0
0
0
0
0
0
0
0
0
0
0
0
0
0
0
0
0
0
0
0
0
0
0
0
0
0
0
0
0
0
0
0
0
0
0
0
0
0
0
0
0
0
0
0
0
0
0
0
0
0
0
0
0
0
0
0
0
0
0
0
0
0
0
0
0
0
0
0
0
0
0
0
0
0
0
0
0
0
0
0
0
0
0
0
0
0
0
0
0
0
0
0
0
0
0
0
0
0
0
0
0
0
0
0
0
0
0
0
0
0
0
0
0
0
0
0
0
0
0
0
0
0
0
0
0
0
0
0
0
0
0
0
0
0
0
0
0
0
0
0
0
0
0
0
0
0
0
0
0
0
0
0
0
0
0
0
0
0
0
0
0
0
0
0
0
0
0
0
0
0
0
0
0
0
0
0
0
0
0
0
0
0
0
0
0
0
0
0
0
0
0
0
0
0
0
0
0
0
0
0
0
0
0
0
0
0
0
0
0
0
0
0
0
0
0
0
0
0
0
0
0
0
0
0
0
0
0
0
0
0
0
0
0
0
0
0
0
0
0
0
0
0
0
0
0
0
0
0
0
0
0
0
0
0
0
0
0
0
0
0
0
0
0
0
0
0
0
0
0
0
0
0
0
0
0
0
0
0
0
0
0
0
0
0
0
0
0
0
0
0
0
0
0
0
0
0
0
0
0
0
0
0
0
0
0
0
0
0
0
0
0
0
0
0
0
0
0
0
0
0
0
0
0
0
0
0
0
0
0
0
0
255
0
255
0
255
0
255
0
255
0
255
0
255
0
255
0
255
0
255
0
255
0
255
0
255
0
255
0
255
0
255
0
255
0
255
0
255
0
255
0
255
0
255
0
255
0
255
0
255
0
255
0
255
0
255
0
255
0
255
0
255
0
255
0
255
0
255
0
255
0
255
0
255
0
255
0
255
0
255
0
255
0
255
0
255
0
255
0
255
0
255
0
255
0
255
0
255
0
255
0
255
0
255
0
255
0
255
0
255
0
255
0
255
0
255
0
255
0
255
0
255
0
255
0
255
0
255
0
254
0
254
0
254
0
254
0
254
0
254
0
254
0
254
0
242
0
250
0
254
0
255
0
255
0
250
0
246
0
255
0
251
0
255
0
214
0
86
0
0
0
4
0
44
0
72
0
79
0
77
0
71
0
34
0
1
0
21
0
52
0
51
0
9
0
8
0
6
0
2
0
1
0
1
0
1
0
4
0
1
0
1
0
1
0
3
0
3
0
1
0
1
0
1
0
2
0
2
0
2
0
2
0
2
0
2
0
2
0
2
0
0
0
0
0
0
0
0
0
0
0
0
0
0
0
0
0
8
0
2
0
38
0
92
0
113
0
119
0
123
0
118
0
116
0
114
0
112
0
107
0
90
0
56
0
22
0
1
0
7
0
0
0
0
0
6
0
0
0
1
0
5
0
0
0
13
0
84
0
131
0
159
0
197
0
195
0
116
0
26
0
212
0
248
0
255
0
254
0
255
0
254
0
248
0
255
0
255
0
255
0
255
0
255
0
255
0
255
0
255
0
255
0
255
0
255
0
255
0
255
0
255
0
255
0
255
0
255
0
255
0
255
0
255
0
255
0
255
0
255
0
255
0
255
0
255
0
254
0
247
0
247
0
252
0
252
0
245
0
237
0
106
0
5
0
56
0
78
0
16
0
14
0
20
0
6
0
1
0
1
0
1
0
1
0
1
0
1
0
1
0
1
0
3
0
7
0
21
0
34
0
34
0
25
0
25
0
0
0
0
0
0
0
0
0
0
0
0
0
0
0
0
0
0
0
0
0
0
0
0
0
0
0
0
0
0
0
0
0
0
0
0
0
0
0
0
0
0
0
0
0
0
0
0
0
0
0
0
0
0
0
0
0
0
0
0
0
0
0
0
0
0
0
0
0
0
0
0
0
0
0
0
0
0
0
0
0
0
0
0
0
0
0
0
0
0
0
0
0
0
0
0
0
0
0
0
0
0
0
0
0
0
0
0
0
0
0
0
0
0
0
0
0
0
0
0
0
0
0
0
0
0
0
0
0
0
0
0
0
0
0
0
0
0
0
0
0
0
0
0
0
0
0
0
0
0
0
0
0
0
0
0
0
0
0
0
0
0
0
0
0
0
0
0
0
0
0
0
0
0
0
0
0
0
0
0
0
0
0
0
0
0
0
0
0
0
0
0
0
0
0
0
0
0
0
0
0
0
0
0
0
0
0
0
0
0
0
0
0
0
0
0
0
0
0
0
0
0
0
0
0
0
0
0
0
0
0
0
0
0
0
0
0
0
0
0
0
0
0
0
0
0
0
0
0
0
0
0
0
0
0
0
0
0
0
0
0
0
0
0
0
0
0
0
0
0
0
0
0
0
0
0
0
0
0
0
0
0
0
0
0
0
0
0
0
0
0
0
0
0
0
0
0
0
0
0
0
0
0
0
0
0
0
0
0
0
0
0
0
0
0
0
0
0
0
0
0
0
0
0
0
0
0
0
0
0
0
0
0
0
0
0
0
0
0
0
0
0
0
0
0
0
0
0
0
0
0
0
0
0
0
0
0
0
0
0
0
0
0
0
0
0
0
0
0
0
0
0
0
0
0
0
0
0
0
0
0
0
0
0
0
0
0
0
0
0
0
0
0
0
0
0
0
0
0
0
0
0
0
0
0
0
0
0
0
0
0
0
0
0
0
0
0
0
0
0
0
0
0
0
0
0
0
0
0
0
0
0
0
0
0
0
0
0
0
0
0
0
0
0
0
255
0
255
0
255
0
255
0
255
0
255
0
255
0
255
0
255
0
255
0
255
0
255
0
255
0
255
0
255
0
255
0
255
0
255
0
255
0
255
0
255
0
255
0
255
0
255
0
255
0
255
0
255
0
255
0
255
0
255
0
255
0
255
0
255
0
255
0
255
0
255
0
255
0
255
0
255
0
255
0
255
0
255
0
255
0
255
0
255
0
255
0
255
0
255
0
252
0
255
0
254
0
252
0
255
0
253
0
253
0
255
0
253
0
253
0
252
0
252
0
254
0
255
0
255
0
255
0
255
0
253
0
253
0
255
0
255
0
254
0
253
0
255
0
255
0
253
0
253
0
255
0
255
0
254
0
255
0
255
0
252
0
254
0
254
0
139
0
1
0
5
0
21
0
69
0
81
0
71
0
66
0
45
0
8
0
4
0
11
0
1
0
1
0
1
0
6
0
1
0
0
0
0
0
1
0
0
0
0
0
0
0
0
0
0
0
0
0
0
0
0
0
0
0
0
0
0
0
1
0
2
0
2
0
3
0
4
0
4
0
10
0
4
0
0
0
1
0
2
0
7
0
4
0
2
0
1
0
2
0
21
0
51
0
73
0
95
0
115
0
125
0
114
0
127
0
131
0
131
0
135
0
131
0
119
0
112
0
70
0
40
0
10
0
4
0
5
0
3
0
5
0
13
0
2
0
50
0
122
0
149
0
203
0
204
0
130
0
1
0
199
0
255
0
255
0
248
0
255
0
252
0
255
0
252
0
255
0
255
0
255
0
255
0
255
0
255
0
255
0
255
0
255
0
255
0
255
0
255
0
255
0
255
0
255
0
255
0
255
0
255
0
255
0
255
0
255
0
255
0
255
0
255
0
255
0
255
0
253
0
254
0
248
0
254
0
245
0
176
0
33
0
23
0
74
0
70
0
12
0
2
0
4
0
18
0
10
0
1
0
2
0
7
0
7
0
5
0
3
0
1
0
5
0
6
0
18
0
30
0
37
0
41
0
51
0
0
0
0
0
0
0
0
0
0
0
0
0
0
0
0
0
0
0
0
0
0
0
0
0
0
0
0
0
0
0
0
0
0
0
0
0
0
0
0
0
0
0
0
0
0
0
0
0
0
0
0
0
0
0
0
0
0
0
0
0
0
0
0
0
0
0
0
0
0
0
0
0
0
0
0
0
0
0
0
0
0
0
0
0
0
0
0
0
0
0
0
0
0
0
0
0
0
0
0
0
0
0
0
0
0
0
0
0
0
0
0
0
0
0
0
0
0
0
0
0
0
0
0
0
0
0
0
0
0
0
0
0
0
0
0
0
0
0
0
0
0
0
0
0
0
0
0
0
0
0
0
0
0
0
0
0
0
0
0
0
0
0
0
0
0
0
0
0
0
0
0
0
0
0
0
0
0
0
0
0
0
0
0
0
0
0
0
0
0
0
0
0
0
0
0
0
0
0
0
0
0
0
0
0
0
0
0
0
0
0
0
0
0
0
0
0
0
0
0
0
0
0
0
0
0
0
0
0
0
0
0
0
0
0
0
0
0
0
0
0
0
0
0
0
0
0
0
0
0
0
0
0
0
0
0
0
0
0
0
0
0
0
0
0
0
0
0
0
0
0
0
0
0
0
0
0
0
0
0
0
0
0
0
0
0
0
0
0
0
0
0
0
0
0
0
0
0
0
0
0
0
0
0
0
0
0
0
0
0
0
0
0
0
0
0
0
0
0
0
0
0
0
0
0
0
0
0
0
0
0
0
0
0
0
0
0
0
0
0
0
0
0
0
0
0
0
0
0
0
0
0
0
0
0
0
0
0
0
0
0
0
0
0
0
0
0
0
0
0
0
0
0
0
0
0
0
0
0
0
0
0
0
0
0
0
0
0
0
0
0
0
0
0
0
0
0
0
0
0
0
0
0
0
0
0
0
0
0
0
0
0
0
0
0
0
0
0
0
0
0
0
0
0
0
0
0
0
0
0
0
0
0
0
0
0
0
0
0
0
0
0
0
0
0
255
0
255
0
255
0
255
0
255
0
255
0
255
0
255
0
255
0
255
0
255
0
255
0
255
0
255
0
255
0
255
0
255
0
255
0
255
0
255
0
255
0
255
0
255
0
255
0
255
0
255
0
255
0
255
0
255
0
255
0
255
0
255
0
255
0
255
0
255
0
255
0
255
0
255
0
255
0
255
0
255
0
255
0
255
0
255
0
255
0
255
0
255
0
255
0
255
0
255
0
255
0
255
0
255
0
255
0
251
0
252
0
254
0
254
0
254
0
252
0
248
0
248
0
250
0
253
0
255
0
254
0
250
0
248
0
247
0
246
0
249
0
254
0
254
0
252
0
254
0
255
0
255
0
252
0
250
0
252
0
254
0
238
0
255
0
175
0
4
0
1
0
28
0
64
0
80
0
77
0
81
0
57
0
14
0
0
0
7
0
2
0
9
0
4
0
0
0
0
0
0
0
5
0
4
0
0
0
0
0
0
0
0
0
0
0
0
0
0
0
0
0
0
0
0
0
0
0
1
0
2
0
2
0
3
0
4
0
4
0
2
0
8
0
11
0
4
0
1
0
0
0
1
0
4
0
0
0
1
0
7
0
22
0
31
0
49
0
73
0
87
0
108
0
127
0
141
0
150
0
156
0
155
0
149
0
146
0
131
0
121
0
80
0
24
0
0
0
0
0
1
0
1
0
0
0
35
0
114
0
157
0
210
0
209
0
143
0
17
0
188
0
255
0
255
0
250
0
255
0
251
0
255
0
252
0
255
0
255
0
255
0
255
0
255
0
255
0
255
0
255
0
255
0
255
0
255
0
255
0
255
0
255
0
255
0
255
0
255
0
255
0
255
0
255
0
255
0
255
0
255
0
255
0
255
0
249
0
255
0
255
0
250
0
254
0
227
0
121
0
16
0
40
0
80
0
54
0
9
0
1
0
4
0
10
0
2
0
1
0
3
0
9
0
6
0
8
0
19
0
27
0
30
0
43
0
66
0
89
0
101
0
105
0
110
0
0
0
0
0
0
0
0
0
0
0
0
0
0
0
0
0
0
0
0
0
0
0
0
0
0
0
0
0
0
0
0
0
0
0
0
0
0
0
0
0
0
0
0
0
0
0
0
0
0
0
0
0
0
0
0
0
0
0
0
0
0
0
0
0
0
0
0
0
0
0
0
0
0
0
0
0
0
0
0
0
0
0
0
0
0
0
0
0
0
0
0
0
0
0
0
0
0
0
0
0
0
0
0
0
0
0
0
0
0
0
0
0
0
0
0
0
0
0
0
0
0
0
0
0
0
0
0
0
0
0
0
0
0
0
0
0
0
0
0
0
0
0
0
0
0
0
0
0
0
0
0
0
0
0
0
0
0
0
0
0
0
0
0
0
0
0
0
0
0
0
0
0
0
0
0
0
0
0
0
0
0
0
0
0
0
0
0
0
0
0
0
0
0
0
0
0
0
0
0
0
0
0
0
0
0
0
0
0
0
0
0
0
0
0
0
0
0
0
0
0
0
0
0
0
0
0
0
0
0
0
0
0
0
0
0
0
0
0
0
0
0
0
0
0
0
0
0
0
0
0
0
0
0
0
0
0
0
0
0
0
0
0
0
0
0
0
0
0
0
0
0
0
0
0
0
0
0
0
0
0
0
0
0
0
0
0
0
0
0
0
0
0
0
0
0
0
0
0
0
0
0
0
0
0
0
0
0
0
0
0
0
0
0
0
0
0
0
0
0
0
0
0
0
0
0
0
0
0
0
0
0
0
0
0
0
0
0
0
0
0
0
0
0
0
0
0
0
0
0
0
0
0
0
0
0
0
0
0
0
0
0
0
0
0
0
0
0
0
0
0
0
0
0
0
0
0
0
0
0
0
0
0
0
0
0
0
0
0
0
0
0
0
0
0
0
0
0
0
0
0
0
0
0
0
0
0
0
0
0
0
0
0
0
0
0
0
0
0
0
0
0
0
0
0
0
0
0
0
0
0
0
0
0
0
0
0
0
0
0
0
0
0
0
0
255
0
255
0
255
0
255
0
255
0
255
0
255
0
255
0
255
0
255
0
255
0
255
0
255
0
255
0
255
0
255
0
255
0
255
0
255
0
255
0
255
0
255
0
255
0
255
0
255
0
255
0
255
0
255
0
255
0
255
0
255
0
255
0
255
0
255
0
255
0
255
0
255
0
255
0
255
0
255
0
255
0
255
0
255
0
255
0
255
0
255
0
255
0
255
0
254
0
254
0
248
0
244
0
249
0
251
0
254
0
255
0
243
0
250
0
255
0
255
0
255
0
254
0
251
0
250
0
246
0
248
0
254
0
255
0
255
0
255
0
253
0
250
0
253
0
251
0
250
0
250
0
244
0
234
0
227
0
225
0
229
0
198
0
217
0
167
0
23
0
0
0
11
0
43
0
81
0
84
0
86
0
60
0
16
0
1
0
2
0
4
0
8
0
0
0
0
0
0
0
3
0
4
0
2
0
1
0
0
0
0
0
0
0
0
0
0
0
0
0
0
0
0
0
0
0
0
0
1
0
2
0
2
0
3
0
4
0
4
0
2
0
2
0
8
0
6
0
2
0
1
0
1
0
0
0
0
0
0
0
1
0
1
0
1
0
5
0
22
0
38
0
71
0
99
0
126
0
143
0
155
0
159
0
162
0
169
0
168
0
172
0
142
0
75
0
22
0
7
0
7
0
6
0
1
0
8
0
105
0
177
0
225
0
223
0
158
0
16
0
172
0
253
0
255
0
253
0
255
0
250
0
255
0
252
0
255
0
255
0
255
0
255
0
255
0
255
0
255
0
255
0
255
0
255
0
255
0
255
0
255
0
255
0
255
0
255
0
255
0
255
0
255
0
255
0
255
0
255
0
255
0
255
0
255
0
247
0
255
0
255
0
250
0
255
0
195
0
57
0
2
0
60
0
74
0
25
0
2
0
7
0
12
0
9
0
26
0
27
0
34
0
40
0
35
0
31
0
41
0
53
0
67
0
80
0
102
0
118
0
124
0
123
0
125
0
0
0
0
0
0
0
0
0
0
0
0
0
0
0
0
0
0
0
0
0
0
0
0
0
0
0
0
0
0
0
0
0
0
0
0
0
0
0
0
0
0
0
0
0
0
0
0
0
0
0
0
0
0
0
0
0
0
0
0
0
0
0
0
0
0
0
0
0
0
0
0
0
0
0
0
0
0
0
0
0
0
0
0
0
0
0
0
0
0
0
0
0
0
0
0
0
0
0
0
0
0
0
0
0
0
0
0
0
0
0
0
0
0
0
0
0
0
0
0
0
0
0
0
0
0
0
0
0
0
0
0
0
0
0
0
0
0
0
0
0
0
0
0
0
0
0
0
0
0
0
0
0
0
0
0
0
0
0
0
0
0
0
0
0
0
0
0
0
0
0
0
0
0
0
0
0
0
0
0
0
0
0
0
0
0
0
0
0
0
0
0
0
0
0
0
0
0
0
0
0
0
0
0
0
0
0
0
0
0
0
0
0
0
0
0
0
0
0
0
0
0
0
0
0
0
0
0
0
0
0
0
0
0
0
0
0
0
0
0
0
0
0
0
0
0
0
0
0
0
0
0
0
0
0
0
0
0
0
0
0
0
0
0
0
0
0
0
0
0
0
0
0
0
0
0
0
0
0
0
0
0
0
0
0
0
0
0
0
0
0
0
0
0
0
0
0
0
0
0
0
0
0
0
0
0
0
0
0
0
0
0
0
0
0
0
0
0
0
0
0
0
0
0
0
0
0
0
0
0
0
0
0
0
0
0
0
0
0
0
0
0
0
0
0
0
0
0
0
0
0
0
0
0
0
0
0
0
0
0
0
0
0
0
0
0
0
0
0
0
0
0
0
0
0
0
0
0
0
0
0
0
0
0
0
0
0
0
0
0
0
0
0
0
0
0
0
0
0
0
0
0
0
0
0
0
0
0
0
0
0
0
0
0
0
0
0
0
0
0
0
0
0
0
0
0
0
0
0
0
0
0
0
0
0
0
0
0
0
0
0
0
0
0
0
255
0
255
0
255
0
255
0
255
0
255
0
255
0
255
0
255
0
255
0
255
0
255
0
255
0
255
0
255
0
255
0
255
0
255
0
255
0
255
0
255
0
255
0
255
0
255
0
255
0
255
0
255
0
255
0
255
0
255
0
255
0
255
0
255
0
255
0
255
0
255
0
255
0
255
0
255
0
255
0
255
0
255
0
255
0
255
0
255
0
255
0
255
0
255
0
248
0
255
0
255
0
255
0
255
0
255
0
251
0
250
0
254
0
252
0
248
0
247
0
250
0
255
0
254
0
254
0
255
0
249
0
247
0
251
0
250
0
238
0
220
0
207
0
173
0
166
0
156
0
145
0
129
0
111
0
98
0
93
0
83
0
73
0
70
0
60
0
13
0
8
0
1
0
26
0
55
0
61
0
72
0
65
0
37
0
17
0
8
0
1
0
0
0
0
0
0
0
3
0
3
0
0
0
0
0
3
0
0
0
0
0
0
0
0
0
0
0
0
0
0
0
0
0
0
0
0
0
1
0
2
0
2
0
3
0
4
0
4
0
17
0
8
0
0
0
0
0
1
0
8
0
4
0
1
0
1
0
2
0
4
0
2
0
1
0
1
0
1
0
5
0
29
0
62
0
96
0
119
0
135
0
146
0
159
0
177
0
203
0
198
0
186
0
149
0
77
0
10
0
0
0
8
0
7
0
1
0
101
0
188
0
213
0
222
0
180
0
17
0
155
0
246
0
255
0
255
0
255
0
250
0
255
0
252
0
255
0
255
0
255
0
255
0
255
0
255
0
255
0
255
0
255
0
255
0
255
0
255
0
255
0
255
0
255
0
255
0
255
0
255
0
255
0
255
0
255
0
255
0
255
0
255
0
254
0
255
0
255
0
246
0
253
0
253
0
150
0
16
0
7
0
82
0
64
0
13
0
7
0
30
0
38
0
41
0
56
0
59
0
65
0
69
0
62
0
51
0
52
0
65
0
73
0
83
0
97
0
105
0
106
0
106
0
110
0
0
0
0
0
0
0
0
0
0
0
0
0
0
0
0
0
0
0
0
0
0
0
0
0
0
0
0
0
0
0
0
0
0
0
0
0
0
0
0
0
0
0
0
0
0
0
0
0
0
0
0
0
0
0
0
0
0
0
0
0
0
0
0
0
0
0
0
0
0
0
0
0
0
0
0
0
0
0
0
0
0
0
0
0
0
0
0
0
0
0
0
0
0
0
0
0
0
0
0
0
0
0
0
0
0
0
0
0
0
0
0
0
0
0
0
0
0
0
0
0
0
0
0
0
0
0
0
0
0
0
0
0
0
0
0
0
0
0
0
0
0
0
0
0
0
0
0
0
0
0
0
0
0
0
0
0
0
0
0
0
0
0
0
0
0
0
0
0
0
0
0
0
0
0
0
0
0
0
0
0
0
0
0
0
0
0
0
0
0
0
0
0
0
0
0
0
0
0
0
0
0
0
0
0
0
0
0
0
0
0
0
0
0
0
0
0
0
0
0
0
0
0
0
0
0
0
0
0
0
0
0
0
0
0
0
0
0
0
0
0
0
0
0
0
0
0
0
0
0
0
0
0
0
0
0
0
0
0
0
0
0
0
0
0
0
0
0
0
0
0
0
0
0
0
0
0
0
0
0
0
0
0
0
0
0
0
0
0
0
0
0
0
0
0
0
0
0
0
0
0
0
0
0
0
0
0
0
0
0
0
0
0
0
0
0
0
0
0
0
0
0
0
0
0
0
0
0
0
0
0
0
0
0
0
0
0
0
0
0
0
0
0
0
0
0
0
0
0
0
0
0
0
0
0
0
0
0
0
0
0
0
0
0
0
0
0
0
0
0
0
0
0
0
0
0
0
0
0
0
0
0
0
0
0
0
0
0
0
0
0
0
0
0
0
0
0
0
0
0
0
0
0
0
0
0
0
0
0
0
0
0
0
0
0
0
0
0
0
0
0
0
0
0
0
0
0
0
0
0
0
0
0
0
0
0
0
0
0
0
0
0
0
0
0
255
0
255
0
255
0
255
0
255
0
255
0
255
0
255
0
255
0
255
0
255
0
255
0
255
0
255
0
255
0
255
0
255
0
255
0
255
0
255
0
255
0
255
0
255
0
255
0
255
0
255
0
255
0
255
0
255
0
255
0
255
0
255
0
255
0
255
0
255
0
255
0
255
0
255
0
255
0
255
0
255
0
255
0
255
0
255
0
255
0
255
0
255
0
255
0
255
0
255
0
254
0
252
0
255
0
255
0
253
0
255
0
254
0
254
0
253
0
253
0
251
0
240
0
222
0
208
0
174
0
146
0
114
0
94
0
83
0
70
0
53
0
42
0
6
0
3
0
0
0
1
0
1
0
0
0
0
0
3
0
1
0
1
0
0
0
0
0
0
0
13
0
0
0
5
0
11
0
19
0
39
0
56
0
60
0
53
0
39
0
25
0
13
0
4
0
0
0
1
0
2
0
0
0
0
0
1
0
0
0
0
0
0
0
0
0
0
0
0
0
0
0
0
0
0
0
0
0
1
0
2
0
2
0
3
0
4
0
4
0
40
0
38
0
27
0
8
0
1
0
0
0
3
0
8
0
0
0
5
0
4
0
3
0
7
0
3
0
2
0
2
0
18
0
48
0
82
0
107
0
125
0
141
0
163
0
187
0
210
0
198
0
199
0
198
0
147
0
61
0
5
0
3
0
8
0
1
0
125
0
193
0
181
0
204
0
195
0
31
0
145
0
241
0
255
0
255
0
255
0
250
0
255
0
252
0
255
0
255
0
255
0
255
0
255
0
255
0
255
0
255
0
255
0
255
0
255
0
255
0
255
0
255
0
255
0
255
0
255
0
255
0
255
0
255
0
255
0
255
0
255
0
255
0
251
0
254
0
255
0
237
0
254
0
234
0
95
0
1
0
46
0
98
0
61
0
26
0
46
0
58
0
63
0
71
0
59
0
63
0
68
0
72
0
71
0
56
0
50
0
62
0
54
0
63
0
72
0
72
0
68
0
66
0
69
0
0
0
0
0
0
0
0
0
0
0
0
0
0
0
0
0
0
0
0
0
0
0
0
0
0
0
0
0
0
0
0
0
0
0
0
0
0
0
0
0
0
0
0
0
0
0
0
0
0
0
0
0
0
0
0
0
0
0
0
0
0
0
0
0
0
0
0
0
0
0
0
0
0
0
0
0
0
0
0
0
0
0
0
0
0
0
0
0
0
0
0
0
0
0
0
0
0
0
0
0
0
0
0
0
0
0
0
0
0
0
0
0
0
0
0
0
0
0
0
0
0
0
0
0
0
0
0
0
0
0
0
0
0
0
0
0
0
0
0
0
0
0
0
0
0
0
0
0
0
0
0
0
0
0
0
0
0
0
0
0
0
0
0
0
0
0
0
0
0
0
0
0
0
0
0
0
0
0
0
0
0
0
0
0
0
0
0
0
0
0
0
0
0
0
0
0
0
0
0
0
0
0
0
0
0
0
0
0
0
0
0
0
0
0
0
0
0
0
0
0
0
0
0
0
0
0
0
0
0
0
0
0
0
0
0
0
0
0
0
0
0
0
0
0
0
0
0
0
0
0
0
0
0
0
0
0
0
0
0
0
0
0
0
0
0
0
0
0
0
0
0
0
0
0
0
0
0
0
0
0
0
0
0
0
0
0
0
0
0
0
0
0
0
0
0
0
0
0
0
0
0
0
0
0
0
0
0
0
0
0
0
0
0
0
0
0
0
0
0
0
0
0
0
0
0
0
0
0
0
0
0
0
0
0
0
0
0
0
0
0
0
0
0
0
0
0
0
0
0
0
0
0
0
0
0
0
0
0
0
0
0
0
0
0
0
0
0
0
0
0
0
0
0
0
0
0
0
0
0
0
0
0
0
0
0
0
0
0
0
0
0
0
0
0
0
0
0
0
0
0
0
0
0
0
0
0
0
0
0
0
0
0
0
0
0
0
0
0
0
0
0
0
0
0
0
0
0
0
0
0
0
0
0
0
0
0
0
0
0
0
0
0
0
0
255
0
255
0
255
0
255
0
255
0
255
0
255
0
255
0
255
0
255
0
255
0
255
0
255
0
255
0
255
0
255
0
255
0
255
0
255
0
255
0
255
0
255
0
255
0
255
0
255
0
255
0
255
0
255
0
255
0
255
0
255
0
255
0
255
0
255
0
255
0
255
0
255
0
255
0
255
0
255
0
253
0
253
0
253
0
253
0
253
0
253
0
253
0
253
0
255
0
255
0
254
0
254
0
255
0
255
0
254
0
253
0
235
0
224
0
207
0
183
0
152
0
111
0
69
0
42
0
32
0
14
0
0
0
0
0
4
0
8
0
5
0
2
0
13
0
7
0
3
0
2
0
0
0
0
0
0
0
4
0
9
0
7
0
5
0
14
0
0
0
8
0
8
0
0
0
2
0
1
0
0
0
15
0
40
0
58
0
70
0
77
0
58
0
40
0
15
0
2
0
3
0
8
0
5
0
1
0
0
0
0
0
0
0
0
0
0
0
0
0
0
0
0
0
0
0
0
0
1
0
2
0
2
0
3
0
4
0
4
0
16
0
50
0
77
0
65
0
29
0
2
0
1
0
3
0
6
0
13
0
2
0
0
0
3
0
5
0
2
0
8
0
19
0
44
0
72
0
97
0
119
0
136
0
159
0
187
0
196
0
195
0
199
0
204
0
192
0
143
0
64
0
0
0
1
0
39
0
171
0
203
0
177
0
200
0
186
0
28
0
143
0
241
0
255
0
254
0
255
0
251
0
255
0
252
0
255
0
255
0
255
0
255
0
255
0
255
0
255
0
255
0
255
0
255
0
255
0
255
0
255
0
255
0
255
0
255
0
255
0
255
0
255
0
255
0
255
0
255
0
255
0
255
0
244
0
254
0
255
0
243
0
254
0
200
0
43
0
2
0
70
0
93
0
51
0
45
0
74
0
66
0
64
0
66
0
69
0
70
0
67
0
68
0
65
0
45
0
36
0
50
0
36
0
54
0
75
0
88
0
95
0
103
0
111
0
0
0
0
0
0
0
0
0
0
0
0
0
0
0
0
0
0
0
0
0
0
0
0
0
0
0
0
0
0
0
0
0
0
0
0
0
0
0
0
0
0
0
0
0
0
0
0
0
0
0
0
0
0
0
0
0
0
0
0
0
0
0
0
0
0
0
0
0
0
0
0
0
0
0
0
0
0
0
0
0
0
0
0
0
0
0
0
0
0
0
0
0
0
0
0
0
0
0
0
0
0
0
0
0
0
0
0
0
0
0
0
0
0
0
0
0
0
0
0
0
0
0
0
0
0
0
0
0
0
0
0
0
0
0
0
0
0
0
0
0
0
0
0
0
0
0
0
0
0
0
0
0
0
0
0
0
0
0
0
0
0
0
0
0
0
0
0
0
0
0
0
0
0
0
0
0
0
0
0
0
0
0
0
0
0
0
0
0
0
0
0
0
0
0
0
0
0
0
0
0
0
0
0
0
0
0
0
0
0
0
0
0
0
0
0
0
0
0
0
0
0
0
0
0
0
0
0
0
0
0
0
0
0
0
0
0
0
0
0
0
0
0
0
0
0
0
0
0
0
0
0
0
0
0
0
0
0
0
0
0
0
0
0
0
0
0
0
0
0
0
0
0
0
0
0
0
0
0
0
0
0
0
0
0
0
0
0
0
0
0
0
0
0
0
0
0
0
0
0
0
0
0
0
0
0
0
0
0
0
0
0
0
0
0
0
0
0
0
0
0
0
0
0
0
0
0
0
0
0
0
0
0
0
0
0
0
0
0
0
0
0
0
0
0
0
0
0
0
0
0
0
0
0
0
0
0
0
0
0
0
0
0
0
0
0
0
0
0
0
0
0
0
0
0
0
0
0
0
0
0
0
0
0
0
0
0
0
0
0
0
0
0
0
0
0
0
0
0
0
0
0
0
0
0
0
0
0
0
0
0
0
0
0
0
0
0
0
0
0
0
0
0
0
0
0
0
0
0
0
0
0
0
0
0
0
0
0
0
0
0
0
0
0
0
255
0
255
0
255
0
255
0
255
0
255
0
255
0
255
0
255
0
255
0
255
0
255
0
255
0
255
0
255
0
255
0
255
0
255
0
255
0
255
0
255
0
255
0
255
0
255
0
255
0
255
0
255
0
255
0
255
0
255
0
255
0
255
0
255
0
255
0
255
0
255
0
255
0
255
0
255
0
255
0
252
0
252
0
252
0
252
0
252
0
252
0
252
0
252
0
245
0
252
0
254
0
250
0
238
0
206
0
165
0
143
0
102
0
84
0
55
0
26
0
7
0
0
0
2
0
6
0
3
0
1
0
2
0
6
0
6
0
0
0
0
0
0
0
0
0
0
0
0
0
0
0
0
0
0
0
0
0
2
0
0
0
0
0
0
0
12
0
0
0
2
0
8
0
1
0
6
0
1
0
0
0
1
0
7
0
27
0
51
0
76
0
74
0
69
0
47
0
18
0
6
0
8
0
7
0
1
0
0
0
0
0
0
0
0
0
0
0
0
0
0
0
0
0
0
0
0
0
1
0
2
0
2
0
3
0
4
0
4
0
0
0
24
0
61
0
77
0
70
0
47
0
21
0
5
0
22
0
32
0
16
0
1
0
4
0
3
0
1
0
12
0
16
0
35
0
58
0
86
0
109
0
126
0
146
0
169
0
188
0
206
0
208
0
194
0
195
0
181
0
111
0
30
0
43
0
124
0
198
0
170
0
180
0
212
0
170
0
25
0
146
0
243
0
255
0
252
0
255
0
252
0
255
0
252
0
255
0
255
0
255
0
255
0
255
0
255
0
255
0
255
0
255
0
255
0
255
0
255
0
255
0
255
0
255
0
255
0
255
0
255
0
255
0
255
0
255
0
255
0
255
0
255
0
253
0
250
0
255
0
253
0
254
0
157
0
12
0
14
0
81
0
80
0
38
0
56
0
78
0
62
0
66
0
58
0
70
0
72
0
63
0
58
0
54
0
33
0
29
0
51
0
52
0
71
0
93
0
103
0
106
0
111
0
116
0
0
0
0
0
0
0
0
0
0
0
0
0
0
0
0
0
0
0
0
0
0
0
0
0
0
0
0
0
0
0
0
0
0
0
0
0
0
0
0
0
0
0
0
0
0
0
0
0
0
0
0
0
0
0
0
0
0
0
0
0
0
0
0
0
0
0
0
0
0
0
0
0
0
0
0
0
0
0
0
0
0
0
0
0
0
0
0
0
0
0
0
0
0
0
0
0
0
0
0
0
0
0
0
0
0
0
0
0
0
0
0
0
0
0
0
0
0
0
0
0
0
0
0
0
0
0
0
0
0
0
0
0
0
0
0
0
0
0
0
0
0
0
0
0
0
0
0
0
0
0
0
0
0
0
0
0
0
0
0
0
0
0
0
0
0
0
0
0
0
0
0
0
0
0
0
0
0
0
0
0
0
0
0
0
0
0
0
0
0
0
0
0
0
0
0
0
0
0
0
0
0
0
0
0
0
0
0
0
0
0
0
0
0
0
0
0
0
0
0
0
0
0
0
0
0
0
0
0
0
0
0
0
0
0
0
0
0
0
0
0
0
0
0
0
0
0
0
0
0
0
0
0
0
0
0
0
0
0
0
0
0
0
0
0
0
0
0
0
0
0
0
0
0
0
0
0
0
0
0
0
0
0
0
0
0
0
0
0
0
0
0
0
0
0
0
0
0
0
0
0
0
0
0
0
0
0
0
0
0
0
0
0
0
0
0
0
0
0
0
0
0
0
0
0
0
0
0
0
0
0
0
0
0
0
0
0
0
0
0
0
0
0
0
0
0
0
0
0
0
0
0
0
0
0
0
0
0
0
0
0
0
0
0
0
0
0
0
0
0
0
0
0
0
0
0
0
0
0
0
0
0
0
0
0
0
0
0
0
0
0
0
0
0
0
0
0
0
0
0
0
0
0
0
0
0
0
0
0
0
0
0
0
0
0
0
0
0
0
0
0
0
0
0
0
0
0
0
0
0
0
0
0
0
0
0
0
0
0
0
0
0
0
0
0
255
0
255
0
255
0
255
0
255
0
255
0
255
0
255
0
255
0
255
0
255
0
255
0
255
0
255
0
255
0
255
0
255
0
255
0
255
0
255
0
255
0
255
0
255
0
255
0
255
0
255
0
255
0
255
0
255
0
255
0
255
0
255
0
255
0
255
0
255
0
255
0
255
0
255
0
255
0
255
0
251
0
251
0
251
0
251
0
251
0
251
0
251
0
251
0
255
0
245
0
196
0
143
0
98
0
54
0
17
0
1
0
14
0
17
0
18
0
12
0
2
0
0
0
3
0
11
0
0
0
0
0
4
0
4
0
0
0
0
0
0
0
8
0
2
0
0
0
1
0
4
0
4
0
1
0
1
0
3
0
0
0
17
0
0
0
3
0
8
0
3
0
1
0
3
0
1
0
2
0
12
0
13
0
8
0
0
0
1
0
18
0
58
0
79
0
79
0
43
0
9
0
1
0
4
0
3
0
0
0
0
0
0
0
0
0
0
0
0
0
0
0
0
0
0
0
0
0
1
0
2
0
2
0
3
0
4
0
4
0
6
0
0
0
2
0
30
0
78
0
96
0
68
0
28
0
33
0
49
0
36
0
15
0
12
0
4
0
1
0
12
0
14
0
29
0
52
0
81
0
107
0
122
0
138
0
158
0
151
0
184
0
197
0
186
0
187
0
194
0
160
0
106
0
129
0
205
0
190
0
103
0
161
0
220
0
167
0
42
0
149
0
245
0
255
0
251
0
255
0
253
0
255
0
251
0
255
0
255
0
255
0
255
0
255
0
255
0
255
0
255
0
255
0
255
0
255
0
255
0
255
0
255
0
255
0
255
0
255
0
255
0
255
0
255
0
255
0
255
0
255
0
255
0
254
0
242
0
255
0
254
0
232
0
125
0
2
0
28
0
91
0
82
0
36
0
64
0
78
0
62
0
78
0
65
0
47
0
52
0
46
0
43
0
44
0
27
0
35
0
69
0
80
0
97
0
112
0
115
0
113
0
116
0
121
0
0
0
0
0
0
0
0
0
0
0
0
0
0
0
0
0
0
0
0
0
0
0
0
0
0
0
0
0
0
0
0
0
0
0
0
0
0
0
0
0
0
0
0
0
0
0
0
0
0
0
0
0
0
0
0
0
0
0
0
0
0
0
0
0
0
0
0
0
0
0
0
0
0
0
0
0
0
0
0
0
0
0
0
0
0
0
0
0
0
0
0
0
0
0
0
0
0
0
0
0
0
0
0
0
0
0
0
0
0
0
0
0
0
0
0
0
0
0
0
0
0
0
0
0
0
0
0
0
0
0
0
0
0
0
0
0
0
0
0
0
0
0
0
0
0
0
0
0
0
0
0
0
0
0
0
0
0
0
0
0
0
0
0
0
0
0
0
0
0
0
0
0
0
0
0
0
0
0
0
0
0
0
0
0
0
0
0
0
0
0
0
0
0
0
0
0
0
0
0
0
0
0
0
0
0
0
0
0
0
0
0
0
0
0
0
0
0
0
0
0
0
0
0
0
0
0
0
0
0
0
0
0
0
0
0
0
0
0
0
0
0
0
0
0
0
0
0
0
0
0
0
0
0
0
0
0
0
0
0
0
0
0
0
0
0
0
0
0
0
0
0
0
0
0
0
0
0
0
0
0
0
0
0
0
0
0
0
0
0
0
0
0
0
0
0
0
0
0
0
0
0
0
0
0
0
0
0
0
0
0
0
0
0
0
0
0
0
0
0
0
0
0
0
0
0
0
0
0
0
0
0
0
0
0
0
0
0
0
0
0
0
0
0
0
0
0
0
0
0
0
0
0
0
0
0
0
0
0
0
0
0
0
0
0
0
0
0
0
0
0
0
0
0
0
0
0
0
0
0
0
0
0
0
0
0
0
0
0
0
0
0
0
0
0
0
0
0
0
0
0
0
0
0
0
0
0
0
0
0
0
0
0
0
0
0
0
0
0
0
0
0
0
0
0
0
0
0
0
0
0
0
0
0
0
0
0
0
0
0
0
0
0
0
0
255
0
255
0
255
0
255
0
255
0
255
0
255
0
255
0
255
0
255
0
255
0
255
0
255
0
255
0
255
0
255
0
255
0
255
0
255
0
255
0
255
0
255
0
255
0
255
0
255
0
255
0
255
0
255
0
255
0
255
0
255
0
255
0
250
0
255
0
253
0
252
0
253
0
252
0
246
0
246
0
245
0
245
0
246
0
251
0
253
0
254
0
238
0
214
0
132
0
65
0
6
0
0
0
9
0
22
0
42
0
62
0
70
0
69
0
64
0
26
0
2
0
8
0
1
0
1
0
0
0
0
0
0
0
0
0
0
0
0
0
0
0
0
0
0
0
0
0
0
0
0
0
0
0
0
0
0
0
0
0
0
0
0
0
0
0
0
0
0
0
0
0
0
0
0
0
2
0
2
0
2
0
2
0
2
0
2
0
2
0
2
0
1
0
20
0
29
0
19
0
6
0
3
0
5
0
4
0
0
0
0
0
0
0
0
0
0
0
0
0
0
0
0
0
1
0
1
0
1
0
1
0
1
0
1
0
1
0
1
0
3
0
2
0
2
0
4
0
18
0
44
0
76
0
99
0
49
0
29
0
76
0
113
0
64
0
22
0
13
0
2
0
35
0
33
0
50
0
78
0
99
0
121
0
147
0
162
0
155
0
155
0
116
0
142
0
177
0
167
0
180
0
184
0
208
0
197
0
154
0
71
0
150
0
218
0
172
0
15
0
185
0
251
0
255
0
251
0
255
0
252
0
254
0
253
0
255
0
255
0
255
0
255
0
255
0
255
0
255
0
255
0
255
0
255
0
255
0
255
0
255
0
255
0
255
0
255
0
255
0
255
0
255
0
255
0
255
0
255
0
255
0
255
0
252
0
253
0
247
0
253
0
217
0
54
0
13
0
54
0
107
0
66
0
39
0
62
0
73
0
53
0
44
0
33
0
47
0
48
0
55
0
56
0
64
0
55
0
41
0
60
0
76
0
95
0
109
0
112
0
112
0
111
0
113
0
0
0
0
0
0
0
0
0
0
0
0
0
0
0
0
0
0
0
0
0
0
0
0
0
0
0
0
0
0
0
0
0
0
0
0
0
0
0
0
0
0
0
0
0
0
0
0
0
0
0
0
0
0
0
0
0
0
0
0
0
0
0
0
0
0
0
0
0
0
0
0
0
0
0
0
0
0
0
0
0
0
0
0
0
0
0
0
0
0
0
0
0
0
0
0
0
0
0
0
0
0
0
0
0
0
0
0
0
0
0
0
0
0
0
0
0
0
0
0
0
0
0
0
0
0
0
0
0
0
0
0
0
0
0
0
0
0
0
0
0
0
0
0
0
0
0
0
0
0
0
0
0
0
0
0
0
0
0
0
0
0
0
0
0
0
0
0
0
0
0
0
0
0
0
0
0
0
0
0
0
0
0
0
0
0
0
0
0
0
0
0
0
0
0
0
0
0
0
0
0
0
0
0
0
0
0
0
0
0
0
0
0
0
0
0
0
0
0
0
0
0
0
0
0
0
0
0
0
0
0
0
0
0
0
0
0
0
0
0
0
0
0
0
0
0
0
0
0
0
0
0
0
0
0
0
0
0
0
0
0
0
0
0
0
0
0
0
0
0
0
0
0
0
0
0
0
0
0
0
0
0
0
0
0
0
0
0
0
0
0
0
0
0
0
0
0
0
0
0
0
0
0
0
0
0
0
0
0
0
0
0
0
0
0
0
0
0
0
0
0
0
0
0
0
0
0
0
0
0
0
0
0
0
0
0
0
0
0
0
0
0
0
0
0
0
0
0
0
0
0
0
0
0
0
0
0
0
0
0
0
0
0
0
0
0
0
0
0
0
0
0
0
0
0
0
0
0
0
0
0
0
0
0
0
0
0
0
0
0
0
0
0
0
0
0
0
0
0
0
0
0
0
0
0
0
0
0
0
0
0
0
0
0
0
0
0
0
0
0
0
0
0
0
0
0
0
0
0
0
0
0
0
0
0
0
0
0
0
0
0
0
0
0
0
255
0
255
0
255
0
255
0
255
0
255
0
255
0
255
0
255
0
255
0
255
0
255
0
255
0
255
0
255
0
255
0
255
0
255
0
255
0
255
0
255
0
255
0
255
0
255
0
255
0
255
0
255
0
255
0
255
0
255
0
255
0
255
0
255
0
255
0
254
0
251
0
248
0
254
0
254
0
254
0
254
0
254
0
255
0
249
0
225
0
167
0
88
0
29
0
5
0
11
0
31
0
56
0
70
0
74
0
78
0
83
0
80
0
74
0
63
0
20
0
1
0
6
0
4
0
10
0
0
0
0
0
0
0
0
0
0
0
0
0
0
0
0
0
0
0
0
0
0
0
0
0
0
0
0
0
0
0
0
0
0
0
0
0
0
0
0
0
0
0
0
0
0
0
0
0
2
0
2
0
2
0
2
0
2
0
2
0
2
0
2
0
1
0
8
0
13
0
8
0
2
0
3
0
3
0
0
0
0
0
0
0
0
0
0
0
0
0
0
0
0
0
0
0
1
0
1
0
1
0
1
0
1
0
1
0
1
0
1
0
4
0
4
0
3
0
3
0
6
0
21
0
40
0
54
0
116
0
85
0
40
0
48
0
102
0
107
0
56
0
23
0
12
0
50
0
79
0
77
0
90
0
135
0
163
0
154
0
160
0
114
0
79
0
111
0
149
0
172
0
197
0
201
0
207
0
210
0
194
0
114
0
161
0
218
0
168
0
10
0
188
0
251
0
255
0
252
0
255
0
252
0
255
0
254
0
255
0
255
0
255
0
255
0
255
0
255
0
255
0
255
0
255
0
255
0
255
0
255
0
255
0
255
0
255
0
255
0
255
0
255
0
255
0
255
0
255
0
255
0
255
0
255
0
253
0
253
0
250
0
251
0
200
0
40
0
11
0
58
0
98
0
63
0
39
0
57
0
61
0
41
0
45
0
45
0
54
0
56
0
62
0
63
0
71
0
60
0
42
0
60
0
79
0
95
0
108
0
113
0
116
0
116
0
121
0
0
0
0
0
0
0
0
0
0
0
0
0
0
0
0
0
0
0
0
0
0
0
0
0
0
0
0
0
0
0
0
0
0
0
0
0
0
0
0
0
0
0
0
0
0
0
0
0
0
0
0
0
0
0
0
0
0
0
0
0
0
0
0
0
0
0
0
0
0
0
0
0
0
0
0
0
0
0
0
0
0
0
0
0
0
0
0
0
0
0
0
0
0
0
0
0
0
0
0
0
0
0
0
0
0
0
0
0
0
0
0
0
0
0
0
0
0
0
0
0
0
0
0
0
0
0
0
0
0
0
0
0
0
0
0
0
0
0
0
0
0
0
0
0
0
0
0
0
0
0
0
0
0
0
0
0
0
0
0
0
0
0
0
0
0
0
0
0
0
0
0
0
0
0
0
0
0
0
0
0
0
0
0
0
0
0
0
0
0
0
0
0
0
0
0
0
0
0
0
0
0
0
0
0
0
0
0
0
0
0
0
0
0
0
0
0
0
0
0
0
0
0
0
0
0
0
0
0
0
0
0
0
0
0
0
0
0
0
0
0
0
0
0
0
0
0
0
0
0
0
0
0
0
0
0
0
0
0
0
0
0
0
0
0
0
0
0
0
0
0
0
0
0
0
0
0
0
0
0
0
0
0
0
0
0
0
0
0
0
0
0
0
0
0
0
0
0
0
0
0
0
0
0
0
0
0
0
0
0
0
0
0
0
0
0
0
0
0
0
0
0
0
0
0
0
0
0
0
0
0
0
0
0
0
0
0
0
0
0
0
0
0
0
0
0
0
0
0
0
0
0
0
0
0
0
0
0
0
0
0
0
0
0
0
0
0
0
0
0
0
0
0
0
0
0
0
0
0
0
0
0
0
0
0
0
0
0
0
0
0
0
0
0
0
0
0
0
0
0
0
0
0
0
0
0
0
0
0
0
0
0
0
0
0
0
0
0
0
0
0
0
0
0
0
0
0
0
0
0
0
0
0
0
0
0
0
0
0
0
0
0
0
0
0
255
0
255
0
255
0
255
0
255
0
255
0
255
0
255
0
255
0
255
0
255
0
255
0
255
0
255
0
255
0
255
0
255
0
255
0
255
0
255
0
255
0
255
0
255
0
255
0
255
0
255
0
255
0
255
0
255
0
255
0
255
0
255
0
255
0
240
0
240
0
255
0
253
0
249
0
252
0
250
0
249
0
231
0
192
0
137
0
71
0
20
0
6
0
14
0
67
0
62
0
61
0
70
0
82
0
87
0
77
0
64
0
72
0
67
0
57
0
14
0
0
0
3
0
1
0
7
0
0
0
0
0
0
0
0
0
0
0
0
0
0
0
0
0
0
0
0
0
0
0
0
0
0
0
0
0
0
0
0
0
0
0
0
0
0
0
0
0
0
0
0
0
0
0
0
0
1
0
1
0
1
0
1
0
1
0
1
0
1
0
1
0
1
0
1
0
0
0
0
0
1
0
6
0
4
0
0
0
0
0
0
0
0
0
0
0
0
0
0
0
0
0
0
0
1
0
1
0
1
0
1
0
1
0
1
0
1
0
1
0
3
0
4
0
4
0
2
0
0
0
1
0
6
0
11
0
41
0
97
0
112
0
66
0
49
0
90
0
110
0
83
0
22
0
29
0
57
0
90
0
112
0
133
0
155
0
167
0
142
0
60
0
51
0
95
0
142
0
187
0
205
0
204
0
201
0
210
0
218
0
145
0
154
0
203
0
153
0
4
0
195
0
250
0
255
0
252
0
255
0
253
0
255
0
255
0
255
0
255
0
255
0
255
0
255
0
255
0
255
0
255
0
255
0
255
0
255
0
255
0
255
0
255
0
255
0
255
0
255
0
255
0
255
0
255
0
255
0
255
0
255
0
255
0
254
0
253
0
253
0
245
0
178
0
21
0
11
0
65
0
99
0
60
0
31
0
46
0
51
0
40
0
54
0
62
0
63
0
64
0
67
0
63
0
70
0
62
0
45
0
63
0
90
0
103
0
111
0
113
0
115
0
116
0
119
0
0
0
0
0
0
0
0
0
0
0
0
0
0
0
0
0
0
0
0
0
0
0
0
0
0
0
0
0
0
0
0
0
0
0
0
0
0
0
0
0
0
0
0
0
0
0
0
0
0
0
0
0
0
0
0
0
0
0
0
0
0
0
0
0
0
0
0
0
0
0
0
0
0
0
0
0
0
0
0
0
0
0
0
0
0
0
0
0
0
0
0
0
0
0
0
0
0
0
0
0
0
0
0
0
0
0
0
0
0
0
0
0
0
0
0
0
0
0
0
0
0
0
0
0
0
0
0
0
0
0
0
0
0
0
0
0
0
0
0
0
0
0
0
0
0
0
0
0
0
0
0
0
0
0
0
0
0
0
0
0
0
0
0
0
0
0
0
0
0
0
0
0
0
0
0
0
0
0
0
0
0
0
0
0
0
0
0
0
0
0
0
0
0
0
0
0
0
0
0
0
0
0
0
0
0
0
0
0
0
0
0
0
0
0
0
0
0
0
0
0
0
0
0
0
0
0
0
0
0
0
0
0
0
0
0
0
0
0
0
0
0
0
0
0
0
0
0
0
0
0
0
0
0
0
0
0
0
0
0
0
0
0
0
0
0
0
0
0
0
0
0
0
0
0
0
0
0
0
0
0
0
0
0
0
0
0
0
0
0
0
0
0
0
0
0
0
0
0
0
0
0
0
0
0
0
0
0
0
0
0
0
0
0
0
0
0
0
0
0
0
0
0
0
0
0
0
0
0
0
0
0
0
0
0
0
0
0
0
0
0
0
0
0
0
0
0
0
0
0
0
0
0
0
0
0
0
0
0
0
0
0
0
0
0
0
0
0
0
0
0
0
0
0
0
0
0
0
0
0
0
0
0
0
0
0
0
0
0
0
0
0
0
0
0
0
0
0
0
0
0
0
0
0
0
0
0
0
0
0
0
0
0
0
0
0
0
0
0
0
0
0
0
0
0
0
0
0
0
0
0
0
0
0
0
0
0
0
0
0
0
0
0
0
0
255
0
255
0
255
0
255
0
255
0
255
0
255
0
255
0
255
0
255
0
255
0
255
0
255
0
255
0
255
0
255
0
255
0
255
0
255
0
255
0
255
0
255
0
255
0
255
0
254
0
254
0
254
0
254
0
254
0
254
0
254
0
254
0
255
0
244
0
255
0
254
0
249
0
243
0
254
0
253
0
219
0
124
0
23
0
2
0
18
0
56
0
82
0
95
0
85
0
78
0
76
0
79
0
82
0
80
0
73
0
69
0
75
0
74
0
69
0
31
0
6
0
8
0
0
0
2
0
1
0
1
0
1
0
1
0
1
0
1
0
1
0
1
0
0
0
0
0
0
0
0
0
0
0
0
0
0
0
0
0
1
0
1
0
1
0
1
0
1
0
1
0
1
0
1
0
1
0
1
0
1
0
1
0
1
0
1
0
1
0
1
0
1
0
1
0
0
0
0
0
2
0
7
0
5
0
0
0
0
0
0
0
0
0
0
0
0
0
0
0
0
0
0
0
1
0
1
0
1
0
1
0
1
0
1
0
1
0
1
0
2
0
2
0
4
0
4
0
2
0
1
0
0
0
0
0
3
0
12
0
70
0
117
0
93
0
65
0
86
0
121
0
95
0
56
0
50
0
88
0
121
0
137
0
149
0
162
0
91
0
24
0
48
0
102
0
159
0
205
0
194
0
192
0
206
0
208
0
222
0
158
0
146
0
193
0
138
0
14
0
205
0
250
0
255
0
253
0
255
0
254
0
255
0
255
0
255
0
255
0
255
0
255
0
255
0
255
0
255
0
255
0
255
0
255
0
255
0
255
0
255
0
255
0
255
0
255
0
255
0
255
0
255
0
255
0
255
0
255
0
255
0
255
0
253
0
253
0
254
0
240
0
158
0
6
0
15
0
73
0
102
0
55
0
16
0
38
0
54
0
53
0
67
0
72
0
69
0
67
0
67
0
61
0
67
0
61
0
46
0
63
0
90
0
100
0
106
0
106
0
110
0
114
0
115
0
0
0
0
0
0
0
0
0
0
0
0
0
0
0
0
0
0
0
0
0
0
0
0
0
0
0
0
0
0
0
0
0
0
0
0
0
0
0
0
0
0
0
0
0
0
0
0
0
0
0
0
0
0
0
0
0
0
0
0
0
0
0
0
0
0
0
0
0
0
0
0
0
0
0
0
0
0
0
0
0
0
0
0
0
0
0
0
0
0
0
0
0
0
0
0
0
0
0
0
0
0
0
0
0
0
0
0
0
0
0
0
0
0
0
0
0
0
0
0
0
0
0
0
0
0
0
0
0
0
0
0
0
0
0
0
0
0
0
0
0
0
0
0
0
0
0
0
0
0
0
0
0
0
0
0
0
0
0
0
0
0
0
0
0
0
0
0
0
0
0
0
0
0
0
0
0
0
0
0
0
0
0
0
0
0
0
0
0
0
0
0
0
0
0
0
0
0
0
0
0
0
0
0
0
0
0
0
0
0
0
0
0
0
0
0
0
0
0
0
0
0
0
0
0
0
0
0
0
0
0
0
0
0
0
0
0
0
0
0
0
0
0
0
0
0
0
0
0
0
0
0
0
0
0
0
0
0
0
0
0
0
0
0
0
0
0
0
0
0
0
0
0
0
0
0
0
0
0
0
0
0
0
0
0
0
0
0
0
0
0
0
0
0
0
0
0
0
0
0
0
0
0
0
0
0
0
0
0
0
0
0
0
0
0
0
0
0
0
0
0
0
0
0
0
0
0
0
0
0
0
0
0
0
0
0
0
0
0
0
0
0
0
0
0
0
0
0
0
0
0
0
0
0
0
0
0
0
0
0
0
0
0
0
0
0
0
0
0
0
0
0
0
0
0
0
0
0
0
0
0
0
0
0
0
0
0
0
0
0
0
0
0
0
0
0
0
0
0
0
0
0
0
0
0
0
0
0
0
0
0
0
0
0
0
0
0
0
0
0
0
0
0
0
0
0
0
0
0
0
0
0
0
0
0
0
0
0
0
0
0
0
0
0
0
255
0
255
0
255
0
255
0
255
0
255
0
255
0
255
0
255
0
255
0
255
0
255
0
255
0
255
0
255
0
255
0
255
0
255
0
255
0
255
0
255
0
255
0
255
0
255
0
254
0
254
0
254
0
254
0
254
0
254
0
254
0
254
0
249
0
255
0
255
0
244
0
249
0
254
0
220
0
133
0
8
0
2
0
13
0
51
0
83
0
90
0
88
0
87
0
102
0
64
0
42
0
54
0
76
0
73
0
58
0
51
0
31
0
34
0
35
0
9
0
0
0
8
0
3
0
5
0
1
0
1
0
1
0
1
0
1
0
1
0
1
0
1
0
0
0
0
0
0
0
0
0
0
0
0
0
0
0
0
0
1
0
1
0
1
0
1
0
1
0
1
0
1
0
1
0
1
0
1
0
1
0
1
0
1
0
1
0
1
0
1
0
2
0
3
0
3
0
0
0
0
0
1
0
2
0
2
0
0
0
0
0
0
0
0
0
0
0
0
0
0
0
0
0
1
0
1
0
1
0
1
0
1
0
1
0
1
0
1
0
2
0
1
0
2
0
4
0
3
0
2
0
2
0
2
0
9
0
0
0
6
0
59
0
134
0
113
0
78
0
110
0
120
0
106
0
85
0
79
0
114
0
168
0
177
0
145
0
36
0
8
0
45
0
91
0
154
0
202
0
190
0
200
0
230
0
223
0
225
0
180
0
166
0
197
0
121
0
39
0
217
0
251
0
253
0
254
0
255
0
254
0
255
0
255
0
255
0
255
0
255
0
255
0
255
0
255
0
255
0
255
0
255
0
255
0
255
0
255
0
255
0
255
0
255
0
255
0
255
0
255
0
255
0
255
0
255
0
255
0
255
0
255
0
253
0
253
0
254
0
237
0
145
0
2
0
20
0
73
0
86
0
46
0
19
0
46
0
66
0
61
0
69
0
70
0
66
0
68
0
69
0
65
0
71
0
63
0
42
0
55
0
85
0
93
0
91
0
84
0
79
0
73
0
68
0
0
0
0
0
0
0
0
0
0
0
0
0
0
0
0
0
0
0
0
0
0
0
0
0
0
0
0
0
0
0
0
0
0
0
0
0
0
0
0
0
0
0
0
0
0
0
0
0
0
0
0
0
0
0
0
0
0
0
0
0
0
0
0
0
0
0
0
0
0
0
0
0
0
0
0
0
0
0
0
0
0
0
0
0
0
0
0
0
0
0
0
0
0
0
0
0
0
0
0
0
0
0
0
0
0
0
0
0
0
0
0
0
0
0
0
0
0
0
0
0
0
0
0
0
0
0
0
0
0
0
0
0
0
0
0
0
0
0
0
0
0
0
0
0
0
0
0
0
0
0
0
0
0
0
0
0
0
0
0
0
0
0
0
0
0
0
0
0
0
0
0
0
0
0
0
0
0
0
0
0
0
0
0
0
0
0
0
0
0
0
0
0
0
0
0
0
0
0
0
0
0
0
0
0
0
0
0
0
0
0
0
0
0
0
0
0
0
0
0
0
0
0
0
0
0
0
0
0
0
0
0
0
0
0
0
0
0
0
0
0
0
0
0
0
0
0
0
0
0
0
0
0
0
0
0
0
0
0
0
0
0
0
0
0
0
0
0
0
0
0
0
0
0
0
0
0
0
0
0
0
0
0
0
0
0
0
0
0
0
0
0
0
0
0
0
0
0
0
0
0
0
0
0
0
0
0
0
0
0
0
0
0
0
0
0
0
0
0
0
0
0
0
0
0
0
0
0
0
0
0
0
0
0
0
0
0
0
0
0
0
0
0
0
0
0
0
0
0
0
0
0
0
0
0
0
0
0
0
0
0
0
0
0
0
0
0
0
0
0
0
0
0
0
0
0
0
0
0
0
0
0
0
0
0
0
0
0
0
0
0
0
0
0
0
0
0
0
0
0
0
0
0
0
0
0
0
0
0
0
0
0
0
0
0
0
0
0
0
0
0
0
0
0
0
0
0
0
0
0
0
0
0
0
0
0
0
0
0
0
0
0
0
0
0
255
0
255
0
255
0
255
0
255
0
255
0
255
0
255
0
255
0
255
0
255
0
255
0
255
0
255
0
255
0
255
0
255
0
255
0
255
0
255
0
255
0
255
0
255
0
255
0
253
0
253
0
253
0
253
0
253
0
253
0
253
0
253
0
253
0
247
0
246
0
254
0
242
0
175
0
74
0
2
0
17
0
45
0
86
0
113
0
111
0
96
0
90
0
94
0
74
0
57
0
51
0
58
0
48
0
28
0
29
0
47
0
66
0
66
0
61
0
23
0
1
0
9
0
2
0
5
0
1
0
1
0
1
0
1
0
1
0
1
0
1
0
1
0
2
0
2
0
2
0
2
0
2
0
2
0
2
0
2
0
1
0
1
0
1
0
1
0
1
0
1
0
1
0
1
0
0
0
0
0
0
0
0
0
0
0
0
0
0
0
0
0
0
0
1
0
3
0
0
0
0
0
0
0
0
0
0
0
0
0
0
0
0
0
0
0
0
0
0
0
0
0
0
0
1
0
1
0
1
0
1
0
1
0
1
0
1
0
1
0
1
0
1
0
0
0
1
0
1
0
1
0
1
0
2
0
3
0
21
0
17
0
0
0
32
0
101
0
125
0
109
0
107
0
112
0
116
0
118
0
128
0
139
0
118
0
79
0
5
0
7
0
22
0
46
0
107
0
180
0
210
0
226
0
238
0
231
0
222
0
196
0
191
0
191
0
82
0
63
0
229
0
253
0
252
0
255
0
255
0
253
0
255
0
254
0
255
0
255
0
255
0
255
0
255
0
255
0
255
0
255
0
255
0
255
0
255
0
255
0
255
0
255
0
255
0
255
0
255
0
255
0
255
0
255
0
255
0
255
0
255
0
255
0
254
0
252
0
254
0
237
0
140
0
3
0
20
0
63
0
65
0
40
0
33
0
65
0
74
0
57
0
61
0
64
0
60
0
65
0
71
0
67
0
74
0
62
0
33
0
40
0
46
0
61
0
72
0
77
0
83
0
86
0
89
0
0
0
0
0
0
0
0
0
0
0
0
0
0
0
0
0
0
0
0
0
0
0
0
0
0
0
0
0
0
0
0
0
0
0
0
0
0
0
0
0
0
0
0
0
0
0
0
0
0
0
0
0
0
0
0
0
0
0
0
0
0
0
0
0
0
0
0
0
0
0
0
0
0
0
0
0
0
0
0
0
0
0
0
0
0
0
0
0
0
0
0
0
0
0
0
0
0
0
0
0
0
0
0
0
0
0
0
0
0
0
0
0
0
0
0
0
0
0
0
0
0
0
0
0
0
0
0
0
0
0
0
0
0
0
0
0
0
0
0
0
0
0
0
0
0
0
0
0
0
0
0
0
0
0
0
0
0
0
0
0
0
0
0
0
0
0
0
0
0
0
0
0
0
0
0
0
0
0
0
0
0
0
0
0
0
0
0
0
0
0
0
0
0
0
0
0
0
0
0
0
0
0
0
0
0
0
0
0
0
0
0
0
0
0
0
0
0
0
0
0
0
0
0
0
0
0
0
0
0
0
0
0
0
0
0
0
0
0
0
0
0
0
0
0
0
0
0
0
0
0
0
0
0
0
0
0
0
0
0
0
0
0
0
0
0
0
0
0
0
0
0
0
0
0
0
0
0
0
0
0
0
0
0
0
0
0
0
0
0
0
0
0
0
0
0
0
0
0
0
0
0
0
0
0
0
0
0
0
0
0
0
0
0
0
0
0
0
0
0
0
0
0
0
0
0
0
0
0
0
0
0
0
0
0
0
0
0
0
0
0
0
0
0
0
0
0
0
0
0
0
0
0
0
0
0
0
0
0
0
0
0
0
0
0
0
0
0
0
0
0
0
0
0
0
0
0
0
0
0
0
0
0
0
0
0
0
0
0
0
0
0
0
0
0
0
0
0
0
0
0
0
0
0
0
0
0
0
0
0
0
0
0
0
0
0
0
0
0
0
0
0
0
0
0
0
0
0
0
0
0
0
0
0
0
0
0
0
0
0
0
0
0
0
0
255
0
255
0
255
0
255
0
255
0
255
0
255
0
255
0
255
0
255
0
255
0
255
0
255
0
255
0
255
0
255
0
255
0
255
0
255
0
255
0
255
0
255
0
255
0
255
0
253
0
253
0
253
0
253
0
253
0
253
0
253
0
253
0
250
0
254
0
249
0
219
0
140
0
32
0
3
0
35
0
91
0
94
0
95
0
91
0
82
0
72
0
66
0
63
0
45
0
31
0
26
0
33
0
45
0
54
0
72
0
91
0
79
0
76
0
66
0
25
0
2
0
5
0
0
0
3
0
2
0
2
0
2
0
2
0
2
0
2
0
2
0
2
0
3
0
3
0
3
0
3
0
3
0
3
0
3
0
3
0
2
0
2
0
2
0
2
0
2
0
2
0
2
0
2
0
0
0
0
0
0
0
0
0
0
0
0
0
0
0
0
0
0
0
0
0
0
0
0
0
0
0
0
0
0
0
0
0
0
0
0
0
0
0
0
0
0
0
0
0
0
0
0
0
1
0
1
0
1
0
1
0
1
0
1
0
1
0
1
0
2
0
1
0
0
0
1
0
0
0
0
0
1
0
2
0
11
0
0
0
12
0
8
0
2
0
53
0
126
0
118
0
124
0
119
0
124
0
127
0
106
0
68
0
27
0
4
0
0
0
6
0
2
0
8
0
57
0
159
0
242
0
234
0
230
0
235
0
211
0
199
0
203
0
173
0
46
0
99
0
239
0
254
0
251
0
255
0
255
0
252
0
255
0
253
0
255
0
255
0
255
0
255
0
255
0
255
0
255
0
255
0
255
0
255
0
255
0
255
0
255
0
255
0
255
0
255
0
255
0
255
0
255
0
255
0
255
0
255
0
255
0
255
0
253
0
250
0
254
0
237
0
140
0
5
0
15
0
46
0
70
0
47
0
38
0
68
0
74
0
56
0
58
0
61
0
63
0
64
0
64
0
54
0
58
0
49
0
22
0
31
0
68
0
88
0
103
0
111
0
117
0
120
0
122
0
0
0
0
0
0
0
0
0
0
0
0
0
0
0
0
0
0
0
0
0
0
0
0
0
0
0
0
0
0
0
0
0
0
0
0
0
0
0
0
0
0
0
0
0
0
0
0
0
0
0
0
0
0
0
0
0
0
0
0
0
0
0
0
0
0
0
0
0
0
0
0
0
0
0
0
0
0
0
0
0
0
0
0
0
0
0
0
0
0
0
0
0
0
0
0
0
0
0
0
0
0
0
0
0
0
0
0
0
0
0
0
0
0
0
0
0
0
0
0
0
0
0
0
0
0
0
0
0
0
0
0
0
0
0
0
0
0
0
0
0
0
0
0
0
0
0
0
0
0
0
0
0
0
0
0
0
0
0
0
0
0
0
0
0
0
0
0
0
0
0
0
0
0
0
0
0
0
0
0
0
0
0
0
0
0
0
0
0
0
0
0
0
0
0
0
0
0
0
0
0
0
0
0
0
0
0
0
0
0
0
0
0
0
0
0
0
0
0
0
0
0
0
0
0
0
0
0
0
0
0
0
0
0
0
0
0
0
0
0
0
0
0
0
0
0
0
0
0
0
0
0
0
0
0
0
0
0
0
0
0
0
0
0
0
0
0
0
0
0
0
0
0
0
0
0
0
0
0
0
0
0
0
0
0
0
0
0
0
0
0
0
0
0
0
0
0
0
0
0
0
0
0
0
0
0
0
0
0
0
0
0
0
0
0
0
0
0
0
0
0
0
0
0
0
0
0
0
0
0
0
0
0
0
0
0
0
0
0
0
0
0
0
0
0
0
0
0
0
0
0
0
0
0
0
0
0
0
0
0
0
0
0
0
0
0
0
0
0
0
0
0
0
0
0
0
0
0
0
0
0
0
0
0
0
0
0
0
0
0
0
0
0
0
0
0
0
0
0
0
0
0
0
0
0
0
0
0
0
0
0
0
0
0
0
0
0
0
0
0
0
0
0
0
0
0
0
0
0
0
0
0
0
0
0
0
0
0
0
0
0
0
0
0
0
255
0
255
0
255
0
255
0
255
0
255
0
255
0
255
0
255
0
255
0
255
0
255
0
255
0
255
0
255
0
255
0
255
0
255
0
255
0
255
0
255
0
255
0
255
0
255
0
253
0
253
0
253
0
253
0
253
0
253
0
253
0
253
0
248
0
252
0
164
0
42
0
0
0
10
0
44
0
86
0
100
0
91
0
81
0
75
0
74
0
68
0
49
0
30
0
18
0
34
0
55
0
76
0
85
0
83
0
76
0
67
0
76
0
74
0
67
0
28
0
2
0
8
0
2
0
4
0
2
0
2
0
2
0
2
0
2
0
2
0
2
0
2
0
4
0
4
0
4
0
4
0
4
0
4
0
4
0
4
0
2
0
2
0
2
0
2
0
2
0
2
0
2
0
2
0
0
0
0
0
0
0
0
0
0
0
0
0
0
0
0
0
1
0
0
0
0
0
2
0
4
0
2
0
0
0
0
0
0
0
0
0
0
0
0
0
0
0
0
0
0
0
0
0
1
0
1
0
1
0
1
0
1
0
1
0
1
0
1
0
1
0
1
0
0
0
0
0
1
0
2
0
2
0
3
0
2
0
10
0
10
0
1
0
12
0
69
0
105
0
104
0
113
0
127
0
107
0
59
0
43
0
66
0
51
0
1
0
2
0
5
0
3
0
2
0
30
0
151
0
252
0
224
0
227
0
240
0
208
0
199
0
209
0
164
0
34
0
142
0
245
0
255
0
251
0
255
0
255
0
251
0
255
0
251
0
255
0
255
0
255
0
255
0
255
0
255
0
255
0
255
0
255
0
255
0
255
0
255
0
255
0
255
0
255
0
255
0
255
0
255
0
255
0
255
0
255
0
255
0
255
0
255
0
252
0
249
0
254
0
237
0
140
0
6
0
9
0
33
0
94
0
57
0
34
0
59
0
73
0
61
0
64
0
62
0
71
0
64
0
52
0
35
0
36
0
32
0
13
0
29
0
82
0
102
0
117
0
119
0
117
0
113
0
112
0
0
0
0
0
0
0
0
0
0
0
0
0
0
0
0
0
0
0
0
0
0
0
0
0
0
0
0
0
0
0
0
0
0
0
0
0
0
0
0
0
0
0
0
0
0
0
0
0
0
0
0
0
0
0
0
0
0
0
0
0
0
0
0
0
0
0
0
0
0
0
0
0
0
0
0
0
0
0
0
0
0
0
0
0
0
0
0
0
0
0
0
0
0
0
0
0
0
0
0
0
0
0
0
0
0
0
0
0
0
0
0
0
0
0
0
0
0
0
0
0
0
0
0
0
0
0
0
0
0
0
0
0
0
0
0
0
0
0
0
0
0
0
0
0
0
0
0
0
0
0
0
0
0
0
0
0
0
0
0
0
0
0
0
0
0
0
0
0
0
0
0
0
0
0
0
0
0
0
0
0
0
0
0
0
0
0
0
0
0
0
0
0
0
0
0
0
0
0
0
0
0
0
0
0
0
0
0
0
0
0
0
0
0
0
0
0
0
0
0
0
0
0
0
0
0
0
0
0
0
0
0
0
0
0
0
0
0
0
0
0
0
0
0
0
0
0
0
0
0
0
0
0
0
0
0
0
0
0
0
0
0
0
0
0
0
0
0
0
0
0
0
0
0
0
0
0
0
0
0
0
0
0
0
0
0
0
0
0
0
0
0
0
0
0
0
0
0
0
0
0
0
0
0
0
0
0
0
0
0
0
0
0
0
0
0
0
0
0
0
0
0
0
0
0
0
0
0
0
0
0
0
0
0
0
0
0
0
0
0
0
0
0
0
0
0
0
0
0
0
0
0
0
0
0
0
0
0
0
0
0
0
0
0
0
0
0
0
0
0
0
0
0
0
0
0
0
0
0
0
0
0
0
0
0
0
0
0
0
0
0
0
0
0
0
0
0
0
0
0
0
0
0
0
0
0
0
0
0
0
0
0
0
0
0
0
0
0
0
0
0
0
0
0
0
0
0
0
0
0
0
0
0
0
0
0
0
0
0
0
0
0
0
0
0
255
0
255
0
255
0
255
0
255
0
255
0
255
0
255
0
255
0
255
0
255
0
255
0
255
0
255
0
255
0
255
0
255
0
255
0
255
0
255
0
255
0
254
0
254
0
254
0
249
0
254
0
250
0
250
0
255
0
249
0
238
0
254
0
247
0
129
0
8
0
2
0
56
0
70
0
67
0
86
0
96
0
80
0
61
0
46
0
37
0
36
0
46
0
59
0
65
0
36
0
57
0
81
0
81
0
76
0
72
0
79
0
73
0
87
0
84
0
42
0
4
0
1
0
6
0
8
0
6
0
10
0
5
0
1
0
1
0
1
0
1
0
3
0
0
0
0
0
0
0
1
0
2
0
6
0
3
0
2
0
3
0
3
0
2
0
2
0
1
0
0
0
0
0
0
0
1
0
3
0
3
0
0
0
1
0
1
0
4
0
4
0
1
0
1
0
1
0
1
0
1
0
1
0
1
0
1
0
0
0
0
0
0
0
0
0
0
0
0
0
0
0
0
0
0
0
0
0
0
0
0
0
0
0
0
0
0
0
0
0
3
0
2
0
1
0
1
0
5
0
8
0
2
0
0
0
6
0
1
0
4
0
37
0
58
0
71
0
66
0
46
0
46
0
49
0
36
0
63
0
40
0
25
0
5
0
0
0
5
0
1
0
1
0
3
0
2
0
104
0
241
0
236
0
218
0
237
0
213
0
197
0
193
0
113
0
6
0
185
0
254
0
254
0
254
0
255
0
255
0
255
0
255
0
255
0
255
0
255
0
255
0
255
0
255
0
255
0
255
0
255
0
255
0
255
0
255
0
255
0
255
0
255
0
255
0
255
0
255
0
255
0
255
0
255
0
255
0
255
0
255
0
255
0
250
0
254
0
254
0
250
0
159
0
10
0
31
0
71
0
95
0
54
0
41
0
64
0
61
0
58
0
70
0
54
0
34
0
33
0
47
0
68
0
69
0
59
0
53
0
51
0
96
0
107
0
111
0
112
0
117
0
118
0
118
0
0
0
0
0
0
0
0
0
0
0
0
0
0
0
0
0
0
0
0
0
0
0
0
0
0
0
0
0
0
0
0
0
0
0
0
0
0
0
0
0
0
0
0
0
0
0
0
0
0
0
0
0
0
0
0
0
0
0
0
0
0
0
0
0
0
0
0
0
0
0
0
0
0
0
0
0
0
0
0
0
0
0
0
0
0
0
0
0
0
0
0
0
0
0
0
0
0
0
0
0
0
0
0
0
0
0
0
0
0
0
0
0
0
0
0
0
0
0
0
0
0
0
0
0
0
0
0
0
0
0
0
0
0
0
0
0
0
0
0
0
0
0
0
0
0
0
0
0
0
0
0
0
0
0
0
0
0
0
0
0
0
0
0
0
0
0
0
0
0
0
0
0
0
0
0
0
0
0
0
0
0
0
0
0
0
0
0
0
0
0
0
0
0
0
0
0
0
0
0
0
0
0
0
0
0
0
0
0
0
0
0
0
0
0
0
0
0
0
0
0
0
0
0
0
0
0
0
0
0
0
0
0
0
0
0
0
0
0
0
0
0
0
0
0
0
0
0
0
0
0
0
0
0
0
0
0
0
0
0
0
0
0
0
0
0
0
0
0
0
0
0
0
0
0
0
0
0
0
0
0
0
0
0
0
0
0
0
0
0
0
0
0
0
0
0
0
0
0
0
0
0
0
0
0
0
0
0
0
0
0
0
0
0
0
0
0
0
0
0
0
0
0
0
0
0
0
0
0
0
0
0
0
0
0
0
0
0
0
0
0
0
0
0
0
0
0
0
0
0
0
0
0
0
0
0
0
0
0
0
0
0
0
0
0
0
0
0
0
0
0
0
0
0
0
0
0
0
0
0
0
0
0
0
0
0
0
0
0
0
0
0
0
0
0
0
0
0
0
0
0
0
0
0
0
0
0
0
0
0
0
0
0
0
0
0
0
0
0
0
0
0
0
0
0
0
0
0
0
0
0
0
0
0
0
0
0
0
0
0
0
0
0
0
0
255
0
255
0
255
0
255
0
255
0
255
0
255
0
255
0
255
0
255
0
255
0
255
0
255
0
255
0
255
0
255
0
255
0
255
0
255
0
255
0
255
0
254
0
254
0
254
0
254
0
253
0
254
0
250
0
236
0
255
0
254
0
198
0
71
0
6
0
18
0
83
0
102
0
79
0
66
0
64
0
55
0
50
0
47
0
48
0
53
0
59
0
72
0
85
0
74
0
44
0
62
0
84
0
84
0
79
0
76
0
84
0
73
0
84
0
81
0
44
0
7
0
1
0
5
0
2
0
1
0
1
0
1
0
1
0
1
0
2
0
2
0
9
0
11
0
17
0
23
0
29
0
33
0
32
0
20
0
8
0
1
0
0
0
2
0
6
0
9
0
7
0
2
0
1
0
0
0
0
0
2
0
2
0
0
0
0
0
0
0
1
0
1
0
1
0
1
0
1
0
1
0
1
0
1
0
1
0
0
0
0
0
0
0
0
0
0
0
0
0
0
0
0
0
0
0
0
0
0
0
0
0
0
0
0
0
0
0
0
0
1
0
2
0
4
0
1
0
1
0
1
0
1
0
5
0
0
0
26
0
67
0
84
0
92
0
103
0
104
0
96
0
95
0
106
0
78
0
69
0
17
0
0
0
1
0
16
0
3
0
2
0
6
0
9
0
1
0
54
0
194
0
246
0
231
0
213
0
214
0
207
0
158
0
70
0
95
0
212
0
254
0
254
0
254
0
255
0
255
0
255
0
255
0
255
0
255
0
255
0
255
0
255
0
255
0
255
0
255
0
255
0
255
0
255
0
255
0
255
0
255
0
255
0
255
0
255
0
255
0
255
0
255
0
255
0
255
0
255
0
255
0
255
0
251
0
253
0
254
0
249
0
161
0
8
0
26
0
71
0
98
0
60
0
39
0
61
0
64
0
56
0
54
0
34
0
50
0
48
0
56
0
67
0
64
0
57
0
52
0
48
0
95
0
105
0
111
0
112
0
117
0
119
0
118
0
0
0
0
0
0
0
0
0
0
0
0
0
0
0
0
0
0
0
0
0
0
0
0
0
0
0
0
0
0
0
0
0
0
0
0
0
0
0
0
0
0
0
0
0
0
0
0
0
0
0
0
0
0
0
0
0
0
0
0
0
0
0
0
0
0
0
0
0
0
0
0
0
0
0
0
0
0
0
0
0
0
0
0
0
0
0
0
0
0
0
0
0
0
0
0
0
0
0
0
0
0
0
0
0
0
0
0
0
0
0
0
0
0
0
0
0
0
0
0
0
0
0
0
0
0
0
0
0
0
0
0
0
0
0
0
0
0
0
0
0
0
0
0
0
0
0
0
0
0
0
0
0
0
0
0
0
0
0
0
0
0
0
0
0
0
0
0
0
0
0
0
0
0
0
0
0
0
0
0
0
0
0
0
0
0
0
0
0
0
0
0
0
0
0
0
0
0
0
0
0
0
0
0
0
0
0
0
0
0
0
0
0
0
0
0
0
0
0
0
0
0
0
0
0
0
0
0
0
0
0
0
0
0
0
0
0
0
0
0
0
0
0
0
0
0
0
0
0
0
0
0
0
0
0
0
0
0
0
0
0
0
0
0
0
0
0
0
0
0
0
0
0
0
0
0
0
0
0
0
0
0
0
0
0
0
0
0
0
0
0
0
0
0
0
0
0
0
0
0
0
0
0
0
0
0
0
0
0
0
0
0
0
0
0
0
0
0
0
0
0
0
0
0
0
0
0
0
0
0
0
0
0
0
0
0
0
0
0
0
0
0
0
0
0
0
0
0
0
0
0
0
0
0
0
0
0
0
0
0
0
0
0
0
0
0
0
0
0
0
0
0
0
0
0
0
0
0
0
0
0
0
0
0
0
0
0
0
0
0
0
0
0
0
0
0
0
0
0
0
0
0
0
0
0
0
0
0
0
0
0
0
0
0
0
0
0
0
0
0
0
0
0
0
0
0
0
0
0
0
0
0
0
0
0
0
0
0
0
0
0
0
0
0
0
255
0
255
0
255
0
255
0
255
0
255
0
255
0
255
0
255
0
255
0
255
0
255
0
255
0
255
0
255
0
255
0
255
0
255
0
255
0
255
0
254
0
254
0
254
0
253
0
247
0
254
0
245
0
244
0
255
0
248
0
160
0
67
0
13
0
19
0
77
0
124
0
96
0
52
0
43
0
49
0
45
0
47
0
53
0
63
0
68
0
72
0
78
0
84
0
75
0
44
0
59
0
80
0
81
0
77
0
75
0
85
0
79
0
86
0
85
0
54
0
15
0
4
0
7
0
4
0
1
0
8
0
11
0
17
0
27
0
33
0
38
0
47
0
57
0
63
0
72
0
77
0
82
0
79
0
68
0
55
0
27
0
17
0
3
0
0
0
0
0
1
0
4
0
5
0
1
0
1
0
2
0
3
0
2
0
1
0
1
0
0
0
1
0
1
0
1
0
1
0
1
0
1
0
1
0
1
0
0
0
0
0
0
0
0
0
0
0
0
0
0
0
0
0
0
0
0
0
0
0
0
0
0
0
0
0
1
0
1
0
13
0
5
0
3
0
9
0
11
0
3
0
1
0
1
0
24
0
89
0
123
0
112
0
105
0
103
0
94
0
90
0
50
0
52
0
6
0
5
0
0
0
1
0
2
0
8
0
4
0
2
0
3
0
11
0
1
0
11
0
141
0
250
0
225
0
215
0
199
0
181
0
134
0
25
0
146
0
253
0
254
0
254
0
254
0
255
0
255
0
255
0
255
0
255
0
255
0
255
0
255
0
255
0
255
0
255
0
255
0
255
0
255
0
255
0
255
0
255
0
255
0
255
0
255
0
255
0
255
0
255
0
255
0
255
0
255
0
255
0
255
0
255
0
251
0
252
0
254
0
249
0
165
0
8
0
16
0
72
0
97
0
71
0
40
0
49
0
57
0
45
0
45
0
40
0
62
0
62
0
66
0
65
0
61
0
59
0
55
0
45
0
93
0
104
0
110
0
111
0
116
0
119
0
119
0
0
0
0
0
0
0
0
0
0
0
0
0
0
0
0
0
0
0
0
0
0
0
0
0
0
0
0
0
0
0
0
0
0
0
0
0
0
0
0
0
0
0
0
0
0
0
0
0
0
0
0
0
0
0
0
0
0
0
0
0
0
0
0
0
0
0
0
0
0
0
0
0
0
0
0
0
0
0
0
0
0
0
0
0
0
0
0
0
0
0
0
0
0
0
0
0
0
0
0
0
0
0
0
0
0
0
0
0
0
0
0
0
0
0
0
0
0
0
0
0
0
0
0
0
0
0
0
0
0
0
0
0
0
0
0
0
0
0
0
0
0
0
0
0
0
0
0
0
0
0
0
0
0
0
0
0
0
0
0
0
0
0
0
0
0
0
0
0
0
0
0
0
0
0
0
0
0
0
0
0
0
0
0
0
0
0
0
0
0
0
0
0
0
0
0
0
0
0
0
0
0
0
0
0
0
0
0
0
0
0
0
0
0
0
0
0
0
0
0
0
0
0
0
0
0
0
0
0
0
0
0
0
0
0
0
0
0
0
0
0
0
0
0
0
0
0
0
0
0
0
0
0
0
0
0
0
0
0
0
0
0
0
0
0
0
0
0
0
0
0
0
0
0
0
0
0
0
0
0
0
0
0
0
0
0
0
0
0
0
0
0
0
0
0
0
0
0
0
0
0
0
0
0
0
0
0
0
0
0
0
0
0
0
0
0
0
0
0
0
0
0
0
0
0
0
0
0
0
0
0
0
0
0
0
0
0
0
0
0
0
0
0
0
0
0
0
0
0
0
0
0
0
0
0
0
0
0
0
0
0
0
0
0
0
0
0
0
0
0
0
0
0
0
0
0
0
0
0
0
0
0
0
0
0
0
0
0
0
0
0
0
0
0
0
0
0
0
0
0
0
0
0
0
0
0
0
0
0
0
0
0
0
0
0
0
0
0
0
0
0
0
0
0
0
0
0
0
0
0
0
0
0
0
0
0
0
0
0
0
0
0
0
0
0
255
0
255
0
255
0
255
0
255
0
255
0
255
0
255
0
255
0
255
0
255
0
255
0
255
0
255
0
255
0
255
0
255
0
255
0
255
0
254
0
254
0
254
0
253
0
253
0
253
0
254
0
252
0
255
0
230
0
119
0
14
0
1
0
53
0
112
0
132
0
99
0
55
0
24
0
33
0
63
0
62
0
67
0
73
0
78
0
78
0
75
0
71
0
71
0
76
0
44
0
60
0
83
0
87
0
86
0
83
0
93
0
92
0
100
0
101
0
73
0
29
0
15
0
20
0
15
0
37
0
44
0
50
0
58
0
68
0
76
0
82
0
90
0
86
0
89
0
90
0
91
0
94
0
96
0
93
0
88
0
69
0
49
0
22
0
5
0
1
0
1
0
1
0
1
0
3
0
1
0
0
0
0
0
0
0
0
0
3
0
9
0
1
0
1
0
1
0
1
0
1
0
1
0
1
0
1
0
0
0
0
0
0
0
0
0
0
0
0
0
0
0
0
0
0
0
0
0
0
0
0
0
1
0
1
0
1
0
2
0
6
0
2
0
0
0
2
0
2
0
2
0
13
0
30
0
118
0
149
0
133
0
94
0
82
0
67
0
40
0
35
0
4
0
9
0
3
0
2
0
2
0
12
0
1
0
1
0
6
0
2
0
1
0
4
0
3
0
4
0
105
0
244
0
220
0
216
0
201
0
179
0
102
0
34
0
174
0
253
0
254
0
254
0
254
0
255
0
255
0
255
0
255
0
255
0
255
0
255
0
255
0
255
0
255
0
255
0
255
0
255
0
255
0
255
0
255
0
255
0
255
0
255
0
255
0
255
0
255
0
255
0
255
0
255
0
255
0
255
0
255
0
255
0
252
0
250
0
254
0
248
0
173
0
16
0
5
0
68
0
91
0
76
0
37
0
33
0
41
0
37
0
51
0
68
0
63
0
67
0
68
0
64
0
60
0
65
0
62
0
46
0
92
0
102
0
108
0
111
0
116
0
119
0
120
0
0
0
0
0
0
0
0
0
0
0
0
0
0
0
0
0
0
0
0
0
0
0
0
0
0
0
0
0
0
0
0
0
0
0
0
0
0
0
0
0
0
0
0
0
0
0
0
0
0
0
0
0
0
0
0
0
0
0
0
0
0
0
0
0
0
0
0
0
0
0
0
0
0
0
0
0
0
0
0
0
0
0
0
0
0
0
0
0
0
0
0
0
0
0
0
0
0
0
0
0
0
0
0
0
0
0
0
0
0
0
0
0
0
0
0
0
0
0
0
0
0
0
0
0
0
0
0
0
0
0
0
0
0
0
0
0
0
0
0
0
0
0
0
0
0
0
0
0
0
0
0
0
0
0
0
0
0
0
0
0
0
0
0
0
0
0
0
0
0
0
0
0
0
0
0
0
0
0
0
0
0
0
0
0
0
0
0
0
0
0
0
0
0
0
0
0
0
0
0
0
0
0
0
0
0
0
0
0
0
0
0
0
0
0
0
0
0
0
0
0
0
0
0
0
0
0
0
0
0
0
0
0
0
0
0
0
0
0
0
0
0
0
0
0
0
0
0
0
0
0
0
0
0
0
0
0
0
0
0
0
0
0
0
0
0
0
0
0
0
0
0
0
0
0
0
0
0
0
0
0
0
0
0
0
0
0
0
0
0
0
0
0
0
0
0
0
0
0
0
0
0
0
0
0
0
0
0
0
0
0
0
0
0
0
0
0
0
0
0
0
0
0
0
0
0
0
0
0
0
0
0
0
0
0
0
0
0
0
0
0
0
0
0
0
0
0
0
0
0
0
0
0
0
0
0
0
0
0
0
0
0
0
0
0
0
0
0
0
0
0
0
0
0
0
0
0
0
0
0
0
0
0
0
0
0
0
0
0
0
0
0
0
0
0
0
0
0
0
0
0
0
0
0
0
0
0
0
0
0
0
0
0
0
0
0
0
0
0
0
0
0
0
0
0
0
0
0
0
0
0
0
0
0
0
0
0
0
0
0
0
0
0
0
0
255
0
255
0
255
0
255
0
255
0
255
0
255
0
255
0
255
0
255
0
255
0
255
0
255
0
255
0
255
0
255
0
255
0
255
0
254
0
254
0
254
0
253
0
253
0
253
0
253
0
241
0
255
0
218
0
90
0
7
0
33
0
75
0
117
0
102
0
51
0
20
0
36
0
59
0
68
0
78
0
69
0
73
0
78
0
80
0
79
0
78
0
77
0
75
0
83
0
53
0
72
0
100
0
105
0
106
0
103
0
111
0
107
0
115
0
120
0
93
0
43
0
31
0
45
0
49
0
68
0
76
0
80
0
85
0
94
0
99
0
102
0
109
0
107
0
108
0
106
0
103
0
104
0
109
0
112
0
110
0
93
0
81
0
65
0
51
0
40
0
27
0
11
0
2
0
16
0
15
0
17
0
16
0
7
0
0
0
0
0
2
0
1
0
1
0
1
0
1
0
1
0
1
0
1
0
1
0
0
0
0
0
0
0
0
0
0
0
0
0
0
0
0
0
0
0
0
0
0
0
1
0
1
0
2
0
2
0
3
0
3
0
4
0
5
0
3
0
2
0
28
0
86
0
140
0
171
0
153
0
99
0
58
0
54
0
41
0
30
0
46
0
60
0
115
0
129
0
125
0
50
0
6
0
1
0
1
0
1
0
5
0
1
0
0
0
8
0
3
0
75
0
218
0
236
0
203
0
204
0
166
0
33
0
100
0
230
0
237
0
254
0
254
0
254
0
255
0
255
0
255
0
255
0
255
0
255
0
255
0
255
0
255
0
255
0
255
0
255
0
255
0
255
0
255
0
255
0
255
0
255
0
255
0
255
0
255
0
255
0
255
0
255
0
255
0
255
0
255
0
255
0
255
0
253
0
250
0
254
0
247
0
186
0
32
0
3
0
61
0
90
0
75
0
29
0
22
0
41
0
47
0
61
0
79
0
62
0
67
0
70
0
65
0
63
0
68
0
62
0
44
0
91
0
102
0
108
0
110
0
115
0
118
0
119
0
0
0
0
0
0
0
0
0
0
0
0
0
0
0
0
0
0
0
0
0
0
0
0
0
0
0
0
0
0
0
0
0
0
0
0
0
0
0
0
0
0
0
0
0
0
0
0
0
0
0
0
0
0
0
0
0
0
0
0
0
0
0
0
0
0
0
0
0
0
0
0
0
0
0
0
0
0
0
0
0
0
0
0
0
0
0
0
0
0
0
0
0
0
0
0
0
0
0
0
0
0
0
0
0
0
0
0
0
0
0
0
0
0
0
0
0
0
0
0
0
0
0
0
0
0
0
0
0
0
0
0
0
0
0
0
0
0
0
0
0
0
0
0
0
0
0
0
0
0
0
0
0
0
0
0
0
0
0
0
0
0
0
0
0
0
0
0
0
0
0
0
0
0
0
0
0
0
0
0
0
0
0
0
0
0
0
0
0
0
0
0
0
0
0
0
0
0
0
0
0
0
0
0
0
0
0
0
0
0
0
0
0
0
0
0
0
0
0
0
0
0
0
0
0
0
0
0
0
0
0
0
0
0
0
0
0
0
0
0
0
0
0
0
0
0
0
0
0
0
0
0
0
0
0
0
0
0
0
0
0
0
0
0
0
0
0
0
0
0
0
0
0
0
0
0
0
0
0
0
0
0
0
0
0
0
0
0
0
0
0
0
0
0
0
0
0
0
0
0
0
0
0
0
0
0
0
0
0
0
0
0
0
0
0
0
0
0
0
0
0
0
0
0
0
0
0
0
0
0
0
0
0
0
0
0
0
0
0
0
0
0
0
0
0
0
0
0
0
0
0
0
0
0
0
0
0
0
0
0
0
0
0
0
0
0
0
0
0
0
0
0
0
0
0
0
0
0
0
0
0
0
0
0
0
0
0
0
0
0
0
0
0
0
0
0
0
0
0
0
0
0
0
0
0
0
0
0
0
0
0
0
0
0
0
0
0
0
0
0
0
0
0
0
0
0
0
0
0
0
0
0
0
0
0
0
0
0
0
0
0
0
0
0
0
255
0
255
0
255
0
255
0
255
0
255
0
255
0
255
0
255
0
255
0
255
0
255
0
255
0
255
0
255
0
255
0
255
0
254
0
254
0
254
0
253
0
253
0
252
0
252
0
254
0
248
0
193
0
88
0
7
0
17
0
74
0
112
0
64
0
47
0
61
0
75
0
59
0
50
0
66
0
78
0
76
0
79
0
78
0
77
0
76
0
79
0
81
0
82
0
91
0
60
0
80
0
108
0
115
0
116
0
113
0
120
0
117
0
122
0
128
0
104
0
51
0
45
0
72
0
82
0
90
0
98
0
100
0
101
0
106
0
108
0
108
0
113
0
114
0
119
0
123
0
123
0
124
0
127
0
124
0
120
0
118
0
110
0
97
0
86
0
77
0
66
0
53
0
44
0
56
0
61
0
65
0
61
0
37
0
9
0
1
0
0
0
1
0
1
0
1
0
1
0
1
0
1
0
1
0
1
0
0
0
0
0
0
0
0
0
0
0
0
0
0
0
0
0
0
0
0
0
0
0
1
0
2
0
3
0
3
0
4
0
5
0
1
0
2
0
24
0
67
0
114
0
152
0
173
0
132
0
99
0
53
0
34
0
39
0
43
0
74
0
124
0
164
0
214
0
236
0
216
0
85
0
8
0
2
0
8
0
1
0
8
0
9
0
0
0
3
0
1
0
46
0
190
0
233
0
191
0
141
0
69
0
4
0
165
0
253
0
252
0
254
0
254
0
254
0
255
0
255
0
255
0
255
0
255
0
255
0
255
0
255
0
255
0
255
0
255
0
255
0
255
0
255
0
255
0
255
0
255
0
255
0
255
0
255
0
255
0
255
0
255
0
255
0
255
0
255
0
255
0
255
0
255
0
254
0
252
0
254
0
247
0
203
0
56
0
2
0
51
0
90
0
69
0
23
0
24
0
55
0
64
0
67
0
63
0
64
0
67
0
70
0
66
0
63
0
66
0
58
0
40
0
92
0
102
0
108
0
110
0
115
0
117
0
117
0
0
0
0
0
0
0
0
0
0
0
0
0
0
0
0
0
0
0
0
0
0
0
0
0
0
0
0
0
0
0
0
0
0
0
0
0
0
0
0
0
0
0
0
0
0
0
0
0
0
0
0
0
0
0
0
0
0
0
0
0
0
0
0
0
0
0
0
0
0
0
0
0
0
0
0
0
0
0
0
0
0
0
0
0
0
0
0
0
0
0
0
0
0
0
0
0
0
0
0
0
0
0
0
0
0
0
0
0
0
0
0
0
0
0
0
0
0
0
0
0
0
0
0
0
0
0
0
0
0
0
0
0
0
0
0
0
0
0
0
0
0
0
0
0
0
0
0
0
0
0
0
0
0
0
0
0
0
0
0
0
0
0
0
0
0
0
0
0
0
0
0
0
0
0
0
0
0
0
0
0
0
0
0
0
0
0
0
0
0
0
0
0
0
0
0
0
0
0
0
0
0
0
0
0
0
0
0
0
0
0
0
0
0
0
0
0
0
0
0
0
0
0
0
0
0
0
0
0
0
0
0
0
0
0
0
0
0
0
0
0
0
0
0
0
0
0
0
0
0
0
0
0
0
0
0
0
0
0
0
0
0
0
0
0
0
0
0
0
0
0
0
0
0
0
0
0
0
0
0
0
0
0
0
0
0
0
0
0
0
0
0
0
0
0
0
0
0
0
0
0
0
0
0
0
0
0
0
0
0
0
0
0
0
0
0
0
0
0
0
0
0
0
0
0
0
0
0
0
0
0
0
0
0
0
0
0
0
0
0
0
0
0
0
0
0
0
0
0
0
0
0
0
0
0
0
0
0
0
0
0
0
0
0
0
0
0
0
0
0
0
0
0
0
0
0
0
0
0
0
0
0
0
0
0
0
0
0
0
0
0
0
0
0
0
0
0
0
0
0
0
0
0
0
0
0
0
0
0
0
0
0
0
0
0
0
0
0
0
0
0
0
0
0
0
0
0
0
0
0
0
0
0
0
0
0
0
0
0
0
0
0
0
0
0
255
0
255
0
255
0
255
0
255
0
255
0
255
0
255
0
255
0
255
0
255
0
255
0
255
0
255
0
255
0
255
0
254
0
254
0
254
0
253
0
253
0
252
0
252
0
252
0
255
0
215
0
90
0
1
0
24
0
60
0
57
0
57
0
65
0
51
0
73
0
93
0
68
0
46
0
58
0
77
0
83
0
83
0
80
0
75
0
77
0
84
0
91
0
95
0
103
0
70
0
85
0
111
0
117
0
117
0
113
0
120
0
118
0
117
0
121
0
101
0
53
0
53
0
86
0
101
0
103
0
109
0
108
0
108
0
111
0
109
0
107
0
112
0
104
0
110
0
114
0
115
0
116
0
117
0
115
0
111
0
132
0
125
0
114
0
106
0
101
0
99
0
98
0
96
0
95
0
99
0
101
0
87
0
51
0
14
0
1
0
6
0
1
0
1
0
1
0
1
0
1
0
1
0
1
0
1
0
0
0
0
0
0
0
0
0
0
0
0
0
0
0
0
0
0
0
0
0
0
0
1
0
2
0
3
0
4
0
4
0
0
0
2
0
16
0
64
0
130
0
170
0
157
0
124
0
81
0
59
0
44
0
44
0
47
0
67
0
125
0
183
0
215
0
220
0
228
0
213
0
78
0
8
0
4
0
0
0
1
0
3
0
7
0
0
0
6
0
1
0
28
0
170
0
184
0
123
0
51
0
26
0
100
0
215
0
248
0
255
0
254
0
254
0
254
0
255
0
255
0
255
0
255
0
255
0
255
0
255
0
255
0
255
0
255
0
255
0
255
0
255
0
255
0
255
0
255
0
255
0
255
0
255
0
255
0
255
0
255
0
255
0
255
0
255
0
255
0
255
0
255
0
255
0
254
0
252
0
254
0
246
0
218
0
80
0
2
0
42
0
84
0
63
0
28
0
35
0
57
0
68
0
71
0
56
0
68
0
65
0
66
0
66
0
65
0
64
0
56
0
43
0
91
0
103
0
108
0
109
0
114
0
116
0
116
0
0
0
0
0
0
0
0
0
0
0
0
0
0
0
0
0
0
0
0
0
0
0
0
0
0
0
0
0
0
0
0
0
0
0
0
0
0
0
0
0
0
0
0
0
0
0
0
0
0
0
0
0
0
0
0
0
0
0
0
0
0
0
0
0
0
0
0
0
0
0
0
0
0
0
0
0
0
0
0
0
0
0
0
0
0
0
0
0
0
0
0
0
0
0
0
0
0
0
0
0
0
0
0
0
0
0
0
0
0
0
0
0
0
0
0
0
0
0
0
0
0
0
0
0
0
0
0
0
0
0
0
0
0
0
0
0
0
0
0
0
0
0
0
0
0
0
0
0
0
0
0
0
0
0
0
0
0
0
0
0
0
0
0
0
0
0
0
0
0
0
0
0
0
0
0
0
0
0
0
0
0
0
0
0
0
0
0
0
0
0
0
0
0
0
0
0
0
0
0
0
0
0
0
0
0
0
0
0
0
0
0
0
0
0
0
0
0
0
0
0
0
0
0
0
0
0
0
0
0
0
0
0
0
0
0
0
0
0
0
0
0
0
0
0
0
0
0
0
0
0
0
0
0
0
0
0
0
0
0
0
0
0
0
0
0
0
0
0
0
0
0
0
0
0
0
0
0
0
0
0
0
0
0
0
0
0
0
0
0
0
0
0
0
0
0
0
0
0
0
0
0
0
0
0
0
0
0
0
0
0
0
0
0
0
0
0
0
0
0
0
0
0
0
0
0
0
0
0
0
0
0
0
0
0
0
0
0
0
0
0
0
0
0
0
0
0
0
0
0
0
0
0
0
0
0
0
0
0
0
0
0
0
0
0
0
0
0
0
0
0
0
0
0
0
0
0
0
0
0
0
0
0
0
0
0
0
0
0
0
0
0
0
0
0
0
0
0
0
0
0
0
0
0
0
0
0
0
0
0
0
0
0
0
0
0
0
0
0
0
0
0
0
0
0
0
0
0
0
0
0
0
0
0
0
0
0
0
0
0
0
0
0
0
0
255
0
255
0
255
0
255
0
255
0
255
0
255
0
255
0
255
0
255
0
255
0
255
0
255
0
255
0
255
0
255
0
254
0
254
0
254
0
253
0
253
0
252
0
252
0
252
0
205
0
88
0
4
0
7
0
47
0
88
0
95
0
73
0
66
0
69
0
62
0
63
0
73
0
60
0
63
0
88
0
77
0
79
0
79
0
77
0
83
0
98
0
112
0
118
0
120
0
85
0
96
0
118
0
122
0
122
0
119
0
125
0
115
0
110
0
111
0
95
0
52
0
56
0
92
0
106
0
99
0
104
0
104
0
104
0
106
0
104
0
102
0
105
0
111
0
115
0
116
0
113
0
114
0
118
0
120
0
119
0
119
0
122
0
126
0
128
0
126
0
120
0
114
0
109
0
108
0
108
0
102
0
78
0
36
0
3
0
1
0
8
0
1
0
1
0
1
0
1
0
1
0
1
0
1
0
1
0
0
0
0
0
0
0
0
0
0
0
0
0
0
0
0
0
0
0
0
0
0
0
1
0
2
0
4
0
4
0
5
0
15
0
49
0
90
0
126
0
158
0
174
0
157
0
129
0
75
0
62
0
68
0
75
0
71
0
95
0
154
0
197
0
237
0
224
0
227
0
210
0
59
0
1
0
1
0
2
0
10
0
1
0
1
0
0
0
16
0
1
0
26
0
162
0
135
0
14
0
10
0
104
0
234
0
251
0
255
0
237
0
254
0
254
0
254
0
255
0
255
0
255
0
255
0
255
0
255
0
255
0
255
0
255
0
255
0
255
0
255
0
255
0
255
0
255
0
255
0
255
0
255
0
255
0
255
0
255
0
255
0
255
0
255
0
255
0
255
0
255
0
255
0
255
0
254
0
252
0
254
0
246
0
227
0
94
0
6
0
36
0
73
0
60
0
38
0
41
0
50
0
60
0
74
0
66
0
68
0
61
0
62
0
65
0
65
0
64
0
60
0
50
0
92
0
103
0
108
0
109
0
114
0
115
0
115
0
0
0
0
0
0
0
0
0
0
0
0
0
0
0
0
0
0
0
0
0
0
0
0
0
0
0
0
0
0
0
0
0
0
0
0
0
0
0
0
0
0
0
0
0
0
0
0
0
0
0
0
0
0
0
0
0
0
0
0
0
0
0
0
0
0
0
0
0
0
0
0
0
0
0
0
0
0
0
0
0
0
0
0
0
0
0
0
0
0
0
0
0
0
0
0
0
0
0
0
0
0
0
0
0
0
0
0
0
0
0
0
0
0
0
0
0
0
0
0
0
0
0
0
0
0
0
0
0
0
0
0
0
0
0
0
0
0
0
0
0
0
0
0
0
0
0
0
0
0
0
0
0
0
0
0
0
0
0
0
0
0
0
0
0
0
0
0
0
0
0
0
0
0
0
0
0
0
0
0
0
0
0
0
0
0
0
0
0
0
0
0
0
0
0
0
0
0
0
0
0
0
0
0
0
0
0
0
0
0
0
0
0
0
0
0
0
0
0
0
0
0
0
0
0
0
0
0
0
0
0
0
0
0
0
0
0
0
0
0
0
0
0
0
0
0
0
0
0
0
0
0
0
0
0
0
0
0
0
0
0
0
0
0
0
0
0
0
0
0
0
0
0
0
0
0
0
0
0
0
0
0
0
0
0
0
0
0
0
0
0
0
0
0
0
0
0
0
0
0
0
0
0
0
0
0
0
0
0
0
0
0
0
0
0
0
0
0
0
0
0
0
0
0
0
0
0
0
0
0
0
0
0
0
0
0
0
0
0
0
0
0
0
0
0
0
0
0
0
0
0
0
0
0
0
0
0
0
0
0
0
0
0
0
0
0
0
0
0
0
0
0
0
0
0
0
0
0
0
0
0
0
0
0
0
0
0
0
0
0
0
0
0
0
0
0
0
0
0
0
0
0
0
0
0
0
0
0
0
0
0
0
0
0
0
0
0
0
0
0
0
0
0
0
0
0
0
0
0
0
0
0
0
0
0
0
0
0
0
0
0
0
0
0
0
255
0
255
0
255
0
255
0
255
0
255
0
255
0
255
0
255
0
255
0
255
0
254
0
254
0
253
0
253
0
253
0
254
0
247
0
247
0
251
0
253
0
252
0
250
0
224
0
83
0
12
0
4
0
66
0
112
0
91
0
78
0
72
0
66
0
79
0
73
0
84
0
64
0
42
0
70
0
78
0
76
0
82
0
91
0
101
0
110
0
114
0
116
0
117
0
132
0
64
0
117
0
108
0
121
0
100
0
117
0
98
0
82
0
75
0
74
0
82
0
41
0
33
0
107
0
114
0
103
0
104
0
106
0
109
0
109
0
109
0
109
0
109
0
107
0
108
0
109
0
114
0
121
0
118
0
117
0
126
0
121
0
120
0
126
0
138
0
149
0
152
0
147
0
142
0
107
0
69
0
48
0
33
0
7
0
0
0
9
0
5
0
4
0
2
0
1
0
1
0
1
0
1
0
1
0
1
0
5
0
1
0
5
0
13
0
0
0
0
0
5
0
0
0
2
0
2
0
1
0
0
0
21
0
2
0
36
0
37
0
62
0
103
0
148
0
171
0
175
0
167
0
144
0
120
0
86
0
103
0
60
0
75
0
110
0
134
0
199
0
225
0
235
0
221
0
226
0
215
0
3
0
5
0
4
0
3
0
7
0
1
0
0
0
0
0
13
0
0
0
7
0
48
0
15
0
57
0
165
0
247
0
248
0
244
0
255
0
250
0
255
0
255
0
255
0
255
0
255
0
255
0
255
0
255
0
255
0
255
0
255
0
255
0
255
0
255
0
255
0
255
0
255
0
255
0
255
0
255
0
255
0
255
0
255
0
255
0
255
0
255
0
255
0
255
0
255
0
255
0
255
0
255
0
254
0
254
0
255
0
252
0
239
0
117
0
0
0
28
0
48
0
73
0
67
0
42
0
48
0
62
0
63
0
63
0
65
0
64
0
66
0
66
0
62
0
63
0
58
0
49
0
98
0
103
0
104
0
114
0
109
0
102
0
115
0
0
0
0
0
0
0
0
0
0
0
0
0
0
0
0
0
0
0
0
0
0
0
0
0
0
0
0
0
0
0
0
0
0
0
0
0
0
0
0
0
0
0
0
0
0
0
0
0
0
0
0
0
0
0
0
0
0
0
0
0
0
0
0
0
0
0
0
0
0
0
0
0
0
0
0
0
0
0
0
0
0
0
0
0
0
0
0
0
0
0
0
0
0
0
0
0
0
0
0
0
0
0
0
0
0
0
0
0
0
0
0
0
0
0
0
0
0
0
0
0
0
0
0
0
0
0
0
0
0
0
0
0
0
0
0
0
0
0
0
0
0
0
0
0
0
0
0
0
0
0
0
0
0
0
0
0
0
0
0
0
0
0
0
0
0
0
0
0
0
0
0
0
0
0
0
0
0
0
0
0
0
0
0
0
0
0
0
0
0
0
0
0
0
0
0
0
0
0
0
0
0
0
0
0
0
0
0
0
0
0
0
0
0
0
0
0
0
0
0
0
0
0
0
0
0
0
0
0
0
0
0
0
0
0
0
0
0
0
0
0
0
0
0
0
0
0
0
0
0
0
0
0
0
0
0
0
0
0
0
0
0
0
0
0
0
0
0
0
0
0
0
0
0
0
0
0
0
0
0
0
0
0
0
0
0
0
0
0
0
0
0
0
0
0
0
0
0
0
0
0
0
0
0
0
0
0
0
0
0
0
0
0
0
0
0
0
0
0
0
0
0
0
0
0
0
0
0
0
0
0
0
0
0
0
0
0
0
0
0
0
0
0
0
0
0
0
0
0
0
0
0
0
0
0
0
0
0
0
0
0
0
0
0
0
0
0
0
0
0
0
0
0
0
0
0
0
0
0
0
0
0
0
0
0
0
0
0
0
0
0
0
0
0
0
0
0
0
0
0
0
0
0
0
0
0
0
0
0
0
0
0
0
0
0
0
0
0
0
0
0
0
0
0
0
0
0
0
0
0
0
0
0
0
0
0
0
0
0
0
0
0
0
0
0
255
0
255
0
255
0
255
0
255
0
255
0
255
0
255
0
255
0
255
0
255
0
254
0
254
0
253
0
253
0
253
0
248
0
255
0
254
0
249
0
243
0
254
0
219
0
116
0
7
0
47
0
64
0
79
0
83
0
77
0
77
0
66
0
65
0
79
0
74
0
86
0
67
0
46
0
75
0
82
0
74
0
85
0
102
0
119
0
127
0
127
0
124
0
120
0
126
0
63
0
117
0
104
0
105
0
81
0
82
0
69
0
91
0
95
0
103
0
117
0
78
0
43
0
84
0
93
0
104
0
105
0
107
0
110
0
110
0
110
0
110
0
110
0
118
0
121
0
122
0
120
0
118
0
109
0
111
0
121
0
120
0
139
0
158
0
168
0
180
0
185
0
170
0
148
0
63
0
29
0
14
0
11
0
0
0
0
0
3
0
1
0
2
0
2
0
2
0
2
0
2
0
2
0
2
0
2
0
3
0
4
0
0
0
0
0
0
0
3
0
3
0
6
0
8
0
2
0
8
0
1
0
24
0
25
0
64
0
69
0
93
0
126
0
159
0
169
0
163
0
148
0
122
0
98
0
79
0
91
0
67
0
101
0
144
0
167
0
214
0
217
0
235
0
227
0
237
0
181
0
3
0
5
0
2
0
3
0
0
0
12
0
12
0
0
0
0
0
0
0
1
0
13
0
42
0
145
0
236
0
255
0
254
0
255
0
255
0
255
0
255
0
255
0
255
0
255
0
255
0
255
0
255
0
255
0
255
0
255
0
255
0
255
0
255
0
255
0
255
0
255
0
255
0
255
0
255
0
255
0
255
0
255
0
255
0
255
0
255
0
255
0
255
0
255
0
255
0
255
0
255
0
255
0
255
0
251
0
253
0
253
0
247
0
131
0
0
0
14
0
52
0
80
0
74
0
46
0
48
0
65
0
67
0
65
0
67
0
64
0
66
0
64
0
63
0
65
0
65
0
57
0
69
0
76
0
77
0
85
0
80
0
73
0
85
0
0
0
0
0
0
0
0
0
0
0
0
0
0
0
0
0
0
0
0
0
0
0
0
0
0
0
0
0
0
0
0
0
0
0
0
0
0
0
0
0
0
0
0
0
0
0
0
0
0
0
0
0
0
0
0
0
0
0
0
0
0
0
0
0
0
0
0
0
0
0
0
0
0
0
0
0
0
0
0
0
0
0
0
0
0
0
0
0
0
0
0
0
0
0
0
0
0
0
0
0
0
0
0
0
0
0
0
0
0
0
0
0
0
0
0
0
0
0
0
0
0
0
0
0
0
0
0
0
0
0
0
0
0
0
0
0
0
0
0
0
0
0
0
0
0
0
0
0
0
0
0
0
0
0
0
0
0
0
0
0
0
0
0
0
0
0
0
0
0
0
0
0
0
0
0
0
0
0
0
0
0
0
0
0
0
0
0
0
0
0
0
0
0
0
0
0
0
0
0
0
0
0
0
0
0
0
0
0
0
0
0
0
0
0
0
0
0
0
0
0
0
0
0
0
0
0
0
0
0
0
0
0
0
0
0
0
0
0
0
0
0
0
0
0
0
0
0
0
0
0
0
0
0
0
0
0
0
0
0
0
0
0
0
0
0
0
0
0
0
0
0
0
0
0
0
0
0
0
0
0
0
0
0
0
0
0
0
0
0
0
0
0
0
0
0
0
0
0
0
0
0
0
0
0
0
0
0
0
0
0
0
0
0
0
0
0
0
0
0
0
0
0
0
0
0
0
0
0
0
0
0
0
0
0
0
0
0
0
0
0
0
0
0
0
0
0
0
0
0
0
0
0
0
0
0
0
0
0
0
0
0
0
0
0
0
0
0
0
0
0
0
0
0
0
0
0
0
0
0
0
0
0
0
0
0
0
0
0
0
0
0
0
0
0
0
0
0
0
0
0
0
0
0
0
0
0
0
0
0
0
0
0
0
0
0
0
0
0
0
0
0
0
0
0
0
0
0
0
0
0
0
0
0
0
0
0
0
0
0
0
0
0
0
0
255
0
255
0
255
0
255
0
255
0
255
0
255
0
255
0
255
0
255
0
255
0
254
0
254
0
253
0
253
0
253
0
246
0
254
0
254
0
255
0
252
0
222
0
125
0
16
0
4
0
89
0
107
0
74
0
64
0
70
0
75
0
65
0
68
0
81
0
76
0
86
0
68
0
48
0
79
0
85
0
99
0
102
0
107
0
114
0
120
0
124
0
128
0
129
0
106
0
35
0
82
0
72
0
78
0
87
0
105
0
122
0
118
0
121
0
121
0
129
0
96
0
44
0
67
0
103
0
105
0
107
0
109
0
111
0
111
0
111
0
110
0
110
0
102
0
109
0
112
0
111
0
108
0
107
0
117
0
133
0
158
0
175
0
183
0
181
0
186
0
185
0
153
0
110
0
20
0
2
0
1
0
0
0
0
0
1
0
4
0
0
0
1
0
1
0
2
0
3
0
3
0
2
0
2
0
1
0
1
0
12
0
1
0
1
0
7
0
10
0
1
0
8
0
7
0
2
0
27
0
13
0
29
0
43
0
76
0
94
0
132
0
156
0
173
0
171
0
157
0
138
0
114
0
92
0
83
0
96
0
96
0
139
0
171
0
192
0
233
0
225
0
234
0
235
0
246
0
127
0
2
0
4
0
1
0
2
0
0
0
6
0
0
0
0
0
6
0
2
0
0
0
0
0
107
0
224
0
255
0
251
0
254
0
255
0
250
0
255
0
255
0
255
0
255
0
255
0
255
0
255
0
255
0
255
0
255
0
255
0
255
0
255
0
255
0
255
0
255
0
255
0
255
0
255
0
255
0
255
0
255
0
255
0
255
0
255
0
255
0
255
0
255
0
255
0
255
0
255
0
255
0
255
0
255
0
249
0
251
0
254
0
255
0
152
0
6
0
0
0
57
0
88
0
82
0
47
0
45
0
63
0
69
0
65
0
62
0
63
0
68
0
70
0
64
0
62
0
55
0
44
0
47
0
63
0
69
0
81
0
84
0
84
0
100
0
0
0
0
0
0
0
0
0
0
0
0
0
0
0
0
0
0
0
0
0
0
0
0
0
0
0
0
0
0
0
0
0
0
0
0
0
0
0
0
0
0
0
0
0
0
0
0
0
0
0
0
0
0
0
0
0
0
0
0
0
0
0
0
0
0
0
0
0
0
0
0
0
0
0
0
0
0
0
0
0
0
0
0
0
0
0
0
0
0
0
0
0
0
0
0
0
0
0
0
0
0
0
0
0
0
0
0
0
0
0
0
0
0
0
0
0
0
0
0
0
0
0
0
0
0
0
0
0
0
0
0
0
0
0
0
0
0
0
0
0
0
0
0
0
0
0
0
0
0
0
0
0
0
0
0
0
0
0
0
0
0
0
0
0
0
0
0
0
0
0
0
0
0
0
0
0
0
0
0
0
0
0
0
0
0
0
0
0
0
0
0
0
0
0
0
0
0
0
0
0
0
0
0
0
0
0
0
0
0
0
0
0
0
0
0
0
0
0
0
0
0
0
0
0
0
0
0
0
0
0
0
0
0
0
0
0
0
0
0
0
0
0
0
0
0
0
0
0
0
0
0
0
0
0
0
0
0
0
0
0
0
0
0
0
0
0
0
0
0
0
0
0
0
0
0
0
0
0
0
0
0
0
0
0
0
0
0
0
0
0
0
0
0
0
0
0
0
0
0
0
0
0
0
0
0
0
0
0
0
0
0
0
0
0
0
0
0
0
0
0
0
0
0
0
0
0
0
0
0
0
0
0
0
0
0
0
0
0
0
0
0
0
0
0
0
0
0
0
0
0
0
0
0
0
0
0
0
0
0
0
0
0
0
0
0
0
0
0
0
0
0
0
0
0
0
0
0
0
0
0
0
0
0
0
0
0
0
0
0
0
0
0
0
0
0
0
0
0
0
0
0
0
0
0
0
0
0
0
0
0
0
0
0
0
0
0
0
0
0
0
0
0
0
0
0
0
0
0
0
0
0
0
0
0
0
0
0
0
0
0
0
0
0
0
255
0
255
0
255
0
255
0
255
0
255
0
255
0
255
0
255
0
255
0
255
0
254
0
254
0
253
0
253
0
253
0
253
0
248
0
245
0
254
0
241
0
122
0
18
0
10
0
77
0
108
0
76
0
54
0
67
0
72
0
73
0
73
0
73
0
85
0
76
0
83
0
65
0
50
0
84
0
92
0
115
0
118
0
122
0
122
0
116
0
106
0
93
0
84
0
73
0
26
0
94
0
114
0
114
0
121
0
108
0
118
0
130
0
129
0
120
0
122
0
100
0
43
0
57
0
122
0
107
0
108
0
110
0
111
0
112
0
112
0
112
0
111
0
104
0
110
0
112
0
114
0
121
0
131
0
146
0
164
0
184
0
186
0
183
0
180
0
176
0
148
0
90
0
35
0
6
0
0
0
1
0
4
0
5
0
6
0
7
0
1
0
1
0
1
0
1
0
1
0
1
0
1
0
1
0
1
0
1
0
9
0
6
0
1
0
8
0
11
0
2
0
0
0
8
0
3
0
54
0
63
0
54
0
57
0
79
0
115
0
156
0
172
0
179
0
174
0
163
0
149
0
134
0
119
0
111
0
122
0
138
0
169
0
175
0
193
0
239
0
239
0
230
0
237
0
238
0
71
0
1
0
4
0
1
0
4
0
17
0
0
0
0
0
10
0
8
0
0
0
13
0
77
0
199
0
253
0
255
0
241
0
255
0
254
0
240
0
255
0
255
0
255
0
255
0
255
0
255
0
255
0
255
0
255
0
255
0
255
0
255
0
255
0
255
0
255
0
255
0
255
0
255
0
255
0
255
0
255
0
255
0
255
0
255
0
255
0
255
0
255
0
255
0
255
0
255
0
255
0
255
0
255
0
255
0
249
0
252
0
253
0
255
0
171
0
23
0
0
0
59
0
91
0
86
0
47
0
36
0
57
0
68
0
63
0
67
0
64
0
63
0
58
0
51
0
49
0
46
0
38
0
61
0
84
0
93
0
106
0
111
0
114
0
129
0
0
0
0
0
0
0
0
0
0
0
0
0
0
0
0
0
0
0
0
0
0
0
0
0
0
0
0
0
0
0
0
0
0
0
0
0
0
0
0
0
0
0
0
0
0
0
0
0
0
0
0
0
0
0
0
0
0
0
0
0
0
0
0
0
0
0
0
0
0
0
0
0
0
0
0
0
0
0
0
0
0
0
0
0
0
0
0
0
0
0
0
0
0
0
0
0
0
0
0
0
0
0
0
0
0
0
0
0
0
0
0
0
0
0
0
0
0
0
0
0
0
0
0
0
0
0
0
0
0
0
0
0
0
0
0
0
0
0
0
0
0
0
0
0
0
0
0
0
0
0
0
0
0
0
0
0
0
0
0
0
0
0
0
0
0
0
0
0
0
0
0
0
0
0
0
0
0
0
0
0
0
0
0
0
0
0
0
0
0
0
0
0
0
0
0
0
0
0
0
0
0
0
0
0
0
0
0
0
0
0
0
0
0
0
0
0
0
0
0
0
0
0
0
0
0
0
0
0
0
0
0
0
0
0
0
0
0
0
0
0
0
0
0
0
0
0
0
0
0
0
0
0
0
0
0
0
0
0
0
0
0
0
0
0
0
0
0
0
0
0
0
0
0
0
0
0
0
0
0
0
0
0
0
0
0
0
0
0
0
0
0
0
0
0
0
0
0
0
0
0
0
0
0
0
0
0
0
0
0
0
0
0
0
0
0
0
0
0
0
0
0
0
0
0
0
0
0
0
0
0
0
0
0
0
0
0
0
0
0
0
0
0
0
0
0
0
0
0
0
0
0
0
0
0
0
0
0
0
0
0
0
0
0
0
0
0
0
0
0
0
0
0
0
0
0
0
0
0
0
0
0
0
0
0
0
0
0
0
0
0
0
0
0
0
0
0
0
0
0
0
0
0
0
0
0
0
0
0
0
0
0
0
0
0
0
0
0
0
0
0
0
0
0
0
0
0
0
0
0
0
0
0
0
0
0
0
0
0
0
0
0
0
0
0
255
0
255
0
255
0
255
0
255
0
255
0
255
0
255
0
255
0
255
0
255
0
254
0
254
0
253
0
253
0
253
0
252
0
250
0
254
0
239
0
146
0
24
0
5
0
71
0
123
0
100
0
46
0
46
0
78
0
77
0
73
0
80
0
76
0
89
0
77
0
83
0
67
0
56
0
95
0
106
0
126
0
121
0
113
0
102
0
90
0
81
0
73
0
68
0
99
0
59
0
97
0
129
0
117
0
128
0
115
0
127
0
118
0
120
0
120
0
128
0
114
0
50
0
43
0
116
0
107
0
108
0
110
0
111
0
112
0
113
0
113
0
112
0
115
0
115
0
109
0
112
0
130
0
147
0
161
0
172
0
178
0
175
0
178
0
180
0
153
0
92
0
28
0
1
0
5
0
3
0
6
0
8
0
4
0
0
0
1
0
2
0
3
0
2
0
1
0
1
0
0
0
1
0
0
0
0
0
1
0
1
0
8
0
5
0
0
0
3
0
11
0
1
0
46
0
34
0
64
0
98
0
87
0
85
0
104
0
152
0
165
0
174
0
179
0
176
0
171
0
167
0
163
0
155
0
153
0
156
0
168
0
182
0
179
0
193
0
227
0
228
0
222
0
229
0
205
0
29
0
1
0
3
0
2
0
4
0
0
0
2
0
7
0
2
0
0
0
2
0
97
0
204
0
255
0
255
0
247
0
249
0
255
0
255
0
253
0
255
0
255
0
255
0
255
0
255
0
255
0
255
0
255
0
255
0
255
0
255
0
255
0
255
0
255
0
255
0
255
0
255
0
255
0
255
0
255
0
255
0
255
0
255
0
255
0
255
0
255
0
255
0
255
0
255
0
255
0
255
0
255
0
255
0
255
0
251
0
255
0
251
0
255
0
188
0
45
0
0
0
60
0
92
0
91
0
51
0
34
0
52
0
66
0
63
0
68
0
60
0
53
0
44
0
39
0
45
0
58
0
60
0
76
0
106
0
112
0
116
0
117
0
115
0
125
0
0
0
0
0
0
0
0
0
0
0
0
0
0
0
0
0
0
0
0
0
0
0
0
0
0
0
0
0
0
0
0
0
0
0
0
0
0
0
0
0
0
0
0
0
0
0
0
0
0
0
0
0
0
0
0
0
0
0
0
0
0
0
0
0
0
0
0
0
0
0
0
0
0
0
0
0
0
0
0
0
0
0
0
0
0
0
0
0
0
0
0
0
0
0
0
0
0
0
0
0
0
0
0
0
0
0
0
0
0
0
0
0
0
0
0
0
0
0
0
0
0
0
0
0
0
0
0
0
0
0
0
0
0
0
0
0
0
0
0
0
0
0
0
0
0
0
0
0
0
0
0
0
0
0
0
0
0
0
0
0
0
0
0
0
0
0
0
0
0
0
0
0
0
0
0
0
0
0
0
0
0
0
0
0
0
0
0
0
0
0
0
0
0
0
0
0
0
0
0
0
0
0
0
0
0
0
0
0
0
0
0
0
0
0
0
0
0
0
0
0
0
0
0
0
0
0
0
0
0
0
0
0
0
0
0
0
0
0
0
0
0
0
0
0
0
0
0
0
0
0
0
0
0
0
0
0
0
0
0
0
0
0
0
0
0
0
0
0
0
0
0
0
0
0
0
0
0
0
0
0
0
0
0
0
0
0
0
0
0
0
0
0
0
0
0
0
0
0
0
0
0
0
0
0
0
0
0
0
0
0
0
0
0
0
0
0
0
0
0
0
0
0
0
0
0
0
0
0
0
0
0
0
0
0
0
0
0
0
0
0
0
0
0
0
0
0
0
0
0
0
0
0
0
0
0
0
0
0
0
0
0
0
0
0
0
0
0
0
0
0
0
0
0
0
0
0
0
0
0
0
0
0
0
0
0
0
0
0
0
0
0
0
0
0
0
0
0
0
0
0
0
0
0
0
0
0
0
0
0
0
0
0
0
0
0
0
0
0
0
0
0
0
0
0
0
0
0
0
0
0
0
0
0
0
0
0
0
0
0
0
0
0
0
0
255
0
255
0
255
0
255
0
255
0
255
0
255
0
255
0
255
0
255
0
255
0
254
0
254
0
253
0
253
0
253
0
248
0
254
0
251
0
162
0
27
0
4
0
69
0
110
0
93
0
81
0
49
0
55
0
78
0
76
0
77
0
80
0
76
0
90
0
80
0
85
0
71
0
64
0
104
0
113
0
107
0
96
0
82
0
73
0
76
0
89
0
107
0
118
0
107
0
78
0
79
0
134
0
116
0
128
0
125
0
132
0
120
0
117
0
123
0
128
0
118
0
58
0
39
0
111
0
106
0
107
0
109
0
111
0
113
0
113
0
111
0
110
0
110
0
109
0
105
0
115
0
142
0
166
0
175
0
178
0
183
0
169
0
160
0
140
0
88
0
25
0
2
0
4
0
1
0
4
0
6
0
2
0
0
0
0
0
2
0
6
0
20
0
19
0
17
0
16
0
13
0
12
0
12
0
12
0
11
0
0
0
1
0
2
0
1
0
6
0
31
0
29
0
76
0
71
0
52
0
102
0
110
0
118
0
139
0
176
0
169
0
174
0
176
0
173
0
173
0
175
0
177
0
176
0
185
0
176
0
177
0
186
0
192
0
202
0
206
0
200
0
213
0
214
0
151
0
6
0
4
0
1
0
5
0
4
0
0
0
12
0
4
0
0
0
16
0
113
0
209
0
254
0
254
0
251
0
255
0
255
0
253
0
255
0
255
0
250
0
255
0
255
0
255
0
255
0
255
0
255
0
255
0
255
0
255
0
255
0
255
0
255
0
255
0
255
0
255
0
255
0
255
0
255
0
255
0
255
0
255
0
255
0
255
0
255
0
255
0
255
0
255
0
255
0
255
0
255
0
255
0
255
0
255
0
253
0
255
0
249
0
255
0
207
0
69
0
0
0
56
0
87
0
96
0
65
0
41
0
50
0
64
0
62
0
48
0
50
0
54
0
57
0
57
0
65
0
74
0
74
0
63
0
100
0
107
0
108
0
111
0
108
0
117
0
0
0
0
0
0
0
0
0
0
0
0
0
0
0
0
0
0
0
0
0
0
0
0
0
0
0
0
0
0
0
0
0
0
0
0
0
0
0
0
0
0
0
0
0
0
0
0
0
0
0
0
0
0
0
0
0
0
0
0
0
0
0
0
0
0
0
0
0
0
0
0
0
0
0
0
0
0
0
0
0
0
0
0
0
0
0
0
0
0
0
0
0
0
0
0
0
0
0
0
0
0
0
0
0
0
0
0
0
0
0
0
0
0
0
0
0
0
0
0
0
0
0
0
0
0
0
0
0
0
0
0
0
0
0
0
0
0
0
0
0
0
0
0
0
0
0
0
0
0
0
0
0
0
0
0
0
0
0
0
0
0
0
0
0
0
0
0
0
0
0
0
0
0
0
0
0
0
0
0
0
0
0
0
0
0
0
0
0
0
0
0
0
0
0
0
0
0
0
0
0
0
0
0
0
0
0
0
0
0
0
0
0
0
0
0
0
0
0
0
0
0
0
0
0
0
0
0
0
0
0
0
0
0
0
0
0
0
0
0
0
0
0
0
0
0
0
0
0
0
0
0
0
0
0
0
0
0
0
0
0
0
0
0
0
0
0
0
0
0
0
0
0
0
0
0
0
0
0
0
0
0
0
0
0
0
0
0
0
0
0
0
0
0
0
0
0
0
0
0
0
0
0
0
0
0
0
0
0
0
0
0
0
0
0
0
0
0
0
0
0
0
0
0
0
0
0
0
0
0
0
0
0
0
0
0
0
0
0
0
0
0
0
0
0
0
0
0
0
0
0
0
0
0
0
0
0
0
0
0
0
0
0
0
0
0
0
0
0
0
0
0
0
0
0
0
0
0
0
0
0
0
0
0
0
0
0
0
0
0
0
0
0
0
0
0
0
0
0
0
0
0
0
0
0
0
0
0
0
0
0
0
0
0
0
0
0
0
0
0
0
0
0
0
0
0
0
0
0
0
0
0
0
0
0
0
0
0
0
0
0
0
0
0
0
0
0
0
0
0
0
0
0
0
0
0
0
0
0
0
0
0
0
0
0
0
0
0
0
0
0
0
0
0
0
0
0
0
0
0
0
0
0
0
0
0
0
0
0
0
0
0
0
0
0
0
0
0
0
0
0
0
0
0
0
0
0
0
0
0
0
0
0
0
0
0
0
0
0
0
0
0
0
0
0
0
0
0
0
0
0
0
0
0
0
0
0
0
0
0
0
0
0
0
0
0
0
0
0
0
0
0
0
0
0
0
0
0
0
0
0
0
0
0
0
0
0
0
0
0
0
0
0
0
0
0
0
0
0
0
0
0
0
0
0
0
0
0
0
0
0
0
0
0
0
0
0
0
0
0
0
0
0
0
0
0
0
0
0
0
0
0
0
0
0
0
0
0
0
0
0
0
0
0
0
0
0
0
0
0
0
0
0
0
0
0
0
0
0
0
0
0
0
0
0
0
0
0
0
0
0
0
0
0
0
0
0
0
0
0
0
0
0
0
0
0
0
0
0
0
0
0
0
0
0
0
0
0
0
0
0
0
0
0
0
0
0
0
0
0
0
0
0
0
0
0
0
0
0
0
0
0
0
0
0
0
0
0
0
0
0
0
0
0
0
0
0
0
0
0
0
0
0
0
0
0
0
0
0
0
0
0
0
0
0
0
0
0
0
0
0
0
0
0
0
0
0
0
0
0
0
0
0
0
0
0
0
0
0
0
0
0
0
0
0
0
0
0
0
0
0
0
0
0
0
0
0
0
0
0
0
0
0
0
0
0
0
0
0
0
0
0
0
0
0
0
0
0
0
0
0
0
0
0
0
0
0
0
0
0
0
0
0
0
0
0
0
0
0
0
0
0
0
0
0
0
0
0
0
0
0
0
0
0
0
0
0
0
0
0
0
0
0
0
0
0
0
0
0
0
0
0
0
0
0
0
0
0
0
0
0
0
0
0
0
0
0
0
0
0
0
0
0
0
0
0
0
0
0
0
0
0
0
0
0
0
0
0
0
0
