P2
# Created by GIMP version 3.2.4 PNM plug-in
445 449
255
255
255
255
255
255
255
255
255
255
255
255
255
255
255
255
255
255
255
255
255
255
255
255
255
255
255
255
255
255
255
255
255
255
255
255
255
255
255
255
255
255
255
255
255
255
255
255
255
255
255
255
255
255
255
255
255
255
255
255
255
255
255
255
255
255
255
255
255
255
255
255
255
255
255
255
255
255
255
255
255
255
255
255
255
255
255
255
255
255
255
255
255
255
255
255
255
255
255
255
255
255
255
255
255
255
255
255
255
255
255
255
255
255
255
255
255
255
255
255
255
255
255
254
254
254
253
253
253
254
249
245
251
254
254
252
251
253
245
237
249
254
252
243
248
245
251
252
255
254
251
245
253
253
252
250
250
252
253
253
250
253
255
255
254
247
251
255
255
255
255
255
255
255
255
255
255
255
255
255
255
255
255
255
255
255
255
255
255
255
255
255
255
255
255
255
255
255
255
255
255
255
255
255
255
255
255
255
255
255
255
255
255
255
255
255
255
255
255
255
255
255
255
255
255
255
255
255
255
255
255
255
255
255
255
255
255
255
255
255
255
255
255
255
255
255
255
255
255
255
255
255
255
255
255
255
255
255
255
255
255
255
255
255
255
255
255
255
255
255
255
255
255
255
255
255
255
255
255
255
255
255
255
255
255
255
255
255
255
255
255
255
255
255
255
255
255
255
255
255
255
255
255
255
255
255
255
255
255
255
255
255
255
255
255
255
255
255
255
255
255
255
255
255
255
255
255
255
255
255
255
255
255
255
255
255
255
255
255
255
255
255
255
255
255
255
255
255
255
255
255
255
255
255
255
255
255
255
255
255
255
255
255
255
255
255
255
255
255
255
255
255
255
255
255
255
255
255
255
255
255
255
255
255
255
255
255
255
255
255
255
255
255
255
255
255
255
255
255
255
255
255
255
255
255
255
255
255
255
255
255
255
255
255
255
255
255
255
255
255
255
255
255
255
255
255
255
255
255
255
255
255
255
255
255
255
255
255
255
255
255
255
255
255
255
255
255
255
255
255
255
255
255
255
255
255
255
255
255
255
255
255
255
255
255
255
255
255
255
255
255
255
255
255
255
255
255
255
255
255
255
255
255
255
255
255
255
255
255
255
255
255
255
255
255
255
255
255
255
255
255
255
255
255
255
255
255
255
255
255
255
255
255
255
255
255
255
255
255
255
255
255
255
255
255
255
255
255
255
255
255
255
255
255
255
255
255
255
255
255
255
255
255
255
255
255
255
255
255
255
255
255
255
255
255
255
255
255
255
255
255
255
255
255
255
255
255
255
255
255
254
254
254
254
246
252
254
254
254
246
245
250
247
252
254
255
250
250
252
252
251
252
246
243
248
251
254
254
241
254
254
246
242
254
254
252
249
250
252
255
255
255
255
247
255
255
255
255
255
255
255
255
255
255
255
255
255
255
255
255
255
255
255
255
255
255
255
255
255
255
255
255
255
255
255
255
255
255
255
255
255
255
255
255
255
255
255
255
255
255
255
255
255
255
255
255
255
255
255
255
255
255
255
255
255
255
255
255
255
255
255
255
255
255
255
255
255
255
255
255
255
255
255
255
255
255
255
255
255
255
255
255
255
255
255
255
255
255
255
255
255
255
255
255
255
255
255
255
255
255
255
255
255
255
255
255
255
255
255
255
255
255
255
255
255
255
255
255
255
255
255
255
255
255
255
255
255
255
255
255
255
255
255
255
255
255
255
255
255
255
255
255
255
255
255
255
255
255
255
255
255
255
255
255
255
255
255
255
255
255
255
255
255
255
255
255
255
255
255
255
255
255
255
255
255
255
255
255
255
255
255
255
255
255
255
255
255
255
255
255
255
255
255
255
255
255
255
255
255
255
255
255
255
255
255
255
255
255
255
255
255
255
255
255
255
255
255
255
255
255
255
255
255
255
255
255
255
255
255
255
255
255
255
255
255
255
255
255
255
255
255
255
255
255
255
255
255
255
255
255
255
255
255
255
255
255
255
255
255
255
255
255
255
255
255
255
255
255
255
255
255
255
255
255
255
255
255
255
255
255
255
255
255
255
255
255
255
255
255
255
255
255
255
255
255
255
255
255
255
255
255
255
255
255
255
255
255
255
255
255
255
255
255
255
255
255
255
255
255
255
255
255
255
255
255
255
255
255
255
255
255
255
255
255
255
255
255
255
255
255
255
255
255
255
255
255
255
255
255
255
255
255
255
255
255
255
255
255
255
255
255
255
255
255
255
255
255
255
255
255
255
255
255
255
255
255
255
255
255
255
255
255
255
255
255
255
255
255
255
255
255
255
255
255
255
255
255
255
255
254
249
247
249
251
251
253
254
253
253
252
246
235
247
250
236
253
253
254
254
252
251
249
242
250
247
250
253
252
243
245
254
255
255
250
252
255
255
254
253
255
255
255
255
255
255
255
255
255
255
255
255
255
255
255
255
255
255
255
255
255
255
255
255
255
255
255
255
255
255
255
255
255
255
255
255
255
255
255
255
255
255
255
255
255
255
255
255
255
255
255
255
255
255
255
255
255
255
255
255
255
255
255
255
255
255
255
255
255
255
255
255
255
255
255
255
255
255
255
255
255
255
255
255
255
255
255
255
255
255
255
255
255
255
255
255
255
255
255
255
255
255
255
255
255
255
255
255
255
255
255
255
255
255
255
255
255
255
255
255
255
255
255
255
255
255
255
255
255
255
255
255
255
255
255
255
255
255
255
255
255
255
255
255
255
255
255
255
255
255
255
255
255
255
255
255
255
255
255
255
255
255
255
255
255
255
255
255
255
255
255
255
255
255
255
255
255
255
255
255
255
255
255
255
255
255
255
255
255
255
255
255
255
255
255
255
255
255
255
255
255
255
255
255
255
255
255
255
255
255
255
255
255
255
255
255
255
255
255
255
255
255
255
255
255
255
255
255
255
255
255
255
255
255
255
255
255
255
255
255
255
255
255
255
255
255
255
255
255
255
255
255
255
255
255
255
255
255
255
255
255
255
255
255
255
255
255
255
255
255
255
255
255
255
255
255
255
255
255
255
255
255
255
255
255
255
255
255
255
255
255
255
255
255
255
255
255
255
255
255
255
255
255
255
255
255
255
255
255
255
255
255
255
255
255
255
255
255
255
255
255
255
255
255
255
255
255
255
255
255
255
255
255
255
255
255
255
255
255
255
255
255
255
255
255
255
255
255
255
255
255
255
255
255
255
255
255
255
255
255
255
255
255
255
255
255
255
255
255
255
255
255
255
255
255
255
255
255
255
255
255
255
255
255
255
255
255
255
255
255
255
255
255
255
255
255
255
255
255
255
255
255
255
255
255
254
254
252
254
254
253
247
243
249
239
255
253
252
251
241
200
171
149
126
117
135
185
237
254
254
247
244
254
254
251
251
255
255
254
255
255
252
247
252
255
255
255
255
255
255
255
255
255
255
255
255
255
255
255
255
255
255
255
255
255
255
255
255
255
255
255
255
255
255
255
255
255
255
255
255
255
255
255
255
255
255
255
255
255
255
255
255
255
255
255
255
255
255
255
255
255
255
255
255
255
255
255
255
255
255
255
255
255
255
255
255
255
255
255
255
255
255
255
255
255
255
255
255
255
255
255
255
255
255
255
255
255
255
255
255
255
255
255
255
255
255
255
255
255
255
255
255
255
255
255
255
255
255
255
255
255
255
255
255
255
255
255
255
255
255
255
255
255
255
255
255
255
255
255
255
255
255
255
255
255
255
255
255
255
255
255
255
255
255
255
255
255
255
255
255
255
255
255
255
255
255
255
255
255
255
255
255
255
255
255
255
255
255
255
255
255
255
255
255
255
255
255
255
255
255
255
255
255
255
255
255
255
255
255
255
255
255
255
255
255
255
255
255
255
255
255
255
255
255
255
255
255
255
255
255
255
255
255
255
255
255
255
255
255
255
255
255
255
255
255
255
255
255
255
255
255
255
255
255
255
255
255
255
255
255
255
255
255
255
255
255
255
255
255
255
255
255
255
255
255
255
255
255
255
255
255
255
255
255
255
255
255
255
255
255
255
255
255
255
255
255
255
255
255
255
255
255
255
255
255
255
255
255
255
255
255
255
255
255
255
255
255
255
255
255
255
255
255
255
255
255
255
255
255
255
255
255
255
255
255
255
255
255
255
255
255
255
255
255
255
255
255
255
255
255
255
255
255
255
255
255
255
255
255
255
255
255
255
255
255
255
255
255
255
255
255
255
255
255
255
255
255
255
255
255
255
255
255
255
255
255
255
255
255
255
255
255
255
255
255
255
255
255
255
255
255
255
255
255
255
255
255
255
255
255
255
255
255
255
255
255
255
255
255
255
254
253
250
253
253
252
255
254
245
227
221
171
63
1
2
6
10
1
1
8
3
5
7
6
39
127
210
234
236
247
253
248
245
248
255
255
255
255
253
255
255
255
255
255
255
255
255
255
255
255
255
255
255
255
255
255
255
255
255
255
255
255
255
255
255
255
255
255
255
255
255
255
255
255
255
255
255
255
255
255
255
255
255
255
255
255
255
255
255
255
255
255
255
255
255
255
255
255
255
255
255
255
255
255
255
255
255
255
255
255
255
255
255
255
255
255
255
255
255
255
255
255
255
255
255
255
255
255
255
255
255
255
255
255
255
255
255
255
255
255
255
255
255
255
255
255
255
255
255
255
255
255
255
255
255
255
255
255
255
255
255
255
255
255
255
255
255
255
255
255
255
255
255
255
255
255
255
255
255
255
255
255
255
255
255
255
255
255
255
255
255
255
255
255
255
255
255
255
255
255
255
255
255
255
255
255
255
255
255
255
255
255
255
255
255
255
255
255
255
255
255
255
255
255
255
255
255
255
255
255
255
255
255
255
255
255
255
255
255
255
255
255
255
255
255
255
255
255
255
255
255
255
255
255
255
255
255
255
255
255
255
255
255
255
255
255
255
255
255
255
255
255
255
255
255
255
255
255
255
255
255
255
255
255
255
255
255
255
255
255
255
255
255
255
255
255
255
255
255
255
255
255
255
255
255
255
255
255
255
255
255
255
255
255
255
255
255
255
255
255
255
255
255
255
255
255
255
255
255
255
255
255
255
255
255
255
255
255
255
255
255
255
255
255
255
255
255
255
255
255
255
255
255
255
255
255
255
255
255
255
255
255
255
255
255
255
255
255
255
255
255
255
255
255
255
255
255
255
255
255
255
255
255
255
255
255
255
255
255
255
255
255
255
255
255
255
255
255
255
255
255
255
255
255
255
255
255
255
255
255
255
255
255
255
255
255
255
255
255
255
255
255
255
255
255
255
255
255
255
255
255
255
255
255
255
255
255
255
255
255
254
254
253
253
253
252
246
247
254
254
237
193
160
111
40
2
10
30
48
60
54
68
52
65
85
77
65
56
39
22
15
8
27
87
166
225
249
255
255
255
252
255
255
255
251
255
255
255
255
255
255
255
255
255
255
255
255
255
255
255
255
255
255
255
255
255
255
255
255
255
255
255
255
255
255
255
255
255
255
255
255
255
255
255
255
255
255
255
255
255
255
255
255
255
255
255
255
255
255
255
255
255
255
255
255
255
255
255
255
255
255
255
255
255
255
255
255
255
255
255
255
255
255
255
255
255
255
255
255
255
255
255
255
255
255
255
255
255
255
255
255
255
255
255
255
255
255
255
255
255
255
255
255
255
255
255
255
255
255
255
255
255
255
255
255
255
255
255
255
255
255
255
255
255
255
255
255
255
255
255
255
255
255
255
255
255
255
255
255
255
255
255
255
255
255
255
255
255
255
255
255
255
255
255
255
255
255
255
255
255
255
255
255
255
255
255
255
255
255
255
255
255
255
255
255
255
255
255
255
255
255
255
255
255
255
255
255
255
255
255
255
255
255
255
255
255
255
255
255
255
255
255
255
255
255
255
255
255
255
255
255
255
255
255
255
255
255
255
255
255
255
255
255
255
255
255
255
255
255
255
255
255
255
255
255
255
255
255
255
255
255
255
255
255
255
255
255
255
255
255
255
255
255
255
255
255
255
255
255
255
255
255
255
255
255
255
255
255
255
255
255
255
255
255
255
255
255
255
255
255
255
255
255
255
255
255
255
255
255
255
255
255
255
255
255
255
255
255
255
255
255
255
255
255
255
255
255
255
255
255
255
255
255
255
255
255
255
255
255
255
255
255
255
255
255
255
255
255
255
255
255
255
255
255
255
255
255
255
255
255
255
255
255
255
255
255
255
255
255
255
255
255
255
255
255
255
255
255
255
255
255
255
255
255
255
255
255
255
255
255
255
255
255
255
255
255
255
255
255
255
255
255
255
255
255
255
255
255
255
255
255
255
255
255
254
253
252
251
250
249
251
254
254
252
211
135
53
6
12
28
59
89
104
113
128
141
121
93
108
139
135
127
128
120
93
72
56
43
13
7
87
188
234
250
255
247
245
255
255
254
255
255
255
255
255
255
255
255
255
255
255
255
255
255
255
255
255
255
255
255
255
255
255
255
255
255
255
255
255
255
255
255
255
255
255
255
255
255
255
255
255
255
255
255
255
255
255
255
255
255
255
255
255
255
255
255
255
255
255
255
255
255
255
255
255
255
255
255
255
255
255
255
255
255
255
255
255
255
255
255
255
255
255
255
255
255
255
255
255
255
255
255
255
255
255
255
255
255
255
255
255
255
255
255
255
255
255
255
255
255
255
255
255
255
255
255
255
255
255
255
255
255
255
255
255
255
255
255
255
255
255
255
255
255
255
255
255
255
255
255
255
255
255
255
255
255
255
255
255
255
255
255
255
255
255
255
255
255
255
255
255
255
255
255
255
255
255
255
255
255
255
255
255
255
255
255
255
255
255
255
255
255
255
255
255
255
255
255
255
255
255
255
255
255
255
255
255
255
255
255
255
255
255
255
255
255
255
255
255
255
255
255
255
255
255
255
255
255
255
255
255
255
255
255
255
255
255
255
255
255
255
255
255
255
255
255
255
255
255
255
255
255
255
255
255
255
255
255
255
255
255
255
255
255
255
255
255
255
255
255
255
255
255
255
255
255
255
255
255
255
255
255
255
255
255
255
255
255
255
255
255
255
255
255
255
255
255
255
255
255
255
255
255
255
255
255
255
255
255
255
255
255
255
255
255
255
255
255
255
255
255
255
255
255
255
255
255
255
255
255
255
255
255
255
255
255
255
255
255
255
255
255
255
255
255
255
255
255
255
255
255
255
255
255
255
255
255
255
255
255
255
255
255
255
255
255
255
255
255
255
255
255
255
255
255
255
255
255
255
255
255
255
255
255
255
255
255
255
255
255
255
255
255
255
255
255
255
255
255
255
255
255
255
255
255
255
255
255
255
254
252
251
249
248
247
253
253
224
148
54
3
14
47
77
110
133
140
144
145
145
150
137
96
113
154
151
140
143
138
145
130
116
104
70
24
17
40
140
202
254
255
247
249
254
251
255
255
255
255
255
255
255
255
255
255
255
255
255
255
255
255
255
255
255
255
255
255
255
255
255
255
255
255
255
255
255
255
255
255
255
255
255
255
255
255
255
255
255
255
255
255
255
255
255
255
255
255
255
255
255
255
255
255
255
255
255
255
255
255
255
255
255
255
255
255
255
255
255
255
255
255
255
255
255
255
255
255
255
255
255
255
255
255
255
255
255
255
255
255
255
255
255
255
255
255
255
255
255
255
255
255
255
255
255
255
255
255
255
255
255
255
255
255
255
255
255
255
255
255
255
255
255
255
255
255
255
255
255
255
255
255
255
255
255
255
255
255
255
255
255
255
255
255
255
255
255
255
255
255
255
255
255
255
255
255
255
255
255
255
255
255
255
255
255
255
255
255
255
255
255
255
255
255
255
255
255
255
255
255
255
255
255
255
255
255
255
255
255
255
255
255
255
255
255
255
255
255
255
255
255
255
255
255
255
255
255
255
255
255
255
255
255
255
255
255
255
255
255
255
255
255
255
255
255
255
255
255
255
255
255
255
255
255
255
255
255
255
255
255
255
255
255
255
255
255
255
255
255
255
255
255
255
255
255
255
255
255
255
255
255
255
255
255
255
255
255
255
255
255
255
255
255
255
255
255
255
255
255
255
255
255
255
255
255
255
255
255
255
255
255
255
255
255
255
255
255
255
255
255
255
255
255
255
255
255
255
255
255
255
255
255
255
255
255
255
255
255
255
255
255
255
255
255
255
255
255
255
255
255
255
255
255
255
255
255
255
255
255
255
255
255
255
255
255
255
255
255
255
255
255
255
255
255
255
255
255
255
255
255
255
255
255
255
255
255
255
255
255
255
255
255
255
255
255
255
255
255
255
255
255
255
255
255
255
255
255
255
255
255
255
255
255
240
254
250
247
253
247
238
252
238
173
45
12
30
73
107
138
129
144
152
144
135
141
157
169
162
102
158
186
183
167
158
152
145
144
142
140
137
122
89
58
9
27
152
248
249
235
250
245
255
255
253
248
255
255
253
253
255
255
255
255
255
255
255
255
255
255
255
255
255
255
255
255
255
255
255
255
255
255
255
255
255
255
255
255
255
255
255
255
255
255
255
255
255
255
255
255
255
255
255
255
255
255
255
255
255
255
255
255
255
255
255
255
255
255
255
255
255
255
255
255
255
255
255
255
255
255
255
255
255
255
255
255
255
255
255
255
255
255
255
255
255
255
255
255
255
255
255
255
255
255
255
255
255
255
255
255
255
255
255
255
255
255
255
255
255
255
255
255
255
255
255
255
255
255
255
255
255
255
255
255
255
255
255
255
255
255
255
255
255
255
255
255
255
255
255
255
255
255
255
255
255
255
255
255
255
255
255
255
255
255
255
255
255
255
255
255
255
255
255
255
255
255
255
255
255
255
255
255
255
255
255
255
255
255
255
255
255
255
255
255
255
255
255
255
255
255
255
255
255
255
255
255
255
255
255
255
255
255
255
255
255
255
255
255
255
255
255
255
255
255
255
255
255
255
255
255
255
255
255
255
255
255
255
255
255
255
255
255
255
255
255
255
255
255
255
255
255
255
255
255
255
255
255
255
255
255
255
255
255
255
255
255
255
255
255
255
255
255
255
255
255
255
255
255
255
255
255
255
255
255
255
255
255
255
255
255
255
255
255
255
255
255
255
255
255
255
255
255
255
255
255
255
255
255
255
255
255
255
255
255
255
255
255
255
255
255
255
255
255
255
255
255
255
255
255
255
255
255
255
255
255
255
255
255
255
255
255
255
255
255
255
255
255
255
255
255
255
255
255
255
255
255
255
255
255
255
255
255
255
255
255
255
255
255
255
255
255
255
255
255
255
255
255
255
255
255
255
255
255
255
255
255
255
255
255
255
255
255
255
255
255
255
255
255
255
255
246
254
254
241
251
254
217
116
30
6
61
92
133
155
139
150
151
149
150
161
177
182
178
175
123
170
181
184
190
188
172
173
168
154
141
134
133
130
125
75
7
24
122
244
251
251
243
246
255
252
248
254
254
253
255
255
255
255
255
255
255
255
255
255
255
255
255
255
255
255
255
255
255
255
255
255
255
255
255
255
255
255
255
255
255
255
255
255
255
255
255
255
255
255
255
255
255
255
255
255
255
255
255
255
255
255
255
255
255
255
255
255
255
255
255
255
255
255
255
255
255
255
255
255
255
255
255
255
255
255
255
255
255
255
255
255
255
255
255
255
255
255
255
255
255
255
255
255
255
255
255
255
255
255
255
255
255
255
255
255
255
255
255
255
255
255
255
255
255
255
255
255
255
255
255
255
255
255
255
255
255
255
255
255
255
255
255
255
255
255
255
255
255
255
255
255
255
255
255
255
255
255
255
255
255
255
255
255
255
255
255
255
255
255
255
255
255
255
255
255
255
255
255
255
255
255
255
255
255
255
255
255
255
255
255
255
255
255
255
255
255
255
255
255
255
255
255
255
255
255
255
255
255
255
255
255
255
255
255
255
255
255
255
255
255
255
255
255
255
255
255
255
255
255
255
255
255
255
255
255
255
255
255
255
255
255
255
255
255
255
255
255
255
255
255
255
255
255
255
255
255
255
255
255
255
255
255
255
255
255
255
255
255
255
255
255
255
255
255
255
255
255
255
255
255
255
255
255
255
255
255
255
255
255
255
255
255
255
255
255
255
255
255
255
255
255
255
255
255
255
255
255
255
255
255
255
255
255
255
255
255
255
255
255
255
255
255
255
255
255
255
255
255
255
255
255
255
255
255
255
255
255
255
255
255
255
255
255
255
255
255
255
255
255
255
255
255
255
255
255
255
255
255
255
255
255
255
255
255
255
255
255
255
255
255
255
255
255
255
255
255
255
255
255
255
255
255
255
255
255
255
255
255
255
255
255
255
255
255
255
255
255
255
255
252
248
247
249
254
254
198
93
8
33
57
123
135
128
134
163
157
159
160
160
165
178
191
196
180
106
159
195
196
179
182
193
182
184
179
168
155
143
131
123
130
35
4
10
137
234
254
244
249
255
255
255
255
250
248
255
255
255
255
255
255
255
255
255
255
255
255
255
255
255
255
255
255
255
255
255
255
255
255
255
255
255
255
255
255
255
255
255
255
255
255
255
255
255
255
255
255
255
255
255
255
255
255
255
255
255
255
255
255
255
255
255
255
255
255
255
255
255
255
255
255
255
255
255
255
255
255
255
255
255
255
255
255
255
255
255
255
255
255
255
255
255
255
255
255
255
255
255
255
255
255
255
255
255
255
255
255
255
255
255
255
255
255
255
255
255
255
255
255
255
255
255
255
255
255
255
255
255
255
255
255
255
255
255
255
255
255
255
255
255
255
255
255
255
255
255
255
255
255
255
255
255
255
255
255
255
255
255
255
255
255
255
255
255
255
255
255
255
255
255
255
255
255
255
255
255
255
255
255
255
255
255
255
255
255
255
255
255
255
255
255
255
255
255
255
255
255
255
255
255
255
255
255
255
255
255
255
255
255
255
255
255
255
255
255
255
255
255
255
255
255
255
255
255
255
255
255
255
255
255
255
255
255
255
255
255
255
255
255
255
255
255
255
255
255
255
255
255
255
255
255
255
255
255
255
255
255
255
255
255
255
255
255
255
255
255
255
255
255
255
255
255
255
255
255
255
255
255
255
255
255
255
255
255
255
255
255
255
255
255
255
255
255
255
255
255
255
255
255
255
255
255
255
255
255
255
255
255
255
255
255
255
255
255
255
255
255
255
255
255
255
255
255
255
255
255
255
255
255
255
255
255
255
255
255
255
255
255
255
255
255
255
255
255
255
255
255
255
255
255
255
255
255
255
255
255
255
255
255
255
255
255
255
255
255
255
255
255
255
255
255
255
255
255
255
255
255
255
255
255
255
255
255
255
255
255
255
255
255
255
254
254
254
254
254
253
253
242
253
252
184
66
18
45
88
89
124
146
147
140
157
154
157
161
161
166
174
186
194
166
61
92
147
186
189
183
181
167
171
176
180
176
165
146
133
134
59
86
38
13
118
233
254
254
255
255
255
255
253
246
254
255
255
255
255
255
255
255
255
255
255
255
255
255
255
255
255
255
255
255
255
255
255
255
255
255
255
255
255
255
255
255
255
255
255
255
255
255
255
255
255
255
255
255
255
255
255
255
255
255
255
255
255
255
255
255
255
255
255
255
255
255
255
255
255
255
255
255
255
255
255
255
255
255
255
255
255
255
255
255
255
255
255
255
255
255
255
255
255
255
255
255
255
255
255
255
255
255
255
255
255
255
255
255
255
255
255
255
255
255
255
255
255
255
255
255
255
255
255
255
255
255
255
255
255
255
255
255
255
255
255
255
255
255
255
255
255
255
255
255
255
255
255
255
255
255
255
255
255
255
255
255
255
255
255
255
255
255
255
255
255
255
255
255
255
255
255
255
255
255
255
255
255
255
255
255
255
255
255
255
255
255
255
255
255
255
255
255
255
255
255
255
255
255
255
255
255
255
255
255
255
255
255
255
255
255
255
255
255
255
255
255
255
255
255
255
255
255
255
255
255
255
255
255
255
255
255
255
255
255
255
255
255
255
255
255
255
255
255
255
255
255
255
255
255
255
255
255
255
255
255
255
255
255
255
255
255
255
255
255
255
255
255
255
255
255
255
255
255
255
255
255
255
255
255
255
255
255
255
255
255
255
255
255
255
255
255
255
255
255
255
255
255
255
255
255
255
255
255
255
255
255
255
255
255
255
255
255
255
255
255
255
255
255
255
255
255
255
255
255
255
255
255
255
255
255
255
255
255
255
255
255
255
255
255
255
255
255
255
255
255
255
255
255
255
255
255
255
255
255
255
255
255
255
255
255
255
255
255
255
255
255
255
255
255
255
255
255
255
255
255
255
255
255
255
255
255
255
255
255
255
255
255
255
255
254
253
253
253
252
245
250
252
245
177
51
15
73
127
103
88
122
125
150
160
138
160
152
150
161
177
179
168
155
106
64
112
111
121
159
186
181
193
190
185
180
171
166
165
163
132
42
131
114
8
11
119
241
253
254
248
245
254
254
253
254
255
255
255
255
255
255
255
255
255
255
255
255
255
255
255
255
255
255
255
255
255
255
255
255
255
255
255
255
255
255
255
255
255
255
255
255
255
255
255
255
255
255
255
255
255
255
255
255
255
255
255
255
255
255
255
255
255
255
255
255
255
255
255
255
255
255
255
255
255
255
255
255
255
255
255
255
255
255
255
255
255
255
255
255
255
255
255
255
255
255
255
255
255
255
255
255
255
255
255
255
255
255
255
255
255
255
255
255
255
255
255
255
255
255
255
255
255
255
255
255
255
255
255
255
255
255
255
255
255
255
255
255
255
255
255
255
255
255
255
255
255
255
255
255
255
255
255
255
255
255
255
255
255
255
255
255
255
255
255
255
255
255
255
255
255
255
255
255
255
255
255
255
255
255
255
255
255
255
255
255
255
255
255
255
255
255
255
255
255
255
255
255
255
255
255
255
255
255
255
255
255
255
255
255
255
255
255
255
255
255
255
255
255
255
255
255
255
255
255
255
255
255
255
255
255
255
255
255
255
255
255
255
255
255
255
255
255
255
255
255
255
255
255
255
255
255
255
255
255
255
255
255
255
255
255
255
255
255
255
255
255
255
255
255
255
255
255
255
255
255
255
255
255
255
255
255
255
255
255
255
255
255
255
255
255
255
255
255
255
255
255
255
255
255
255
255
255
255
255
255
255
255
255
255
255
255
255
255
255
255
255
255
255
255
255
255
255
255
255
255
255
255
255
255
255
255
255
255
255
255
255
255
255
255
255
255
255
255
255
255
255
255
255
255
255
255
255
255
255
255
255
255
255
255
255
255
255
255
255
255
255
255
255
255
255
255
255
255
255
255
255
255
255
255
255
255
255
255
255
255
255
255
255
254
254
253
252
252
251
249
252
237
147
29
14
79
118
142
120
96
129
128
135
147
158
157
155
157
162
157
144
130
122
115
102
174
160
122
117
136
145
175
186
199
196
176
157
155
162
157
49
129
138
88
30
16
125
235
254
254
245
249
254
254
254
255
255
255
255
255
255
255
255
255
255
255
255
255
255
255
255
255
255
255
255
255
255
255
255
255
255
255
255
255
255
255
255
255
255
255
255
255
255
255
255
255
255
255
255
255
255
255
255
255
255
255
255
255
255
255
255
255
255
255
255
255
255
255
255
255
255
255
255
255
255
255
255
255
255
255
255
255
255
255
255
255
255
255
255
255
255
255
255
255
255
255
255
255
255
255
255
255
255
255
255
255
255
255
255
255
255
255
255
255
255
255
255
255
255
255
255
255
255
255
255
255
255
255
255
255
255
255
255
255
255
255
255
255
255
255
255
255
255
255
255
255
255
255
255
255
255
255
255
255
255
255
255
255
255
255
255
255
255
255
255
255
255
255
255
255
255
255
255
255
255
255
255
255
255
255
255
255
255
255
255
255
255
255
255
255
255
255
255
255
255
255
255
255
255
255
255
255
255
255
255
255
255
255
255
255
255
255
255
255
255
255
255
255
255
255
255
255
255
255
255
255
255
255
255
255
255
255
255
255
255
255
255
255
255
255
255
255
255
255
255
255
255
255
255
255
255
255
255
255
255
255
255
255
255
255
255
255
255
255
255
255
255
255
255
255
255
255
255
255
255
255
255
255
255
255
255
255
255
255
255
255
255
255
255
255
255
255
255
255
255
255
255
255
255
255
255
255
255
255
255
255
255
255
255
255
255
255
255
255
255
255
255
255
255
255
255
255
255
255
255
255
255
255
255
255
255
255
255
255
255
255
255
255
255
255
255
255
255
255
255
255
255
255
255
255
255
255
255
255
255
255
255
255
255
255
255
255
255
255
255
255
255
255
255
255
255
255
255
255
255
255
255
255
255
255
255
255
255
255
255
255
255
255
254
253
252
252
251
251
254
217
142
44
16
78
133
122
127
120
77
111
155
153
142
162
140
143
144
136
119
111
124
143
181
109
158
191
190
159
126
103
110
128
157
182
185
172
162
161
174
65
130
131
129
108
24
30
150
216
254
254
250
254
254
254
255
255
255
255
255
255
255
255
255
255
255
255
255
255
255
255
255
255
255
255
255
255
255
255
255
255
255
255
255
255
255
255
255
255
255
255
255
255
255
255
255
255
255
255
255
255
255
255
255
255
255
255
255
255
255
255
255
255
255
255
255
255
255
255
255
255
255
255
255
255
255
255
255
255
255
255
255
255
255
255
255
255
255
255
255
255
255
255
255
255
255
255
255
255
255
255
255
255
255
255
255
255
255
255
255
255
255
255
255
255
255
255
255
255
255
255
255
255
255
255
255
255
255
255
255
255
255
255
255
255
255
255
255
255
255
255
255
255
255
255
255
255
255
255
255
255
255
255
255
255
255
255
255
255
255
255
255
255
255
255
255
255
255
255
255
255
255
255
255
255
255
255
255
255
255
255
255
255
255
255
255
255
255
255
255
255
255
255
255
255
255
255
255
255
255
255
255
255
255
255
255
255
255
255
255
255
255
255
255
255
255
255
255
255
255
255
255
255
255
255
255
255
255
255
255
255
255
255
255
255
255
255
255
255
255
255
255
255
255
255
255
255
255
255
255
255
255
255
255
255
255
255
255
255
255
255
255
255
255
255
255
255
255
255
255
255
255
255
255
255
255
255
255
255
255
255
255
255
255
255
255
255
255
255
255
255
255
255
255
255
255
255
255
255
255
255
255
255
255
255
255
255
255
255
255
255
255
255
255
255
255
255
255
255
255
255
255
255
255
255
255
255
255
255
255
255
255
255
255
255
255
255
255
255
255
255
255
255
255
255
255
255
255
255
255
255
255
255
255
255
255
255
255
255
255
255
255
255
255
255
255
255
255
255
255
255
255
255
255
255
255
255
255
255
255
255
255
255
255
255
255
255
255
254
253
252
251
250
250
243
143
29
26
96
123
121
140
133
119
99
124
126
148
151
121
133
117
102
97
104
124
159
189
156
104
161
182
189
189
181
161
128
115
112
135
163
173
171
167
169
48
140
134
126
144
77
25
37
149
239
254
252
254
254
254
255
255
255
255
255
255
255
255
255
255
255
255
255
255
255
255
255
255
255
255
255
255
255
255
255
255
255
255
255
255
255
255
255
255
255
255
255
255
255
255
255
255
255
255
255
255
255
255
255
255
255
255
255
255
255
255
255
255
255
255
255
255
255
255
255
255
255
255
255
255
255
255
255
255
255
255
255
255
255
255
255
255
255
255
255
255
255
255
255
255
255
255
255
255
255
255
255
255
255
255
255
255
255
255
255
255
255
255
255
255
255
255
255
255
255
255
255
255
255
255
255
255
255
255
255
255
255
255
255
255
255
255
255
255
255
255
255
255
255
255
255
255
255
255
255
255
255
255
255
255
255
255
255
255
255
255
255
255
255
255
255
255
255
255
255
255
255
255
255
255
255
255
255
255
255
255
255
255
255
255
255
255
255
255
255
255
255
255
255
255
255
255
255
255
255
255
255
255
255
255
255
255
255
255
255
255
255
255
255
255
255
255
255
255
255
255
255
255
255
255
255
255
255
255
255
255
255
255
255
255
255
255
255
255
255
255
255
255
255
255
255
255
255
255
255
255
255
255
255
255
255
255
255
255
255
255
255
255
255
255
255
255
255
255
255
255
255
255
255
255
255
255
255
255
255
255
255
255
255
255
255
255
255
255
255
255
255
255
255
255
255
255
255
255
255
255
255
255
255
255
255
255
255
255
255
255
255
255
255
255
255
255
255
255
255
255
255
255
255
255
255
255
255
255
255
255
255
255
255
255
255
255
255
255
255
255
255
255
255
255
255
255
255
255
255
255
255
255
255
255
255
255
255
255
255
255
255
255
255
255
255
255
255
255
255
255
255
255
255
255
255
255
255
255
255
255
255
255
255
255
255
255
250
254
246
252
248
251
245
117
20
26
97
121
128
140
131
138
142
64
77
86
88
90
92
99
115
138
151
154
154
159
163
156
100
157
177
175
175
182
186
181
169
142
110
90
100
136
167
165
71
145
150
119
138
117
93
30
15
171
253
246
253
242
252
255
255
255
255
255
255
255
255
255
255
255
255
255
255
255
255
255
255
255
255
255
255
255
255
255
255
255
255
255
255
255
255
255
255
255
255
255
255
255
255
255
255
255
255
255
255
255
255
255
255
255
255
255
255
255
255
255
255
255
255
255
255
255
255
255
255
255
255
255
255
255
255
255
255
255
255
255
255
255
255
255
255
255
255
255
255
255
255
255
255
255
255
255
255
255
255
255
255
255
255
255
255
255
255
255
255
255
255
255
255
255
255
255
255
255
255
255
255
255
255
255
255
255
255
255
255
255
255
255
255
255
255
255
255
255
255
255
255
255
255
255
255
255
255
255
255
255
255
255
255
255
255
255
255
255
255
255
255
255
255
255
255
255
255
255
255
255
255
255
255
255
255
255
255
255
255
255
255
255
255
255
255
255
255
255
255
255
255
255
255
255
255
255
255
255
255
255
255
255
255
255
255
255
255
255
255
255
255
255
255
255
255
255
255
255
255
255
255
255
255
255
255
255
255
255
255
255
255
255
255
255
255
255
255
255
255
255
255
255
255
255
255
255
255
255
255
255
255
255
255
255
255
255
255
255
255
255
255
255
255
255
255
255
255
255
255
255
255
255
255
255
255
255
255
255
255
255
255
255
255
255
255
255
255
255
255
255
255
255
255
255
255
255
255
255
255
255
255
255
255
255
255
255
255
255
255
255
255
255
255
255
255
255
255
255
255
255
255
255
255
255
255
255
255
255
255
255
255
255
255
255
255
255
255
255
255
255
255
255
255
255
255
255
255
255
255
255
255
255
255
255
255
255
255
255
255
255
255
255
255
255
255
255
255
255
255
255
255
255
255
255
255
255
255
255
255
255
255
255
255
255
253
254
250
255
253
235
254
146
18
31
77
113
119
120
132
138
146
119
36
67
104
106
108
119
137
149
160
163
158
154
155
159
144
88
145
166
161
160
167
170
178
179
175
157
132
111
100
97
119
31
167
156
136
145
129
121
67
25
55
180
254
254
252
253
255
255
255
255
255
255
255
255
255
255
255
255
255
255
255
255
255
255
255
255
255
255
255
255
255
255
255
255
255
255
255
255
255
255
255
255
255
255
255
255
255
255
255
255
255
255
255
255
255
255
255
255
255
255
255
255
255
255
255
255
255
255
255
255
255
255
255
255
255
255
255
255
255
255
255
255
255
255
255
255
255
255
255
255
255
255
255
255
255
255
255
255
255
255
255
255
255
255
255
255
255
255
255
255
255
255
255
255
255
255
255
255
255
255
255
255
255
255
255
255
255
255
255
255
255
255
255
255
255
255
255
255
255
255
255
255
255
255
255
255
255
255
255
255
255
255
255
255
255
255
255
255
255
255
255
255
255
255
255
255
255
255
255
255
255
255
255
255
255
255
255
255
255
255
255
255
255
255
255
255
255
255
255
255
255
255
255
255
255
255
255
255
255
255
255
255
255
255
255
255
255
255
255
255
255
255
255
255
255
255
255
255
255
255
255
255
255
255
255
255
255
255
255
255
255
255
255
255
255
255
255
255
255
255
255
255
255
255
255
255
255
255
255
255
255
255
255
255
255
255
255
255
255
255
255
255
255
255
255
255
255
255
255
255
255
255
255
255
255
255
255
255
255
255
255
255
255
255
255
255
255
255
255
255
255
255
255
255
255
255
255
255
255
255
255
255
255
255
255
255
255
255
255
255
255
255
255
255
255
255
255
255
255
255
255
255
255
255
255
255
255
255
255
255
255
255
255
255
255
255
255
255
255
255
255
255
255
255
255
255
255
255
255
255
255
255
255
255
255
255
255
255
255
255
255
255
255
255
255
255
255
255
255
255
255
255
255
255
255
255
255
255
255
255
255
255
255
255
255
255
255
251
255
248
254
255
235
195
48
4
67
112
122
127
128
130
144
135
100
38
88
140
133
133
151
146
154
160
160
155
154
159
163
141
83
142
161
157
155
159
163
153
159
166
169
165
152
138
127
95
3
172
152
139
137
126
134
105
59
7
83
207
249
254
255
255
255
255
255
255
255
255
255
255
255
255
255
255
255
255
255
255
255
255
255
255
255
255
255
255
255
255
255
255
255
255
255
255
255
255
255
255
255
255
255
255
255
255
255
255
255
255
255
255
255
255
255
255
255
255
255
255
255
255
255
255
255
255
255
255
255
255
255
255
255
255
255
255
255
255
255
255
255
255
255
255
255
255
255
255
255
255
255
255
255
255
255
255
255
255
255
255
255
255
255
255
255
255
255
255
255
255
255
255
255
255
255
255
255
255
255
255
255
255
255
255
255
255
255
255
255
255
255
255
255
255
255
255
255
255
255
255
255
255
255
255
255
255
255
255
255
255
255
255
255
255
255
255
255
255
255
255
255
255
255
255
255
255
255
255
255
255
255
255
255
255
255
255
255
255
255
255
255
255
255
255
255
255
255
255
255
255
255
255
255
255
255
255
255
255
255
255
255
255
255
255
255
255
255
255
255
255
255
255
255
255
255
255
255
255
255
255
255
255
255
255
255
255
255
255
255
255
255
255
255
255
255
255
255
255
255
255
255
255
255
255
255
255
255
255
255
255
255
255
255
255
255
255
255
255
255
255
255
255
255
255
255
255
255
255
255
255
255
255
255
255
255
255
255
255
255
255
255
255
255
255
255
255
255
255
255
255
255
255
255
255
255
255
255
255
255
255
255
255
255
255
255
255
255
255
255
255
255
255
255
255
255
255
255
255
255
255
255
255
255
255
255
255
255
255
255
255
255
255
255
255
255
255
255
255
255
255
255
255
255
255
255
255
255
255
255
255
255
255
255
255
255
255
255
255
255
255
255
255
255
255
255
255
255
255
255
255
255
255
255
255
255
255
255
255
255
255
255
255
255
255
252
255
255
242
254
207
74
19
59
94
116
120
127
133
138
149
91
95
73
116
154
145
138
152
136
142
149
151
150
153
161
168
144
86
145
162
158
157
160
161
164
162
161
161
163
163
162
161
138
28
159
156
149
135
130
142
130
100
52
10
109
238
249
253
254
254
254
254
254
255
255
255
255
255
255
255
255
255
255
255
255
255
255
255
255
255
255
255
255
255
255
255
255
255
255
255
255
255
255
255
255
255
255
255
255
255
255
255
255
255
255
255
255
255
255
255
255
255
255
255
255
255
255
255
255
255
255
255
255
255
255
255
255
255
255
255
255
255
255
255
255
255
255
255
255
255
255
255
255
255
255
255
255
255
255
255
255
255
255
255
255
255
255
255
255
255
255
255
255
255
255
255
255
255
255
255
255
255
255
255
255
255
255
255
255
255
255
255
255
255
255
255
255
255
255
255
255
255
255
255
255
255
255
255
255
255
255
255
255
255
255
255
255
255
255
255
255
255
255
255
255
255
255
255
255
255
255
255
255
255
255
255
255
255
255
255
255
255
255
255
255
255
255
255
255
255
255
255
255
255
255
255
255
255
255
255
255
255
255
255
255
255
255
255
255
255
255
255
255
255
255
255
255
255
255
255
255
255
255
255
255
255
255
255
255
255
255
255
255
255
255
255
255
255
255
255
255
255
255
255
255
255
255
255
255
255
255
255
255
255
255
255
255
255
255
255
255
255
255
255
255
255
255
255
255
255
255
255
255
255
255
255
255
255
255
255
255
255
255
255
255
255
255
255
255
255
255
255
255
255
255
255
255
255
255
255
255
255
255
255
255
255
255
255
255
255
255
255
255
255
255
255
255
255
255
255
255
255
255
255
255
255
255
255
255
255
255
255
255
255
255
255
255
255
255
255
255
255
255
255
255
255
255
255
255
255
255
255
255
255
255
255
255
255
255
255
255
255
255
255
255
255
255
255
255
255
255
255
255
255
255
255
255
255
255
255
255
255
255
255
255
255
255
255
255
249
245
254
252
213
109
6
42
89
98
117
121
120
132
140
127
68
105
105
107
139
141
134
133
141
145
150
152
149
150
155
160
140
84
144
163
158
155
158
161
164
165
166
164
159
155
154
153
164
51
104
152
151
135
131
139
136
128
90
9
36
184
249
242
252
253
253
253
254
255
255
255
255
255
255
255
255
255
255
255
255
255
255
255
255
255
255
255
255
255
255
255
255
255
255
255
255
255
255
255
255
255
255
255
255
255
255
255
255
255
255
255
255
255
255
255
255
255
255
255
255
255
255
255
255
255
255
255
255
255
255
255
255
255
255
255
255
255
255
255
255
255
255
255
255
255
255
255
255
255
255
255
255
255
255
255
255
255
255
255
255
255
255
255
255
255
255
255
255
255
255
255
255
255
255
255
255
255
255
255
255
255
255
255
255
255
255
255
255
255
255
255
255
255
255
255
255
255
255
255
255
255
255
255
255
255
255
255
255
255
255
255
255
255
255
255
255
255
255
255
255
255
255
255
255
255
255
255
255
255
255
255
255
255
255
255
255
255
255
255
255
255
255
255
255
255
255
255
255
255
255
255
255
255
255
255
255
255
255
255
255
255
255
255
255
255
255
255
255
255
255
255
255
255
255
255
255
255
255
255
255
255
255
255
255
255
255
255
255
255
255
255
255
255
255
255
255
255
255
255
255
255
255
255
255
255
255
255
255
255
255
255
255
255
255
255
255
255
255
255
255
255
255
255
255
255
255
255
255
255
255
255
255
255
255
255
255
255
255
255
255
255
255
255
255
255
255
255
255
255
255
255
255
255
255
255
255
255
255
255
255
255
255
255
255
255
255
255
255
255
255
255
255
255
255
255
255
255
255
255
255
255
255
255
255
255
255
255
255
255
255
255
255
255
255
255
255
255
255
255
255
255
255
255
255
255
255
255
255
255
255
255
255
255
255
255
255
255
255
255
255
255
255
255
255
255
255
255
255
255
255
255
255
255
255
255
255
255
255
255
255
255
255
255
255
252
246
252
255
126
11
27
73
101
105
120
124
127
139
122
75
104
132
119
89
127
146
144
133
143
147
150
150
148
147
150
153
137
82
142
162
158
155
158
160
151
156
162
163
159
159
162
167
141
45
64
121
143
136
131
134
122
143
113
70
20
79
229
255
251
252
252
253
254
254
255
255
255
255
255
255
255
255
255
255
255
255
255
255
255
255
255
255
255
255
255
255
255
255
255
255
255
255
255
255
255
255
255
255
255
255
255
255
255
255
255
255
255
255
255
255
255
255
255
255
255
255
255
255
255
255
255
255
255
255
255
255
255
255
255
255
255
255
255
255
255
255
255
255
255
255
255
255
255
255
255
255
255
255
255
255
255
255
255
255
255
255
255
255
255
255
255
255
255
255
255
255
255
255
255
255
255
255
255
255
255
255
255
255
255
255
255
255
255
255
255
255
255
255
255
255
255
255
255
255
255
255
255
255
255
255
255
255
255
255
255
255
255
255
255
255
255
255
255
255
255
255
255
255
255
255
255
255
255
255
255
255
255
255
255
255
255
255
255
255
255
255
255
255
255
255
255
255
255
255
255
255
255
255
255
255
255
255
255
255
255
255
255
255
255
255
255
255
255
255
255
255
255
255
255
255
255
255
255
255
255
255
255
255
255
255
255
255
255
255
255
255
255
255
255
255
255
255
255
255
255
255
255
255
255
255
255
255
255
255
255
255
255
255
255
255
255
255
255
255
255
255
255
255
255
255
255
255
255
255
255
255
255
255
255
255
255
255
255
255
255
255
255
255
255
255
255
255
255
255
255
255
255
255
255
255
255
255
255
255
255
255
255
255
255
255
255
255
255
255
255
255
255
255
255
255
255
255
255
255
255
255
255
255
255
255
255
255
255
255
255
255
255
255
255
255
255
255
255
255
255
255
255
255
255
255
255
255
255
255
255
255
255
255
255
255
255
255
255
255
255
255
255
255
255
255
255
255
255
255
255
255
255
255
255
255
255
255
255
255
255
255
255
255
255
253
254
247
203
50
3
50
88
107
119
125
127
131
118
95
84
144
144
122
91
135
149
148
146
138
141
143
143
142
143
147
151
134
78
139
160
157
156
158
160
166
166
163
159
153
155
160
165
128
61
91
96
136
144
138
146
119
138
129
121
40
9
166
253
251
251
252
252
253
254
255
255
255
255
255
255
255
255
255
255
255
255
255
255
255
255
255
255
255
255
255
255
255
255
255
255
255
255
255
255
255
255
255
255
255
255
255
255
255
255
255
255
255
255
255
255
255
255
255
255
255
255
255
255
255
255
255
255
255
255
255
255
255
255
255
255
255
255
255
255
255
255
255
255
255
255
255
255
255
255
255
255
255
255
255
255
255
255
255
255
255
255
255
255
255
255
255
255
255
255
255
255
255
255
255
255
255
255
255
255
255
255
255
255
255
255
255
255
255
255
255
255
255
255
255
255
255
255
255
255
255
255
255
255
255
255
255
255
255
255
255
255
255
255
255
255
255
255
255
255
255
255
255
255
255
255
255
255
255
255
255
255
255
255
255
255
255
255
255
255
255
255
255
255
255
255
255
255
255
255
255
255
255
255
255
255
255
255
255
255
255
255
255
255
255
255
255
255
255
255
255
255
255
255
255
255
255
255
255
255
255
255
255
255
255
255
255
255
255
255
255
255
255
255
255
255
255
255
255
255
255
255
255
255
255
255
255
255
255
255
255
255
255
255
255
255
255
255
255
255
255
255
255
255
255
255
255
255
255
255
255
255
255
255
255
255
255
255
255
255
255
255
255
255
255
255
255
255
255
255
255
255
255
255
255
255
255
255
255
255
255
255
255
255
255
255
255
255
255
255
255
255
255
255
255
255
255
255
255
255
255
255
255
255
255
255
255
255
255
255
255
255
255
255
255
255
255
255
255
255
255
255
255
255
255
255
255
255
255
255
255
255
255
255
255
255
255
255
255
255
255
255
255
255
255
255
255
255
255
255
255
255
255
255
255
255
255
255
255
255
255
255
255
255
255
253
254
232
107
8
43
41
86
96
125
131
129
118
68
75
157
144
131
117
98
141
137
133
148
143
143
142
140
138
139
144
147
128
69
134
155
152
150
153
157
160
159
157
155
154
155
157
157
123
75
126
69
114
132
126
145
136
119
128
121
59
12
96
238
250
250
251
252
253
254
255
255
255
255
255
255
255
255
255
255
255
255
255
255
255
255
255
255
255
255
255
255
255
255
255
255
255
255
255
255
255
255
255
255
255
255
255
255
255
255
255
255
255
255
255
255
255
255
255
255
255
255
255
255
255
255
255
255
255
255
255
255
255
255
255
255
255
255
255
255
255
255
255
255
255
255
255
255
255
255
255
255
255
255
255
255
255
255
255
255
255
255
255
255
255
255
255
255
255
255
255
255
255
255
255
255
255
255
255
255
255
255
255
255
255
255
255
255
255
255
255
255
255
255
255
255
255
255
255
255
255
255
255
255
255
255
255
255
255
255
255
255
255
255
255
255
255
255
255
255
255
255
255
255
255
255
255
255
255
255
255
255
255
255
255
255
255
255
255
255
255
255
255
255
255
255
255
255
255
255
255
255
255
255
255
255
255
255
255
255
255
255
255
255
255
255
255
255
255
255
255
255
255
255
255
255
255
255
255
255
255
255
255
255
255
255
255
255
255
255
255
255
255
255
255
255
255
255
255
255
255
255
255
255
255
255
255
255
255
255
255
255
255
255
255
255
255
255
255
255
255
255
255
255
255
255
255
255
255
255
255
255
255
255
255
255
255
255
255
255
255
255
255
255
255
255
255
255
255
255
255
255
255
255
255
255
255
255
255
255
255
255
255
255
255
255
255
255
255
255
255
255
255
255
255
255
255
255
255
255
255
255
255
255
255
255
255
255
255
255
255
255
255
255
255
255
255
255
255
255
255
255
255
255
255
255
255
255
255
255
255
255
255
255
255
255
255
255
255
255
255
255
255
255
255
255
255
255
255
255
255
255
255
255
255
255
255
255
254
254
255
255
250
252
255
239
252
165
33
32
85
59
92
124
127
112
85
81
107
136
146
141
139
122
83
125
146
139
140
139
137
139
142
139
135
141
150
122
71
125
142
146
149
148
152
149
146
148
154
154
148
146
149
95
100
138
116
67
136
140
136
145
114
131
133
74
16
4
172
251
247
250
254
254
253
250
254
255
255
255
255
255
255
255
255
255
255
255
255
255
255
255
255
255
255
255
255
255
255
255
255
255
255
255
255
255
255
255
255
255
255
255
255
255
255
255
255
255
255
255
255
255
255
255
255
255
255
255
255
255
255
255
255
255
255
255
255
255
255
255
255
255
255
255
255
255
255
255
255
255
255
255
255
255
255
255
255
255
255
255
255
255
255
255
255
255
255
255
255
255
255
255
255
255
255
255
255
255
255
255
255
255
255
255
255
255
255
255
255
255
255
255
255
255
255
255
255
255
255
255
255
255
255
255
255
255
255
255
255
255
255
255
255
255
255
255
255
255
255
255
255
255
255
255
255
255
255
255
255
255
255
255
255
255
255
255
255
255
255
255
255
255
255
255
255
255
255
255
255
255
255
255
255
255
255
255
255
255
255
255
255
255
255
255
255
255
255
255
255
255
255
255
255
255
255
255
255
255
255
255
255
255
255
255
255
255
255
255
255
255
255
255
255
255
255
255
255
255
255
255
255
255
255
255
255
255
255
255
255
255
255
255
255
255
255
255
255
255
255
255
255
255
255
255
255
255
255
255
255
255
255
255
255
255
255
255
255
255
255
255
255
255
255
255
255
255
255
255
255
255
255
255
255
255
255
255
255
255
255
255
255
255
255
255
255
255
255
255
255
255
255
255
255
255
255
255
255
255
255
255
255
255
255
255
255
255
255
255
255
255
255
255
255
255
255
255
255
255
255
255
255
255
255
255
255
255
255
255
255
255
255
255
255
255
255
255
255
255
255
255
255
255
255
255
255
255
255
255
255
255
255
255
255
255
255
255
255
255
255
255
255
255
255
253
252
255
255
252
250
253
254
210
88
30
55
74
56
91
108
89
80
95
121
136
136
132
140
140
121
82
125
147
140
140
139
137
138
143
143
140
143
149
120
67
127
150
143
127
122
137
139
136
138
142
143
139
137
140
97
114
127
127
90
89
147
135
142
128
134
127
82
47
7
72
212
250
252
249
254
252
252
254
255
255
255
255
255
255
255
255
255
255
255
255
255
255
255
255
255
255
255
255
255
255
255
255
255
255
255
255
255
255
255
255
255
255
255
255
255
255
255
255
255
255
255
255
255
255
255
255
255
255
255
255
255
255
255
255
255
255
255
255
255
255
255
255
255
255
255
255
255
255
255
255
255
255
255
255
255
255
255
255
255
255
255
255
255
255
255
255
255
255
255
255
255
255
255
255
255
255
255
255
255
255
255
255
255
255
255
255
255
255
255
255
255
255
255
255
255
255
255
255
255
255
255
255
255
255
255
255
255
255
255
255
255
255
255
255
255
255
255
255
255
255
255
255
255
255
255
255
255
255
255
255
255
255
255
255
255
255
255
255
255
255
255
255
255
255
255
255
255
255
255
255
255
255
255
255
255
255
255
255
255
255
255
255
255
255
255
255
255
255
255
255
255
255
255
255
255
255
255
255
255
255
255
255
255
255
255
255
255
255
255
255
255
255
255
255
255
255
255
255
255
255
255
255
255
255
255
255
255
255
255
255
255
255
255
255
255
255
255
255
255
255
255
255
255
255
255
255
255
255
255
255
255
255
255
255
255
255
255
255
255
255
255
255
255
255
255
255
255
255
255
255
255
255
255
255
255
255
255
255
255
255
255
255
255
255
255
255
255
255
255
255
255
255
255
255
255
255
255
255
255
255
255
255
255
255
255
255
255
255
255
255
255
255
255
255
255
255
255
255
255
255
255
255
255
255
255
255
255
255
255
255
255
255
255
255
255
255
255
255
255
255
255
255
255
255
255
255
255
255
255
255
255
255
255
255
255
255
255
255
255
255
255
255
255
255
253
251
255
255
254
250
248
254
147
19
40
86
73
57
78
78
77
90
116
136
140
136
135
139
139
119
80
124
148
140
138
141
137
137
142
144
143
143
144
125
69
128
149
154
149
141
148
136
135
135
138
138
136
136
139
78
108
140
139
113
60
118
143
139
133
125
123
93
85
40
14
144
244
254
243
254
251
254
254
255
255
255
255
255
255
255
255
255
255
255
255
255
255
255
255
255
255
255
255
255
255
255
255
255
255
255
255
255
255
255
255
255
255
255
255
255
255
255
255
255
255
255
255
255
255
255
255
255
255
255
255
255
255
255
255
255
255
255
255
255
255
255
255
255
255
255
255
255
255
255
255
255
255
255
255
255
255
255
255
255
255
255
255
255
255
255
255
255
255
255
255
255
255
255
255
255
255
255
255
255
255
255
255
255
255
255
255
255
255
255
255
255
255
255
255
255
255
255
255
255
255
255
255
255
255
255
255
255
255
255
255
255
255
255
255
255
255
255
255
255
255
255
255
255
255
255
255
255
255
255
255
255
255
255
255
255
255
255
255
255
255
255
255
255
255
255
255
255
255
255
255
255
255
255
255
255
255
255
255
255
255
255
255
255
255
255
255
255
255
255
255
255
255
255
255
255
255
255
255
255
255
255
255
255
255
255
255
255
255
255
255
255
255
255
255
255
255
255
255
255
255
255
255
255
255
255
255
255
255
255
255
255
255
255
255
255
255
255
255
255
255
255
255
255
255
255
255
255
255
255
255
255
255
255
255
255
255
255
255
255
255
255
255
255
255
255
255
255
255
255
255
255
255
255
255
255
255
255
255
255
255
255
255
255
255
255
255
255
255
255
255
255
255
255
255
255
255
255
255
255
255
255
255
255
255
255
255
255
255
255
255
255
255
255
255
255
255
255
255
255
255
255
255
255
255
255
255
255
255
255
255
255
255
255
255
255
255
255
255
255
255
255
255
255
255
255
255
255
255
255
255
255
255
255
255
255
255
255
255
255
255
255
255
255
254
253
254
255
255
254
253
253
229
90
12
62
105
83
50
62
79
104
126
127
126
134
138
136
138
140
120
79
123
149
141
137
140
140
140
140
141
141
141
142
117
75
132
141
140
149
149
147
140
139
139
140
141
141
142
144
78
96
152
140
134
97
77
114
138
133
122
126
88
95
81
19
64
213
252
246
255
251
254
252
255
255
255
255
255
255
255
255
255
255
255
255
255
255
255
255
255
255
255
255
255
255
255
255
255
255
255
255
255
255
255
255
255
255
255
255
255
255
255
255
255
255
255
255
255
255
255
255
255
255
255
255
255
255
255
255
255
255
255
255
255
255
255
255
255
255
255
255
255
255
255
255
255
255
255
255
255
255
255
255
255
255
255
255
255
255
255
255
255
255
255
255
255
255
255
255
255
255
255
255
255
255
255
255
255
255
255
255
255
255
255
255
255
255
255
255
255
255
255
255
255
255
255
255
255
255
255
255
255
255
255
255
255
255
255
255
255
255
255
255
255
255
255
255
255
255
255
255
255
255
255
255
255
255
255
255
255
255
255
255
255
255
255
255
255
255
255
255
255
255
255
255
255
255
255
255
255
255
255
255
255
255
255
255
255
255
255
255
255
255
255
255
255
255
255
255
255
255
255
255
255
255
255
255
255
255
255
255
255
255
255
255
255
255
255
255
255
255
255
255
255
255
255
255
255
255
255
255
255
255
255
255
255
255
255
255
255
255
255
255
255
255
255
255
255
255
255
255
255
255
255
255
255
255
255
255
255
255
255
255
255
255
255
255
255
255
255
255
255
255
255
255
255
255
255
255
255
255
255
255
255
255
255
255
255
255
255
255
255
255
255
255
255
255
255
255
255
255
255
255
255
255
255
255
255
255
255
255
255
255
255
255
255
255
255
255
255
255
255
255
255
255
255
255
255
255
255
255
255
255
255
255
255
255
255
255
255
255
255
255
255
255
255
255
255
255
255
255
255
255
255
255
255
255
255
255
255
255
255
255
255
255
255
255
255
251
255
255
255
252
252
255
255
188
41
38
82
108
79
32
66
115
121
124
125
133
142
138
125
137
141
122
79
120
146
140
137
138
141
143
142
140
141
144
147
120
80
142
149
135
129
133
145
140
141
140
139
139
142
143
142
91
114
136
138
145
141
73
69
118
132
134
133
72
87
106
41
6
157
237
255
255
251
254
252
255
255
255
255
255
255
255
255
255
255
255
255
255
255
255
255
255
255
255
255
255
255
255
255
255
255
255
255
255
255
255
255
255
255
255
255
255
255
255
255
255
255
255
255
255
255
255
255
255
255
255
255
255
255
255
255
255
255
255
255
255
255
255
255
255
255
255
255
255
255
255
255
255
255
255
255
255
255
255
255
255
255
255
255
255
255
255
255
255
255
255
255
255
255
255
255
255
255
255
255
255
255
255
255
255
255
255
255
255
255
255
255
255
255
255
255
255
255
255
255
255
255
255
255
255
255
255
255
255
255
255
255
255
255
255
255
255
255
255
255
255
255
255
255
255
255
255
255
255
255
255
255
255
255
255
255
255
255
255
255
255
255
255
255
255
255
255
255
255
255
255
255
255
255
255
255
255
255
255
255
255
255
255
255
255
255
255
255
255
255
255
255
255
255
255
255
255
255
255
255
255
255
255
255
255
255
255
255
255
255
255
255
255
255
255
255
255
255
255
255
255
255
255
255
255
255
255
255
255
255
255
255
255
255
255
255
255
255
255
255
255
255
255
255
255
255
255
255
255
255
255
255
255
255
255
255
255
255
255
255
255
255
255
255
255
255
255
255
255
255
255
255
255
255
255
255
255
255
255
255
255
255
255
255
255
255
255
255
255
255
255
255
255
255
255
255
255
255
255
255
255
255
255
255
255
255
255
255
255
255
255
255
255
255
255
255
255
255
255
255
255
255
255
255
255
255
255
255
255
255
255
255
255
255
255
255
255
255
255
255
255
255
255
255
255
255
255
255
255
255
255
255
255
255
255
255
255
255
255
255
255
255
255
255
255
251
255
255
254
251
252
253
252
142
10
60
92
101
66
26
87
132
116
115
131
143
137
129
130
135
143
128
80
117
143
139
136
136
141
143
142
143
144
144
141
116
50
107
143
152
144
136
146
139
142
142
139
139
142
142
138
68
138
125
139
140
140
113
86
80
111
132
130
64
88
120
66
2
88
206
254
255
253
255
254
255
255
255
255
255
255
255
255
255
255
255
255
255
255
255
255
255
255
255
255
255
255
255
255
255
255
255
255
255
255
255
255
255
255
255
255
255
255
255
255
255
255
255
255
255
255
255
255
255
255
255
255
255
255
255
255
255
255
255
255
255
255
255
255
255
255
255
255
255
255
255
255
255
255
255
255
255
255
255
255
255
255
255
255
255
255
255
255
255
255
255
255
255
255
255
255
255
255
255
255
255
255
255
255
255
255
255
255
255
255
255
255
255
255
255
255
255
255
255
255
255
255
255
255
255
255
255
255
255
255
255
255
255
255
255
255
255
255
255
255
255
255
255
255
255
255
255
255
255
255
255
255
255
255
255
255
255
255
255
255
255
255
255
255
255
255
255
255
255
255
255
255
255
255
255
255
255
255
255
255
255
255
255
255
255
255
255
255
255
255
255
255
255
255
255
255
255
255
255
255
255
255
255
255
255
255
255
255
255
255
255
255
255
255
255
255
255
255
255
255
255
255
255
255
255
255
255
255
255
255
255
255
255
255
255
255
255
255
255
255
255
255
255
255
255
255
255
255
255
255
255
255
255
255
255
255
255
255
255
255
255
255
255
255
255
255
255
255
255
255
255
255
255
255
255
255
255
255
255
255
255
255
255
255
255
255
255
255
255
255
255
255
255
255
255
255
255
255
255
255
255
255
255
255
255
255
255
255
255
255
255
255
255
255
255
255
255
255
255
255
255
255
255
255
255
255
255
255
255
255
255
255
255
255
255
255
255
255
255
255
255
255
255
255
255
255
255
255
255
255
255
255
255
255
255
255
255
255
255
255
255
255
255
255
255
253
255
255
253
255
255
246
233
83
16
76
89
92
70
51
94
123
114
117
132
136
127
128
140
132
144
132
81
114
139
137
136
139
140
140
141
143
143
129
113
83
23
77
104
127
145
143
138
138
142
143
139
139
140
139
133
53
129
137
137
137
133
140
128
83
78
99
118
74
95
121
93
17
27
168
254
250
255
254
254
255
255
255
255
255
255
255
255
255
255
255
255
255
255
255
255
255
255
255
255
255
255
255
255
255
255
255
255
255
255
255
255
255
255
255
255
255
255
255
255
255
255
255
255
255
255
255
255
255
255
255
255
255
255
255
255
255
255
255
255
255
255
255
255
255
255
255
255
255
255
255
255
255
255
255
255
255
255
255
255
255
255
255
255
255
255
255
255
255
255
255
255
255
255
255
255
255
255
255
255
255
255
255
255
255
255
255
255
255
255
255
255
255
255
255
255
255
255
255
255
255
255
255
255
255
255
255
255
255
255
255
255
255
255
255
255
255
255
255
255
255
255
255
255
255
255
255
255
255
255
255
255
255
255
255
255
255
255
255
255
255
255
255
255
255
255
255
255
255
255
255
255
255
255
255
255
255
255
255
255
255
255
255
255
255
255
255
255
255
255
255
255
255
255
255
255
255
255
255
255
255
255
255
255
255
255
255
255
255
255
255
255
255
255
255
255
255
255
255
255
255
255
255
255
255
255
255
255
255
255
255
255
255
255
255
255
255
255
255
255
255
255
255
255
255
255
255
255
255
255
255
255
255
255
255
255
255
255
255
255
255
255
255
255
255
255
255
255
255
255
255
255
255
255
255
255
255
255
255
255
255
255
255
255
255
255
255
255
255
255
255
255
255
255
255
255
255
255
255
255
255
255
255
255
255
255
255
255
255
255
255
255
255
255
255
255
255
255
255
255
255
255
255
255
255
255
255
255
255
255
255
255
255
255
255
255
255
255
255
255
255
255
255
255
255
255
255
255
255
255
255
255
255
255
255
255
255
255
255
255
255
255
255
255
255
255
254
251
252
255
255
239
215
33
30
88
83
89
86
86
85
121
121
120
119
124
133
136
133
132
144
136
82
111
136
135
137
143
140
137
138
143
137
110
83
69
62
119
92
83
123
146
140
133
138
139
135
134
136
133
127
84
105
149
125
142
149
133
136
122
63
65
109
84
95
114
116
43
2
142
252
243
255
253
255
255
255
255
255
255
255
255
255
255
255
255
255
255
255
255
255
255
255
255
255
255
255
255
255
255
255
255
255
255
255
255
255
255
255
255
255
255
255
255
255
255
255
255
255
255
255
255
255
255
255
255
255
255
255
255
255
255
255
255
255
255
255
255
255
255
255
255
255
255
255
255
255
255
255
255
255
255
255
255
255
255
255
255
255
255
255
255
255
255
255
255
255
255
255
255
255
255
255
255
255
255
255
255
255
255
255
255
255
255
255
255
255
255
255
255
255
255
255
255
255
255
255
255
255
255
255
255
255
255
255
255
255
255
255
255
255
255
255
255
255
255
255
255
255
255
255
255
255
255
255
255
255
255
255
255
255
255
255
255
255
255
255
255
255
255
255
255
255
255
255
255
255
255
255
255
255
255
255
255
255
255
255
255
255
255
255
255
255
255
255
255
255
255
255
255
255
255
255
255
255
255
255
255
255
255
255
255
255
255
255
255
255
255
255
255
255
255
255
255
255
255
255
255
255
255
255
255
255
255
255
255
255
255
255
255
255
255
255
255
255
255
255
255
255
255
255
255
255
255
255
255
255
255
255
255
255
255
255
255
255
255
255
255
255
255
255
255
255
255
255
255
255
255
255
255
255
255
255
255
255
255
255
255
255
255
255
255
255
255
255
255
255
255
255
255
255
255
255
255
255
255
255
255
255
255
255
255
255
255
255
255
255
255
255
255
255
255
255
255
255
255
255
255
255
255
255
255
255
255
255
255
255
255
255
255
255
255
255
255
255
255
255
255
255
255
255
255
255
255
255
255
255
255
255
255
255
255
255
255
255
255
255
255
255
255
255
250
255
254
255
253
244
129
5
59
88
88
74
92
109
78
115
119
116
116
127
131
129
134
140
130
138
92
99
145
137
137
137
145
149
136
109
88
89
100
123
84
137
140
104
70
90
138
147
146
138
138
133
142
149
115
94
127
142
137
133
131
130
132
129
128
83
19
76
115
111
114
70
8
65
248
255
244
252
253
255
255
255
255
255
255
255
255
255
255
255
255
255
255
255
255
255
255
255
255
255
255
255
255
255
255
255
255
255
255
255
255
255
255
255
255
255
255
255
255
255
255
255
255
255
255
255
255
255
255
255
255
255
255
255
255
255
255
255
255
255
255
255
255
255
255
255
255
255
255
255
255
255
255
255
255
255
255
255
255
255
255
255
255
255
255
255
255
255
255
255
255
255
255
255
255
255
255
255
255
255
255
255
255
255
255
255
255
255
255
255
255
255
255
255
255
255
255
255
255
255
255
255
255
255
255
255
255
255
255
255
255
255
255
255
255
255
255
255
255
255
255
255
255
255
255
255
255
255
255
255
255
255
255
255
255
255
255
255
255
255
255
255
255
255
255
255
255
255
255
255
255
255
255
255
255
255
255
255
255
255
255
255
255
255
255
255
255
255
255
255
255
255
255
255
255
255
255
255
255
255
255
255
255
255
255
255
255
255
255
255
255
255
255
255
255
255
255
255
255
255
255
255
255
255
255
255
255
255
255
255
255
255
255
255
255
255
255
255
255
255
255
255
255
255
255
255
255
255
255
255
255
255
255
255
255
255
255
255
255
255
255
255
255
255
255
255
255
255
255
255
255
255
255
255
255
255
255
255
255
255
255
255
255
255
255
255
255
255
255
255
255
255
255
255
255
255
255
255
255
255
255
255
255
255
255
255
255
255
255
255
255
255
255
255
255
255
255
255
255
255
255
255
255
255
255
255
255
255
255
255
255
255
255
255
255
255
255
255
255
255
255
255
255
255
255
255
255
255
255
255
255
255
255
255
255
255
255
255
255
255
255
255
255
255
255
252
255
251
255
251
225
101
14
70
91
84
71
92
108
74
113
121
118
117
127
130
128
132
133
134
140
94
83
147
149
144
151
127
92
72
74
97
131
152
120
74
120
138
138
119
95
83
117
133
144
146
131
133
139
106
96
126
142
137
135
135
131
133
128
126
100
62
67
115
121
119
91
11
27
195
245
250
253
249
255
255
255
255
255
255
255
255
255
255
255
255
255
255
255
255
255
255
255
255
255
255
255
255
255
255
255
255
255
255
255
255
255
255
255
255
255
255
255
255
255
255
255
255
255
255
255
255
255
255
255
255
255
255
255
255
255
255
255
255
255
255
255
255
255
255
255
255
255
255
255
255
255
255
255
255
255
255
255
255
255
255
255
255
255
255
255
255
255
255
255
255
255
255
255
255
255
255
255
255
255
255
255
255
255
255
255
255
255
255
255
255
255
255
255
255
255
255
255
255
255
255
255
255
255
255
255
255
255
255
255
255
255
255
255
255
255
255
255
255
255
255
255
255
255
255
255
255
255
255
255
255
255
255
255
255
255
255
255
255
255
255
255
255
255
255
255
255
255
255
255
255
255
255
255
255
255
255
255
255
255
255
255
255
255
255
255
255
255
255
255
255
255
255
255
255
255
255
255
255
255
255
255
255
255
255
255
255
255
255
255
255
255
255
255
255
255
255
255
255
255
255
255
255
255
255
255
255
255
255
255
255
255
255
255
255
255
255
255
255
255
255
255
255
255
255
255
255
255
255
255
255
255
255
255
255
255
255
255
255
255
255
255
255
255
255
255
255
255
255
255
255
255
255
255
255
255
255
255
255
255
255
255
255
255
255
255
255
255
255
255
255
255
255
255
255
255
255
255
255
255
255
255
255
255
255
255
255
255
255
255
255
255
255
255
255
255
255
255
255
255
255
255
255
255
255
255
255
255
255
255
255
255
255
255
255
255
255
255
255
255
255
255
255
255
255
255
255
255
255
255
255
255
255
255
255
255
255
255
255
255
255
255
255
255
254
254
255
250
255
254
203
68
34
84
92
76
71
97
109
68
108
120
121
120
126
128
126
130
133
136
143
111
66
122
122
119
93
90
94
111
129
137
137
136
110
79
127
137
144
145
126
102
60
81
105
132
143
150
149
99
100
128
141
136
135
134
130
130
121
118
109
87
49
99
118
121
106
23
3
146
238
252
254
253
255
255
255
255
255
255
255
255
255
255
255
255
255
255
255
255
255
255
255
255
255
255
255
255
255
255
255
255
255
255
255
255
255
255
255
255
255
255
255
255
255
255
255
255
255
255
255
255
255
255
255
255
255
255
255
255
255
255
255
255
255
255
255
255
255
255
255
255
255
255
255
255
255
255
255
255
255
255
255
255
255
255
255
255
255
255
255
255
255
255
255
255
255
255
255
255
255
255
255
255
255
255
255
255
255
255
255
255
255
255
255
255
255
255
255
255
255
255
255
255
255
255
255
255
255
255
255
255
255
255
255
255
255
255
255
255
255
255
255
255
255
255
255
255
255
255
255
255
255
255
255
255
255
255
255
255
255
255
255
255
255
255
255
255
255
255
255
255
255
255
255
255
255
255
255
255
255
255
255
255
255
255
255
255
255
255
255
255
255
255
255
255
255
255
255
255
255
255
255
255
255
255
255
255
255
255
255
255
255
255
255
255
255
255
255
255
255
255
255
255
255
255
255
255
255
255
255
255
255
255
255
255
255
255
255
255
255
255
255
255
255
255
255
255
255
255
255
255
255
255
255
255
255
255
255
255
255
255
255
255
255
255
255
255
255
255
255
255
255
255
255
255
255
255
255
255
255
255
255
255
255
255
255
255
255
255
255
255
255
255
255
255
255
255
255
255
255
255
255
255
255
255
255
255
255
255
255
255
255
255
255
255
255
255
255
255
255
255
255
255
255
255
255
255
255
255
255
255
255
255
255
255
255
255
255
255
255
255
255
255
255
255
255
255
255
255
255
255
255
255
255
255
255
255
255
255
255
255
255
255
255
255
255
255
255
252
255
255
251
255
255
181
42
57
94
86
65
72
106
113
68
100
117
124
121
124
126
123
127
133
131
139
130
58
94
92
97
87
101
126
148
149
146
137
133
108
87
140
140
137
143
146
142
117
106
86
84
93
118
125
80
108
132
140
132
131
131
127
126
119
117
109
77
46
78
104
122
100
41
5
120
236
253
252
253
255
255
255
255
255
255
255
255
255
255
255
255
255
255
255
255
255
255
255
255
255
255
255
255
255
255
255
255
255
255
255
255
255
255
255
255
255
255
255
255
255
255
255
255
255
255
255
255
255
255
255
255
255
255
255
255
255
255
255
255
255
255
255
255
255
255
255
255
255
255
255
255
255
255
255
255
255
255
255
255
255
255
255
255
255
255
255
255
255
255
255
255
255
255
255
255
255
255
255
255
255
255
255
255
255
255
255
255
255
255
255
255
255
255
255
255
255
255
255
255
255
255
255
255
255
255
255
255
255
255
255
255
255
255
255
255
255
255
255
255
255
255
255
255
255
255
255
255
255
255
255
255
255
255
255
255
255
255
255
255
255
255
255
255
255
255
255
255
255
255
255
255
255
255
255
255
255
255
255
255
255
255
255
255
255
255
255
255
255
255
255
255
255
255
255
255
255
255
255
255
255
255
255
255
255
255
255
255
255
255
255
255
255
255
255
255
255
255
255
255
255
255
255
255
255
255
255
255
255
255
255
255
255
255
255
255
255
255
255
255
255
255
255
255
255
255
255
255
255
255
255
255
255
255
255
255
255
255
255
255
255
255
255
255
255
255
255
255
255
255
255
255
255
255
255
255
255
255
255
255
255
255
255
255
255
255
255
255
255
255
255
255
255
255
255
255
255
255
255
255
255
255
255
255
255
255
255
255
255
255
255
255
255
255
255
255
255
255
255
255
255
255
255
255
255
255
255
255
255
255
255
255
255
255
255
255
255
255
255
255
255
255
255
255
255
255
255
255
255
255
255
255
255
255
255
255
255
255
255
255
255
255
255
255
255
252
255
255
253
255
255
154
21
75
99
79
58
77
114
119
76
89
114
125
122
122
123
122
126
126
129
127
114
48
94
109
112
136
137
137
137
135
135
144
149
115
82
132
142
146
142
135
131
153
147
123
101
81
86
83
36
114
135
139
130
127
127
125
124
122
123
109
65
74
77
88
120
100
55
5
91
229
253
247
253
255
255
255
255
255
255
255
255
255
255
255
255
255
255
255
255
255
255
255
255
255
255
255
255
255
255
255
255
255
255
255
255
255
255
255
255
255
255
255
255
255
255
255
255
255
255
255
255
255
255
255
255
255
255
255
255
255
255
255
255
255
255
255
255
255
255
255
255
255
255
255
255
255
255
255
255
255
255
255
255
255
255
255
255
255
255
255
255
255
255
255
255
255
255
255
255
255
255
255
255
255
255
255
255
255
255
255
255
255
255
255
255
255
255
255
255
255
255
255
255
255
255
255
255
255
255
255
255
255
255
255
255
255
255
255
255
255
255
255
255
255
255
255
255
255
255
255
255
255
255
255
255
255
255
255
255
255
255
255
255
255
255
255
255
255
255
255
255
255
255
255
255
255
255
255
255
255
255
255
255
255
255
255
255
255
255
255
255
255
255
255
255
255
255
255
255
255
255
255
255
255
255
255
255
255
255
255
255
255
255
255
255
255
255
255
255
255
255
255
255
255
255
255
255
255
255
255
255
255
255
255
255
255
255
255
255
255
255
255
255
255
255
255
255
255
255
255
255
255
255
255
255
255
255
255
255
255
255
255
255
255
255
255
255
255
255
255
255
255
255
255
255
255
255
255
255
255
255
255
255
255
255
255
255
255
255
255
255
255
255
255
255
255
255
255
255
255
255
255
255
255
255
255
255
255
255
255
255
255
255
255
255
255
255
255
255
255
255
255
255
255
255
255
255
255
255
255
255
255
255
255
255
255
255
255
255
255
255
255
255
255
255
255
255
255
255
255
255
255
255
255
255
255
255
255
255
255
255
255
255
255
255
255
255
255
255
255
255
254
252
246
126
7
84
101
76
58
80
115
123
91
77
108
125
122
121
120
120
124
124
129
110
80
43
100
137
133
141
138
138
143
145
141
136
135
115
76
125
141
144
137
134
137
124
135
140
145
138
126
87
8
106
131
138
128
127
127
124
126
123
125
104
65
108
92
77
109
116
70
4
62
222
253
253
253
255
255
255
255
255
255
255
255
255
255
255
255
255
255
255
255
255
255
255
255
255
255
255
255
255
255
255
255
255
255
255
255
255
255
255
255
255
255
255
255
255
255
255
255
255
255
255
255
255
255
255
255
255
255
255
255
255
255
255
255
255
255
255
255
255
255
255
255
255
255
255
255
255
255
255
255
255
255
255
255
255
255
255
255
255
255
255
255
255
255
255
255
255
255
255
255
255
255
255
255
255
255
255
255
255
255
255
255
255
255
255
255
255
255
255
255
255
255
255
255
255
255
255
255
255
255
255
255
255
255
255
255
255
255
255
255
255
255
255
255
255
255
255
255
255
255
255
255
255
255
255
255
255
255
255
255
255
255
255
255
255
255
255
255
255
255
255
255
255
255
255
255
255
255
255
255
255
255
255
255
255
255
255
255
255
255
255
255
255
255
255
255
255
255
255
255
255
255
255
255
255
255
255
255
255
255
255
255
255
255
255
255
255
255
255
255
255
255
255
255
255
255
255
255
255
255
255
255
255
255
255
255
255
255
255
255
255
255
255
255
255
255
255
255
255
255
255
255
255
255
255
255
255
255
255
255
255
255
255
255
255
255
255
255
255
255
255
255
255
255
255
255
255
255
255
255
255
255
255
255
255
255
255
255
255
255
255
255
255
255
255
255
255
255
255
255
255
255
255
255
255
255
255
255
255
255
255
255
255
255
255
255
255
255
255
255
255
255
255
255
255
255
255
255
255
255
255
255
255
255
255
255
255
255
255
255
255
255
255
255
255
255
255
255
255
255
255
255
255
255
255
255
255
255
255
255
255
255
255
255
255
255
255
255
255
255
255
255
255
249
239
110
10
85
103
80
64
82
109
122
107
66
103
125
122
119
119
120
125
123
115
90
73
64
98
132
138
137
131
131
137
141
138
134
133
110
78
129
137
132
131
139
152
143
138
127
133
143
144
111
26
83
114
129
125
124
125
123
126
127
118
87
71
115
109
74
100
124
81
8
49
210
252
253
254
255
255
255
255
255
255
255
255
255
255
255
255
255
255
255
255
255
255
255
255
255
255
255
255
255
255
255
255
255
255
255
255
255
255
255
255
255
255
255
255
255
255
255
255
255
255
255
255
255
255
255
255
255
255
255
255
255
255
255
255
255
255
255
255
255
255
255
255
255
255
255
255
255
255
255
255
255
255
255
255
255
255
255
255
255
255
255
255
255
255
255
255
255
255
255
255
255
255
255
255
255
255
255
255
255
255
255
255
255
255
255
255
255
255
255
255
255
255
255
255
255
255
255
255
255
255
255
255
255
255
255
255
255
255
255
255
255
255
255
255
255
255
255
255
255
255
255
255
255
255
255
255
255
255
255
255
255
255
255
255
255
255
255
255
255
255
255
255
255
255
255
255
255
255
255
255
255
255
255
255
255
255
255
255
255
255
255
255
255
255
255
255
255
255
255
255
255
255
255
255
255
255
255
255
255
255
255
255
255
255
255
255
255
255
255
255
255
255
255
255
255
255
255
255
255
255
255
255
255
255
255
255
255
255
255
255
255
255
255
255
255
255
255
255
255
255
255
255
255
255
255
255
255
255
255
255
255
255
255
255
255
255
255
255
255
255
255
255
255
255
255
255
255
255
255
255
255
255
255
255
255
255
255
255
255
255
255
255
255
255
255
255
255
255
255
255
255
255
255
255
255
255
255
255
255
255
255
255
255
255
255
255
255
255
255
255
255
255
255
255
255
255
255
255
255
255
255
255
255
255
255
255
255
255
255
255
255
255
255
255
255
255
255
255
255
255
255
255
255
255
255
255
255
255
255
255
255
255
255
255
255
255
255
255
255
255
254
255
255
251
239
108
22
84
105
85
70
81
103
120
118
59
99
123
122
117
118
120
125
119
90
76
96
107
99
118
140
134
133
132
133
130
128
135
143
111
80
129
136
136
137
135
129
133
136
128
128
130
140
125
57
63
96
119
120
121
122
120
124
136
114
73
78
108
120
81
100
114
80
16
45
195
240
250
251
255
255
255
255
255
255
255
255
255
255
255
255
255
255
255
255
255
255
255
255
255
255
255
255
255
255
255
255
255
255
255
255
255
255
255
255
255
255
255
255
255
255
255
255
255
255
255
255
255
255
255
255
255
255
255
255
255
255
255
255
255
255
255
255
255
255
255
255
255
255
255
255
255
255
255
255
255
255
255
255
255
255
255
255
255
255
255
255
255
255
255
255
255
255
255
255
255
255
255
255
255
255
255
255
255
255
255
255
255
255
255
255
255
255
255
255
255
255
255
255
255
255
255
255
255
255
255
255
255
255
255
255
255
255
255
255
255
255
255
255
255
255
255
255
255
255
255
255
255
255
255
255
255
255
255
255
255
255
255
255
255
255
255
255
255
255
255
255
255
255
255
255
255
255
255
255
255
255
255
255
255
255
255
255
255
255
255
255
255
255
255
255
255
255
255
255
255
255
255
255
255
255
255
255
255
255
255
255
255
255
255
255
255
255
255
255
255
255
255
255
255
255
255
255
255
255
255
255
255
255
255
255
255
255
255
255
255
255
255
255
255
255
255
255
255
255
255
255
255
255
255
255
255
255
255
255
255
255
255
255
255
255
255
255
255
255
255
255
255
255
255
255
255
255
255
255
255
255
255
255
255
255
255
255
255
255
255
255
255
255
255
255
255
255
255
255
255
255
255
255
255
255
255
255
255
255
255
255
255
255
255
255
255
255
255
255
255
255
255
255
255
255
255
255
255
255
255
255
255
255
255
255
255
255
255
255
255
255
255
255
255
255
255
255
255
255
255
255
255
255
255
255
255
255
255
255
255
255
255
255
255
255
255
255
255
253
255
253
253
254
243
96
19
90
113
85
74
88
96
113
125
75
72
124
135
115
122
118
113
70
70
112
125
114
70
126
131
130
130
129
129
130
132
134
135
104
79
131
135
133
136
138
133
135
136
128
136
135
135
90
83
106
70
86
125
127
120
122
116
126
108
74
99
123
108
103
90
99
90
29
26
157
252
254
250
254
254
254
254
254
254
254
254
255
255
255
255
255
255
255
255
254
255
255
255
255
255
255
254
254
254
255
255
255
254
253
252
254
255
255
255
255
255
255
255
254
254
254
252
249
250
254
254
255
255
254
252
251
252
253
254
254
255
255
255
255
255
255
254
255
255
255
255
255
255
255
255
255
255
255
255
255
255
255
255
255
255
255
255
255
255
255
255
255
255
255
255
255
255
255
255
255
255
255
255
255
255
255
255
255
255
255
255
255
255
255
255
255
255
255
255
255
255
255
255
255
255
255
255
255
255
255
255
255
255
255
255
255
255
255
255
255
255
255
255
255
255
255
255
255
255
255
255
255
255
255
255
255
255
255
255
255
255
255
255
255
255
255
255
255
255
255
255
255
255
255
255
255
255
255
255
255
255
255
255
255
255
255
255
255
255
255
255
255
255
255
255
255
255
255
255
255
255
255
255
255
255
255
255
255
255
255
255
255
255
255
255
255
255
255
255
255
255
255
255
255
255
255
255
255
255
255
255
255
255
255
255
255
255
255
255
255
255
255
255
255
255
255
255
255
255
255
255
255
255
255
255
255
255
255
255
255
255
255
255
255
255
255
255
255
255
255
255
255
255
255
255
255
255
255
255
255
255
255
255
255
255
255
255
255
255
255
255
255
255
255
255
255
255
255
255
255
255
255
255
255
255
255
255
255
255
255
255
255
255
255
255
255
255
255
255
255
255
255
255
255
255
255
255
255
255
255
255
255
255
255
255
255
255
255
255
255
255
255
255
255
255
255
255
255
255
255
255
255
255
255
255
255
255
255
255
255
255
255
255
255
255
255
255
255
253
255
254
253
254
240
97
24
101
113
81
73
89
93
106
121
84
75
112
124
119
135
112
74
93
92
122
124
115
67
114
127
128
127
127
127
128
129
132
133
104
79
130
134
130
133
135
130
131
134
126
133
130
134
78
88
131
103
73
90
128
119
104
123
124
96
79
102
119
109
102
96
105
91
21
15
146
247
254
254
254
254
254
254
254
254
254
254
255
255
255
255
255
255
255
255
254
255
255
255
255
255
255
254
254
254
255
255
255
255
255
255
255
255
254
254
255
254
253
251
250
252
255
255
255
255
255
255
248
249
251
252
254
255
255
255
254
255
255
255
255
255
255
254
255
255
255
255
255
255
255
255
255
255
255
255
255
255
255
255
255
255
255
255
255
255
255
255
255
255
255
255
255
255
255
255
255
255
255
255
255
255
255
255
255
255
255
255
255
255
255
255
255
255
255
255
255
255
255
255
255
255
255
255
255
255
255
255
255
255
255
255
255
255
255
255
255
255
255
255
255
255
255
255
255
255
255
255
255
255
255
255
255
255
255
255
255
255
255
255
255
255
255
255
255
255
255
255
255
255
255
255
255
255
255
255
255
255
255
255
255
255
255
255
255
255
255
255
255
255
255
255
255
255
255
255
255
255
255
255
255
255
255
255
255
255
255
255
255
255
255
255
255
255
255
255
255
255
255
255
255
255
255
255
255
255
255
255
255
255
255
255
255
255
255
255
255
255
255
255
255
255
255
255
255
255
255
255
255
255
255
255
255
255
255
255
255
255
255
255
255
255
255
255
255
255
255
255
255
255
255
255
255
255
255
255
255
255
255
255
255
255
255
255
255
255
255
255
255
255
255
255
255
255
255
255
255
255
255
255
255
255
255
255
255
255
255
255
255
255
255
255
255
255
255
255
255
255
255
255
255
255
255
255
255
255
255
255
255
255
255
255
255
255
255
255
255
255
255
255
255
255
255
255
255
255
255
255
255
255
255
255
255
255
255
255
255
255
255
255
255
255
255
255
255
253
255
254
253
254
237
98
32
110
105
66
70
93
91
102
119
96
66
97
125
108
94
92
91
113
116
129
122
117
71
100
127
125
125
124
124
125
127
129
130
100
75
126
130
126
129
131
126
126
131
121
127
126
132
64
99
136
136
94
62
92
122
121
119
120
80
87
109
114
110
102
103
105
88
18
13
146
248
255
255
254
254
254
254
254
254
254
254
255
255
255
255
255
255
255
255
254
254
255
255
255
255
254
254
255
255
254
255
255
255
255
255
255
255
253
255
255
255
255
255
255
255
255
255
255
255
255
252
255
255
255
255
255
255
255
255
255
255
255
255
255
255
255
255
255
255
255
255
255
255
255
255
255
255
255
255
255
255
255
255
255
255
255
255
255
255
255
255
255
255
255
255
255
255
255
255
255
255
255
255
255
255
255
255
255
255
255
255
255
255
255
255
255
255
255
255
255
255
255
255
255
255
255
255
255
255
255
255
255
255
255
255
255
255
255
255
255
255
255
255
255
255
255
255
255
255
255
255
255
255
255
255
255
255
255
255
255
255
255
255
255
255
255
255
255
255
255
255
255
255
255
255
255
255
255
255
255
255
255
255
255
255
255
255
255
255
255
255
255
255
255
255
255
255
255
255
255
255
255
255
255
255
255
255
255
255
255
255
255
255
255
255
255
255
255
255
255
255
255
255
255
255
255
255
255
255
255
255
255
255
255
255
255
255
255
255
255
255
255
255
255
255
255
255
255
255
255
255
255
255
255
255
255
255
255
255
255
255
255
255
255
255
255
255
255
255
255
255
255
255
255
255
255
255
255
255
255
255
255
255
255
255
255
255
255
255
255
255
255
255
255
255
255
255
255
255
255
255
255
255
255
255
255
255
255
255
255
255
255
255
255
255
255
255
255
255
255
255
255
255
255
255
255
255
255
255
255
255
255
255
255
255
255
255
255
255
255
255
255
255
255
255
255
255
255
255
255
255
255
255
255
255
255
255
255
255
255
255
255
255
255
255
255
255
255
253
255
254
253
254
233
99
40
113
91
44
62
96
93
101
121
107
65
81
107
82
68
95
127
119
124
128
119
123
81
93
131
124
123
122
122
123
126
128
129
94
70
121
126
124
126
129
124
123
130
120
126
124
127
55
112
129
128
122
86
65
103
137
120
111
72
98
116
110
112
103
106
93
81
19
24
161
255
255
254
254
254
254
254
254
254
254
254
255
255
255
255
255
255
255
255
253
254
255
255
255
255
254
253
255
255
254
253
253
253
254
255
253
253
253
253
254
254
254
254
255
253
249
249
250
252
253
252
255
255
255
255
255
255
255
254
255
254
254
254
254
254
254
255
255
255
255
255
255
255
255
255
255
255
255
255
255
255
255
255
255
255
255
255
255
255
255
255
255
255
255
255
255
255
255
255
255
255
255
255
255
255
255
255
255
255
255
255
255
255
255
255
255
255
255
255
255
255
255
255
255
255
255
255
255
255
255
255
255
255
255
255
255
255
255
255
255
255
255
255
255
255
255
255
255
255
255
255
255
255
255
255
255
255
255
255
255
255
255
255
255
255
255
255
255
255
255
255
255
255
255
255
255
255
255
255
255
255
255
255
255
255
255
255
255
255
255
255
255
255
255
255
255
255
255
255
255
255
255
255
255
255
255
255
255
255
255
255
255
255
255
255
255
255
255
255
255
255
255
255
255
255
255
255
255
255
255
255
255
255
255
255
255
255
255
255
255
255
255
255
255
255
255
255
255
255
255
255
255
255
255
255
255
255
255
255
255
255
255
255
255
255
255
255
255
255
255
255
255
255
255
255
255
255
255
255
255
255
255
255
255
255
255
255
255
255
255
255
255
255
255
255
255
255
255
255
255
255
255
255
255
255
255
255
255
255
255
255
255
255
255
255
255
255
255
255
255
255
255
255
255
255
255
255
255
255
255
255
255
255
255
255
255
255
255
255
255
255
255
255
255
255
255
255
255
255
255
255
255
255
255
255
255
255
255
255
255
255
255
255
255
255
255
255
255
253
255
254
254
254
231
100
43
116
77
24
51
97
96
101
118
114
77
65
79
79
100
126
115
117
123
124
119
126
91
88
131
124
124
122
122
123
126
128
129
97
72
123
127
124
125
128
122
124
129
119
127
125
115
57
122
129
107
118
124
91
78
99
123
97
74
108
118
107
115
104
97
75
68
17
33
169
255
254
250
254
254
254
254
254
254
254
254
255
255
255
255
255
255
255
255
253
253
254
255
255
254
253
253
254
254
254
254
254
254
255
255
254
254
254
254
254
251
253
254
254
254
253
254
255
255
255
255
250
250
250
251
252
254
255
255
255
254
253
252
252
253
254
255
255
255
255
255
255
255
255
255
255
255
255
255
255
255
255
255
255
255
255
255
255
255
255
255
255
255
255
255
255
255
255
255
255
255
255
255
255
255
255
255
255
255
255
255
255
255
255
255
255
255
255
255
255
255
255
255
255
255
255
255
255
255
255
255
255
255
255
255
255
255
255
255
255
255
255
255
255
255
255
255
255
255
255
255
255
255
255
255
255
255
255
255
255
255
255
255
255
255
255
255
255
255
255
255
255
255
255
255
255
255
255
255
255
255
255
255
255
255
255
255
255
255
255
255
255
255
255
255
255
255
255
255
255
255
255
255
255
255
255
255
255
255
255
255
255
255
255
255
255
255
255
255
255
255
255
255
255
255
255
255
255
255
255
255
255
255
255
255
255
255
255
255
255
255
255
255
255
255
255
255
255
255
255
255
255
255
255
255
255
255
255
255
255
255
255
255
255
255
255
255
255
255
255
255
255
255
255
255
255
255
255
255
255
255
255
255
255
255
255
255
255
255
255
255
255
255
255
255
255
255
255
255
255
255
255
255
255
255
255
255
255
255
255
255
255
255
255
255
255
255
255
255
255
255
255
255
255
255
255
255
255
255
255
255
255
255
255
255
255
255
255
255
255
255
255
255
255
255
255
255
255
255
255
255
255
255
255
255
255
255
255
255
255
255
255
255
255
255
255
255
255
253
255
253
254
254
231
99
44
121
72
9
40
94
97
97
109
118
69
54
94
109
118
130
108
118
118
123
121
125
97
82
122
124
124
122
123
123
126
128
129
102
77
127
130
125
125
127
120
126
128
119
131
129
96
70
129
119
120
114
120
122
88
66
92
75
85
115
114
105
115
103
76
57
54
7
31
167
254
252
253
254
254
254
254
254
254
254
254
255
255
255
255
255
255
255
255
252
253
254
254
254
254
253
252
250
252
253
255
255
255
255
255
245
248
250
250
249
249
251
253
249
253
255
255
254
250
247
247
254
254
254
254
253
252
251
250
255
254
252
251
251
252
254
255
255
255
255
255
255
255
255
255
255
255
255
255
255
255
255
255
255
255
255
255
255
255
255
255
255
255
255
255
255
255
255
255
255
255
255
255
255
255
255
255
255
255
255
255
255
255
255
255
255
255
255
255
255
255
255
255
255
255
255
255
255
255
255
255
255
255
255
255
255
255
255
255
255
255
255
255
255
255
255
255
255
255
255
255
255
255
255
255
255
255
255
255
255
255
255
255
255
255
255
255
255
255
255
255
255
255
255
255
255
255
255
255
255
255
255
255
255
255
255
255
255
255
255
255
255
255
255
255
255
255
255
255
255
255
255
255
255
255
255
255
255
255
255
255
255
255
255
255
255
255
255
255
255
255
255
255
255
255
255
255
255
255
255
255
255
255
255
255
255
255
255
255
255
255
255
255
255
255
255
255
255
255
255
255
255
255
255
255
255
255
255
255
255
255
255
255
255
255
255
255
255
255
255
255
255
255
255
255
255
255
255
255
255
255
255
255
255
255
255
255
255
255
255
255
255
255
255
255
255
255
255
255
255
255
255
255
255
255
255
255
255
255
255
255
255
255
255
255
255
255
255
255
255
255
255
255
255
255
255
255
255
255
255
255
255
255
255
255
255
255
255
255
255
255
255
255
255
255
255
255
255
255
255
255
255
255
255
255
255
255
255
255
255
255
255
255
255
255
255
255
255
253
255
252
254
254
232
98
42
123
68
1
29
91
98
95
101
117
54
46
118
129
102
119
123
124
115
122
123
120
99
78
113
123
122
122
122
122
125
127
128
97
73
123
126
123
125
127
121
128
125
118
134
133
75
87
131
112
131
120
111
124
112
76
61
53
100
117
107
103
113
100
52
38
43
7
36
171
254
252
253
254
254
254
254
254
254
254
254
255
255
255
255
255
255
255
255
252
253
253
254
254
253
253
252
250
251
253
254
253
250
247
244
254
251
246
245
248
247
242
236
241
245
249
248
245
246
254
254
243
246
251
255
255
253
249
246
255
254
252
250
250
252
254
255
255
255
255
255
255
255
255
255
255
255
255
255
255
255
255
255
255
255
255
255
255
255
255
255
255
255
255
255
255
255
255
255
255
255
255
255
255
255
255
255
255
255
255
255
255
255
255
255
255
255
255
255
255
255
255
255
255
255
255
255
255
255
255
255
255
255
255
255
255
255
255
255
255
255
255
255
255
255
255
255
255
255
255
255
255
255
255
255
255
255
255
255
255
255
255
255
255
255
255
255
255
255
255
255
255
255
255
255
255
255
255
255
255
255
255
255
255
255
255
255
255
255
255
255
255
255
255
255
255
255
255
255
255
255
255
255
255
255
255
255
255
255
255
255
255
255
255
255
255
255
255
255
255
255
255
255
255
255
255
255
255
255
255
255
255
255
255
255
255
255
255
255
255
255
255
255
255
255
255
255
255
255
255
255
255
255
255
255
255
255
255
255
255
255
255
255
255
255
255
255
255
255
255
255
255
255
255
255
255
255
255
255
255
255
255
255
255
255
255
255
255
255
255
255
255
255
255
255
255
255
255
255
255
255
255
255
255
255
255
255
255
255
255
255
255
255
255
255
255
255
255
255
255
255
255
255
255
255
255
255
255
255
255
255
255
255
255
255
255
255
255
255
255
255
255
255
255
255
255
255
255
255
255
255
255
255
255
255
255
255
255
255
255
255
255
255
255
255
255
255
255
253
254
251
254
254
233
98
42
120
64
3
22
89
100
97
98
112
56
41
105
120
105
126
121
128
113
121
124
116
100
77
110
123
122
121
121
122
123
126
127
86
63
115
121
119
124
127
123
128
123
117
136
135
62
99
131
125
109
119
130
119
117
101
63
38
111
119
102
102
110
97
37
26
37
11
47
179
255
252
253
254
254
254
254
254
254
254
254
255
255
255
255
255
255
255
255
252
252
253
254
254
253
252
252
251
252
253
251
247
240
232
228
185
169
150
142
139
130
112
95
113
117
121
122
128
147
176
198
208
217
231
245
253
255
254
251
255
254
252
250
250
252
254
255
255
255
255
255
255
255
255
255
255
255
255
255
255
255
255
255
255
255
255
255
255
255
255
255
255
255
255
255
255
255
255
255
255
255
255
255
255
255
255
255
255
255
255
255
255
255
255
255
255
255
255
255
255
255
255
255
255
255
255
255
255
255
255
255
255
255
255
255
255
255
255
255
255
255
255
255
255
255
255
255
255
255
255
255
255
255
255
255
255
255
255
255
255
255
255
255
255
255
255
255
255
255
255
255
255
255
255
255
255
255
255
255
255
255
255
255
255
255
255
255
255
255
255
255
255
255
255
255
255
255
255
255
255
255
255
255
255
255
255
255
255
255
255
255
255
255
255
255
255
255
255
255
255
255
255
255
255
255
255
255
255
255
255
255
255
255
255
255
255
255
255
255
255
255
255
255
255
255
255
255
255
255
255
255
255
255
255
255
255
255
255
255
255
255
255
255
255
255
255
255
255
255
255
255
255
255
255
255
255
255
255
255
255
255
255
255
255
255
255
255
255
255
255
255
255
255
255
255
255
255
255
255
255
255
255
255
255
255
255
255
255
255
255
255
255
255
255
255
255
255
255
255
255
255
255
255
255
255
255
255
255
255
255
255
255
255
255
255
255
255
255
255
255
255
255
255
255
255
255
255
255
255
255
255
255
255
255
255
255
255
255
255
255
255
255
255
255
255
255
255
255
253
254
252
254
251
240
94
54
110
57
11
2
56
106
114
100
56
92
92
69
114
123
121
121
128
118
124
120
122
105
74
97
126
128
123
122
128
119
100
92
50
42
76
89
119
131
132
123
118
112
134
133
108
53
120
122
126
114
122
121
105
117
114
69
43
85
114
110
108
108
75
28
22
9
1
44
185
249
254
245
248
253
248
246
254
253
248
253
254
254
255
253
251
254
254
254
249
245
252
252
250
247
247
243
253
225
209
207
179
124
88
83
62
44
14
25
2
32
24
57
40
40
35
25
14
16
33
51
76
75
107
165
208
223
238
252
255
253
247
250
252
250
247
253
255
255
255
251
249
252
255
255
255
255
255
255
255
255
255
255
255
255
255
255
255
255
255
255
255
255
255
255
255
255
255
255
255
255
255
255
255
255
255
255
255
255
255
255
255
255
255
255
255
255
255
255
255
255
255
255
255
255
255
255
255
255
255
255
255
255
255
255
255
255
255
255
255
255
255
255
255
255
255
255
255
255
255
255
255
255
255
255
255
255
255
255
255
255
255
255
255
255
255
255
255
255
255
255
255
255
255
255
255
255
255
255
255
255
255
255
255
255
255
255
255
255
255
255
255
255
255
255
255
255
255
255
255
255
255
255
255
255
255
255
255
255
255
255
255
255
255
255
255
255
255
255
255
255
255
255
255
255
255
255
255
255
255
255
255
255
255
255
255
255
255
255
255
255
255
255
255
255
255
255
255
255
255
255
255
255
255
255
255
255
255
255
255
255
255
255
255
255
255
255
255
255
255
255
255
255
255
255
255
255
255
255
255
255
255
255
255
255
255
255
255
255
255
255
255
255
255
255
255
255
255
255
255
255
255
255
255
255
255
255
255
255
255
255
255
255
255
255
255
255
255
255
255
255
255
255
255
255
255
255
255
255
255
255
255
255
255
255
255
255
255
255
255
255
255
255
255
255
255
255
255
255
255
255
255
255
255
255
255
255
255
255
255
255
255
255
255
255
255
255
255
253
254
252
254
247
234
90
42
95
44
4
1
43
86
100
98
61
103
98
63
93
129
128
106
124
116
123
119
120
111
82
87
118
132
134
123
111
92
79
82
81
72
94
82
88
98
122
135
130
113
121
116
105
66
128
118
125
118
121
122
117
113
95
63
62
76
97
111
108
83
37
2
15
19
11
50
189
250
255
251
253
254
255
255
254
252
248
248
251
251
253
253
253
253
253
254
253
245
240
249
252
252
234
209
157
111
65
39
19
6
18
43
70
73
74
83
60
72
126
129
116
116
114
104
91
80
75
75
41
19
7
22
54
95
147
191
223
251
254
252
252
255
254
252
247
255
255
251
252
255
255
251
255
255
255
255
255
255
255
255
255
255
255
255
255
255
255
255
255
255
255
255
255
255
255
255
255
255
255
255
255
255
255
255
255
255
255
255
255
255
255
255
255
255
255
255
255
255
255
255
255
255
255
255
255
255
255
255
255
255
255
255
255
255
255
255
255
255
255
255
255
255
255
255
255
255
255
255
255
255
255
255
255
255
255
255
255
255
255
255
255
255
255
255
255
255
255
255
255
255
255
255
255
255
255
255
255
255
255
255
255
255
255
255
255
255
255
255
255
255
255
255
255
255
255
255
255
255
255
255
255
255
255
255
255
255
255
255
255
255
255
255
255
255
255
255
255
255
255
255
255
255
255
255
255
255
255
255
255
255
255
255
255
255
255
255
255
255
255
255
255
255
255
255
255
255
255
255
255
255
255
255
255
255
255
255
255
255
255
255
255
255
255
255
255
255
255
255
255
255
255
255
255
255
255
255
255
255
255
255
255
255
255
255
255
255
255
255
255
255
255
255
255
255
255
255
255
255
255
255
255
255
255
255
255
255
255
255
255
255
255
255
255
255
255
255
255
255
255
255
255
255
255
255
255
255
255
255
255
255
255
255
255
255
255
255
255
255
255
255
255
255
255
255
255
255
255
255
255
255
255
255
255
255
255
255
255
255
255
255
255
255
255
255
255
254
254
253
254
248
235
98
35
77
33
1
0
25
51
72
85
80
111
100
70
75
123
128
103
120
112
120
118
119
120
92
69
114
117
101
76
68
78
101
130
95
92
119
97
87
79
89
97
116
118
128
121
94
72
127
121
117
117
110
116
126
109
85
81
87
78
89
110
96
45
4
8
10
19
6
33
178
244
250
253
254
247
246
248
246
250
253
248
253
248
245
249
248
244
245
252
238
249
254
249
202
133
65
22
14
23
42
67
84
96
110
126
124
128
141
133
108
67
145
138
131
135
140
141
140
136
134
133
121
108
89
66
41
20
13
17
73
128
188
228
248
248
250
254
255
255
255
255
255
255
255
249
255
255
255
255
255
255
255
255
255
255
255
255
255
255
255
255
255
255
255
255
255
255
255
255
255
255
255
255
255
255
255
255
255
255
255
255
255
255
255
255
255
255
255
255
255
255
255
255
255
255
255
255
255
255
255
255
255
255
255
255
255
255
255
255
255
255
255
255
255
255
255
255
255
255
255
255
255
255
255
255
255
255
255
255
255
255
255
255
255
255
255
255
255
255
255
255
255
255
255
255
255
255
255
255
255
255
255
255
255
255
255
255
255
255
255
255
255
255
255
255
255
255
255
255
255
255
255
255
255
255
255
255
255
255
255
255
255
255
255
255
255
255
255
255
255
255
255
255
255
255
255
255
255
255
255
255
255
255
255
255
255
255
255
255
255
255
255
255
255
255
255
255
255
255
255
255
255
255
255
255
255
255
255
255
255
255
255
255
255
255
255
255
255
255
255
255
255
255
255
255
255
255
255
255
255
255
255
255
255
255
255
255
255
255
255
255
255
255
255
255
255
255
255
255
255
255
255
255
255
255
255
255
255
255
255
255
255
255
255
255
255
255
255
255
255
255
255
255
255
255
255
255
255
255
255
255
255
255
255
255
255
255
255
255
255
255
255
255
255
255
255
255
255
255
255
255
255
255
255
255
255
255
255
255
255
255
255
255
255
255
255
255
255
253
254
254
254
252
241
117
36
61
26
3
2
13
17
37
63
100
108
99
89
67
104
119
113
116
108
116
118
119
125
96
48
67
79
80
79
94
110
123
135
90
88
123
117
115
97
83
69
83
103
111
123
79
89
122
118
114
120
105
107
122
98
79
104
102
91
90
85
55
10
3
19
21
27
3
29
184
253
253
248
248
244
252
254
240
231
221
193
153
138
130
132
133
130
136
148
176
175
146
94
48
28
38
56
88
104
124
139
143
142
139
137
134
123
135
134
129
49
103
131
130
128
127
128
128
130
130
130
133
138
137
128
113
95
75
60
17
20
35
88
174
237
251
249
255
250
246
255
255
246
246
255
255
255
255
255
255
255
255
255
255
255
255
255
255
255
255
255
255
255
255
255
255
255
255
255
255
255
255
255
255
255
255
255
255
255
255
255
255
255
255
255
255
255
255
255
255
255
255
255
255
255
255
255
255
255
255
255
255
255
255
255
255
255
255
255
255
255
255
255
255
255
255
255
255
255
255
255
255
255
255
255
255
255
255
255
255
255
255
255
255
255
255
255
255
255
255
255
255
255
255
255
255
255
255
255
255
255
255
255
255
255
255
255
255
255
255
255
255
255
255
255
255
255
255
255
255
255
255
255
255
255
255
255
255
255
255
255
255
255
255
255
255
255
255
255
255
255
255
255
255
255
255
255
255
255
255
255
255
255
255
255
255
255
255
255
255
255
255
255
255
255
255
255
255
255
255
255
255
255
255
255
255
255
255
255
255
255
255
255
255
255
255
255
255
255
255
255
255
255
255
255
255
255
255
255
255
255
255
255
255
255
255
255
255
255
255
255
255
255
255
255
255
255
255
255
255
255
255
255
255
255
255
255
255
255
255
255
255
255
255
255
255
255
255
255
255
255
255
255
255
255
255
255
255
255
255
255
255
255
255
255
255
255
255
255
255
255
255
255
255
255
255
255
255
255
255
255
255
255
255
255
255
255
255
255
255
255
255
255
255
255
255
255
255
252
254
255
255
255
244
135
35
43
19
4
3
8
4
11
39
93
103
106
100
61
88
113
121
113
108
111
117
119
120
92
36
55
82
99
111
127
131
120
114
88
83
116
116
126
121
113
101
80
87
69
98
54
110
121
114
114
125
111
106
110
84
72
108
111
100
74
39
9
1
3
9
2
2
0
41
200
253
246
221
214
190
168
133
89
74
67
44
21
9
3
7
8
5
6
12
36
36
19
18
54
89
113
132
141
142
140
132
126
129
136
141
139
128
130
130
147
79
80
140
134
130
125
123
123
124
125
124
132
136
138
136
135
131
119
105
86
75
29
4
28
121
200
242
254
253
252
249
246
247
253
255
255
255
255
255
255
255
255
255
255
255
255
255
255
255
255
255
255
255
255
255
255
255
255
255
255
255
255
255
255
255
255
255
255
255
255
255
255
255
255
255
255
255
255
255
255
255
255
255
255
255
255
255
255
255
255
255
255
255
255
255
255
255
255
255
255
255
255
255
255
255
255
255
255
255
255
255
255
255
255
255
255
255
255
255
255
255
255
255
255
255
255
255
255
255
255
255
255
255
255
255
255
255
255
255
255
255
255
255
255
255
255
255
255
255
255
255
255
255
255
255
255
255
255
255
255
255
255
255
255
255
255
255
255
255
255
255
255
255
255
255
255
255
255
255
255
255
255
255
255
255
255
255
255
255
255
255
255
255
255
255
255
255
255
255
255
255
255
255
255
255
255
255
255
255
255
255
255
255
255
255
255
255
255
255
255
255
255
255
255
255
255
255
255
255
255
255
255
255
255
255
255
255
255
255
255
255
255
255
255
255
255
255
255
255
255
255
255
255
255
255
255
255
255
255
255
255
255
255
255
255
255
255
255
255
255
255
255
255
255
255
255
255
255
255
255
255
255
255
255
255
255
255
255
255
255
255
255
255
255
255
255
255
255
255
255
255
255
255
255
255
255
255
255
255
255
255
255
255
255
255
255
255
255
255
255
255
255
255
255
255
255
255
255
253
255
255
253
254
244
149
32
22
7
2
3
4
3
2
19
54
88
114
99
63
81
110
116
109
113
111
119
115
102
84
48
88
115
126
120
117
116
115
121
87
85
119
116
122
119
123
123
107
106
78
83
29
92
115
123
107
118
117
109
100
83
84
107
110
90
47
3
4
12
12
3
7
8
14
54
163
186
150
105
49
42
30
17
20
50
83
94
95
94
93
94
90
80
66
56
51
50
25
23
59
87
94
103
90
92
93
88
82
76
74
76
89
90
85
70
94
54
26
82
81
81
83
86
88
90
88
88
90
94
101
112
126
134
131
124
134
124
97
58
20
5
60
138
209
250
255
251
244
255
255
245
255
255
255
255
255
255
255
255
255
255
255
255
255
255
255
255
255
255
255
255
255
255
255
255
255
255
255
255
255
255
255
255
255
255
255
255
255
255
255
255
255
255
255
255
255
255
255
255
255
255
255
255
255
255
255
255
255
255
255
255
255
255
255
255
255
255
255
255
255
255
255
255
255
255
255
255
255
255
255
255
255
255
255
255
255
255
255
255
255
255
255
255
255
255
255
255
255
255
255
255
255
255
255
255
255
255
255
255
255
255
255
255
255
255
255
255
255
255
255
255
255
255
255
255
255
255
255
255
255
255
255
255
255
255
255
255
255
255
255
255
255
255
255
255
255
255
255
255
255
255
255
255
255
255
255
255
255
255
255
255
255
255
255
255
255
255
255
255
255
255
255
255
255
255
255
255
255
255
255
255
255
255
255
255
255
255
255
255
255
255
255
255
255
255
255
255
255
255
255
255
255
255
255
255
255
255
255
255
255
255
255
255
255
255
255
255
255
255
255
255
255
255
255
255
255
255
255
255
255
255
255
255
255
255
255
255
255
255
255
255
255
255
255
255
255
255
255
255
255
255
255
255
255
255
255
255
255
255
255
255
255
255
255
255
255
255
255
255
255
255
255
255
255
255
255
255
255
255
255
255
255
255
255
255
255
255
255
255
255
255
255
255
255
254
255
255
251
255
250
166
38
6
3
1
4
2
2
3
8
14
55
104
103
80
72
98
113
105
120
115
121
110
80
78
76
86
118
134
125
117
114
115
119
85
86
122
119
122
116
115
112
123
121
120
87
37
64
110
124
107
110
117
106
85
89
105
105
81
54
18
0
5
13
10
1
2
1
0
6
45
35
21
10
50
84
111
122
136
145
147
149
158
160
159
154
152
148
130
112
91
113
103
86
90
83
68
76
80
79
85
96
105
108
115
124
114
113
119
116
119
74
92
125
113
114
115
114
110
106
102
100
95
87
80
81
89
100
112
121
128
106
93
105
104
56
13
11
103
168
231
253
255
255
255
245
255
255
255
255
255
255
255
255
255
255
255
255
255
255
255
255
255
255
255
255
255
255
255
255
255
255
255
255
255
255
255
255
255
255
255
255
255
255
255
255
255
255
255
255
255
255
255
255
255
255
255
255
255
255
255
255
255
255
255
255
255
255
255
255
255
255
255
255
255
255
255
255
255
255
255
255
255
255
255
255
255
255
255
255
255
255
255
255
255
255
255
255
255
255
255
255
255
255
255
255
255
255
255
255
255
255
255
255
255
255
255
255
255
255
255
255
255
255
255
255
255
255
255
255
255
255
255
255
255
255
255
255
255
255
255
255
255
255
255
255
255
255
255
255
255
255
255
255
255
255
255
255
255
255
255
255
255
255
255
255
255
255
255
255
255
255
255
255
255
255
255
255
255
255
255
255
255
255
255
255
255
255
255
255
255
255
255
255
255
255
255
255
255
255
255
255
255
255
255
255
255
255
255
255
255
255
255
255
255
255
255
255
255
255
255
255
255
255
255
255
255
255
255
255
255
255
255
255
255
255
255
255
255
255
255
255
255
255
255
255
255
255
255
255
255
255
255
255
255
255
255
255
255
255
255
255
255
255
255
255
255
255
255
255
255
255
255
255
255
255
255
255
255
255
255
255
255
255
255
255
255
255
255
255
255
255
255
255
255
255
255
255
255
252
255
254
252
254
255
183
49
2
4
5
4
7
7
2
5
4
22
88
110
102
60
82
116
103
126
119
122
106
64
75
101
84
109
118
109
111
117
121
127
90
83
114
115
126
125
121
111
116
103
131
85
67
69
114
109
123
115
119
100
69
89
115
98
45
16
3
4
7
1
4
14
8
2
22
33
57
72
119
140
115
148
162
157
164
160
153
159
145
155
156
147
151
160
151
132
80
122
135
135
147
139
124
131
132
128
133
147
153
150
150
152
158
137
149
158
140
59
123
142
142
143
144
142
139
139
141
144
128
120
114
108
95
81
75
77
87
110
101
84
102
122
97
59
0
50
157
244
255
248
245
255
255
255
255
255
255
255
255
255
255
255
255
255
255
255
255
255
255
255
255
255
255
255
255
255
255
255
255
255
255
255
255
255
255
255
255
255
255
255
255
255
255
255
255
255
255
255
255
255
255
255
255
255
255
255
255
255
255
255
255
255
255
255
255
255
255
255
255
255
255
255
255
255
255
255
255
255
255
255
255
255
255
255
255
255
255
255
255
255
255
255
255
255
255
255
255
255
255
255
255
255
255
255
255
255
255
255
255
255
255
255
255
255
255
255
255
255
255
255
255
255
255
255
255
255
255
255
255
255
255
255
255
255
255
255
255
255
255
255
255
255
255
255
255
255
255
255
255
255
255
255
255
255
255
255
255
255
255
255
255
255
255
255
255
255
255
255
255
255
255
255
255
255
255
255
255
255
255
255
255
255
255
255
255
255
255
255
255
255
255
255
255
255
255
255
255
255
255
255
255
255
255
255
255
255
255
255
255
255
255
255
255
255
255
255
255
255
255
255
255
255
255
255
255
255
255
255
255
255
255
255
255
255
255
255
255
255
255
255
255
255
255
255
255
255
255
255
255
255
255
255
255
255
255
255
255
255
255
255
255
255
255
255
255
255
255
255
255
255
255
255
255
255
255
255
255
255
255
255
255
255
255
255
255
255
255
255
255
255
255
255
255
255
255
250
255
255
252
255
252
214
57
6
0
6
11
15
11
1
2
2
14
23
71
112
80
57
99
114
124
117
90
79
96
112
112
73
124
117
122
110
122
127
115
89
81
113
110
116
113
118
121
120
119
108
65
114
84
74
106
116
109
104
87
78
115
98
40
4
6
3
6
1
11
1
5
9
1
78
140
145
158
165
158
131
112
157
162
143
158
167
147
154
153
153
153
152
149
144
141
93
99
136
143
132
140
142
142
137
133
132
135
140
142
145
150
144
149
134
139
146
40
119
156
139
145
146
143
140
137
136
135
135
134
134
132
129
123
114
109
94
66
69
57
87
111
113
96
63
4
42
174
233
254
253
250
250
246
255
255
255
250
254
255
255
255
255
255
255
255
255
255
255
255
255
255
255
255
255
255
255
255
255
255
255
255
255
255
255
255
255
255
255
255
255
255
255
255
255
255
255
255
255
255
255
255
255
255
255
255
255
255
255
255
255
255
255
255
255
255
255
255
255
255
255
255
255
255
255
255
255
255
255
255
255
255
255
255
254
254
252
250
252
255
248
254
248
254
253
250
244
255
254
253
254
254
252
254
255
250
255
255
255
255
255
255
255
255
255
255
255
255
255
255
255
255
255
255
255
255
255
255
255
255
255
255
255
255
255
255
255
255
255
255
255
255
255
255
255
255
255
255
255
255
255
255
255
255
255
255
255
255
255
255
255
255
255
255
255
255
255
255
255
255
255
255
255
255
255
255
255
255
255
255
255
255
255
255
255
255
255
255
255
255
255
255
255
255
255
255
255
255
255
255
255
255
255
255
255
255
255
255
255
255
255
255
255
255
255
255
255
255
255
255
255
255
255
255
255
255
255
255
255
255
255
255
255
255
255
255
255
255
255
255
255
255
255
255
255
255
255
255
255
255
255
255
255
255
255
255
255
255
255
255
255
255
255
255
255
255
255
255
255
255
255
255
255
255
255
255
255
255
255
255
255
255
255
255
255
255
255
255
255
255
255
255
255
255
255
253
255
255
251
255
253
216
60
1
1
1
1
1
6
5
2
3
2
4
27
76
97
84
68
133
114
87
75
85
105
113
109
66
101
115
120
109
116
123
115
94
86
111
109
118
116
119
119
121
109
104
62
104
111
65
91
125
118
104
50
116
104
24
7
6
0
0
1
1
5
1
17
0
8
107
171
166
165
165
159
141
118
117
159
156
166
145
161
159
158
156
156
157
156
156
154
103
101
139
150
139
141
135
128
137
134
134
139
143
145
149
154
144
155
156
163
131
54
153
155
145
145
139
135
138
143
142
138
134
135
134
130
126
125
128
130
129
114
88
46
59
78
97
131
106
45
19
48
179
245
251
252
252
247
249
252
254
255
255
251
255
255
255
255
255
255
255
255
255
255
255
255
255
255
255
255
255
255
255
255
255
255
255
255
255
255
255
255
255
255
255
255
255
255
255
255
255
255
255
255
255
255
255
255
255
255
255
255
255
255
255
255
255
255
255
255
255
255
255
255
255
255
255
255
255
255
255
255
255
255
255
255
255
254
253
255
255
255
255
255
252
254
251
245
254
254
254
248
253
254
254
254
254
254
255
255
255
255
255
255
255
255
255
255
255
255
255
255
255
255
255
255
255
255
255
255
255
255
255
255
255
255
255
255
255
255
255
255
255
255
255
255
255
255
255
255
255
255
255
255
255
255
255
255
255
255
255
255
255
255
255
255
255
255
255
255
255
255
255
255
255
255
255
255
255
255
255
255
255
255
255
255
255
255
255
255
255
255
255
255
255
255
255
255
255
255
255
255
255
255
255
255
255
255
255
255
255
255
255
255
255
255
255
255
255
255
255
255
255
255
255
255
255
255
255
255
255
255
255
255
255
255
255
255
255
255
255
255
255
255
255
255
255
255
255
255
255
255
255
255
255
255
255
255
255
255
255
255
255
255
255
255
255
255
255
255
255
255
255
255
255
255
255
255
255
255
255
255
255
255
255
255
255
255
255
255
255
255
255
255
255
255
255
255
255
255
255
254
250
255
254
216
62
1
3
8
9
3
0
3
8
12
11
15
14
35
79
86
54
96
76
67
84
111
122
116
106
73
81
117
119
112
113
119
116
90
85
122
129
137
124
114
104
120
119
85
79
107
129
86
79
101
121
49
77
100
68
2
9
0
15
7
1
32
135
87
1
0
11
110
172
170
170
166
160
178
148
107
119
150
166
138
171
161
159
155
154
155
156
157
156
109
94
125
146
141
140
132
130
134
134
136
143
150
154
161
166
166
170
172
170
139
52
158
144
153
154
148
137
130
133
138
141
134
137
138
132
127
125
131
137
137
127
86
66
90
95
69
94
118
110
34
2
47
228
249
251
254
255
255
250
253
255
255
247
255
255
255
255
255
255
255
255
255
255
255
255
255
255
255
255
255
255
255
255
255
255
255
255
255
255
255
255
255
255
255
255
255
255
255
255
255
255
255
255
255
255
255
255
255
255
255
255
255
255
255
255
255
255
255
255
255
255
255
255
255
255
255
255
255
255
255
255
255
255
255
255
255
254
253
255
255
255
254
250
255
250
249
253
255
255
255
255
253
254
252
243
249
252
248
250
255
255
255
255
255
255
255
255
255
255
255
255
255
255
255
255
255
255
255
255
255
255
255
255
255
255
255
255
255
255
255
255
255
255
255
255
255
255
255
255
255
255
255
255
255
255
255
255
255
255
255
255
255
255
255
255
255
255
255
255
255
255
255
255
255
255
255
255
255
255
255
255
255
255
255
255
255
255
255
255
255
255
255
255
255
255
255
255
255
255
255
255
255
255
255
255
255
255
255
255
255
255
255
255
255
255
255
255
255
255
255
255
255
255
255
255
255
255
255
255
255
255
255
255
255
255
255
255
255
255
255
255
255
255
255
255
255
255
255
255
255
255
255
255
255
255
255
255
255
255
255
255
255
255
255
255
255
255
255
255
255
255
255
255
255
255
255
255
255
255
255
255
255
255
255
255
255
255
255
255
255
255
255
255
255
255
255
255
255
255
255
254
252
255
252
214
61
0
2
31
81
72
15
1
6
3
0
4
4
5
37
68
75
40
54
79
106
122
122
115
109
92
69
114
117
116
112
116
115
76
70
108
112
123
119
119
117
114
132
52
103
115
121
121
80
98
91
56
112
38
10
2
4
14
1
9
105
183
214
105
3
6
14
86
134
141
150
145
136
157
141
121
66
109
132
140
136
128
124
121
119
118
117
116
115
98
65
83
108
109
109
106
112
114
113
116
121
126
129
137
145
158
160
155
159
155
69
168
173
160
163
165
157
153
151
144
135
131
134
137
135
131
129
131
133
133
106
78
99
127
131
71
64
81
104
114
37
2
108
253
253
243
255
255
255
255
253
251
255
255
255
255
255
255
255
255
255
255
255
255
255
255
255
255
255
255
255
255
255
255
255
255
255
255
255
255
255
255
255
255
255
255
255
255
255
255
255
255
255
255
255
255
255
255
255
255
255
255
255
255
255
255
255
255
255
255
255
255
255
255
255
255
255
255
255
255
255
255
255
255
255
255
255
255
253
252
252
250
246
253
241
247
194
140
119
160
202
228
254
254
253
254
255
254
253
255
255
255
255
255
255
255
255
255
255
255
255
255
255
255
255
255
255
255
255
255
255
255
255
255
255
255
255
255
255
255
255
255
255
255
255
255
255
255
255
255
255
255
255
255
255
255
255
255
255
255
255
255
255
255
255
255
255
255
255
255
255
255
255
255
255
255
255
255
255
255
255
255
255
255
255
255
255
255
255
255
255
255
255
255
255
255
255
255
255
255
255
255
255
255
255
255
255
255
255
255
255
255
255
255
255
255
255
255
255
255
255
255
255
255
255
255
255
255
255
255
255
255
255
255
255
255
255
255
255
255
255
255
255
255
255
255
255
255
255
255
255
255
255
255
255
255
255
255
255
255
255
255
255
255
255
255
255
255
255
255
255
255
255
255
255
255
255
255
255
255
255
255
255
255
255
255
255
255
255
255
255
255
255
255
255
255
255
255
254
254
255
255
255
250
214
64
0
2
37
125
143
74
27
1
11
10
2
4
10
16
39
75
39
72
103
112
108
110
114
115
105
62
99
111
121
117
117
117
101
90
112
103
108
107
119
127
110
110
44
113
112
115
130
95
83
32
105
56
14
2
20
1
1
6
98
233
254
195
66
17
5
9
73
104
105
108
98
92
79
85
108
55
51
88
114
84
102
101
99
99
99
96
93
90
94
50
62
88
88
85
80
89
87
83
83
83
81
82
88
98
121
123
111
132
58
48
126
131
139
139
144
153
155
156
146
125
137
136
136
136
135
136
134
133
134
94
85
113
109
128
107
99
58
74
108
79
25
10
191
244
245
253
251
251
255
250
248
255
255
255
255
255
255
255
255
255
255
255
255
255
255
255
255
255
255
255
255
255
255
255
255
255
255
255
255
255
255
255
255
255
255
255
255
255
255
255
255
255
255
255
255
255
255
255
255
255
255
255
255
255
255
255
255
255
255
255
255
255
255
255
255
255
255
255
255
255
255
255
255
255
252
255
255
253
248
250
253
252
252
161
104
18
2
4
21
3
106
176
239
254
254
254
252
249
255
255
255
255
255
255
255
255
255
255
255
255
255
255
255
255
255
255
255
255
255
255
255
255
255
255
255
255
255
255
255
255
255
255
255
255
255
255
255
255
255
255
255
255
255
255
255
255
255
255
255
255
255
255
255
255
255
255
255
255
255
255
255
255
255
255
255
255
255
255
255
255
255
255
255
255
255
255
255
255
255
255
255
255
255
255
255
255
255
255
255
255
255
255
255
255
255
255
255
255
255
255
255
255
255
255
255
255
255
255
255
255
255
255
255
255
255
255
255
255
255
255
255
255
255
255
255
255
255
255
255
255
255
255
255
255
255
255
255
255
255
255
255
255
255
255
255
255
255
255
255
255
255
255
255
255
255
255
255
255
255
255
255
255
255
255
255
255
255
255
255
255
255
255
255
255
255
255
255
255
255
255
255
255
255
255
255
255
255
254
254
255
255
255
249
220
80
0
2
19
110
168
138
90
24
1
14
18
15
17
3
7
38
45
77
104
110
109
113
115
112
110
70
84
110
125
120
117
117
62
65
111
120
129
119
114
109
112
72
78
114
107
123
117
110
47
53
65
1
12
13
27
2
1
124
228
254
236
199
74
3
10
53
135
162
150
144
133
137
132
137
153
149
66
131
151
143
155
154
156
157
158
156
153
150
135
97
117
146
147
142
135
142
134
132
131
132
132
134
145
158
165
172
161
170
16
100
152
125
76
87
96
97
103
120
142
156
147
143
138
136
134
134
131
128
116
82
101
122
102
120
126
120
96
85
49
88
62
1
69
200
255
255
253
247
255
255
247
255
255
255
255
255
255
255
255
255
255
255
255
255
255
255
255
255
255
255
255
255
255
255
255
255
255
255
255
255
255
255
255
255
255
255
255
255
255
255
255
255
255
255
255
255
255
255
255
255
255
255
255
255
255
255
255
255
255
255
255
255
255
255
255
255
255
255
255
255
255
255
255
255
249
255
255
253
251
255
255
253
215
35
2
6
62
72
49
5
2
62
175
251
254
245
248
249
255
255
255
255
255
255
255
255
255
255
255
255
255
255
255
255
255
255
255
255
255
255
255
255
255
255
255
255
255
255
255
255
255
255
255
255
255
255
255
255
255
255
255
255
255
255
255
255
255
255
255
255
255
255
255
255
255
255
255
255
255
255
255
255
255
255
255
255
255
255
255
255
255
255
255
255
255
255
255
255
255
255
255
255
255
255
255
255
255
255
255
255
255
255
255
255
255
255
255
255
255
255
255
255
255
255
255
255
255
255
255
255
255
255
255
255
255
255
255
255
255
255
255
255
255
255
255
255
255
255
255
255
255
255
255
255
255
255
255
255
255
255
255
255
255
255
255
255
255
255
255
255
255
255
255
255
255
255
255
255
255
255
255
255
255
255
255
255
255
255
255
255
255
255
255
255
255
255
255
255
255
255
255
255
255
255
255
255
255
255
255
255
254
255
251
233
104
0
2
2
90
159
157
148
99
9
1
2
10
2
3
5
12
23
46
77
101
112
114
114
112
112
90
76
109
118
104
93
91
13
16
69
95
121
122
118
110
105
53
111
115
109
121
112
98
50
91
12
10
1
4
4
15
129
212
253
253
239
192
60
3
3
50
140
166
158
155
147
157
172
167
159
166
68
140
155
165
151
149
149
149
150
150
148
146
114
90
117
145
143
142
140
144
142
141
140
142
145
152
165
177
169
179
178
125
73
165
189
164
169
170
153
113
74
60
67
80
117
122
130
135
135
131
126
123
85
78
117
129
123
120
118
112
123
99
77
54
84
15
13
89
214
255
255
248
255
255
249
251
255
255
255
255
255
255
255
255
255
255
255
255
255
255
255
255
255
255
255
255
255
255
255
255
255
255
255
255
255
255
255
255
255
255
255
255
255
255
255
255
255
255
255
255
255
255
255
255
255
255
255
255
255
255
255
255
255
255
255
255
255
255
255
255
255
255
255
255
255
255
255
255
250
255
255
252
255
255
251
235
109
8
93
153
184
164
172
173
41
18
99
225
254
254
254
254
255
255
255
255
255
255
255
255
255
255
255
255
255
255
255
255
255
255
255
255
255
255
255
255
255
255
255
255
255
255
255
255
255
255
255
255
255
255
255
255
255
255
255
255
255
255
255
255
255
255
255
255
255
255
255
255
255
255
255
255
255
255
255
255
255
255
255
255
255
255
255
255
255
255
255
255
255
255
255
255
255
255
255
255
255
255
255
255
255
255
255
255
255
255
255
255
255
255
255
255
255
255
255
255
255
255
255
255
255
255
255
255
255
255
255
255
255
255
255
255
255
255
255
255
255
255
255
255
255
255
255
255
255
255
255
255
255
255
255
255
255
255
255
255
255
255
255
255
255
255
255
255
255
255
255
255
255
255
255
255
255
255
255
255
255
255
255
255
255
255
255
255
255
255
255
255
255
255
255
255
255
255
255
255
255
255
255
255
255
255
255
255
252
254
252
244
123
2
0
2
91
147
141
174
176
163
43
4
12
1
7
23
5
9
20
48
82
99
101
108
122
113
104
69
104
102
78
60
56
95
65
67
57
79
96
117
126
89
58
117
115
113
103
118
76
54
24
16
7
8
2
27
140
246
254
241
237
237
173
31
3
8
62
135
156
158
162
156
162
160
159
158
144
85
142
154
154
162
160
156
153
152
152
152
150
125
98
124
148
145
143
141
148
137
135
133
132
133
138
155
172
181
182
177
55
169
179
175
179
181
173
165
161
162
154
123
95
61
82
110
131
140
137
132
130
73
93
137
127
126
108
114
133
94
117
111
78
31
80
4
7
125
227
255
247
250
255
253
255
255
255
255
255
255
255
255
255
255
255
255
255
255
255
255
255
255
255
255
255
255
255
255
255
255
255
255
255
255
255
255
255
255
255
255
255
255
255
255
255
255
255
255
255
255
255
255
255
255
255
255
255
255
255
255
255
255
255
255
255
255
255
255
255
255
255
255
255
255
255
255
255
254
255
251
249
255
255
239
212
46
42
176
183
178
183
197
172
138
10
24
171
245
250
254
244
255
255
255
255
255
255
255
255
255
255
255
255
255
255
255
255
255
255
255
255
255
255
255
255
255
255
255
255
255
255
255
255
255
255
255
255
255
255
255
255
255
255
255
255
255
255
255
255
255
255
255
255
255
255
255
255
255
255
255
255
255
255
255
255
255
255
255
255
255
255
255
255
255
255
255
255
255
255
255
255
255
255
255
255
255
255
255
255
255
255
255
255
255
255
255
255
255
255
255
255
255
255
255
255
255
255
255
255
255
255
255
255
255
255
255
255
255
255
255
255
255
255
255
255
255
255
255
255
255
255
255
255
255
255
255
255
255
255
255
255
255
255
255
255
255
255
255
255
255
255
255
255
255
255
255
255
255
255
255
255
255
255
255
255
255
255
255
255
255
255
255
255
255
255
255
255
255
255
255
255
255
255
255
255
255
255
255
255
255
255
248
254
255
251
255
240
148
10
0
9
73
145
159
142
164
213
179
78
5
1
8
1
11
9
0
14
69
100
108
108
110
116
97
36
61
68
69
104
117
82
89
125
100
77
58
67
76
28
95
118
108
120
117
79
53
52
12
9
14
3
25
147
253
252
241
255
254
237
147
26
2
3
85
147
158
164
155
149
166
159
161
151
154
95
124
166
155
149
152
155
155
152
150
150
152
110
102
141
147
150
133
132
137
137
134
135
137
138
139
151
166
174
189
95
127
189
182
168
188
179
172
162
158
157
154
150
144
147
96
69
86
111
127
131
126
72
98
128
129
117
115
119
110
107
108
109
106
91
61
26
6
1
207
251
245
251
251
249
253
255
255
255
255
255
255
255
255
255
255
255
255
255
255
255
255
255
255
255
255
255
255
255
255
255
255
255
255
255
255
255
255
255
255
255
255
255
255
255
255
255
255
255
255
255
255
255
255
255
255
255
255
255
255
255
255
255
255
255
255
255
255
255
255
255
255
255
255
255
255
255
255
255
255
253
254
255
248
255
185
30
56
111
151
175
179
176
189
181
66
3
102
243
252
255
243
252
253
254
255
255
255
254
254
255
255
255
255
255
255
255
255
255
255
255
255
255
255
255
255
255
255
255
255
255
255
255
255
255
255
255
255
255
255
255
255
255
255
255
255
255
255
255
255
255
255
255
255
255
255
255
255
255
255
255
255
255
255
255
255
255
255
255
255
255
255
255
255
255
255
255
255
255
255
255
255
255
255
255
255
255
255
255
255
255
255
255
255
255
255
255
255
255
255
255
255
255
255
255
255
255
255
255
255
255
255
255
255
255
255
255
255
255
255
255
255
255
255
255
255
255
255
255
255
255
255
255
255
255
255
255
255
255
255
255
255
255
255
255
255
255
255
255
255
255
255
255
255
255
255
255
255
255
255
255
255
255
255
255
255
255
255
255
255
255
255
255
255
255
255
255
255
255
255
255
255
255
255
255
255
255
255
255
255
255
255
250
253
255
249
255
248
168
4
0
0
48
138
156
142
159
202
205
194
87
5
0
23
1
7
0
3
38
74
104
113
103
122
69
25
71
105
107
112
120
75
86
121
103
99
98
99
89
23
76
107
112
117
102
67
46
30
4
3
1
10
129
242
251
248
239
252
252
229
143
26
2
10
81
134
140
146
150
146
147
146
147
147
143
91
102
153
145
141
144
148
149
148
148
149
151
103
105
145
136
135
127
132
134
125
125
128
132
133
138
153
168
177
146
101
149
184
174
173
173
163
158
150
146
146
144
139
135
122
138
127
86
79
122
137
110
77
106
125
121
115
117
116
111
108
108
108
109
100
76
41
15
2
126
253
255
248
252
249
249
255
255
255
255
255
255
255
255
255
255
255
255
255
255
255
255
255
255
255
255
255
255
255
255
255
255
255
255
255
255
255
255
255
255
255
255
255
255
255
255
255
255
255
255
255
255
255
255
255
255
255
255
255
255
255
255
255
255
255
255
255
255
255
255
255
255
255
255
255
255
255
255
250
254
255
255
255
248
247
152
21
67
109
130
139
138
139
141
114
56
3
68
209
254
255
255
252
253
254
255
255
255
254
254
255
255
255
255
255
255
255
255
255
255
255
255
255
255
255
255
255
255
255
255
255
255
255
255
255
255
255
255
255
255
255
255
255
255
255
255
255
255
255
255
255
255
255
255
255
255
255
255
255
255
255
255
255
255
255
255
255
255
255
255
255
255
255
255
255
255
255
255
255
255
255
255
255
255
255
255
255
255
255
255
255
255
255
255
255
255
255
255
255
255
255
255
255
255
255
255
255
255
255
255
255
255
255
255
255
255
255
255
255
255
255
255
255
255
255
255
255
255
255
255
255
255
255
255
255
255
255
255
255
255
255
255
255
255
255
255
255
255
255
255
255
255
255
255
255
255
255
255
255
255
255
255
255
255
255
255
255
255
255
255
255
255
255
255
255
255
255
255
255
255
255
255
255
255
255
255
255
255
255
255
255
255
252
253
255
247
255
255
193
11
0
0
19
128
153
144
152
190
206
218
206
74
17
0
7
5
1
1
4
40
96
121
109
90
53
63
82
113
116
110
125
79
91
122
103
115
127
114
78
52
75
107
123
110
72
38
24
2
9
0
11
131
239
254
241
240
248
254
247
219
123
13
2
1
70
126
129
123
130
131
119
127
124
136
126
86
75
121
128
126
127
130
130
130
130
131
132
73
89
132
117
116
117
124
121
124
126
130
131
131
134
146
161
167
96
112
166
173
160
171
152
156
151
146
142
143
141
138
135
146
135
142
141
105
76
84
109
78
115
125
115
115
117
112
114
112
107
103
105
106
93
69
49
6
34
225
254
248
252
253
247
255
255
255
255
255
255
255
255
255
255
255
255
255
255
255
255
255
255
255
255
255
255
255
255
255
255
255
255
255
255
255
255
255
255
255
255
255
255
255
255
255
255
255
255
255
255
255
255
255
255
255
255
255
255
255
255
255
255
255
255
255
255
255
255
255
255
255
255
255
255
255
255
249
255
255
253
255
251
237
123
3
73
96
100
99
86
91
82
95
72
7
11
141
253
247
246
252
253
254
255
255
255
254
254
255
255
255
255
255
255
255
255
255
255
255
255
255
255
255
255
255
255
255
255
255
255
255
255
255
255
255
255
255
255
255
255
255
255
255
255
255
255
255
255
255
255
255
255
255
255
255
255
255
255
255
255
255
255
255
255
255
255
255
255
255
255
255
255
255
255
255
255
255
255
255
255
255
255
255
255
255
255
255
255
255
255
255
255
255
255
255
255
255
255
255
255
255
255
255
255
255
255
255
255
255
255
255
255
255
255
255
255
255
255
255
255
255
255
255
255
255
255
255
255
255
255
255
255
255
255
255
255
255
255
255
255
255
255
255
255
255
255
255
255
255
255
255
255
255
255
255
255
255
255
255
255
255
255
255
255
255
255
255
255
255
255
255
255
255
255
255
255
255
255
255
255
255
255
255
255
255
255
255
255
255
255
255
253
255
247
254
255
212
36
0
6
1
116
152
149
149
189
183
213
210
213
79
11
4
7
7
5
2
10
66
105
109
64
70
114
74
85
114
109
118
81
93
120
101
116
131
106
55
88
84
103
118
89
37
15
6
4
2
10
108
243
255
228
236
239
251
252
249
210
95
0
4
5
62
125
139
124
127
132
123
129
123
139
126
105
74
106
128
122
122
123
122
121
120
119
119
76
93
138
130
130
128
130
126
124
128
131
132
130
131
139
149
133
75
122
158
156
144
159
138
151
147
144
142
143
142
140
138
143
136
140
142
127
104
74
48
68
118
130
115
117
115
107
119
115
106
97
97
101
102
96
89
39
4
142
241
252
254
252
254
255
255
255
255
255
255
255
255
255
255
255
255
255
255
255
255
255
255
255
255
255
255
255
255
255
255
255
255
255
255
255
255
255
255
255
255
255
255
255
255
255
255
255
255
255
255
255
255
255
255
255
255
255
255
255
255
255
255
255
255
255
255
255
255
255
255
255
255
255
255
255
255
254
255
254
245
255
255
237
111
12
97
116
138
152
139
158
146
155
141
72
14
79
240
255
253
252
253
254
255
255
255
254
254
255
255
255
255
255
255
255
255
255
255
255
255
255
255
255
255
255
255
255
255
255
255
255
255
255
255
255
255
255
255
255
255
255
255
255
255
255
255
255
255
255
255
255
255
255
255
255
255
255
255
255
255
255
255
255
255
255
255
255
255
255
255
255
255
255
255
255
255
255
255
255
255
255
255
255
255
255
255
255
255
255
255
255
255
255
255
255
255
255
255
255
255
255
255
255
255
255
255
255
255
255
255
255
255
255
255
255
255
255
255
255
255
255
255
255
255
255
255
255
255
255
255
255
255
255
255
255
255
255
255
255
255
255
255
255
255
255
255
255
255
255
255
255
255
255
255
255
255
255
255
255
255
255
255
255
255
255
255
255
255
255
255
255
255
255
255
255
255
255
255
255
255
255
255
255
255
255
255
255
255
255
254
255
253
255
251
251
255
221
61
6
11
1
96
150
156
152
171
215
195
218
214
205
86
23
2
1
9
9
1
25
65
86
85
96
126
64
75
121
116
106
79
86
115
103
115
121
97
58
107
86
85
87
56
13
8
6
19
1
96
224
246
234
244
245
241
245
245
250
193
63
1
25
11
53
103
125
123
128
134
131
128
124
134
123
118
81
90
124
132
132
131
130
129
129
128
128
83
86
127
128
131
123
123
123
122
126
132
132
132
134
138
141
90
84
129
136
140
132
139
132
137
136
134
133
133
133
133
132
130
130
125
119
127
132
86
16
60
111
129
119
119
111
106
123
111
105
99
97
99
103
106
106
67
10
42
194
254
255
245
255
255
255
255
255
255
255
255
255
255
255
255
255
255
255
255
255
255
255
255
255
255
255
255
255
255
255
255
255
255
255
255
255
255
255
255
255
255
255
255
255
255
255
255
255
255
255
255
255
255
255
255
255
255
255
255
255
255
255
255
255
255
255
255
255
255
255
255
255
255
255
255
255
253
255
254
245
255
255
232
100
1
81
100
132
159
145
158
154
161
145
102
18
1
170
253
252
252
253
254
255
255
255
254
254
255
255
255
255
255
255
255
255
255
255
255
255
255
255
255
255
255
255
255
255
255
255
255
255
255
255
255
255
255
255
255
255
255
255
255
255
255
255
255
255
255
255
255
255
255
255
255
255
255
255
255
255
255
255
255
255
255
255
255
255
255
255
255
255
255
255
255
255
255
255
255
255
255
255
255
255
255
255
255
255
255
255
255
255
255
255
255
255
255
255
255
255
255
255
255
255
255
255
255
255
255
255
255
255
255
255
255
255
255
255
255
255
255
255
255
255
255
255
255
255
255
255
255
255
255
255
255
255
255
255
255
255
255
255
255
255
255
255
255
255
255
255
255
255
255
255
255
255
255
255
255
255
255
255
255
255
255
255
255
255
255
255
255
255
255
255
255
255
255
255
255
255
255
255
255
255
255
255
255
255
255
253
255
252
255
255
250
252
228
77
1
9
1
65
141
158
155
162
184
227
192
207
215
200
96
10
1
1
11
7
3
30
58
101
108
116
76
74
102
113
115
87
80
115
113
115
98
87
79
120
98
72
50
26
4
3
8
2
65
192
253
230
223
246
251
254
248
243
240
156
26
3
34
50
61
76
88
104
115
115
109
108
110
111
104
110
75
62
105
102
100
99
100
101
102
102
102
73
70
109
113
121
119
125
129
128
132
135
135
135
136
133
129
62
103
127
122
129
124
126
129
124
123
124
123
124
125
126
127
131
119
124
129
108
81
71
70
70
101
115
117
120
113
109
120
106
105
104
103
102
101
99
98
85
48
5
135
247
254
246
255
255
255
255
255
255
255
255
255
255
255
255
255
255
255
255
255
255
255
255
255
255
255
255
255
255
255
255
255
255
255
255
255
255
255
255
255
255
255
255
255
255
255
255
255
255
255
255
255
255
255
255
255
255
255
255
255
255
255
255
255
255
255
255
255
255
255
255
255
255
255
255
255
247
255
255
251
255
253
224
92
8
83
102
126
159
149
145
146
153
122
103
44
4
138
252
251
252
253
254
255
255
255
254
254
255
255
255
255
255
255
255
255
255
255
255
255
255
255
255
255
255
255
255
255
255
255
255
255
255
255
255
255
255
255
255
255
255
255
255
255
255
255
255
255
255
255
255
255
255
255
255
255
255
255
255
255
255
255
255
255
255
255
255
255
255
255
255
255
255
255
255
255
255
255
255
255
255
255
255
255
255
255
255
255
255
255
255
255
255
255
255
255
255
255
255
255
255
255
255
255
255
255
255
255
255
255
255
255
255
255
255
255
255
255
255
255
255
255
255
255
255
255
255
255
255
255
255
255
255
255
255
255
255
255
255
255
255
255
255
255
255
255
255
255
255
255
255
255
255
255
255
255
255
255
255
255
255
255
255
255
255
255
255
255
255
255
255
255
255
255
255
255
255
255
255
255
255
255
255
255
255
255
255
255
255
255
255
250
255
255
251
253
235
92
0
6
1
32
127
153
153
148
173
201
218
183
212
214
190
92
28
1
3
7
3
12
30
85
113
107
100
71
72
105
123
89
66
102
118
111
74
75
102
121
111
65
18
10
4
1
3
16
161
232
225
238
238
227
247
253
248
237
214
108
3
13
42
35
55
47
33
54
74
69
62
66
75
70
68
72
47
13
70
82
79
76
77
79
82
81
80
30
42
85
83
88
88
92
88
113
117
121
126
130
133
125
115
53
115
119
125
124
120
125
124
117
118
119
120
120
121
123
125
119
126
127
104
75
77
99
109
95
90
92
106
120
119
115
114
103
102
102
103
104
101
95
89
94
83
9
65
205
250
254
254
255
255
255
255
255
255
255
255
255
255
255
255
255
255
255
255
255
255
255
255
255
255
255
255
255
255
255
255
255
255
255
255
255
255
255
255
255
255
255
255
255
255
255
255
255
255
255
255
255
255
255
255
255
255
255
255
255
255
255
255
255
255
255
255
255
255
255
255
255
255
255
255
247
255
255
254
255
250
228
106
2
77
102
107
147
157
143
148
113
99
99
64
17
70
200
237
252
253
254
255
255
255
254
254
255
255
255
255
255
255
255
255
255
255
255
255
255
255
255
255
255
255
255
255
255
255
255
255
255
255
255
255
255
255
255
255
255
255
255
255
255
255
255
255
255
255
255
255
255
255
255
255
255
255
255
255
255
255
255
255
255
255
255
255
255
255
255
255
255
255
255
255
255
255
255
255
255
255
255
255
255
255
255
255
255
255
255
255
255
255
255
255
255
255
255
255
255
255
255
255
255
255
255
255
255
255
255
255
255
255
255
255
255
255
255
255
255
255
255
255
255
255
255
255
255
255
255
255
255
255
255
255
255
255
255
255
255
255
255
255
255
255
255
255
255
255
255
255
255
255
255
255
255
255
255
255
255
255
255
255
255
255
255
255
255
255
255
255
255
255
255
255
255
255
255
255
255
255
255
255
255
255
255
255
255
255
255
248
255
255
253
255
242
105
0
6
1
12
116
146
148
145
189
206
197
213
198
196
217
203
96
12
2
3
6
3
2
73
118
99
108
72
68
106
113
78
43
81
113
105
62
71
121
106
108
53
3
11
5
4
2
137
207
230
214
228
245
241
240
236
234
224
189
75
1
40
62
64
113
111
79
95
124
127
123
118
137
130
128
130
111
71
133
132
129
125
125
126
126
125
123
59
85
135
119
114
109
103
86
75
82
92
103
118
127
121
110
56
118
112
135
123
118
128
119
113
114
115
116
116
119
122
123
134
103
78
72
90
121
134
124
119
84
72
95
118
126
120
108
104
99
95
97
101
103
96
91
93
95
22
4
152
227
254
248
255
255
255
255
255
255
255
255
255
255
255
255
255
255
255
255
255
255
255
255
255
255
255
255
255
255
255
255
255
255
255
255
255
255
255
255
255
255
255
255
255
255
255
255
255
255
255
255
255
255
255
255
255
255
255
255
255
255
255
255
255
255
255
255
255
255
255
255
255
255
255
255
252
255
253
251
255
250
240
130
3
76
100
77
103
118
91
95
94
124
150
111
31
3
162
255
252
253
254
255
255
255
254
254
255
255
255
255
255
255
255
255
255
255
255
255
255
255
255
255
255
255
255
255
255
255
255
255
255
255
255
255
255
255
255
255
255
255
255
255
255
255
255
255
255
255
255
255
255
255
255
255
255
255
255
255
255
255
255
255
255
255
255
255
255
255
255
255
255
255
255
255
255
255
255
255
255
255
255
255
255
255
255
255
255
255
255
255
255
255
255
255
255
255
255
255
255
255
255
255
255
255
255
255
255
255
255
255
255
255
255
255
255
255
255
255
255
255
255
255
255
255
255
255
255
255
255
255
255
255
255
255
255
255
255
255
255
255
255
255
255
255
255
255
255
255
255
255
255
255
255
255
255
255
255
255
255
255
255
255
255
255
255
255
255
255
255
255
255
255
255
255
255
255
255
255
255
255
255
255
255
255
255
255
255
254
255
255
255
255
255
255
254
128
1
10
0
1
79
151
148
144
171
197
208
206
205
205
206
195
214
112
8
11
2
1
31
25
89
104
106
88
61
85
111
63
66
59
80
83
82
85
122
107
83
2
6
0
2
1
106
187
210
221
222
229
233
236
244
247
238
233
143
7
17
52
65
43
118
133
67
94
129
137
124
130
126
126
123
135
77
95
128
123
126
122
134
128
124
131
96
78
117
129
119
120
118
118
130
118
121
102
94
75
73
87
40
88
109
127
132
129
124
121
118
115
121
121
113
106
108
114
119
88
76
81
103
117
114
113
120
126
110
92
84
92
106
112
112
97
97
98
98
96
96
100
103
97
99
86
1
62
210
236
254
254
251
254
255
255
248
249
255
255
255
255
255
255
255
255
255
255
255
255
255
255
255
255
255
255
255
255
255
255
255
255
255
255
255
255
255
255
255
255
255
255
255
255
255
255
255
255
255
255
255
255
255
255
255
255
255
255
255
255
255
255
255
255
255
255
255
255
255
255
255
255
255
255
249
255
255
250
255
243
164
4
67
96
116
108
134
145
141
147
156
143
148
74
1
93
209
243
253
255
250
253
255
254
246
255
255
255
255
255
255
255
255
255
255
255
255
255
255
255
255
255
255
255
255
255
255
255
255
255
255
255
255
255
255
255
255
255
255
255
255
255
255
255
255
255
255
255
255
255
255
255
255
255
255
255
255
255
255
255
255
255
255
255
255
255
255
255
255
255
255
255
255
255
255
255
255
255
255
255
255
255
255
255
255
255
255
255
255
255
255
255
255
255
255
255
255
255
255
255
255
255
255
255
255
255
255
255
255
255
255
255
255
255
255
255
255
255
255
255
255
255
255
255
255
255
255
255
255
255
255
255
255
255
255
255
255
255
255
255
255
255
255
255
255
255
255
255
255
255
255
255
255
255
255
255
255
255
255
255
255
255
255
255
255
255
255
255
255
255
255
255
255
255
255
255
255
255
255
255
255
255
255
255
255
255
254
255
255
255
255
255
255
254
146
2
1
0
1
55
132
169
147
156
178
205
212
201
198
204
200
206
185
102
11
0
12
13
45
53
64
98
109
76
72
98
59
88
85
64
47
86
108
114
84
32
10
4
18
2
63
158
186
210
220
219
225
229
232
239
234
232
206
89
5
17
69
57
46
119
134
76
82
117
130
121
129
125
126
123
135
77
97
129
127
128
121
129
126
122
121
81
96
123
128
122
124
121
119
128
127
120
135
121
120
111
61
46
80
85
93
103
117
129
125
117
110
107
105
107
114
116
104
92
48
74
100
104
97
94
98
100
108
112
101
85
90
113
119
109
97
98
99
100
99
95
91
88
106
89
63
27
16
138
253
245
254
255
247
243
250
255
255
253
255
255
255
255
255
255
255
255
255
255
255
255
255
255
255
255
255
255
255
255
255
255
255
255
255
255
255
255
255
255
255
255
255
255
255
255
255
255
255
255
255
255
255
255
255
255
255
255
255
255
255
255
255
255
255
255
255
255
255
255
255
255
255
255
255
249
255
255
250
255
246
183
25
60
97
121
125
130
127
142
137
152
158
135
68
4
44
201
253
238
250
255
235
236
254
249
255
255
255
255
255
255
255
255
255
255
255
255
255
255
255
255
255
255
255
255
255
255
255
255
255
255
255
255
255
255
255
255
255
255
255
255
255
255
255
255
255
255
255
255
255
255
255
255
255
255
255
255
255
255
255
255
255
255
255
255
255
255
255
255
255
255
255
255
255
255
255
255
255
255
255
255
255
255
255
255
255
255
255
255
255
255
255
255
255
255
255
255
255
255
255
255
255
255
255
255
255
255
255
255
255
255
255
255
255
255
255
255
255
255
255
255
255
255
255
255
255
255
255
255
255
255
255
255
255
255
255
255
255
255
255
255
255
255
255
255
255
255
255
255
255
255
255
255
255
255
255
255
255
255
255
255
255
255
255
255
255
255
255
255
255
255
255
255
255
255
255
255
255
255
255
255
255
255
255
255
255
254
254
255
255
255
255
254
254
176
25
1
4
2
23
92
164
156
145
161
201
218
206
200
210
199
197
226
187
65
3
10
1
37
52
70
80
100
100
67
52
82
114
115
75
36
103
133
100
44
7
15
1
9
13
135
197
184
209
218
215
221
225
226
232
227
225
164
35
5
40
93
43
53
118
133
95
71
108
129
125
126
124
125
121
134
75
95
128
126
127
119
123
124
123
109
67
116
126
125
123
126
122
119
126
137
136
140
124
126
104
62
84
105
93
78
76
89
107
117
118
116
105
100
108
120
110
80
55
104
113
115
111
109
113
112
107
100
110
107
87
73
79
92
98
103
100
98
99
100
102
100
98
105
81
44
69
15
48
226
248
247
253
254
254
255
255
254
254
255
255
255
255
255
255
255
255
255
255
255
255
255
255
255
255
255
255
255
255
255
255
255
255
255
255
255
255
255
255
255
255
255
255
255
255
255
255
255
255
255
255
255
255
255
255
255
255
255
255
255
255
255
255
255
255
255
255
255
255
255
255
255
255
255
249
255
255
249
255
250
212
56
43
90
111
130
134
130
147
147
134
146
110
91
42
1
116
238
235
254
254
244
246
255
254
255
255
255
255
255
255
255
255
255
255
255
255
255
255
255
255
255
255
255
255
255
255
255
255
255
255
255
255
255
255
255
255
255
255
255
255
255
255
255
255
255
255
255
255
255
255
255
255
255
255
255
255
255
255
255
255
255
255
255
255
255
255
255
255
255
255
255
255
255
255
255
255
255
255
255
255
255
255
255
255
255
255
255
255
255
255
255
255
255
255
255
255
255
255
255
255
255
255
255
255
255
255
255
255
255
255
255
255
255
255
255
255
255
255
255
255
255
255
255
255
255
255
255
255
255
255
255
255
255
255
255
255
255
255
255
255
255
255
255
255
255
255
255
255
255
255
255
255
255
255
255
255
255
255
255
255
255
255
255
255
255
255
255
255
255
255
255
255
255
255
255
255
255
255
255
255
255
255
255
255
255
253
254
255
255
255
255
254
253
186
42
1
10
8
3
48
127
161
147
153
185
209
210
206
210
199
200
206
210
164
64
0
0
7
53
98
71
69
89
58
32
103
109
118
97
53
102
114
53
8
2
1
0
1
84
165
188
179
206
216
212
218
224
224
227
227
207
100
8
15
74
100
28
61
114
127
109
69
103
132
128
125
123
125
119
131
72
92
126
120
124
121
120
124
122
100
65
126
123
121
121
123
120
120
127
130
147
128
117
94
65
93
122
126
118
102
83
73
75
85
94
110
106
108
115
112
87
51
31
77
54
41
49
59
57
53
54
59
64
76
79
60
51
80
125
107
102
96
92
91
94
95
96
91
72
53
93
58
4
112
228
252
252
253
254
254
248
249
254
254
254
254
254
254
254
254
254
255
255
255
255
255
255
255
255
255
255
255
255
255
255
255
255
255
255
255
255
255
255
255
255
255
255
255
255
255
255
255
255
255
255
255
255
255
255
255
255
255
255
255
255
255
255
255
255
255
255
255
255
255
255
255
255
255
250
255
255
250
252
254
239
97
18
71
89
103
124
134
132
135
105
116
102
124
107
10
28
153
245
254
237
252
254
251
253
254
254
254
254
254
254
254
254
255
255
255
255
255
255
255
255
255
255
255
255
255
255
255
255
255
255
255
255
255
255
255
255
255
255
255
255
255
255
255
255
255
255
255
255
255
255
255
255
255
255
255
255
255
255
255
255
255
255
255
255
255
255
255
255
255
255
255
255
255
255
255
255
255
255
255
255
255
255
255
255
255
255
255
255
255
255
255
255
255
255
255
255
255
255
255
255
255
255
255
255
255
255
255
255
255
255
255
255
255
255
255
255
255
255
255
255
255
255
255
255
255
255
255
255
255
255
255
255
255
255
255
255
255
255
255
255
255
255
255
255
255
255
255
255
255
255
255
255
255
255
255
255
255
255
255
255
255
255
255
255
255
255
255
255
255
255
255
255
255
255
255
255
255
255
255
255
255
255
255
255
255
253
253
254
255
255
254
253
253
188
54
1
3
3
1
22
77
152
153
156
166
187
206
208
200
203
208
192
208
224
144
35
4
4
11
66
64
40
35
29
55
110
111
127
116
63
83
75
20
0
19
1
14
55
159
169
167
172
202
216
210
217
225
224
224
225
168
30
6
33
101
88
19
76
114
121
119
75
96
129
125
123
122
124
120
129
70
91
125
117
124
127
122
122
118
93
72
128
121
119
122
121
123
127
132
118
138
131
118
78
70
118
121
111
116
118
111
92
75
67
66
80
90
106
112
87
47
18
13
6
13
34
54
54
45
49
63
23
18
27
39
25
11
32
66
98
100
102
102
100
96
93
92
82
57
83
96
90
38
20
136
249
253
254
250
250
254
254
251
254
254
254
254
254
254
254
254
255
255
255
255
255
255
255
255
255
255
255
255
255
255
255
255
255
255
255
255
255
255
255
255
255
255
255
255
255
255
255
255
255
255
255
255
255
255
255
255
255
255
255
255
255
255
255
255
255
255
255
255
255
255
255
255
255
252
255
255
252
251
255
255
156
3
42
79
80
96
116
103
104
93
116
123
138
142
74
13
61
199
254
240
251
255
245
252
254
254
254
254
254
254
254
254
255
255
255
255
255
255
255
255
255
255
255
255
255
255
255
255
255
255
255
255
255
255
255
255
255
255
255
255
255
255
255
255
255
255
255
255
255
255
255
255
255
255
255
255
255
255
255
255
255
255
255
255
255
255
255
255
255
255
255
255
255
255
255
255
255
255
255
255
255
255
255
255
255
255
255
255
255
255
255
255
255
255
255
255
255
255
255
255
255
255
255
255
255
255
255
255
255
255
255
255
255
255
255
255
255
255
255
255
255
255
255
255
255
255
255
255
255
255
255
255
255
255
255
255
255
255
255
255
255
255
255
255
255
255
255
255
255
255
255
255
255
255
255
255
255
255
255
255
255
255
255
255
255
255
255
255
255
255
255
255
255
255
255
255
255
255
255
255
255
255
255
255
255
252
253
254
254
254
254
253
252
219
85
1
6
0
0
7
34
119
148
163
159
172
202
210
195
205
204
206
209
210
185
102
8
12
2
21
31
7
2
12
51
92
110
125
106
49
54
37
14
5
12
0
31
131
187
172
164
164
199
215
210
216
224
221
217
202
113
0
5
66
116
71
22
89
119
121
122
86
85
123
119
119
119
122
119
128
68
90
126
119
124
131
123
123
113
85
85
129
120
121
124
124
133
141
137
130
114
133
102
77
109
116
109
101
101
106
112
112
100
89
82
66
74
86
84
50
5
0
4
37
78
112
114
109
117
126
126
116
109
97
87
79
68
44
23
45
56
74
92
104
105
102
98
78
49
106
93
92
91
15
36
159
222
255
255
249
255
255
247
253
253
253
253
253
253
253
253
255
255
255
255
255
255
255
255
255
255
255
255
255
255
255
255
255
255
255
255
255
255
255
255
255
255
255
255
255
255
255
255
255
255
255
255
255
255
255
255
255
255
255
255
255
255
255
255
255
255
255
255
255
255
255
255
255
254
253
255
255
253
253
255
209
12
13
82
84
88
106
104
113
113
129
141
140
146
117
39
2
85
208
254
254
246
254
250
253
253
253
253
253
253
253
253
255
255
255
255
255
255
255
255
255
255
255
255
255
255
255
255
255
255
255
255
255
255
255
255
255
255
255
255
255
255
255
255
255
255
255
255
255
255
255
255
255
255
255
255
255
255
255
255
255
255
255
255
255
255
255
255
255
255
255
255
255
255
255
255
255
255
255
255
255
255
255
255
255
255
255
255
255
255
255
255
255
255
255
255
255
255
255
255
255
255
255
255
255
255
255
255
255
255
255
255
255
255
255
255
255
255
255
255
255
255
255
255
255
255
255
255
255
255
255
255
255
255
255
255
255
255
255
255
255
255
255
255
255
255
255
255
255
255
255
255
255
255
255
255
255
255
255
255
255
255
255
255
255
255
255
255
255
255
255
255
255
255
255
255
255
255
255
255
255
255
255
255
255
252
253
253
254
254
253
253
252
241
101
3
24
5
0
1
9
57
111
152
157
167
194
208
199
207
195
211
211
189
185
136
38
4
1
3
5
1
1
27
28
57
84
88
78
39
29
8
2
6
2
1
28
130
169
174
168
159
196
213
209
214
221
215
207
140
45
3
32
106
119
54
19
81
109
112
111
87
63
106
108
107
107
113
112
122
64
88
126
121
118
127
123
126
113
83
99
131
119
120
124
128
147
154
135
136
115
109
80
88
125
116
109
109
100
96
100
105
106
106
108
84
64
47
36
16
1
16
49
101
122
131
125
127
144
147
137
143
139
130
123
128
128
106
77
34
28
28
45
69
87
93
94
59
71
100
96
92
101
69
29
50
125
207
246
253
252
253
253
253
253
253
253
253
253
253
253
255
255
255
255
255
255
255
255
255
255
255
255
255
255
255
255
255
255
255
255
255
255
255
255
255
255
255
255
255
255
255
255
255
255
255
255
255
255
255
255
255
255
255
255
255
255
255
255
255
255
255
255
255
255
255
255
253
255
253
252
255
255
250
251
241
76
5
61
90
105
113
121
135
132
136
140
137
132
106
62
21
18
102
210
243
252
255
251
253
253
253
253
253
253
253
253
255
255
255
255
255
255
255
255
255
255
255
255
255
255
255
255
255
255
255
255
255
255
255
255
255
255
255
255
255
255
255
255
255
255
255
255
255
255
255
255
255
255
255
255
255
255
255
255
255
255
255
255
255
255
255
255
255
255
255
255
255
255
255
255
255
255
255
255
255
255
255
255
255
255
255
255
255
255
255
255
255
255
255
255
255
255
255
255
255
255
255
255
255
255
255
255
255
255
255
255
255
255
255
255
255
255
255
255
255
255
255
255
255
255
255
255
255
255
255
255
255
255
255
255
255
255
255
255
255
255
255
255
255
255
255
255
255
255
255
255
255
255
255
255
255
255
255
255
255
255
255
255
255
255
255
255
255
255
255
255
255
255
255
255
255
255
255
255
255
255
255
255
255
252
252
253
254
254
253
252
252
227
86
1
34
12
4
4
3
2
64
128
149
160
183
199
199
214
194
200
212
200
177
134
80
5
1
4
19
6
9
45
30
57
69
65
83
64
45
14
15
2
5
1
12
72
145
173
166
157
195
213
209
214
218
210
199
74
1
10
52
132
113
38
4
59
88
93
90
76
37
86
94
95
97
103
104
115
59
84
122
120
112
120
120
129
116
86
109
132
118
117
122
130
153
158
129
126
134
86
81
111
118
125
111
112
105
102
102
98
92
93
100
104
54
9
1
2
16
66
118
123
123
128
134
133
129
129
136
136
128
130
140
141
137
139
146
130
92
46
29
46
72
86
92
36
102
83
103
104
83
110
76
15
23
84
184
246
250
245
254
253
253
253
253
253
253
253
253
255
255
255
255
255
255
255
255
255
255
255
255
255
255
255
255
255
255
255
255
255
255
255
255
255
255
255
255
255
255
255
255
255
255
255
255
255
255
255
255
255
255
255
255
255
255
255
255
255
255
255
255
255
255
255
255
251
255
252
250
255
255
248
244
254
148
9
27
77
116
116
121
126
132
143
135
131
111
80
90
89
26
3
90
205
251
251
253
253
253
253
253
253
253
253
253
255
255
255
255
255
255
255
255
255
255
255
255
255
255
255
255
255
255
255
255
255
255
255
255
255
255
255
255
255
255
255
255
255
255
255
255
255
255
255
255
255
255
255
255
255
255
255
255
255
255
255
255
255
255
255
255
255
255
255
255
255
255
255
255
255
255
255
255
255
255
255
255
255
255
255
255
255
255
255
255
255
255
255
255
255
255
255
255
255
255
255
255
255
255
255
255
255
255
255
255
255
255
255
255
255
255
255
255
255
255
255
255
255
255
255
255
255
255
255
255
255
255
255
255
255
255
255
255
255
255
255
255
255
255
255
255
255
255
255
255
255
255
255
255
255
255
255
255
255
255
255
255
255
255
255
255
255
255
255
255
255
255
255
255
255
255
255
255
255
255
255
255
255
251
243
254
252
234
242
253
227
90
11
8
53
41
11
3
4
1
2
36
96
143
169
193
219
206
205
210
205
163
97
46
27
1
8
7
1
26
55
50
82
114
83
141
145
94
82
49
1
16
2
4
7
7
85
184
161
161
165
222
222
216
219
201
95
3
31
24
82
136
91
12
4
16
60
68
82
96
76
73
88
99
96
99
100
111
72
48
120
122
118
135
130
123
107
92
119
118
123
126
133
151
161
145
126
130
120
72
95
136
117
104
109
97
97
96
108
88
102
92
76
24
26
3
5
45
107
135
135
133
124
114
108
109
114
119
122
119
114
118
129
137
138
141
147
139
132
136
109
42
12
39
62
30
57
82
94
98
101
100
97
93
59
16
17
95
195
248
250
252
247
250
254
255
252
251
254
252
252
249
253
255
252
251
254
254
255
255
251
250
255
255
254
255
255
255
255
255
255
255
255
255
255
255
255
255
255
254
254
254
254
254
254
254
254
254
254
255
255
255
255
255
255
255
255
255
255
255
255
255
255
255
255
255
255
255
254
253
252
250
249
254
236
84
15
28
82
110
118
113
120
117
103
95
103
119
130
124
54
4
12
60
144
221
248
251
246
248
253
254
250
254
240
255
255
255
255
255
255
255
255
254
254
254
254
254
254
254
254
254
254
254
254
254
254
254
254
255
255
255
255
250
245
252
255
249
250
250
248
248
249
251
251
251
254
255
254
254
254
255
250
253
252
253
254
254
255
254
254
250
255
255
255
252
254
255
252
255
255
255
255
255
255
255
255
255
255
255
255
255
255
255
255
255
255
255
255
255
255
255
255
255
255
255
255
255
255
255
255
255
255
255
255
255
255
255
255
255
255
255
255
255
255
255
255
255
255
255
255
255
255
255
255
255
255
255
255
255
255
255
255
255
255
255
255
255
255
255
255
255
255
255
255
255
255
255
255
255
255
255
255
255
255
255
255
255
255
255
255
255
255
255
255
255
255
255
255
255
255
255
255
255
255
255
255
255
254
254
255
243
245
254
218
108
17
3
18
64
66
16
1
19
9
1
3
28
60
101
156
200
210
204
187
141
73
14
0
0
1
2
0
5
40
52
51
78
112
108
143
155
123
83
82
38
7
3
9
14
1
38
131
161
165
153
191
218
217
192
125
18
4
8
34
111
128
70
19
1
27
58
58
65
72
52
53
72
81
78
77
78
94
53
40
94
89
88
103
108
115
99
79
108
129
140
142
143
152
152
143
142
120
99
74
97
128
122
112
112
102
100
92
96
94
100
72
38
6
2
1
37
98
129
126
121
101
101
97
87
77
72
78
86
75
77
85
96
101
104
112
122
148
137
146
146
114
76
38
3
1
16
47
63
68
72
79
85
92
84
58
23
12
63
153
222
239
249
254
253
247
246
250
252
245
250
254
254
254
253
254
254
246
253
255
255
255
255
253
250
255
255
255
255
255
255
255
255
255
255
255
255
255
255
254
254
255
255
255
255
255
255
255
255
255
255
255
255
255
255
255
255
255
255
255
255
255
255
255
255
254
255
255
254
253
252
250
250
246
254
187
7
27
62
80
102
102
102
98
95
102
118
129
133
111
72
34
14
14
40
79
104
135
212
232
240
255
241
245
255
255
255
255
255
255
255
255
255
255
255
255
255
255
255
255
255
255
255
255
255
255
255
255
255
245
243
248
255
255
255
249
246
254
254
254
254
254
251
245
242
252
253
251
246
247
252
254
253
253
254
254
255
253
250
250
252
255
254
248
248
255
255
255
253
255
255
255
255
255
255
255
255
255
255
255
255
255
255
255
255
255
255
255
255
255
255
255
255
255
255
255
255
255
255
255
255
255
255
255
255
255
255
255
255
255
255
255
255
255
255
255
255
255
255
255
255
255
255
255
255
255
255
255
255
255
255
255
255
255
255
255
255
255
255
255
255
255
255
255
255
255
255
255
255
255
255
255
255
255
255
255
255
255
255
255
255
255
255
255
255
255
255
255
255
255
255
255
255
255
255
255
255
255
254
250
253
253
253
234
137
11
17
23
20
53
94
48
2
0
10
5
1
2
5
29
72
109
153
133
96
52
16
2
2
4
8
1
4
38
57
49
59
72
94
119
132
155
144
70
100
79
14
4
11
14
2
3
61
128
169
171
195
219
179
119
44
4
10
3
55
124
113
49
14
9
44
64
60
66
66
43
47
70
64
59
53
60
78
27
34
70
67
69
73
80
93
68
46
75
95
116
131
148
166
151
130
135
108
80
91
117
129
128
111
96
99
101
96
88
98
82
43
6
1
1
26
88
137
130
107
104
96
96
86
63
35
22
27
38
38
45
57
66
72
75
87
99
114
122
143
153
143
130
110
83
38
15
2
6
22
34
38
39
72
70
65
47
20
5
29
64
125
165
205
224
237
254
254
254
252
253
253
254
254
254
251
246
255
255
255
255
253
251
254
255
255
255
255
255
255
255
255
255
255
255
255
255
255
255
254
254
255
255
255
255
255
255
255
255
255
255
255
255
255
255
255
255
255
255
255
255
255
255
255
255
254
255
255
255
254
253
251
250
247
253
241
120
7
26
57
91
93
95
100
110
124
130
121
109
83
83
71
47
19
1
4
24
11
64
149
242
254
251
254
251
255
255
255
255
255
255
255
255
255
255
255
255
255
255
255
255
255
255
255
255
255
255
255
255
255
255
250
250
252
254
255
255
254
254
250
247
249
253
253
253
252
253
254
255
255
255
253
254
245
251
253
254
255
255
254
254
255
255
251
255
255
255
255
252
255
255
255
255
255
255
255
255
255
255
255
255
255
255
255
255
255
255
255
255
255
255
255
255
255
255
255
255
255
255
255
255
255
255
255
255
255
255
255
255
255
255
255
255
255
255
255
255
255
255
255
255
255
255
255
255
255
255
255
255
255
255
255
255
255
255
255
255
255
255
255
255
255
255
255
255
255
255
255
255
255
255
255
255
255
255
255
255
255
255
255
255
255
255
255
255
255
255
255
255
255
255
255
255
255
255
255
255
255
252
237
253
252
220
118
42
11
56
54
29
32
74
67
14
4
2
10
15
9
2
1
7
16
36
26
6
2
2
5
11
9
3
8
26
68
67
53
76
75
88
120
126
149
156
75
102
112
53
7
3
2
7
8
7
58
97
116
121
130
74
29
4
7
16
56
81
96
90
40
7
32
55
70
69
81
79
56
64
85
104
102
95
101
114
60
85
107
91
97
92
93
97
67
53
93
111
114
104
110
131
124
117
134
121
79
101
114
106
120
114
105
88
97
105
89
93
46
15
6
3
34
74
110
126
109
92
95
93
82
60
29
4
0
2
12
17
23
32
39
45
51
60
69
81
107
131
136
132
138
144
143
124
73
19
2
2
1
3
7
2
2
3
6
8
4
2
3
6
26
49
67
95
140
183
207
248
255
255
249
245
249
254
253
255
252
247
251
254
253
255
255
255
255
255
255
255
255
255
255
255
255
255
255
255
255
254
254
255
255
255
255
255
255
255
255
254
254
254
254
254
254
254
254
255
255
255
255
255
255
255
255
254
255
255
255
254
253
252
251
250
248
237
245
86
5
34
91
97
103
112
120
122
114
99
87
106
98
71
51
46
35
35
59
53
2
32
175
249
252
255
252
254
254
254
254
254
254
254
254
255
255
255
255
255
255
255
255
255
255
255
255
255
255
255
255
253
255
255
255
252
249
253
255
244
250
252
252
253
252
244
238
236
236
243
253
253
251
251
254
254
254
252
244
244
250
255
255
251
251
255
255
255
249
249
255
255
255
255
255
255
255
255
255
255
255
255
255
255
255
255
255
255
255
255
255
255
255
255
255
255
255
255
255
255
255
255
255
255
255
255
255
255
255
255
255
255
255
255
255
255
255
255
255
255
255
255
255
255
255
255
255
255
255
255
255
255
255
255
255
255
255
255
255
255
255
255
255
255
255
255
255
255
255
255
255
255
255
255
255
255
255
255
255
255
255
255
255
255
255
255
255
255
255
255
255
255
255
255
255
255
255
255
255
255
251
249
253
226
121
19
13
48
54
60
54
27
22
58
69
39
2
5
6
6
4
2
0
0
0
1
9
5
0
2
5
7
1
31
60
88
69
62
94
89
89
113
126
130
151
101
93
131
115
51
9
6
11
20
1
7
12
17
2
14
3
5
1
19
50
105
108
65
43
38
30
30
61
72
73
84
81
66
84
101
101
104
100
103
97
61
92
110
106
119
112
107
101
78
92
142
154
151
135
124
121
104
98
113
85
62
102
119
110
124
117
105
92
95
104
92
82
18
1
17
8
70
108
104
100
100
90
79
53
37
14
1
1
2
4
7
2
2
5
9
14
20
23
24
34
54
75
96
125
142
136
123
147
125
97
65
30
4
1
9
66
99
122
112
82
57
46
44
56
40
24
14
7
3
13
28
100
152
213
247
252
252
252
252
248
245
247
255
255
255
253
249
255
255
255
255
255
255
255
255
255
255
255
255
255
255
254
254
253
253
253
253
253
253
253
253
254
254
254
254
254
254
254
254
255
255
255
255
255
255
255
255
254
254
255
255
255
254
253
253
248
255
252
253
233
44
4
48
89
96
103
102
94
90
93
101
121
95
60
66
100
98
68
56
102
48
1
72
202
243
243
251
254
254
254
254
254
254
254
254
253
253
253
253
253
253
253
253
253
253
253
253
253
253
253
253
242
245
248
250
252
254
255
254
254
242
216
182
145
113
95
87
61
65
78
101
132
166
203
228
224
227
236
248
254
254
252
250
247
246
249
252
251
249
251
255
255
255
255
255
255
255
255
255
255
255
255
255
255
255
255
255
255
255
255
255
255
255
255
255
255
255
255
255
255
255
255
255
255
255
255
255
255
255
255
255
255
255
255
255
255
255
255
255
255
255
255
255
255
255
255
255
255
255
255
255
255
255
255
255
255
255
255
255
255
255
255
255
255
255
255
255
255
255
255
255
255
255
255
255
255
255
255
255
255
255
255
255
255
255
255
255
255
255
255
255
255
255
255
255
255
255
255
255
255
255
254
225
123
33
16
43
68
49
55
65
34
6
63
117
85
17
4
1
0
9
8
4
1
8
12
16
17
13
8
5
4
22
56
87
86
60
63
91
89
95
115
127
122
145
135
91
135
123
77
26
1
0
10
1
4
4
0
2
1
2
10
13
37
98
121
121
54
9
41
65
11
68
76
72
76
69
69
97
111
98
105
105
102
74
69
95
108
101
114
108
101
86
80
120
160
154
166
182
177
145
116
103
100
48
55
90
109
112
120
118
111
108
98
97
89
65
7
1
13
30
91
117
96
89
94
73
42
15
3
0
1
2
7
4
1
1
1
1
1
1
5
4
1
2
4
5
33
89
127
136
138
135
139
142
130
98
52
13
1
5
53
111
151
172
175
164
148
128
115
112
117
106
78
53
46
3
25
69
124
175
211
240
252
255
255
255
254
252
253
252
248
255
255
255
255
255
255
255
255
255
255
255
255
255
255
254
254
252
252
252
252
252
252
252
252
253
253
253
253
253
253
253
253
255
255
255
255
255
255
255
255
254
254
255
255
255
255
254
254
253
254
254
252
254
172
27
2
45
60
80
92
93
95
106
120
107
74
54
87
139
142
95
55
51
46
4
8
91
195
254
249
253
253
253
253
253
253
253
253
252
252
252
252
252
252
252
252
252
252
252
252
252
252
252
252
255
255
255
255
255
247
218
190
145
122
79
33
1
2
8
26
37
34
24
9
5
17
31
41
80
82
101
134
162
184
212
240
255
255
251
246
250
255
254
248
255
255
255
255
255
255
255
255
255
255
255
255
255
255
255
255
255
255
255
255
255
255
255
255
255
255
255
255
255
255
255
255
255
255
255
255
255
255
255
255
255
255
255
255
255
255
255
255
255
255
255
255
255
255
255
255
255
255
255
255
255
255
255
255
255
255
255
255
255
255
255
255
255
255
255
255
255
255
255
255
255
255
255
255
255
255
255
255
255
255
255
255
255
255
255
255
255
255
255
255
255
255
255
255
255
255
255
255
255
253
229
138
40
20
53
70
67
52
47
52
32
12
71
123
104
47
19
2
2
10
5
1
0
5
1
2
3
4
8
22
37
69
82
94
67
39
49
61
65
82
108
108
105
121
138
73
105
92
95
74
42
6
2
10
10
14
6
13
10
6
1
24
59
122
125
113
50
5
52
71
7
64
75
72
69
59
67
99
106
98
103
105
96
52
83
94
104
109
116
108
104
87
97
151
164
166
162
178
174
141
130
126
103
75
92
82
77
83
86
103
118
108
104
98
87
39
4
1
8
31
72
90
79
72
59
31
10
4
2
1
3
4
4
1
0
3
8
8
3
1
5
5
1
14
9
1
21
76
112
130
152
139
140
144
146
140
111
64
24
14
4
13
58
121
169
189
192
204
192
179
170
161
147
131
121
92
50
14
10
40
91
155
204
223
247
255
251
243
250
255
253
255
255
255
255
255
255
255
255
255
255
255
255
255
255
254
254
253
253
253
253
253
253
253
253
253
253
253
253
253
253
253
253
255
255
255
255
255
255
255
255
254
254
255
255
255
255
255
254
252
245
255
254
226
254
137
24
11
23
52
86
109
116
116
116
101
68
60
90
126
140
123
98
57
35
9
2
1
86
219
251
252
252
252
252
252
252
252
252
253
253
253
253
253
253
253
253
253
253
253
253
253
253
253
253
245
250
249
234
205
159
103
60
2
12
27
34
39
52
74
92
103
106
93
68
52
53
54
50
34
19
12
12
17
35
93
157
223
246
255
253
249
254
255
247
255
255
255
255
255
255
255
255
255
255
255
255
255
255
255
255
255
255
255
255
255
255
255
255
255
255
255
255
255
255
255
255
255
255
255
255
255
255
255
255
255
255
255
255
255
255
255
255
255
255
255
255
255
255
255
255
255
255
255
255
255
255
255
255
255
255
255
255
255
255
255
255
255
255
255
255
255
255
255
255
255
255
255
255
255
255
255
255
255
255
255
255
255
255
255
255
255
255
255
255
255
255
255
255
255
255
255
255
255
248
157
47
10
43
68
66
59
40
36
38
24
13
55
105
116
77
35
3
1
2
2
1
7
2
2
11
11
1
12
53
99
110
99
92
49
21
35
27
39
33
71
55
58
62
87
26
40
85
120
127
102
33
6
9
11
17
1
4
6
13
1
48
92
120
132
97
41
41
65
56
20
51
66
68
65
54
64
94
93
105
107
110
98
46
101
101
107
108
108
101
104
89
113
173
163
172
154
173
177
154
144
117
60
84
124
104
97
97
69
66
70
99
108
106
87
18
3
5
11
2
25
48
56
46
14
1
2
1
6
8
4
0
0
3
10
1
7
11
3
0
0
3
4
1
3
10
62
132
152
138
140
145
149
147
142
139
138
123
104
73
33
1
3
13
40
89
135
128
141
151
157
169
184
182
171
165
148
126
89
33
1
11
54
130
190
245
255
255
255
255
249
255
255
255
255
255
255
255
255
255
255
255
255
255
255
254
254
254
254
254
254
254
254
254
254
253
253
253
253
253
253
253
253
255
255
255
255
255
255
255
255
254
254
255
255
255
255
255
255
249
252
254
251
254
252
240
146
19
8
26
68
105
121
115
106
66
63
92
129
135
127
108
80
98
73
31
29
20
2
84
198
252
252
252
252
252
252
252
252
254
254
254
254
254
254
254
254
254
254
254
254
254
254
254
254
250
233
185
112
47
14
7
8
52
71
94
104
102
104
114
125
126
133
124
103
102
127
151
153
118
115
124
123
73
9
4
28
143
205
255
255
243
246
255
255
255
255
255
255
255
255
255
255
255
255
255
255
255
255
255
255
255
255
255
255
255
255
255
255
255
255
255
255
255
255
255
255
255
255
255
255
255
255
255
255
255
255
255
255
255
255
255
255
255
255
255
255
255
255
255
255
255
255
255
255
255
255
255
255
255
255
255
255
255
255
255
255
255
255
255
255
255
255
255
255
255
255
255
255
255
255
255
255
255
255
255
255
255
255
254
253
253
253
254
255
255
251
255
251
254
255
254
254
253
180
27
22
47
57
75
57
59
18
36
41
53
60
38
49
114
110
53
34
43
40
20
11
14
10
16
8
40
55
87
109
100
99
109
107
62
54
80
80
86
93
106
116
127
110
86
80
59
132
140
133
129
107
64
26
9
11
5
14
30
59
102
96
59
119
115
70
8
53
76
46
24
55
51
51
53
11
42
88
116
112
104
98
96
51
104
108
101
118
100
94
76
103
171
173
162
179
163
175
155
169
124
79
95
138
121
115
117
114
111
101
86
58
69
92
57
24
59
16
5
6
4
3
5
2
2
4
13
2
0
2
0
2
7
15
5
2
5
1
1
16
39
53
64
115
137
166
181
180
173
169
168
161
154
146
144
146
147
143
140
129
105
67
31
8
1
2
3
6
1
13
33
36
57
85
89
101
106
116
127
126
100
58
25
1
20
82
168
235
253
253
252
241
251
254
254
254
253
255
255
255
247
253
253
240
254
241
252
252
238
248
239
197
187
195
176
158
193
163
214
254
233
247
252
250
252
253
251
254
253
253
252
254
251
255
255
251
249
255
255
255
255
255
254
254
253
253
252
191
60
2
6
61
63
71
60
53
104
127
118
111
103
98
108
140
125
97
76
58
33
25
42
153
215
253
254
255
253
249
246
253
251
240
247
250
239
222
211
206
217
215
203
193
176
155
148
95
48
5
7
41
84
107
115
104
134
143
150
104
113
138
143
129
147
143
112
136
174
170
175
128
155
196
197
174
136
81
66
7
41
140
228
252
254
245
253
255
255
255
255
255
255
255
255
255
255
255
255
255
255
255
255
255
255
255
255
255
255
255
255
255
255
255
255
255
255
255
255
255
255
255
255
255
255
255
255
255
255
255
255
255
255
255
255
255
255
255
255
255
255
255
255
255
255
255
255
255
255
255
255
255
255
255
255
255
255
255
255
255
255
255
255
255
255
255
255
255
255
255
255
255
255
255
255
255
255
255
255
255
255
255
255
255
255
255
255
255
255
243
255
255
241
247
254
207
67
8
44
71
64
64
40
33
27
53
62
63
56
31
39
97
112
68
41
52
67
66
61
63
73
28
32
61
88
116
118
96
105
113
106
62
56
79
73
74
92
110
125
140
130
115
108
84
120
127
112
114
122
114
78
25
39
51
71
79
95
118
104
70
111
92
38
24
58
64
54
20
68
79
74
59
24
38
60
72
90
92
111
62
60
109
119
106
107
106
107
80
134
175
184
168
162
169
161
178
141
95
119
139
144
138
141
141
129
122
117
109
102
78
39
11
31
111
65
23
1
8
10
1
1
12
12
1
2
0
8
8
2
2
2
2
3
31
60
84
121
153
170
182
180
180
178
175
171
172
175
179
174
171
168
167
165
159
148
140
137
128
116
95
69
39
12
2
3
3
3
7
4
4
8
11
27
22
20
30
48
62
66
64
5
1
3
35
85
144
210
254
255
247
243
254
254
244
243
254
242
255
246
252
252
252
244
213
181
98
63
65
37
9
10
8
21
4
18
49
79
146
194
210
254
255
255
255
254
248
248
254
255
253
255
255
252
255
255
255
255
255
255
254
254
253
253
253
254
185
85
3
5
25
58
97
77
107
122
118
106
90
95
124
127
140
112
64
60
78
59
23
7
51
146
205
198
206
219
197
191
180
150
124
95
63
44
30
36
38
42
31
17
6
1
4
19
36
44
61
106
141
147
144
113
153
153
162
128
135
160
161
164
175
180
133
163
183
191
191
129
158
193
189
177
155
115
113
80
26
19
89
178
243
254
252
255
255
255
255
255
255
255
255
255
255
255
255
255
255
255
255
255
255
255
255
255
255
255
255
255
255
255
255
255
255
255
255
255
255
255
255
255
255
255
255
255
255
255
255
255
255
255
255
255
255
255
255
255
255
255
255
255
255
255
255
255
255
255
255
255
255
255
255
255
255
255
255
255
255
255
255
255
255
255
255
255
255
255
255
255
255
255
255
255
255
255
255
255
255
255
255
254
253
253
253
254
253
250
254
254
248
254
227
99
1
26
72
83
59
45
33
21
47
63
63
63
63
42
28
45
121
85
44
41
72
90
85
81
103
49
53
64
70
94
108
108
110
114
100
59
59
81
78
76
93
114
127
136
127
114
103
71
96
127
126
112
106
115
108
66
61
97
115
113
121
127
109
84
89
66
11
52
66
58
59
17
67
95
88
71
47
56
52
55
63
74
98
33
71
110
125
111
114
110
84
57
153
170
184
159
168
178
163
174
103
101
150
163
153
151
157
156
143
137
134
125
105
99
76
30
38
66
70
73
20
8
1
3
6
2
0
2
2
0
11
13
1
1
9
20
95
142
173
180
193
202
201
199
204
198
192
190
191
190
188
184
188
185
183
181
179
173
163
156
142
139
134
128
116
99
83
72
51
52
44
36
29
11
1
2
9
3
3
3
3
3
1
1
28
14
2
2
2
40
108
165
228
248
254
249
250
254
255
250
254
253
215
190
174
148
127
40
33
32
52
66
70
92
104
85
82
75
71
34
7
5
38
91
188
218
250
254
249
242
249
251
255
252
241
243
255
255
253
241
255
255
255
254
254
253
253
253
252
252
188
60
2
26
43
91
104
107
101
98
105
111
118
132
111
110
90
76
90
106
101
89
33
19
3
12
46
37
22
43
36
8
1
12
38
64
59
31
17
41
68
65
50
67
86
76
71
110
111
104
137
155
148
140
104
157
143
152
135
130
158
155
157
162
174
121
152
163
183
181
120
158
189
182
171
143
106
114
105
80
37
5
58
208
254
230
255
255
255
255
255
255
255
255
255
255
255
255
255
255
255
255
255
255
255
255
255
255
255
255
255
255
255
255
255
255
255
255
255
255
255
255
255
255
255
255
255
255
255
255
255
255
255
255
255
255
255
255
255
255
255
255
255
255
255
255
255
255
255
255
255
255
255
255
255
255
255
255
255
255
255
255
255
255
255
255
255
255
255
255
255
255
255
255
255
255
255
255
255
254
253
252
250
249
249
249
249
252
254
235
250
254
210
107
2
27
68
71
62
44
33
47
39
51
62
61
59
62
48
24
17
98
80
41
27
54
75
76
74
92
47
65
70
55
66
75
93
112
114
94
63
64
81
83
85
84
107
118
125
120
115
108
73
86
114
118
124
138
134
84
6
71
116
122
116
125
125
110
90
48
36
5
63
68
59
47
11
77
98
77
64
62
77
72
91
104
95
55
2
55
84
100
108
119
117
73
76
181
175
180
169
180
173
172
127
97
154
159
158
165
156
156
157
154
156
151
134
126
144
61
12
82
70
48
72
58
22
2
9
9
1
1
9
3
1
8
6
1
5
49
80
156
194
209
197
197
203
200
197
195
196
199
206
210
207
198
191
196
191
185
183
183
183
182
180
186
174
159
143
132
126
120
118
114
119
104
92
93
76
64
77
54
60
67
69
63
51
36
27
3
3
4
3
0
0
6
26
70
125
184
222
248
250
205
148
128
124
118
36
19
1
1
5
78
38
43
91
123
133
135
132
150
162
135
142
112
43
34
19
3
94
191
242
255
254
254
242
236
255
255
255
250
245
250
255
254
254
254
254
254
254
254
254
242
253
252
137
24
38
30
44
81
101
105
97
107
128
127
111
95
94
103
128
137
113
98
107
92
137
82
7
19
33
27
53
100
98
116
120
118
122
103
77
89
106
129
122
101
122
137
111
123
154
130
103
132
149
141
143
83
141
124
128
120
104
131
131
130
130
134
96
109
129
142
141
95
129
157
147
137
113
84
96
119
109
90
49
21
106
229
254
255
255
255
255
255
255
255
255
255
255
255
255
255
255
255
255
255
255
255
255
255
255
255
255
255
255
255
255
255
255
255
255
255
255
255
255
255
255
255
255
255
255
255
255
255
255
255
255
255
255
255
255
255
255
255
255
255
255
255
255
255
255
255
255
255
255
255
255
255
255
255
255
255
255
255
255
255
255
255
255
255
255
255
255
255
255
255
255
255
255
255
255
255
254
253
251
250
249
248
248
248
254
246
238
254
199
73
9
7
61
77
42
36
44
45
64
58
39
58
66
55
44
38
37
41
38
56
59
48
42
48
64
79
93
47
78
98
91
90
61
50
100
104
87
74
74
77
83
88
106
123
129
132
126
123
119
88
89
120
127
121
105
87
63
23
75
123
121
114
123
120
105
76
8
13
19
54
65
62
30
15
80
89
59
61
77
92
88
118
116
105
42
75
99
86
59
49
82
87
63
118
194
174
163
176
170
159
148
97
136
180
168
163
168
163
165
164
161
169
168
157
163
104
11
13
45
83
105
26
45
38
17
1
1
7
8
1
3
0
3
0
1
28
87
130
144
170
177
169
180
200
209
213
204
203
202
200
200
201
204
207
204
199
195
191
189
189
187
188
193
190
183
174
165
153
142
134
138
140
122
112
119
112
112
132
112
121
131
138
138
137
134
134
122
124
124
113
89
58
33
23
9
1
4
58
87
63
21
2
7
22
61
86
154
87
18
78
55
60
83
94
71
54
67
91
76
95
115
138
87
74
143
124
83
11
5
71
185
238
248
249
235
253
253
247
255
255
250
255
254
254
254
254
254
254
254
254
254
255
254
172
27
41
64
67
45
83
119
117
101
101
101
93
103
121
128
128
133
128
114
108
132
67
41
72
93
79
92
129
140
125
136
138
140
136
96
75
127
132
140
124
104
130
139
103
121
141
114
95
128
144
130
132
79
124
119
120
116
93
116
124
132
130
117
99
85
119
116
117
79
94
111
107
109
104
92
107
117
111
100
65
3
38
187
254
255
255
255
255
255
255
255
255
255
255
255
255
255
255
255
255
255
255
255
255
255
255
255
255
255
255
255
255
255
255
255
255
255
255
255
255
255
255
255
255
255
255
255
255
255
255
255
255
255
255
255
255
255
255
255
255
255
255
255
255
255
255
255
255
255
255
255
255
255
255
255
255
255
255
255
255
255
255
255
255
255
255
255
255
255
255
255
255
255
255
255
255
255
255
255
253
252
252
252
252
252
254
254
255
217
70
6
42
53
49
49
26
39
61
62
71
60
42
49
50
43
39
48
58
63
2
36
85
94
53
35
54
75
90
48
92
110
106
113
76
62
72
75
65
76
83
72
78
88
107
121
126
130
123
120
122
99
98
125
118
89
60
52
86
102
75
123
121
117
117
105
90
44
3
29
47
45
55
58
28
25
49
60
48
78
104
109
91
105
110
83
36
96
106
103
84
97
71
48
39
113
175
172
160
173
162
153
112
118
179
155
170
168
160
165
173
170
160
166
171
162
111
59
19
119
75
43
85
30
22
22
14
1
0
4
5
0
2
1
1
1
5
47
105
137
145
159
159
153
163
172
174
179
190
194
197
196
194
196
203
210
205
205
206
203
198
192
183
179
174
178
183
189
191
187
180
173
147
143
131
124
125
125
130
143
142
146
150
150
149
149
151
154
157
155
152
153
154
152
145
139
128
82
33
7
1
7
48
90
172
161
207
241
138
33
100
151
81
125
162
168
172
175
153
123
124
98
73
36
39
94
120
113
116
128
88
17
16
110
204
238
251
255
255
247
255
255
241
239
253
253
253
254
254
255
255
255
251
232
252
207
50
33
94
97
54
56
79
101
92
84
96
110
122
134
129
116
122
128
118
107
72
87
83
72
82
106
132
146
146
131
134
127
130
121
91
107
130
132
126
102
101
140
152
119
121
136
114
95
117
131
121
117
87
107
121
122
120
96
111
125
132
131
115
108
81
122
116
121
86
84
102
110
113
112
96
93
99
116
101
57
2
22
171
244
255
255
255
255
255
255
255
255
255
255
255
255
255
255
255
255
255
255
255
255
255
255
255
255
255
255
255
255
255
255
255
255
255
255
255
255
255
255
255
255
255
255
255
255
255
255
255
255
255
255
255
255
255
255
255
255
255
255
255
255
255
255
255
255
255
255
255
255
255
255
255
255
255
255
255
255
255
255
255
255
255
255
255
255
255
255
255
255
255
255
255
255
255
255
254
253
253
253
253
254
254
247
242
200
101
9
39
95
59
32
47
55
67
69
63
64
55
43
35
34
40
51
66
72
66
26
28
80
112
71
45
49
47
78
47
99
102
86
107
93
103
67
56
39
63
74
53
62
75
67
80
87
100
96
94
103
89
80
83
70
82
108
119
112
77
64
114
120
117
98
82
77
24
21
58
58
39
44
36
38
34
35
42
34
67
98
116
99
102
73
46
72
112
116
117
107
125
98
52
74
113
143
150
169
178
170
138
105
149
179
151
162
166
160
160
166
166
162
162
149
121
75
115
18
157
212
103
36
51
23
19
18
14
5
0
1
7
2
1
1
1
9
60
108
122
134
145
148
151
158
154
151
160
159
169
179
185
186
185
188
190
190
193
195
194
192
186
181
178
188
185
183
184
185
187
187
185
170
162
163
162
150
144
147
144
144
147
151
153
152
152
151
153
151
151
150
151
155
159
158
154
144
155
142
101
84
120
174
208
207
175
217
212
53
62
168
115
132
150
172
185
178
155
153
174
152
154
112
69
91
98
72
90
88
85
98
105
60
8
11
65
146
215
252
252
254
243
243
255
253
253
253
254
254
255
255
255
252
245
253
244
95
16
74
74
84
44
44
77
96
107
121
129
125
130
132
131
121
91
69
70
77
98
91
99
141
143
124
134
130
127
135
100
78
52
42
126
136
143
125
94
100
136
138
108
106
131
121
90
95
122
129
125
100
86
118
119
119
96
99
114
119
118
116
105
76
110
115
122
102
79
103
121
118
116
90
63
99
100
79
69
14
9
149
250
255
255
255
255
255
255
255
255
255
255
255
255
255
255
255
255
255
255
255
255
255
255
255
255
255
255
255
255
255
255
255
255
255
255
255
255
255
255
255
255
255
255
255
255
255
255
255
255
255
255
255
255
255
255
255
255
255
255
255
255
255
255
255
255
255
255
255
255
255
255
255
255
255
255
255
255
255
255
255
255
255
255
255
255
255
255
255
255
255
255
255
255
255
252
252
251
251
251
252
253
253
246
180
52
3
33
86
85
42
50
71
99
93
64
52
57
57
22
27
44
57
58
64
71
69
69
25
53
103
88
71
58
28
75
51
105
100
80
105
95
107
90
64
25
46
53
25
37
51
73
79
79
85
65
47
50
35
26
62
96
111
114
115
116
94
54
106
117
113
81
67
76
22
37
75
58
32
42
12
47
36
67
55
20
27
55
103
113
122
88
48
132
107
97
101
96
113
87
63
146
133
104
89
144
168
176
110
117
159
158
176
156
165
175
160
155
160
166
167
127
72
131
136
24
162
198
197
151
32
26
51
46
5
1
5
13
2
4
4
1
1
9
66
108
113
123
134
144
153
160
152
152
168
156
158
161
162
163
164
167
170
171
172
173
174
175
178
184
187
180
178
175
175
180
186
190
192
186
177
191
197
175
162
159
143
153
152
150
146
145
147
150
153
142
149
154
156
155
155
155
154
158
161
166
173
181
189
197
202
198
229
222
95
17
133
149
80
164
180
171
148
162
183
176
156
162
121
68
116
152
136
151
138
129
110
85
78
95
103
67
23
0
61
112
169
245
255
248
244
252
253
253
254
254
255
255
255
253
254
252
238
123
13
78
83
81
54
61
91
111
128
136
124
118
124
113
88
67
57
72
102
93
82
103
123
115
123
134
120
109
75
56
51
93
96
69
140
127
145
130
98
111
141
135
105
94
132
136
92
78
108
122
108
110
73
113
114
113
92
85
99
116
114
127
100
72
90
108
113
105
65
83
105
104
114
98
63
80
107
67
25
3
40
181
249
255
255
255
255
255
255
255
255
255
255
255
255
255
255
255
255
255
255
255
255
255
255
255
255
255
255
255
255
255
255
255
255
255
255
255
255
255
255
255
255
255
255
255
255
255
255
255
255
255
255
255
255
255
255
255
255
255
255
255
255
255
255
255
255
255
255
255
255
255
255
255
255
255
255
255
255
255
255
255
255
255
255
255
255
255
245
255
255
249
255
255
248
255
250
253
254
255
249
253
254
202
51
2
4
41
83
76
46
30
75
90
97
91
87
81
65
46
14
42
61
60
54
57
61
59
61
44
4
75
99
77
71
33
11
44
99
85
101
103
93
92
99
95
67
68
86
93
105
106
116
122
129
135
137
129
110
91
57
107
115
119
109
104
124
107
50
102
136
76
83
120
19
28
69
55
58
70
37
18
49
44
39
58
85
99
51
37
86
106
44
100
87
108
121
98
107
90
46
109
164
151
181
141
75
115
154
92
155
159
160
179
145
182
174
162
164
171
168
140
84
134
156
113
58
184
197
203
204
187
88
39
18
20
7
1
5
2
0
7
3
0
19
64
99
108
118
122
125
126
132
142
148
148
151
155
160
163
164
165
166
168
163
166
169
169
169
167
169
170
175
178
181
182
181
180
179
180
183
184
186
184
183
182
184
187
177
170
161
153
148
147
151
152
165
145
141
169
139
143
151
165
161
141
153
171
189
206
210
213
185
118
12
5
100
158
100
117
154
149
161
156
166
163
154
180
151
88
123
173
145
147
163
125
148
142
143
153
102
62
76
52
26
17
4
2
29
120
204
234
247
252
243
250
254
248
253
253
251
253
253
248
135
12
64
93
93
83
56
62
107
124
116
125
105
93
77
68
69
75
85
91
91
102
120
132
128
102
67
43
66
98
123
128
127
117
74
132
139
137
116
87
115
136
141
108
97
115
131
111
79
86
105
105
99
67
69
88
102
103
91
94
114
113
118
122
103
83
92
116
105
92
81
87
105
109
88
62
43
44
36
3
2
112
236
248
255
255
255
255
255
255
255
255
255
255
255
255
255
255
255
255
255
255
255
255
255
255
255
255
255
255
255
255
255
255
255
255
255
255
255
255
255
255
255
255
255
255
255
255
255
255
255
255
255
255
255
255
255
255
255
255
255
255
255
255
255
255
255
255
255
255
255
255
255
255
255
255
255
255
255
255
255
255
255
255
255
255
255
255
255
255
255
245
250
255
255
249
255
243
251
248
252
246
225
148
28
4
27
80
99
69
42
59
99
59
85
102
94
83
79
64
47
42
47
51
55
64
69
59
44
38
34
38
5
95
100
62
70
27
35
94
98
96
79
85
110
99
92
67
74
94
98
106
108
113
118
125
133
137
134
119
103
68
110
114
121
117
113
125
99
43
130
77
72
101
51
11
62
64
63
71
71
33
22
50
41
24
61
92
106
88
77
80
55
45
75
91
113
106
104
112
62
73
127
173
165
176
151
178
127
20
75
159
163
156
175
163
150
172
161
168
167
155
80
131
155
152
108
65
185
193
199
200
184
167
99
45
19
1
2
7
0
0
5
2
0
14
53
89
106
121
124
123
119
120
123
125
122
125
126
128
127
126
126
127
129
130
133
135
136
136
136
139
141
130
134
141
148
152
156
163
166
170
174
180
182
183
182
183
184
171
176
179
178
170
161
151
147
158
148
154
152
149
154
161
142
100
122
151
177
211
226
192
155
9
8
2
60
127
138
93
137
157
146
139
144
137
149
162
148
67
132
167
165
165
155
145
158
141
145
141
123
150
140
70
69
87
81
85
71
24
6
6
33
169
201
210
226
248
251
251
243
245
245
240
249
161
19
52
73
82
81
69
69
89
89
76
76
69
79
94
107
112
115
117
118
132
126
109
83
62
59
76
94
134
134
134
129
127
118
63
101
136
137
135
90
94
126
127
117
75
82
102
105
70
46
67
104
93
78
42
62
104
101
73
32
97
95
99
101
88
74
79
97
93
80
65
65
79
88
80
66
10
4
2
1
39
154
250
254
255
255
255
255
255
255
255
255
255
255
255
255
255
255
255
255
255
255
255
255
255
255
255
255
255
255
255
255
255
255
255
255
255
255
255
255
255
255
255
255
255
255
255
255
255
255
255
255
255
255
255
255
255
255
255
255
255
255
255
255
255
255
255
255
255
255
255
255
255
255
255
255
255
255
255
255
255
255
255
255
255
255
255
255
255
242
255
255
255
243
246
251
243
254
245
244
249
182
86
23
2
61
85
71
37
59
110
110
67
55
72
95
99
81
59
58
72
73
54
41
48
68
74
55
33
37
56
58
4
38
107
63
82
50
20
54
82
101
98
95
92
101
89
66
81
104
101
108
109
110
114
119
125
130
130
120
110
70
109
110
115
113
109
124
99
50
115
51
92
89
9
14
81
54
66
70
58
28
24
42
23
30
83
101
106
118
108
70
25
13
81
112
107
109
113
82
48
119
159
172
169
160
170
183
103
62
91
92
132
164
164
173
159
159
168
165
167
108
96
151
159
146
100
77
188
191
195
192
181
174
138
96
50
8
0
4
2
1
1
1
0
8
33
68
95
87
92
95
97
100
107
110
108
107
108
109
108
107
110
115
118
113
115
118
119
122
124
129
132
128
130
133
134
134
137
141
144
145
150
157
164
169
175
181
185
185
188
190
186
178
170
166
164
155
153
165
139
158
159
147
86
33
85
117
137
170
164
97
35
2
4
18
110
151
120
83
131
152
149
141
151
137
140
150
84
77
159
163
138
164
160
140
167
157
154
152
143
154
106
51
93
100
89
94
108
112
102
71
38
17
0
22
71
111
145
176
213
214
223
217
240
181
27
37
60
61
64
70
76
85
95
104
113
126
116
106
104
110
115
113
109
77
71
69
84
109
130
137
136
133
122
127
132
133
126
80
87
136
135
141
90
71
115
101
115
78
62
66
91
94
65
54
79
98
108
39
35
62
55
56
12
44
44
44
43
39
34
35
41
37
33
27
22
24
24
13
3
1
0
9
77
173
249
254
242
255
255
255
255
255
255
255
255
255
255
255
255
255
255
255
255
255
255
255
255
255
255
255
255
255
255
255
255
255
255
255
255
255
255
255
255
255
255
255
255
255
255
255
255
255
255
255
255
255
255
255
255
255
255
255
255
255
255
255
255
255
255
255
255
255
255
255
255
255
255
255
255
255
255
255
255
255
255
255
255
255
255
255
255
255
255
247
250
250
244
255
255
234
245
252
209
114
11
2
54
77
84
49
45
83
106
95
90
106
54
72
87
81
63
56
73
95
86
61
41
43
55
58
47
36
51
62
58
55
3
55
90
69
69
28
30
50
73
100
109
87
101
86
64
83
106
100
104
109
107
108
110
113
116
117
112
104
64
108
112
113
104
102
123
107
53
58
82
105
42
19
33
60
58
65
51
40
32
38
40
2
56
108
106
101
115
95
64
45
77
43
79
113
109
91
64
60
147
173
168
162
164
176
90
90
131
177
136
113
113
118
164
168
161
168
167
124
81
156
155
153
144
91
94
192
188
191
185
179
147
141
115
62
13
1
2
1
1
1
3
5
4
12
39
67
89
93
94
90
90
92
89
84
91
92
93
93
94
95
99
102
102
104
108
110
112
115
120
124
133
134
133
132
130
131
134
137
135
136
137
141
146
154
164
171
182
183
183
184
184
184
181
179
162
165
167
148
166
156
103
19
8
52
67
93
121
86
23
2
26
4
31
124
147
116
101
148
146
147
150
156
153
146
116
66
146
144
138
139
147
143
140
150
151
146
155
177
114
68
116
148
146
131
115
98
94
115
132
126
84
30
35
33
13
6
9
44
59
71
86
99
87
2
13
66
99
100
108
108
103
111
124
126
119
122
123
115
97
82
69
66
94
106
121
132
133
131
128
129
130
119
131
130
111
96
61
56
126
128
123
88
61
99
87
106
88
76
61
79
113
103
62
41
50
52
11
6
5
3
26
14
6
9
9
3
1
4
4
1
2
5
8
4
2
3
5
8
23
85
154
212
253
254
250
255
255
255
255
255
255
255
255
255
255
255
255
255
255
255
255
255
255
255
255
255
255
255
255
255
255
255
255
255
255
255
255
255
255
255
255
255
255
255
255
255
255
255
255
255
255
255
255
255
255
255
255
255
255
255
255
255
255
255
255
255
255
255
255
255
255
255
255
255
255
255
255
255
255
255
255
255
255
255
255
255
255
255
255
255
255
255
245
248
255
244
242
255
255
211
117
19
7
53
95
89
28
39
88
116
99
85
93
103
97
58
75
73
53
59
86
99
90
87
71
54
43
37
37
45
54
58
50
63
70
40
5
88
75
78
53
49
51
35
54
96
106
98
84
62
81
103
97
101
106
104
105
104
103
105
107
105
99
68
108
110
115
110
106
119
94
32
51
99
73
12
42
36
34
69
61
35
34
48
64
49
6
63
107
107
104
99
65
66
92
113
96
56
44
101
87
47
121
158
165
162
165
175
133
69
133
166
165
159
175
150
84
89
144
163
159
154
75
118
163
165
159
143
81
109
194
184
188
178
176
158
142
93
34
5
4
1
1
2
1
5
9
3
1
11
33
74
80
83
83
85
88
88
85
88
92
94
94
92
90
90
92
92
93
95
95
95
97
99
101
101
104
108
113
117
123
130
136
134
134
135
134
134
135
138
141
147
152
163
180
195
198
190
181
180
184
172
180
175
154
67
2
3
12
15
75
115
59
12
8
1
1
56
134
140
91
101
142
138
134
142
128
151
147
92
111
159
133
145
161
140
128
138
138
144
137
139
132
77
100
175
148
147
130
128
122
96
81
101
132
92
104
143
125
98
102
78
59
29
16
24
4
21
16
10
62
90
96
110
117
116
121
124
114
121
94
64
51
61
85
109
122
116
122
127
127
121
117
115
117
102
77
71
53
44
51
65
72
98
111
98
90
61
72
82
101
93
90
71
59
75
75
44
23
10
2
13
50
35
25
21
3
32
39
40
32
28
30
31
28
30
34
36
35
45
68
94
110
155
217
254
254
254
243
241
253
255
255
255
255
255
255
255
255
255
255
255
255
255
255
255
255
255
255
255
255
255
255
255
255
255
255
255
255
255
255
255
255
255
255
255
255
255
255
255
255
255
255
255
255
255
255
255
255
255
255
255
255
255
255
255
255
255
255
255
255
255
255
255
255
255
255
255
255
255
255
255
255
255
255
255
255
255
255
255
255
255
255
255
255
255
240
255
255
255
251
252
232
194
57
20
41
108
118
73
43
17
128
98
86
99
106
92
88
99
79
48
36
61
92
102
94
89
88
82
67
45
29
32
50
67
53
64
59
63
69
22
24
84
85
58
45
74
58
51
65
75
88
81
62
77
97
93
99
102
102
105
104
103
104
107
106
102
70
103
101
109
112
105
103
64
23
102
72
26
39
67
44
33
63
54
29
38
64
72
51
13
43
81
100
110
89
57
76
117
106
106
109
74
44
37
66
153
169
153
166
171
150
75
138
169
154
167
169
156
167
169
124
84
125
138
100
116
163
154
162
160
142
71
119
192
180
185
171
171
150
138
85
24
1
1
1
4
2
1
5
9
4
0
0
7
17
25
32
37
46
57
63
63
70
74
80
86
88
89
91
93
93
95
97
97
96
95
95
96
91
94
97
98
101
103
107
110
114
120
129
133
134
132
130
129
130
130
136
152
171
185
190
189
192
197
180
199
176
142
62
32
38
25
19
99
129
50
8
5
1
29
90
139
131
75
87
116
128
125
134
111
142
133
71
135
140
143
142
142
144
143
142
146
158
136
131
93
93
142
143
139
157
153
159
162
146
123
93
64
42
79
130
135
134
147
144
132
140
116
105
58
87
90
36
30
77
86
88
83
82
82
76
70
57
74
104
126
133
129
122
117
142
125
104
93
90
82
65
51
67
71
97
112
130
128
122
101
72
86
83
94
71
53
72
95
89
76
53
35
36
31
15
9
24
28
128
207
215
220
215
203
210
217
220
214
208
206
207
208
206
210
212
213
222
240
254
254
254
254
249
235
252
253
252
251
255
255
255
255
255
255
255
255
255
255
255
255
255
255
255
255
255
255
255
255
255
255
255
255
255
255
255
255
255
255
255
255
255
255
255
255
255
255
255
255
255
255
255
255
255
255
255
255
255
255
255
255
255
255
255
255
255
255
255
255
255
255
255
255
255
255
255
255
255
255
255
255
255
255
255
255
255
255
255
255
255
255
255
255
255
248
255
248
244
255
232
138
46
32
80
116
114
82
74
83
50
87
110
113
96
98
119
113
85
78
37
32
78
108
94
85
95
95
88
67
42
31
41
55
63
55
76
55
61
63
58
5
58
82
60
31
78
87
82
63
46
74
76
62
76
94
94
99
100
105
108
109
107
107
110
109
105
66
100
94
96
92
84
89
56
54
112
23
22
69
69
55
43
36
42
36
55
69
55
44
29
21
54
84
97
77
71
101
108
97
106
120
114
73
13
44
165
166
156
171
164
97
94
181
166
167
161
162
171
167
159
157
150
105
97
65
154
168
163
147
154
142
63
124
188
174
182
164
165
130
125
79
23
2
1
0
12
1
0
1
5
7
5
1
0
1
4
3
0
0
4
4
2
19
23
29
35
40
45
51
54
66
71
77
82
84
85
87
88
96
97
99
97
94
90
90
90
94
99
109
117
121
126
127
130
135
130
124
125
133
152
171
185
183
193
186
176
152
108
76
88
102
103
96
144
125
35
8
2
3
48
104
135
134
83
103
127
128
130
137
122
136
116
68
120
135
140
127
120
136
148
144
143
146
137
126
103
131
154
135
157
131
149
155
140
136
154
142
100
43
71
81
91
96
96
115
128
130
123
105
86
125
118
76
33
23
53
63
64
80
90
94
106
107
111
120
129
135
129
114
101
72
77
79
74
71
83
108
128
136
130
124
111
125
122
130
117
79
60
75
88
88
57
50
70
69
54
44
48
55
55
33
1
77
160
233
255
254
245
251
248
251
253
255
255
253
249
249
252
247
250
251
251
252
253
248
240
246
255
254
249
248
248
253
254
255
255
255
255
255
255
255
255
255
255
255
255
255
255
255
255
255
255
255
255
255
255
255
255
255
255
255
255
255
255
255
255
255
255
255
255
255
255
255
255
255
255
255
255
255
255
255
255
255
255
255
255
255
255
255
255
255
255
255
255
255
255
255
255
255
255
255
255
255
255
255
255
255
255
255
255
255
255
255
255
255
255
255
255
255
254
247
254
255
218
92
11
21
106
113
98
82
87
125
135
84
98
98
107
116
111
94
85
88
44
56
67
74
83
95
95
89
102
88
64
38
37
53
58
50
60
56
65
52
62
58
55
28
62
77
43
60
64
79
83
78
63
72
64
76
94
95
101
98
110
113
113
110
110
111
109
105
63
103
99
89
70
63
87
77
95
75
13
40
70
60
60
42
17
39
51
76
72
41
40
53
19
46
69
75
61
91
123
92
119
108
106
81
60
91
117
73
150
162
165
152
62
173
172
150
161
170
166
173
154
149
176
167
132
50
79
112
157
162
155
153
142
57
125
183
170
179
159
161
149
121
51
1
3
8
0
2
0
0
0
1
9
14
9
1
2
3
1
1
1
1
2
0
0
0
0
0
1
0
4
8
10
17
28
38
46
51
55
58
77
80
85
90
91
92
94
97
94
94
94
96
98
105
115
121
131
132
131
126
122
128
144
157
167
181
184
143
122
72
85
122
119
147
146
155
87
4
7
1
1
60
117
135
126
72
100
134
136
135
137
129
127
106
88
116
131
121
130
135
124
128
136
128
120
147
112
99
117
130
143
121
140
131
131
139
146
147
121
83
87
135
115
91
85
75
80
64
73
87
55
63
105
100
114
70
29
78
100
101
115
111
106
122
124
122
118
112
104
93
84
78
84
87
96
109
119
123
116
111
106
117
118
100
115
104
118
112
105
45
71
81
103
72
29
42
35
46
74
91
99
106
74
10
76
227
251
250
254
246
254
252
254
251
252
254
254
254
253
254
253
254
253
249
253
253
254
249
253
248
250
255
255
250
249
251
255
255
255
255
255
255
255
255
255
255
255
255
255
255
255
255
255
255
255
255
255
255
255
255
255
255
255
255
255
255
255
255
255
255
255
255
255
255
255
255
255
255
255
255
255
255
255
255
255
255
255
255
255
255
255
255
255
255
255
255
255
255
255
255
255
255
255
255
255
255
255
255
255
255
255
255
255
255
241
254
254
252
247
254
244
250
253
254
205
89
8
49
130
112
87
77
94
123
135
126
114
51
106
94
94
129
120
85
34
81
90
73
53
67
87
95
103
91
62
55
70
73
52
36
38
63
59
68
68
55
56
56
36
19
46
59
52
63
76
86
101
72
58
28
61
94
85
90
86
95
87
88
89
87
93
98
92
50
74
71
66
100
103
99
57
74
42
30
54
72
60
53
61
22
33
58
68
56
47
50
53
69
70
50
29
50
101
116
94
119
103
89
52
87
149
169
111
68
139
164
84
144
146
179
160
174
159
166
166
157
168
169
134
87
120
131
110
104
130
154
153
153
49
116
168
167
160
165
156
145
110
29
4
4
1
8
1
1
1
2
1
47
49
1
5
0
0
0
1
1
1
2
2
0
0
0
0
0
0
0
0
0
0
1
2
3
4
4
5
18
26
36
46
56
69
84
95
89
95
100
101
96
93
94
96
110
111
117
128
132
133
137
144
158
149
118
65
22
27
75
124
142
158
172
141
80
8
9
2
1
79
129
124
125
80
99
132
118
130
133
126
119
122
89
134
135
134
131
128
127
127
128
128
127
140
105
88
133
135
114
136
138
123
129
125
124
127
102
80
119
128
138
142
137
129
121
117
104
87
33
57
70
62
81
40
4
41
88
103
105
103
94
112
130
109
102
89
66
69
91
101
112
122
110
90
100
86
95
99
91
104
95
107
94
96
109
118
105
92
60
70
65
56
38
65
86
99
85
89
82
88
100
29
5
167
254
241
250
255
248
254
255
255
255
255
255
255
255
255
255
255
255
255
255
255
255
255
255
255
255
255
255
255
255
255
255
255
255
255
255
255
255
255
255
255
255
255
255
255
255
255
255
255
255
255
255
255
255
255
255
255
255
255
255
255
255
255
255
255
255
255
255
255
255
255
255
255
255
255
255
255
255
255
255
255
255
255
255
255
255
255
255
255
255
255
255
255
255
255
255
255
255
255
255
255
255
255
255
255
255
255
255
254
253
246
246
253
254
254
250
253
251
178
49
1
64
126
112
76
94
121
137
135
125
127
135
69
92
107
113
96
67
69
78
92
93
96
80
59
70
93
96
61
67
78
82
73
58
52
56
45
46
55
62
61
59
51
36
25
35
40
54
73
72
73
89
87
75
36
44
70
65
68
70
56
53
60
65
62
63
58
46
49
57
72
90
106
104
90
39
26
32
45
62
67
58
48
43
18
29
58
75
63
52
59
69
63
62
49
40
56
89
106
107
112
78
43
91
141
164
150
175
135
101
102
67
152
169
168
162
152
172
162
156
176
165
114
86
136
152
164
152
128
116
125
138
138
47
123
172
165
158
164
155
132
91
15
1
4
0
8
0
6
1
1
21
62
50
2
4
0
0
0
1
1
1
2
2
0
0
0
0
0
0
0
0
0
0
1
1
2
3
4
4
0
0
3
3
3
6
12
19
39
52
70
83
89
90
93
96
103
102
103
105
109
114
118
119
118
78
33
5
0
17
58
99
109
137
168
162
137
92
97
74
18
56
85
79
78
44
54
72
76
83
84
81
73
64
50
87
97
98
101
103
108
110
113
114
95
109
79
74
118
124
108
125
132
121
129
127
127
129
104
87
130
132
133
133
130
128
125
124
131
92
72
104
121
118
119
105
59
19
62
107
98
95
97
91
85
73
75
83
94
118
132
119
114
113
102
95
99
86
86
90
83
87
89
89
90
85
91
92
102
92
68
72
79
74
55
62
77
94
80
82
78
87
116
78
5
60
184
254
254
251
254
247
255
255
255
255
255
255
255
255
255
255
255
255
255
255
255
255
255
255
255
255
255
255
255
255
255
255
255
255
255
255
255
255
255
255
255
255
255
255
255
255
255
255
255
255
255
255
255
255
255
255
255
255
255
255
255
255
255
255
255
255
255
255
255
255
255
255
255
255
255
255
255
255
255
255
255
255
255
255
255
255
255
255
255
255
255
255
255
255
255
255
255
255
255
255
255
255
255
255
255
255
255
253
254
254
251
255
254
249
254
248
163
74
22
40
111
124
66
95
111
132
143
139
134
138
148
90
85
110
100
66
66
89
112
108
95
110
104
65
63
85
76
56
81
97
88
75
70
68
65
43
45
44
51
59
53
40
37
50
32
24
45
73
71
68
84
94
93
50
42
65
70
76
86
89
88
96
100
96
96
87
70
65
79
92
116
109
105
78
12
6
29
57
70
63
51
45
42
43
37
49
63
58
58
71
83
53
38
63
105
94
50
65
122
107
69
83
156
152
151
151
170
155
136
35
49
177
162
152
166
167
164
153
164
168
120
91
117
165
162
157
152
144
126
102
85
111
37
124
170
159
154
162
152
120
70
5
1
4
3
6
0
7
0
0
46
66
35
8
2
0
0
0
1
1
1
2
2
0
0
0
0
0
0
0
0
0
0
0
1
2
3
3
4
1
2
3
1
0
0
1
5
7
13
23
32
41
55
69
79
83
89
92
92
100
109
108
100
61
20
1
2
6
8
18
37
60
103
155
178
192
174
169
119
35
81
101
92
85
68
81
94
89
94
92
93
86
55
72
96
80
80
78
76
71
65
60
56
73
77
57
58
90
94
80
90
89
80
90
88
89
85
61
52
110
111
114
120
128
134
138
140
136
77
83
118
129
121
110
116
86
38
34
63
88
87
72
83
80
90
103
106
108
120
115
91
86
80
77
86
88
89
88
93
92
78
84
63
67
58
76
93
114
106
87
70
87
87
74
59
74
94
80
73
60
56
83
80
16
2
84
244
255
239
255
246
255
255
255
255
255
255
255
255
255
255
255
255
255
255
255
255
255
255
255
255
255
255
255
255
255
255
255
255
255
255
255
255
255
255
255
255
255
255
255
255
255
255
255
255
255
255
255
255
255
255
255
255
255
255
255
255
255
255
255
255
255
255
255
255
255
255
255
255
255
255
255
255
255
255
255
255
255
255
255
255
255
255
255
255
255
255
255
255
255
255
255
255
255
255
255
255
255
255
255
255
255
251
254
255
254
251
248
252
251
180
62
26
80
98
82
85
93
131
127
124
131
141
149
151
149
123
73
77
75
72
99
108
115
112
95
104
109
84
71
69
52
77
92
97
87
82
83
75
61
55
56
42
39
49
42
37
52
64
37
18
22
49
66
73
78
85
97
68
51
75
88
92
107
106
102
104
104
101
104
99
82
78
112
108
116
107
103
65
6
33
31
43
57
55
41
42
55
66
50
44
46
50
62
71
68
46
59
80
104
117
104
72
46
46
87
147
155
169
157
169
163
147
82
116
113
95
142
160
165
170
149
161
165
116
93
131
170
164
166
158
149
158
165
133
90
95
25
116
158
150
151
161
147
111
56
4
1
4
3
4
0
3
0
5
62
57
11
8
2
0
0
0
1
1
1
2
2
1
1
1
1
1
1
1
1
0
0
0
1
1
2
2
2
1
1
3
3
3
5
9
12
2
1
0
1
4
13
25
34
40
56
67
74
86
97
89
71
19
6
5
15
15
2
1
1
18
75
142
180
220
221
203
129
44
111
135
126
97
95
118
134
130
133
128
132
122
78
119
133
123
123
122
121
120
117
115
114
103
95
82
87
104
104
96
99
91
87
94
91
89
78
52
54
74
78
84
94
103
109
109
107
137
76
86
125
129
121
116
123
86
72
49
34
58
79
73
93
85
98
112
116
114
109
89
65
42
42
44
41
38
58
58
61
53
39
52
61
61
62
84
137
139
130
109
68
80
85
84
60
65
90
82
73
56
43
54
61
23
3
13
163
255
242
255
254
255
255
255
255
255
255
255
255
255
255
255
255
255
255
255
255
255
255
255
255
255
255
255
255
255
255
255
255
255
255
255
255
255
255
255
255
255
255
255
255
255
255
255
255
255
255
255
255
255
255
255
255
255
255
255
255
255
255
255
255
255
255
255
255
255
255
255
255
255
255
255
255
255
255
255
255
255
255
255
255
255
255
255
255
255
255
255
255
255
255
255
255
255
255
255
255
255
255
255
255
255
254
249
255
252
243
254
246
174
53
41
77
107
79
57
92
134
127
132
140
148
154
157
156
154
134
55
48
80
110
118
99
113
101
101
101
104
99
73
48
43
85
88
90
92
92
87
74
62
59
63
49
37
40
36
39
62
60
47
25
11
21
57
72
63
73
90
79
62
76
90
88
98
91
89
89
87
85
91
86
67
76
116
98
106
106
84
40
20
55
36
21
26
38
46
52
57
64
58
52
43
41
57
62
50
63
83
93
90
98
106
81
47
67
75
146
164
157
162
175
110
96
127
156
176
97
85
164
155
152
160
163
126
93
128
169
157
145
161
165
156
156
163
155
135
105
27
108
150
144
147
158
141
102
39
4
3
1
3
3
3
4
7
29
71
43
1
11
1
0
0
0
1
1
1
2
2
1
1
1
1
1
1
1
1
0
0
0
0
1
1
1
1
1
2
1
1
0
0
1
1
1
3
8
10
7
2
0
0
2
15
26
31
42
53
43
24
0
7
9
2
2
1
5
7
1
63
132
171
220
232
220
140
43
113
138
134
81
93
116
126
130
130
124
131
112
70
124
128
119
119
119
121
122
124
127
128
125
104
102
117
124
129
132
128
131
129
136
131
127
109
85
97
97
96
96
98
98
93
85
79
106
60
62
105
108
104
123
117
82
69
90
65
30
64
99
101
93
87
87
102
115
102
66
39
65
82
85
38
32
61
58
56
66
55
63
132
118
112
94
133
144
140
126
78
74
79
88
63
50
77
83
80
71
60
65
72
17
11
2
131
255
250
250
255
255
255
255
255
255
255
255
255
255
255
255
255
255
255
255
255
255
255
255
255
255
255
255
255
255
255
255
255
255
255
255
255
255
255
255
255
255
255
255
255
255
255
255
255
255
255
255
255
255
255
255
255
255
255
255
255
255
255
255
255
255
255
255
255
255
255
255
255
255
255
255
255
255
255
255
255
255
255
255
255
255
255
255
255
255
255
255
255
255
255
255
255
255
255
255
255
255
255
255
255
255
254
252
253
249
254
254
175
37
18
83
125
94
61
80
116
125
130
137
147
157
166
170
163
152
96
68
67
85
113
118
103
112
94
109
108
102
95
67
47
59
73
76
85
96
96
85
76
71
67
73
64
46
35
32
35
46
53
52
43
28
18
44
64
55
64
77
86
71
76
93
90
94
97
97
104
104
102
107
97
71
88
104
87
102
99
48
17
41
59
51
29
15
28
62
69
52
60
61
57
35
21
38
66
73
88
91
94
93
72
60
89
133
146
105
97
152
157
152
109
83
137
163
171
149
163
138
78
130
155
164
123
94
130
167
158
147
154
146
145
152
154
148
144
145
129
39
109
150
145
145
152
137
91
21
1
4
0
2
3
8
2
21
52
66
24
0
6
5
0
0
0
1
1
1
2
2
2
2
2
2
2
2
2
2
0
0
0
0
0
0
0
0
7
6
6
4
2
1
1
1
1
2
4
5
5
2
1
1
1
3
3
2
4
10
6
1
1
4
1
1
1
8
11
2
4
66
125
146
180
194
191
121
53
114
130
135
78
108
125
120
125
124
119
127
95
70
123
120
139
138
133
130
128
127
128
128
116
84
93
117
115
121
133
123
130
132
138
134
131
109
87
112
131
127
123
119
116
114
112
111
92
48
46
83
77
74
94
74
58
61
93
82
44
42
62
96
96
94
89
96
101
76
40
28
114
147
159
83
101
134
133
133
150
129
92
179
160
146
98
96
126
132
131
97
77
78
86
67
51
72
83
73
66
70
69
59
3
2
43
182
255
253
255
253
255
255
255
255
255
255
255
255
255
255
255
255
255
255
255
255
255
255
255
255
255
255
255
255
255
255
255
255
255
255
255
255
255
255
255
255
255
255
255
255
255
255
255
255
255
255
255
255
255
255
255
255
255
255
255
255
255
255
255
255
255
255
255
255
255
255
255
255
255
255
255
255
255
255
255
255
255
255
255
255
255
255
255
255
255
255
255
255
255
255
255
255
255
255
255
255
255
255
255
255
255
251
255
254
254
253
179
68
7
96
118
105
74
74
96
115
130
145
145
146
155
169
170
148
123
97
127
112
87
87
104
116
108
101
108
113
103
80
68
75
84
74
74
77
83
87
86
80
75
72
76
73
53
34
38
44
38
49
39
42
43
24
24
49
64
62
59
81
72
67
93
98
99
92
94
101
102
101
104
90
62
97
91
86
83
62
21
35
49
53
63
51
28
32
61
72
60
61
51
47
38
26
39
73
96
92
90
77
63
77
113
139
145
141
173
84
85
161
132
65
158
174
163
146
169
172
149
131
84
142
123
97
114
163
167
150
162
172
155
145
154
163
157
147
143
144
45
109
155
147
141
148
140
94
12
1
3
1
4
1
4
1
31
70
52
9
1
1
2
0
0
0
1
1
1
2
2
2
2
2
2
2
2
2
2
0
0
0
0
0
0
0
0
1
1
1
1
1
2
2
2
3
0
0
0
0
0
4
7
6
5
1
1
1
0
1
1
1
1
2
3
8
10
1
1
11
74
128
132
139
134
133
73
60
115
124
133
65
115
134
122
132
127
127
136
89
88
130
123
116
116
117
118
118
118
120
120
121
79
96
128
115
117
132
115
119
124
129
124
124
98
79
113
124
123
121
120
120
122
128
132
125
66
83
110
98
98
98
83
57
64
76
77
71
41
27
71
63
82
88
86
85
65
41
42
106
143
170
91
149
172
171
177
159
145
77
138
138
134
111
80
118
126
129
115
77
77
78
70
55
70
83
62
47
64
55
19
1
28
135
240
254
252
254
251
255
255
255
255
255
255
255
255
255
255
255
255
255
255
255
255
255
255
255
255
255
255
255
255
255
255
255
255
255
255
255
255
255
255
255
255
255
255
255
255
255
255
255
255
255
255
255
255
255
255
255
255
255
255
255
255
255
255
255
255
255
255
255
255
255
255
255
255
255
255
255
255
255
255
255
255
255
255
255
255
255
255
255
255
255
255
255
255
255
255
255
255
255
255
255
255
255
255
255
255
255
248
254
248
253
223
78
9
81
126
108
86
94
111
92
92
134
140
150
162
168
166
148
115
84
163
183
135
98
78
76
106
105
115
101
109
101
71
79
107
102
92
81
66
63
76
90
84
70
67
67
67
51
35
53
67
52
44
18
26
46
22
7
36
74
60
45
70
62
50
79
92
93
88
91
95
92
91
96
83
54
87
76
83
54
13
10
66
54
57
64
67
50
37
43
59
71
53
33
39
61
63
59
74
91
80
64
66
94
123
136
152
164
157
153
157
102
69
78
150
168
150
155
167
158
166
160
153
139
79
75
113
154
155
159
167
155
153
162
165
153
147
151
149
141
145
44
107
156
149
137
147
146
104
13
1
4
1
6
2
1
2
39
83
45
6
9
1
1
0
0
0
1
1
1
2
2
2
2
2
2
2
2
2
2
0
0
0
0
0
0
0
0
1
1
1
1
3
2
1
1
1
1
1
2
2
1
1
1
1
1
0
3
1
1
2
3
1
0
0
5
4
2
2
5
12
81
141
137
128
107
100
44
65
123
128
133
52
105
131
123
123
118
120
128
74
88
121
113
127
126
128
128
127
125
123
121
123
79
103
138
120
122
137
114
125
131
134
129
126
100
83
121
124
126
126
123
120
120
123
126
126
50
96
126
119
131
113
114
93
59
80
92
74
59
49
43
47
70
69
65
77
70
40
21
86
118
151
73
153
159
149
165
152
157
86
116
122
113
119
68
124
128
127
122
74
74
71
69
45
62
84
60
42
69
58
7
3
92
213
254
252
252
251
254
255
255
255
255
255
255
255
255
255
255
255
255
255
255
255
255
255
255
255
255
255
255
255
255
255
255
255
255
255
255
255
255
255
255
255
255
255
255
255
255
255
255
255
255
255
255
255
255
255
255
255
255
255
255
255
255
255
255
255
255
255
255
255
255
255
255
255
255
255
255
255
255
255
255
255
255
255
255
255
255
255
255
255
255
255
255
255
255
255
255
255
255
255
255
254
253
254
255
255
253
251
248
226
251
253
137
4
77
138
100
73
94
140
123
109
80
111
146
151
163
158
141
95
87
169
167
181
162
144
109
66
87
118
110
102
84
72
83
106
108
96
88
107
98
62
54
77
85
69
69
62
47
39
55
79
78
61
59
28
38
43
44
36
15
28
70
84
72
38
31
55
69
61
59
58
63
64
69
52
29
46
90
86
70
30
23
55
70
59
71
63
53
55
55
38
32
46
27
45
60
75
97
98
73
57
47
74
106
125
140
156
158
151
164
156
135
97
33
82
142
161
154
163
158
157
165
161
155
164
72
47
89
156
162
148
155
159
158
151
164
151
148
158
144
147
125
41
101
163
140
140
146
144
108
44
1
1
6
3
1
7
11
62
82
42
3
2
5
1
1
0
2
2
1
0
20
43
21
3
4
2
1
9
8
2
6
1
0
0
7
9
1
1
0
0
0
0
0
0
0
0
0
0
0
0
0
0
0
0
0
0
0
0
0
0
0
0
1
6
1
1
5
8
2
1
23
77
123
116
94
93
74
32
59
118
129
114
74
116
120
123
120
128
124
120
70
95
129
116
121
122
123
123
122
121
119
118
113
83
100
132
127
119
125
122
119
116
127
127
117
94
85
118
125
124
124
123
125
127
131
132
117
48
107
127
117
115
121
116
83
81
127
119
99
107
84
81
58
30
55
74
90
94
78
8
61
100
125
57
143
161
157
149
136
135
99
89
133
115
128
79
95
121
134
115
97
90
77
59
57
73
59
40
50
52
22
5
4
153
254
240
254
249
255
253
255
255
255
255
255
255
255
255
255
255
255
255
255
255
255
255
255
255
255
255
255
255
255
255
255
255
255
255
255
255
255
255
255
255
255
255
255
255
255
255
255
255
255
255
255
255
255
255
255
255
255
255
255
255
255
255
255
255
255
255
255
255
255
255
255
255
255
255
255
255
255
255
255
255
255
255
255
255
255
255
255
255
255
255
255
255
255
255
255
255
255
255
255
255
254
253
254
255
255
253
251
249
252
252
150
83
69
120
123
83
100
124
127
116
139
103
77
144
164
162
142
83
98
184
153
171
173
172
161
134
98
77
87
112
95
77
76
91
107
111
110
109
93
87
95
84
63
60
74
77
64
50
46
54
65
72
76
43
35
47
54
58
52
38
41
22
51
78
72
49
39
55
76
71
68
71
67
69
58
45
72
90
55
21
15
34
55
66
69
47
52
56
59
52
31
20
25
51
59
59
70
95
97
58
19
23
78
132
150
145
146
156
165
140
119
68
102
160
107
63
139
164
160
164
157
153
165
149
91
93
104
93
105
152
168
157
161
162
147
156
154
153
152
135
143
91
31
85
150
135
142
145
132
121
59
3
0
6
2
1
7
32
71
83
42
3
1
3
0
0
0
2
3
1
3
21
41
78
61
36
10
0
0
0
11
8
7
3
0
0
0
0
5
0
0
0
0
0
0
0
0
0
0
0
0
0
0
0
0
0
0
0
0
0
0
0
0
1
5
1
0
6
6
1
3
31
83
117
93
71
82
69
25
51
110
125
110
69
111
116
121
113
121
119
115
68
89
122
112
118
118
119
120
119
117
116
115
115
85
100
129
125
117
122
119
118
113
118
117
112
88
76
111
111
112
113
116
118
120
122
124
111
47
105
129
117
110
111
103
76
66
113
111
94
104
82
70
75
48
48
57
75
97
93
49
32
84
98
42
127
133
135
134
135
128
107
87
133
119
136
99
89
116
133
118
100
88
71
53
28
39
41
50
66
53
15
3
69
204
254
254
250
253
241
254
255
255
255
255
255
255
255
255
255
255
255
255
255
255
255
255
255
255
255
255
255
255
255
255
255
255
255
255
255
255
255
255
255
255
255
255
255
255
255
255
255
255
255
255
255
255
255
255
255
255
255
255
255
255
255
255
255
255
255
255
255
255
255
255
255
255
255
255
255
255
255
255
255
255
255
255
255
255
255
255
255
255
255
255
255
255
255
255
255
255
255
255
255
255
254
253
254
255
255
253
251
231
249
174
31
42
121
127
79
86
124
141
118
112
150
125
68
132
142
147
94
116
174
158
176
175
154
175
165
148
127
81
71
101
87
82
94
107
110
107
107
106
101
102
105
97
80
68
64
72
56
52
66
71
66
65
69
26
47
55
64
64
60
58
45
14
19
43
69
68
55
71
106
86
88
100
98
94
78
62
79
42
24
19
29
30
23
25
36
49
47
41
37
35
35
35
37
53
55
61
74
82
68
56
62
50
103
145
147
147
157
148
124
103
84
119
142
144
155
144
67
121
164
165
152
164
148
103
82
137
158
123
88
118
157
158
153
158
150
156
152
155
151
123
110
84
42
79
144
134
146
150
130
137
78
16
0
7
1
0
12
60
82
82
44
5
1
2
2
0
0
1
2
2
4
15
26
59
83
79
65
62
37
6
1
1
0
3
1
1
1
1
1
0
0
0
0
0
0
0
0
0
0
0
0
0
0
0
0
0
0
0
0
0
0
0
0
1
5
1
0
5
2
0
10
50
87
102
69
51
71
67
25
41
105
123
106
66
103
111
116
111
116
116
114
73
86
120
113
118
119
119
119
118
117
116
115
102
73
84
114
115
108
113
112
117
113
111
111
114
87
70
110
107
107
108
108
108
107
107
106
103
45
94
124
115
111
111
103
78
57
101
111
97
110
90
66
89
72
46
43
59
97
101
86
23
66
86
48
120
126
125
135
136
120
116
79
129
119
137
114
82
116
136
116
81
60
53
50
51
46
49
75
104
91
46
19
81
209
254
254
248
252
247
255
255
255
255
255
255
255
255
255
255
255
255
255
255
255
255
255
255
255
255
255
255
255
255
255
255
255
255
255
255
255
255
255
255
255
255
255
255
255
255
255
255
255
255
255
255
255
255
255
255
255
255
255
255
255
255
255
255
255
255
255
255
255
255
255
255
255
255
255
255
255
255
255
255
255
255
255
255
255
255
255
255
255
255
255
255
255
255
255
255
255
255
255
255
255
254
253
254
255
255
253
251
248
224
87
20
83
134
108
67
115
124
130
122
121
142
132
103
89
138
93
100
183
172
145
175
178
157
172
167
146
136
109
92
60
68
86
105
116
114
107
103
97
113
114
102
100
107
92
68
55
41
41
63
79
76
67
65
26
60
62
65
61
56
62
37
52
32
28
42
45
36
39
54
50
49
66
66
56
39
15
24
5
43
71
66
42
22
12
7
22
22
30
40
50
59
49
28
34
52
63
64
62
65
89
125
99
104
123
149
158
140
106
84
103
119
154
146
158
161
162
118
78
128
158
165
154
101
89
135
165
159
156
125
91
116
155
152
149
155
160
151
150
147
109
73
111
72
74
142
136
141
150
139
144
94
26
0
4
1
1
24
79
88
80
45
8
0
0
4
3
0
1
1
1
1
3
5
15
62
88
93
86
72
60
38
9
3
0
0
6
8
2
1
1
1
1
1
1
1
1
1
0
0
0
0
0
0
0
0
0
0
0
0
0
0
0
0
1
4
2
2
5
1
3
20
75
82
78
56
49
67
65
34
37
101
124
106
68
95
106
113
112
116
115
110
79
83
117
117
117
117
116
116
115
115
114
114
109
80
84
111
117
111
112
115
112
108
105
106
115
91
67
102
110
109
108
107
106
105
104
103
107
50
81
114
107
106
110
107
85
57
90
108
100
112
95
58
98
99
63
56
63
98
98
101
37
38
84
64
105
133
127
139
140
114
117
74
125
117
129
114
79
111
127
97
54
35
39
48
75
61
48
65
99
112
77
37
28
139
252
253
254
248
252
254
255
255
255
255
255
255
255
255
255
255
255
255
255
255
255
255
255
255
255
255
255
255
255
255
255
255
255
255
255
255
255
255
255
255
255
255
255
255
255
255
255
255
255
255
255
255
255
255
255
255
255
255
255
255
255
255
255
255
255
255
255
255
255
255
255
255
255
255
255
255
255
255
255
255
255
255
255
255
255
255
255
255
255
255
255
255
255
255
255
255
255
255
255
255
254
253
254
255
255
253
251
252
169
21
55
131
111
87
83
135
116
117
130
134
126
135
137
73
85
105
148
158
150
168
163
175
174
167
168
146
131
133
105
24
51
78
90
99
110
115
113
113
104
104
113
115
106
96
94
44
42
38
43
55
69
73
69
33
69
68
68
61
56
61
35
53
64
66
52
36
28
29
31
36
22
29
27
21
17
2
8
20
49
69
66
60
58
43
16
3
8
28
39
43
53
51
29
27
50
54
51
72
105
121
126
127
92
105
154
149
91
74
108
134
146
138
130
174
156
144
167
109
81
139
172
102
85
141
160
162
145
159
162
115
94
126
154
154
156
155
156
147
124
97
75
130
92
56
139
140
131
140
141
139
102
32
0
3
3
11
44
84
89
79
46
11
1
1
3
3
1
1
1
1
2
0
0
0
18
55
98
89
78
95
74
59
39
15
1
1
2
3
1
1
1
1
1
1
1
1
1
0
0
0
0
0
0
0
0
0
0
0
0
0
0
0
0
1
2
1
2
5
1
8
36
95
67
50
50
51
57
52
34
30
89
118
105
72
88
103
115
112
113
113
106
84
77
111
119
112
112
111
111
110
110
109
109
114
85
81
106
116
108
106
112
110
106
105
105
115
95
67
86
111
111
110
109
110
112
113
114
114
61
76
112
104
104
106
105
95
67
82
101
99
106
89
52
86
100
68
55
54
77
73
83
56
3
71
73
78
128
122
131
140
110
109
75
126
118
121
100
73
86
84
66
59
64
57
46
88
89
75
61
84
124
119
78
4
55
197
253
255
238
252
247
255
255
255
255
255
255
255
255
255
255
255
255
255
255
255
255
255
255
255
255
255
255
255
255
255
255
255
255
255
255
255
255
255
255
255
255
255
255
255
255
255
255
255
255
255
255
255
255
255
255
255
255
255
255
255
255
255
255
255
255
255
255
255
255
255
255
255
255
255
255
255
255
255
255
255
255
255
255
255
255
255
255
255
255
255
255
255
255
255
255
255
255
255
255
254
253
254
255
255
253
251
216
94
2
71
125
83
86
103
131
117
119
132
139
125
143
137
77
26
112
166
154
168
162
167
159
176
159
157
143
122
122
88
45
69
82
76
74
89
106
111
114
102
103
115
117
104
96
99
53
69
69
52
45
48
48
39
46
67
71
69
65
63
61
43
42
68
79
63
54
64
73
71
46
34
49
55
54
57
48
44
21
20
29
48
65
72
64
53
18
22
39
36
21
29
49
46
33
27
38
76
111
117
118
133
150
127
107
99
95
92
111
140
146
134
151
151
142
155
167
150
156
102
95
101
89
124
165
152
161
156
149
164
160
106
87
132
162
149
144
159
139
95
94
111
127
99
36
136
149
133
138
139
132
110
42
0
2
5
19
63
83
90
79
45
10
1
0
2
0
1
0
0
3
8
5
0
44
13
2
60
89
86
101
75
87
80
63
41
18
3
1
1
2
2
2
2
2
2
2
2
0
0
0
0
0
0
0
0
0
0
0
0
0
0
0
0
1
0
1
4
5
1
16
54
92
45
24
37
42
35
27
21
18
66
102
97
72
75
93
112
109
108
111
106
91
72
103
117
111
111
110
108
108
108
108
108
104
77
69
93
112
107
105
114
118
110
114
112
113
105
76
72
109
108
107
107
105
104
103
103
106
63
68
114
110
110
110
108
106
82
81
96
104
106
91
64
72
95
77
50
46
59
62
72
76
4
54
82
63
109
120
126
132
112
98
87
128
119
109
79
62
59
48
53
92
124
99
50
67
82
77
47
42
80
95
72
21
12
92
237
255
254
245
254
255
255
255
255
255
255
255
255
255
255
255
255
255
255
255
255
255
255
255
255
255
255
255
255
255
255
255
255
255
255
255
255
255
255
255
255
255
255
255
255
255
255
255
255
255
255
255
255
255
255
255
255
255
255
255
255
255
255
255
255
255
255
255
255
255
255
255
255
255
255
255
255
255
255
255
255
255
255
255
255
255
255
255
255
255
255
255
255
255
255
255
255
255
255
254
253
254
255
255
253
251
174
33
45
78
95
87
111
129
124
125
124
124
138
131
148
118
71
86
69
128
170
154
170
158
148
161
151
139
137
124
98
75
95
105
106
92
78
76
82
86
93
106
113
108
108
110
97
77
83
95
93
75
60
51
32
9
47
48
60
62
65
65
50
45
62
66
66
60
61
69
73
70
37
29
56
69
65
72
63
56
34
19
18
36
57
68
71
74
24
25
51
56
30
31
45
38
45
28
41
95
124
112
117
156
151
145
98
45
59
120
152
140
141
137
140
165
162
148
145
165
158
142
72
40
107
158
154
151
157
162
153
156
167
135
96
98
136
145
145
154
123
84
107
135
126
112
29
124
150
141
142
132
128
119
53
1
1
5
23
76
81
94
83
41
7
2
1
2
1
1
1
0
2
8
6
1
115
118
29
3
39
64
96
92
85
90
93
83
62
38
17
8
2
2
2
2
2
2
2
2
0
0
0
0
0
0
0
0
0
0
0
0
0
0
0
0
1
0
1
3
5
1
24
71
65
24
6
17
18
12
9
7
6
43
80
83
63
54
71
97
95
95
103
100
93
61
88
102
107
105
104
102
102
102
103
103
103
76
63
84
106
100
95
107
104
90
101
96
91
97
75
50
83
84
87
88
87
84
80
77
90
52
45
95
92
96
96
98
92
80
64
79
101
102
92
82
64
91
96
65
61
65
80
86
86
44
36
87
67
80
119
126
121
117
91
101
127
112
91
52
45
68
74
76
109
147
131
85
80
75
72
54
40
56
75
67
47
25
14
124
231
254
245
255
255
255
255
255
255
255
255
255
255
255
255
255
255
255
255
255
255
255
255
255
255
255
255
255
255
255
255
255
255
255
255
255
255
255
255
255
255
255
255
255
255
255
255
255
255
255
255
255
255
255
255
255
255
255
255
255
255
255
255
255
255
255
255
255
255
255
255
255
255
255
255
255
255
255
255
255
255
255
255
255
255
255
255
255
255
255
255
255
255
255
255
255
255
255
254
253
254
255
255
253
251
138
14
85
74
61
89
120
135
127
130
125
117
136
133
148
108
90
142
121
54
95
163
158
152
154
153
149
118
127
131
90
81
123
125
128
124
106
80
67
66
80
98
110
111
110
106
88
67
115
104
86
76
75
72
49
21
40
26
46
51
58
60
35
39
69
65
70
81
77
65
63
71
51
40
62
67
61
72
75
75
70
37
9
5
27
53
61
58
52
29
31
35
21
35
56
50
60
64
63
71
102
128
139
151
109
104
78
60
74
121
141
137
137
141
132
154
155
167
153
155
145
128
75
53
107
157
157
152
141
146
159
156
145
160
144
85
94
144
151
143
107
89
122
136
129
125
25
109
138
140
142
122
129
126
62
2
1
4
25
81
82
97
85
38
3
2
2
1
1
2
2
0
0
3
2
1
101
234
153
25
10
28
65
79
87
85
85
89
89
77
55
37
2
2
2
2
2
2
2
2
0
0
0
0
0
0
0
0
0
0
0
0
0
0
0
0
1
0
2
3
5
1
28
80
38
10
1
2
1
2
5
3
5
30
67
73
54
36
52
80
76
79
90
90
85
46
68
82
96
95
93
92
91
92
91
92
98
69
47
61
76
63
53
65
70
54
67
62
56
72
57
19
43
48
58
66
72
71
68
65
85
45
22
65
58
61
64
68
60
55
34
50
84
90
85
85
38
69
92
62
56
58
80
79
80
78
14
82
70
50
110
122
113
122
87
111
123
100
76
30
34
96
131
110
101
128
141
127
83
45
34
43
40
42
55
58
63
58
1
5
194
255
249
254
255
255
255
255
255
255
255
255
255
255
255
255
255
255
255
255
255
255
255
255
255
255
255
255
255
255
255
255
255
255
255
255
255
255
255
255
255
255
255
255
255
255
255
255
255
255
255
255
255
255
255
255
255
255
255
255
255
255
255
255
255
255
255
255
255
255
255
255
255
255
255
255
255
255
255
255
255
255
255
255
255
255
255
255
255
255
255
255
255
255
255
255
255
255
246
255
255
253
248
255
206
56
52
87
39
62
111
122
128
125
131
114
141
138
129
140
61
133
134
158
141
74
84
142
151
150
153
125
116
138
121
49
119
123
122
120
120
119
117
113
111
60
72
84
113
120
117
76
88
124
109
108
91
75
71
52
42
78
65
60
53
48
34
14
27
46
44
43
46
52
58
62
64
39
54
67
69
64
62
64
65
60
53
22
19
5
29
54
42
61
24
28
36
61
58
72
66
65
77
82
67
73
120
133
98
83
101
133
125
87
94
132
142
139
132
149
161
153
155
162
150
78
95
130
144
90
123
158
156
148
146
149
157
158
150
145
145
78
101
149
146
67
110
150
119
116
117
65
79
160
129
136
132
124
124
78
3
2
1
33
79
91
84
85
45
4
2
0
3
0
0
0
1
1
1
2
2
23
243
240
170
43
1
18
43
60
84
97
90
90
100
91
69
59
36
11
1
1
2
2
2
0
0
0
0
0
0
0
0
3
3
3
2
1
0
0
0
0
1
2
0
0
6
19
29
1
1
1
1
1
1
1
1
1
27
53
65
62
50
51
69
60
60
63
63
55
40
31
29
51
48
45
46
44
40
43
50
49
57
44
38
60
74
74
80
79
79
77
76
76
77
69
61
47
70
91
97
93
94
97
98
91
85
39
82
91
81
82
81
75
70
47
38
50
50
46
59
26
34
43
48
57
67
68
64
37
30
19
51
77
61
68
121
122
94
93
103
88
67
47
40
76
140
141
137
75
120
139
124
75
64
62
59
52
57
61
47
65
4
2
13
195
254
254
247
255
255
255
255
255
255
255
255
255
255
255
255
255
255
255
255
255
255
255
255
255
255
255
255
255
255
255
255
255
255
255
255
255
255
255
255
255
255
255
255
255
255
255
255
255
255
255
255
255
255
255
255
255
255
255
255
255
255
255
255
255
255
255
255
255
255
255
255
255
255
255
255
255
255
255
255
255
255
255
255
255
255
255
255
255
255
255
255
255
255
255
255
255
255
247
255
255
255
255
255
199
9
68
85
32
88
124
111
121
131
120
123
136
137
131
114
82
132
152
135
138
153
93
71
144
147
120
140
137
117
57
101
136
126
124
123
123
122
121
118
115
113
84
74
74
98
103
89
92
99
103
116
103
89
76
54
54
77
69
73
71
69
56
31
40
48
45
42
40
40
41
40
40
16
31
45
46
42
40
44
45
42
35
20
33
3
8
32
43
59
21
15
57
87
72
64
92
70
81
97
98
77
69
81
91
148
151
145
126
101
87
100
127
146
130
143
153
147
158
134
60
112
139
152
153
108
106
124
163
157
160
155
146
147
155
155
148
111
82
128
88
81
134
123
126
120
118
73
58
148
132
133
134
127
125
79
3
2
1
33
79
91
84
86
45
5
2
0
3
0
0
0
1
1
1
2
2
10
217
248
253
176
86
13
0
18
28
44
62
79
89
91
90
87
66
39
16
2
1
2
10
2
2
1
1
0
0
0
0
0
0
0
1
4
4
2
1
0
1
3
2
1
3
10
16
1
1
1
1
1
1
1
1
3
19
41
52
50
36
29
35
41
42
45
46
42
33
22
13
53
52
55
62
62
58
56
60
58
65
55
46
58
74
80
81
78
79
77
76
77
79
73
65
37
67
88
84
80
85
87
80
94
92
54
90
104
100
101
97
110
106
77
47
39
39
28
18
17
25
34
42
55
73
88
97
53
19
33
23
55
67
99
94
107
84
77
80
55
20
87
122
91
128
144
129
93
103
132
118
83
60
64
73
64
68
80
77
27
24
1
72
234
254
253
254
255
255
255
255
255
255
255
255
255
255
255
255
255
255
255
255
255
255
255
255
255
255
255
255
255
255
255
255
255
255
255
255
255
255
255
255
255
255
255
255
255
255
255
255
255
255
255
255
255
255
255
255
255
255
255
255
255
255
255
255
255
255
255
255
255
255
255
255
255
255
255
255
255
255
255
255
255
255
255
255
255
255
255
255
255
255
255
255
255
255
255
255
255
253
250
255
255
254
255
255
164
1
75
74
24
74
113
117
124
137
112
131
130
137
126
84
114
139
144
140
146
156
128
91
85
130
130
131
133
112
48
116
123
122
121
120
120
121
120
119
116
133
102
100
64
64
63
94
116
119
114
107
97
105
94
54
52
79
71
78
80
81
66
40
50
76
73
68
63
60
56
51
48
17
35
52
57
56
57
62
65
83
53
22
34
2
1
21
61
90
72
29
57
87
79
51
79
85
71
68
75
59
40
77
150
146
149
126
115
123
104
95
124
140
143
142
151
146
96
78
119
137
166
157
156
142
109
96
151
154
156
153
148
149
154
150
143
152
111
71
50
113
135
132
114
125
121
93
39
135
140
132
139
130
126
79
4
2
1
32
78
92
85
86
46
5
2
0
3
0
0
0
1
1
1
2
2
2
220
254
255
251
215
134
76
2
2
3
24
37
40
54
77
90
88
84
70
46
19
6
5
0
0
0
1
2
3
4
4
17
11
3
0
0
0
0
1
0
1
5
5
1
0
0
3
1
1
1
1
1
1
1
1
5
8
31
51
56
45
33
27
55
60
62
61
63
62
49
32
59
57
59
65
68
66
64
64
63
65
62
49
45
65
80
75
77
77
75
73
75
78
74
67
31
64
84
76
71
80
78
66
78
81
52
75
93
96
99
91
96
97
81
49
36
52
51
24
4
11
22
35
45
56
66
74
29
59
114
63
66
64
67
54
82
69
43
85
76
50
120
164
113
112
134
120
112
87
127
124
105
67
72
83
58
56
73
65
9
21
1
169
254
255
246
253
255
255
255
255
255
255
255
255
255
255
255
255
255
255
255
255
255
255
255
255
255
255
255
255
255
255
255
255
255
255
255
255
255
255
255
255
255
255
255
255
255
255
255
255
255
255
255
255
255
255
255
255
255
255
255
255
255
255
255
255
255
255
255
255
255
255
255
255
255
255
255
255
255
255
255
255
255
255
255
255
255
255
255
255
255
255
255
255
255
255
255
255
255
253
254
255
250
251
255
242
104
26
65
69
51
58
89
127
130
138
115
129
129
137
109
73
138
145
131
152
150
130
155
149
61
78
111
110
129
83
95
127
123
119
118
118
119
121
121
119
117
123
115
130
87
44
36
74
108
119
123
118
108
113
92
46
53
85
73
76
78
78
63
42
57
81
79
76
75
73
70
65
61
29
47
64
68
67
66
70
73
73
62
45
70
53
29
15
8
39
75
39
24
70
92
62
68
49
44
52
86
104
83
94
147
142
138
124
128
143
126
93
83
136
138
148
123
78
90
141
158
151
160
147
154
164
128
89
107
153
147
146
151
153
149
147
150
157
121
43
46
120
138
145
111
123
121
111
30
118
145
130
133
131
125
77
4
3
1
32
79
92
85
86
46
5
3
0
3
0
0
0
1
1
1
2
2
3
222
254
236
251
255
249
227
160
84
10
1
8
18
21
24
30
41
59
68
58
32
7
4
0
0
0
0
0
1
2
3
0
0
7
14
16
13
7
2
0
2
5
4
1
0
0
0
1
1
1
1
1
1
1
1
7
6
35
62
71
65
54
44
64
71
70
67
71
74
58
36
69
64
61
60
63
63
65
65
62
63
64
51
39
57
77
69
73
74
72
69
70
73
71
66
37
60
78
76
76
79
78
69
70
77
53
61
79
89
95
86
107
103
94
64
38
50
57
33
5
2
6
21
36
43
48
51
9
66
90
77
110
102
45
69
95
101
57
120
142
132
115
154
127
97
113
119
121
82
122
133
92
55
67
78
50
56
77
58
10
1
11
241
255
254
253
244
255
255
255
255
255
255
255
255
255
255
255
255
255
255
255
255
255
255
255
255
255
255
255
255
255
255
255
255
255
255
255
255
255
255
255
255
255
255
255
255
255
255
255
255
255
255
255
255
255
255
255
255
255
255
255
255
255
255
255
255
255
255
255
255
255
255
255
255
255
255
255
255
255
255
255
255
255
255
255
255
255
255
255
255
255
255
255
255
255
255
255
255
255
255
255
254
249
251
255
229
53
25
57
73
93
85
80
103
131
132
125
121
131
132
88
84
146
140
139
135
139
146
145
130
108
73
75
121
134
43
111
130
120
120
119
120
122
124
125
124
122
123
119
123
104
57
61
62
75
72
101
126
124
121
92
51
65
89
74
77
80
81
64
44
60
72
71
71
73
75
74
72
69
26
41
55
55
49
44
44
44
39
44
30
54
64
70
47
24
15
66
61
32
74
78
51
42
35
58
80
117
143
132
102
96
152
134
128
130
136
144
128
86
110
122
86
70
120
147
143
158
159
152
150
153
159
140
107
80
143
149
147
142
144
153
156
150
113
85
78
70
85
141
130
136
115
115
121
38
95
143
128
122
131
123
73
4
3
1
32
79
93
86
87
47
6
3
0
3
0
0
0
1
1
1
2
2
1
196
255
255
255
249
242
255
249
233
192
125
51
3
0
3
7
2
1
3
12
11
6
4
7
5
3
0
0
0
0
0
0
0
0
0
0
0
0
0
2
3
3
2
0
0
0
0
1
1
1
1
1
1
1
1
7
9
40
69
72
68
58
43
56
63
63
61
65
67
54
35
68
67
65
64
65
66
66
65
66
64
70
58
44
57
76
71
73
75
72
69
70
72
71
66
47
53
65
79
82
79
77
80
70
77
60
52
68
80
93
91
99
94
97
84
58
59
75
75
58
40
24
27
43
59
68
70
37
58
55
71
112
99
74
154
149
167
133
116
166
154
94
138
125
93
95
129
120
87
108
122
80
55
69
71
45
60
76
41
2
0
100
255
247
254
254
250
255
255
255
255
255
255
255
255
255
255
255
255
255
255
255
255
255
255
255
255
255
255
255
255
255
255
255
255
255
255
255
255
255
255
255
255
255
255
255
255
255
255
255
255
255
255
255
255
255
255
255
255
255
255
255
255
255
255
255
255
255
255
255
255
255
255
255
255
255
255
255
255
255
255
255
255
255
255
255
255
255
255
255
255
255
255
255
255
255
255
255
255
255
254
255
251
252
255
255
231
34
9
61
74
96
109
81
64
130
126
131
119
130
117
80
105
145
129
144
133
134
148
139
118
132
121
78
94
81
74
130
117
117
117
117
117
120
122
123
122
121
118
115
110
107
84
106
89
91
75
70
74
89
119
116
83
79
85
72
77
84
85
65
43
59
75
75
76
78
81
82
81
79
33
49
65
67
61
58
58
59
58
61
21
31
33
57
64
57
18
47
54
34
63
40
40
43
67
98
116
123
135
139
115
82
127
118
126
127
123
149
150
115
62
44
81
139
148
150
156
145
155
145
158
150
145
145
143
105
100
137
156
143
141
153
141
111
79
103
116
120
73
95
122
139
113
114
125
57
70
137
135
120
128
118
68
3
3
1
33
82
93
86
87
47
6
3
0
3
0
0
0
1
1
1
2
2
0
182
255
255
252
247
242
245
245
251
253
252
249
233
194
156
71
43
12
1
1
1
1
1
0
0
0
0
1
3
6
8
6
6
5
4
4
4
5
5
4
3
1
0
0
0
2
3
1
1
1
1
1
1
1
1
2
3
34
65
68
67
63
46
55
62
67
67
69
71
64
52
47
56
66
68
70
70
66
62
66
66
68
63
53
54
67
72
72
75
75
73
72
75
74
70
57
47
52
71
80
75
72
79
77
82
76
57
67
77
94
102
80
79
91
96
81
75
92
112
105
87
65
54
61
69
66
56
61
29
56
73
94
50
96
151
164
168
168
81
150
136
88
107
121
94
88
132
110
86
84
89
69
55
63
60
40
57
62
22
4
74
214
250
251
254
251
254
255
255
255
255
255
255
255
255
255
255
255
255
255
255
255
255
255
255
255
255
255
255
255
255
255
255
255
255
255
255
255
255
255
255
255
255
255
255
255
255
255
255
255
255
255
255
255
255
255
255
255
255
255
255
255
255
255
255
255
255
255
255
255
255
255
255
255
255
255
255
255
255
255
255
255
255
255
255
255
255
255
255
255
255
255
255
255
255
255
255
255
255
255
253
255
252
255
253
255
240
40
8
62
85
90
101
91
51
109
124
127
126
127
98
85
121
138
130
137
145
138
126
129
132
124
122
105
56
20
104
123
110
122
114
113
114
116
119
120
119
117
115
112
105
92
100
124
119
125
117
78
62
63
87
105
91
89
94
77
78
83
83
62
41
60
76
75
75
75
77
77
76
74
48
65
82
87
84
82
84
85
80
78
46
60
58
39
12
23
2
14
20
15
28
45
67
86
77
106
127
125
126
142
130
93
85
110
137
139
126
117
107
91
32
72
117
142
150
151
151
154
148
143
156
141
147
148
161
140
77
114
146
150
142
129
104
80
97
145
133
147
102
61
116
121
115
113
119
70
39
124
144
124
124
112
63
3
4
1
34
85
93
86
88
47
7
4
0
4
0
0
0
1
1
1
2
2
0
167
255
242
239
255
255
254
252
254
254
250
253
255
255
251
254
250
228
212
199
188
183
183
181
182
183
186
191
197
203
206
229
181
107
36
0
0
0
9
4
2
1
0
0
0
0
0
1
1
1
1
1
1
1
1
1
1
27
59
63
70
72
52
48
56
64
67
68
65
64
64
33
48
62
67
67
67
65
61
64
64
63
64
60
50
50
68
66
71
75
74
75
77
77
75
67
53
47
60
73
75
70
70
76
80
82
54
62
63
82
97
89
94
99
98
83
60
55
72
97
92
79
64
63
68
55
37
51
16
16
45
88
54
97
92
126
143
148
85
115
127
98
76
124
101
87
113
90
70
67
59
32
19
28
39
42
60
63
36
7
86
237
254
255
255
249
254
255
255
255
255
255
255
255
255
255
255
255
255
255
255
255
255
255
255
255
255
255
255
255
255
255
255
255
255
255
255
255
255
255
255
255
255
255
255
255
255
255
255
255
255
255
255
255
255
255
255
255
255
255
255
255
255
255
255
255
255
255
255
255
255
255
255
255
255
255
255
255
255
255
255
255
255
255
255
255
255
255
255
255
255
255
255
255
255
255
255
255
255
255
253
255
254
255
248
251
243
48
16
57
110
109
93
110
67
75
124
120
136
123
83
94
130
133
137
137
140
136
122
119
127
133
111
137
85
30
45
45
90
91
116
116
116
118
121
122
121
120
130
112
96
66
107
124
122
118
120
116
123
92
46
37
64
108
113
90
83
81
78
60
45
67
82
81
78
78
78
78
77
75
42
59
74
77
71
67
67
68
80
59
20
56
68
42
12
20
42
72
68
43
19
71
87
69
90
99
110
107
110
140
145
125
62
106
126
118
106
82
78
106
145
73
77
141
151
143
149
151
154
150
150
134
156
149
151
141
102
102
123
148
134
94
80
96
135
139
139
134
128
82
86
116
112
107
106
70
9
105
143
120
122
108
60
3
4
1
35
86
94
87
88
48
7
4
0
4
0
0
0
1
1
1
2
2
0
133
245
255
255
247
255
254
255
253
251
252
254
254
254
255
252
252
255
254
250
247
253
254
255
254
252
252
252
255
255
255
255
250
226
187
135
78
27
0
2
1
1
1
1
0
0
0
1
1
1
1
1
1
1
1
10
2
26
56
59
69
70
47
47
54
63
69
66
60
63
71
34
50
62
63
62
64
68
68
65
67
62
67
68
48
43
66
59
66
72
73
75
78
79
76
76
63
52
54
68
78
73
61
49
52
59
25
30
22
39
58
52
69
78
82
83
65
53
67
64
67
59
45
51
72
75
63
66
82
30
44
69
58
91
104
92
131
130
125
76
119
108
76
131
105
85
87
70
55
63
48
28
12
11
30
43
51
49
35
0
16
181
254
254
244
254
252
255
255
255
255
255
255
255
255
255
255
255
255
255
255
255
255
255
255
255
255
255
255
255
255
255
255
255
255
255
255
255
255
255
255
255
255
255
255
255
255
255
255
255
255
255
255
255
255
255
255
255
255
255
255
255
255
255
255
255
255
255
255
255
255
255
255
255
255
255
255
255
255
255
255
255
255
255
255
255
255
255
255
255
255
255
255
255
255
255
255
255
255
255
254
254
255
250
255
254
233
89
8
75
93
89
97
100
94
74
98
130
132
124
70
110
124
126
141
134
126
122
122
124
126
125
122
117
66
92
112
95
101
74
58
83
107
116
115
116
120
123
121
119
82
94
125
125
124
118
116
115
122
134
115
64
36
73
52
54
67
67
86
76
42
70
78
79
80
81
81
81
80
80
46
50
74
75
74
84
80
77
83
72
21
24
42
46
63
82
86
60
77
78
25
59
82
84
96
106
120
128
128
128
138
149
96
97
113
75
63
117
139
142
142
119
50
110
143
155
138
143
146
146
146
143
140
140
146
150
131
97
94
119
76
85
118
144
129
125
131
141
131
105
87
85
129
113
56
96
26
105
131
128
128
109
49
7
3
3
32
92
86
90
86
50
6
1
5
0
0
0
2
3
3
2
0
0
0
117
253
255
251
254
251
247
250
250
250
250
250
250
250
250
255
255
255
255
255
255
255
255
255
255
255
255
255
255
255
255
243
251
255
252
241
228
181
119
29
1
0
0
0
0
2
2
4
2
0
5
3
1
3
6
18
10
9
41
71
66
58
65
33
45
62
72
70
64
61
62
54
34
40
68
79
63
56
66
63
65
65
63
63
62
55
47
63
62
67
76
84
86
81
75
65
60
52
24
36
25
30
27
31
35
45
57
65
60
44
32
71
60
44
28
17
9
2
0
8
4
4
13
18
18
24
30
58
86
44
40
67
55
98
87
118
121
119
109
84
114
115
80
116
107
82
84
85
59
38
23
1
17
9
25
29
25
38
22
22
1
189
246
249
249
251
248
255
255
255
255
255
255
255
255
255
255
255
255
255
255
255
255
255
255
255
255
255
255
255
255
255
255
255
255
255
255
255
255
255
255
255
255
255
255
255
255
255
255
255
255
255
255
255
255
255
255
255
255
255
255
255
255
255
255
255
255
255
255
255
255
255
255
255
255
255
255
255
255
255
255
255
255
255
255
255
255
255
255
255
255
255
255
255
255
255
255
255
255
255
253
254
253
248
255
254
243
107
8
75
93
88
95
100
97
81
76
116
132
110
68
114
127
127
137
132
125
122
122
123
124
125
112
101
65
109
117
120
119
106
119
77
54
76
115
127
118
108
130
119
83
92
118
113
115
113
114
110
115
128
117
77
66
112
116
90
65
38
53
58
46
89
96
90
82
76
74
75
80
83
59
57
71
60
43
43
30
23
28
35
15
32
69
65
76
83
83
67
89
75
43
48
74
87
118
114
108
108
119
134
141
138
108
60
40
71
105
119
132
137
145
126
127
45
127
135
149
149
142
146
148
146
140
137
139
143
139
123
83
53
86
131
143
127
131
133
125
119
129
134
102
61
113
89
64
109
40
73
122
140
125
111
52
6
3
4
29
85
86
90
86
49
6
1
5
0
1
1
1
0
0
0
0
0
0
108
251
255
252
255
254
251
253
253
253
253
253
253
253
253
255
255
255
255
255
255
255
255
255
255
255
255
255
255
255
255
255
255
255
254
251
255
255
228
182
113
43
6
0
3
9
2
8
5
3
1
3
4
11
20
4
4
12
38
63
64
66
78
44
45
54
67
69
61
58
64
70
54
45
51
61
67
71
74
63
67
69
68
66
64
56
48
36
44
52
52
43
34
30
31
24
22
32
43
49
38
53
77
82
83
88
95
99
94
80
69
74
66
51
36
27
26
31
37
16
27
39
34
10
1
2
13
12
41
59
20
60
63
93
88
83
108
125
122
92
115
114
87
106
96
62
50
41
22
27
31
29
26
19
34
50
56
64
59
2
22
82
252
241
248
245
254
247
248
250
253
255
255
255
255
255
255
255
255
255
255
255
255
255
255
255
255
255
255
255
255
255
255
255
255
255
255
255
255
255
255
255
255
255
255
255
255
255
255
255
255
255
255
255
255
255
255
255
255
255
255
255
255
255
255
255
255
255
255
255
255
255
255
255
255
255
255
255
255
255
255
255
255
255
255
255
255
255
255
255
255
255
255
255
255
255
255
255
255
255
254
254
254
248
254
254
251
123
8
75
94
87
91
96
101
91
65
100
128
93
72
119
129
126
130
127
124
122
122
122
122
122
109
86
72
123
112
131
118
118
103
119
113
81
66
83
104
109
122
104
78
95
119
116
121
128
118
114
114
124
118
79
84
132
114
117
121
93
74
44
18
69
58
55
51
47
44
42
41
41
15
15
42
47
48
62
60
60
66
66
55
49
86
68
74
73
78
74
91
64
57
39
62
99
110
116
121
124
127
122
95
68
71
41
26
105
150
130
131
132
120
148
134
94
63
143
134
150
140
142
144
143
142
141
141
142
134
106
56
33
118
137
133
131
129
128
127
127
129
124
108
93
71
60
84
119
61
46
124
138
120
112
56
8
4
3
25
72
85
89
85
49
6
1
5
0
2
1
0
0
0
1
4
4
0
95
249
255
254
255
255
255
255
255
255
255
255
255
255
255
255
255
255
255
255
255
255
255
255
255
255
255
255
255
255
255
251
248
253
253
248
255
255
255
255
246
213
146
63
14
0
0
12
8
9
12
8
2
6
14
2
1
7
30
58
66
62
62
53
41
40
53
61
57
56
61
58
56
45
37
47
64
68
60
62
65
63
57
52
50
49
45
19
15
17
29
45
57
59
57
76
68
70
82
64
58
61
74
93
91
91
93
95
90
82
74
70
74
77
78
80
87
97
105
83
78
74
72
62
46
29
20
1
2
66
9
45
55
77
101
92
104
104
98
82
111
110
81
93
72
29
15
17
32
72
93
78
66
65
54
38
30
32
50
10
15
1
165
249
250
255
243
255
254
254
255
255
255
254
249
255
255
255
255
255
255
255
255
255
255
255
255
255
255
255
255
255
255
255
255
255
255
255
255
255
255
255
255
255
255
255
255
255
255
255
255
255
255
255
255
255
255
255
255
255
255
255
255
255
255
255
255
255
255
255
255
255
255
255
255
255
255
255
255
255
255
255
255
255
255
255
255
255
255
255
255
255
255
255
255
255
255
255
255
255
254
254
255
251
252
254
248
127
7
74
93
86
88
92
102
101
78
85
107
80
85
127
127
127
125
124
124
123
122
121
120
118
111
74
88
123
111
125
110
113
122
116
122
123
96
64
73
106
107
92
88
114
131
118
110
113
120
118
117
124
121
72
85
127
132
123
125
113
116
84
32
53
59
58
55
52
49
47
46
46
34
35
61
68
70
82
81
83
84
76
67
40
81
66
76
76
79
84
84
61
68
50
59
111
123
118
106
94
86
84
88
90
104
106
80
96
126
126
127
128
123
135
134
138
79
84
140
140
144
138
134
137
144
145
142
137
100
88
72
71
119
122
123
134
123
127
135
135
126
115
118
128
30
43
102
118
79
38
131
125
118
114
58
7
4
1
18
58
84
88
85
48
5
1
5
0
1
1
1
1
3
4
5
6
0
81
249
254
255
255
255
255
255
255
255
255
255
255
255
255
255
255
255
255
255
255
255
255
255
255
255
255
255
255
255
255
254
249
255
255
253
248
250
246
255
255
255
248
208
162
100
40
1
2
9
32
52
54
34
16
12
9
2
7
46
74
78
78
73
61
51
54
66
74
74
73
61
64
57
41
41
55
57
50
48
48
45
36
34
41
50
55
70
55
42
43
58
74
84
85
96
97
91
98
81
95
80
63
74
68
62
60
59
58
54
50
22
28
37
48
59
67
76
81
81
65
56
69
91
98
79
58
28
3
56
24
40
31
43
88
94
107
107
103
79
92
67
28
35
27
18
31
49
66
89
83
52
52
75
66
60
73
85
121
58
8
4
65
231
242
254
242
255
254
252
254
255
255
254
249
255
255
255
255
255
255
255
255
255
255
255
255
255
255
255
255
255
255
255
255
255
255
255
255
255
255
255
255
255
255
255
255
255
255
255
255
255
255
255
255
255
255
255
255
255
255
255
255
255
255
255
255
255
255
255
255
255
255
255
255
255
255
255
255
255
255
255
255
255
255
255
255
255
255
255
255
255
255
255
255
255
255
255
255
255
254
254
255
255
253
251
245
127
6
72
92
84
85
89
102
105
98
72
70
73
103
130
123
129
121
123
124
124
123
120
117
115
106
66
107
116
121
119
116
117
117
128
125
111
115
127
111
77
70
58
77
110
125
119
109
113
122
122
120
123
123
65
87
126
111
121
137
124
116
86
61
111
115
107
94
83
79
81
87
92
76
72
90
90
81
83
76
76
69
68
68
41
83
74
79
79
81
91
77
76
80
74
54
103
113
91
71
69
73
87
119
148
131
133
109
67
94
142
132
119
141
123
135
130
119
54
117
139
144
140
134
137
143
138
121
104
77
109
125
108
77
120
142
120
124
134
131
117
119
133
122
96
38
42
95
109
95
30
122
122
120
109
53
5
4
1
12
49
83
87
84
48
5
1
5
0
0
1
1
2
2
1
1
1
0
69
251
253
255
255
255
254
255
255
255
255
255
255
255
255
255
255
255
255
255
255
255
255
255
255
255
255
255
255
255
255
255
252
253
255
249
249
255
255
255
248
245
251
255
255
227
168
100
55
6
5
29
64
78
78
70
54
25
13
26
45
56
64
62
57
46
38
46
65
68
59
64
61
49
33
22
24
35
41
42
46
47
47
51
65
78
85
87
89
86
73
60
58
70
83
85
89
77
77
59
69
40
19
7
2
2
2
1
1
3
5
6
3
2
3
8
11
7
6
18
18
21
30
43
56
60
59
17
2
14
28
16
5
8
32
77
99
101
87
47
44
33
26
42
39
40
60
66
68
75
54
65
64
80
68
81
113
115
125
116
48
2
16
105
233
254
251
249
247
245
248
253
255
255
255
255
255
255
255
255
255
255
255
255
255
255
255
255
255
255
255
255
255
255
255
255
255
255
255
255
255
255
255
255
255
255
255
255
255
255
255
255
255
255
255
255
255
255
255
255
255
255
255
255
255
255
255
255
255
255
255
255
255
255
255
255
255
255
255
255
255
255
255
255
255
255
255
255
255
255
255
255
255
255
255
255
255
255
255
255
249
253
255
255
255
252
247
131
5
70
89
84
84
86
98
102
107
66
36
74
116
126
119
130
120
122
125
125
122
118
115
113
99
73
118
110
125
109
115
114
125
115
117
132
128
109
109
125
73
51
60
75
85
99
110
126
127
129
123
123
123
57
89
126
129
113
112
112
131
113
75
110
130
124
114
103
95
91
90
90
52
49
72
81
81
89
88
93
87
84
82
46
77
78
75
78
77
83
73
86
86
85
47
70
70
63
70
96
118
122
113
108
120
126
123
79
88
135
126
125
129
138
128
133
124
110
59
119
138
139
140
140
132
114
92
75
113
117
133
133
69
95
128
130
130
127
122
119
119
111
92
75
85
60
72
99
105
31
94
134
120
101
41
3
5
2
10
49
82
86
83
47
5
1
5
0
1
1
0
0
0
0
0
0
1
57
252
252
255
254
255
254
254
254
254
254
254
254
254
254
255
255
255
255
255
255
255
255
255
255
255
255
255
255
255
255
255
244
245
249
245
249
255
254
252
255
255
255
239
247
255
252
226
190
124
51
2
7
32
56
74
80
74
64
61
51
38
36
39
39
31
16
19
33
38
34
41
39
40
37
29
23
28
38
67
74
82
86
91
96
97
95
89
94
98
90
73
58
50
48
46
40
18
13
8
5
5
25
18
17
19
27
40
52
62
67
74
74
78
85
87
73
48
30
4
8
7
2
1
0
1
1
12
14
2
8
1
5
23
16
41
48
36
36
23
34
40
59
77
73
68
67
51
56
81
72
50
62
75
71
87
121
130
127
117
91
22
3
8
140
236
252
254
254
254
254
254
254
255
255
255
255
255
255
255
255
255
255
255
255
255
255
255
255
255
255
255
255
255
255
255
255
255
255
255
255
255
255
255
255
255
255
255
255
255
255
255
255
255
255
255
255
255
255
255
255
255
255
255
255
255
255
255
255
255
255
255
255
255
255
255
255
255
255
255
255
255
255
255
255
255
255
255
255
255
255
255
255
255
255
255
255
255
255
255
251
251
255
254
255
253
249
135
5
67
87
83
84
84
94
96
108
79
23
85
121
120
117
130
120
123
126
125
121
117
114
113
89
88
116
109
119
106
110
111
116
125
124
112
108
120
121
115
110
81
86
79
69
78
82
92
107
116
117
121
126
55
91
123
128
123
127
114
113
91
70
126
120
123
124
122
115
103
91
84
60
54
74
81
76
79
75
80
87
86
73
38
62
81
77
90
77
68
74
81
85
82
54
46
89
87
86
99
122
130
108
78
121
130
132
101
71
83
113
136
120
124
139
124
134
133
82
71
106
125
140
133
109
92
90
98
142
116
116
135
105
77
94
139
130
117
119
128
109
77
73
93
118
87
56
91
109
51
72
135
120
89
25
2
8
3
12
56
81
86
82
47
5
1
6
0
3
0
0
0
1
7
14
19
1
46
252
251
255
254
255
255
254
254
254
254
254
254
254
254
255
255
255
255
255
255
255
255
255
255
255
255
255
255
255
255
253
252
255
255
254
255
255
248
245
246
255
255
253
255
255
250
247
253
251
200
122
56
18
5
23
40
60
82
98
93
80
82
66
63
60
55
46
40
47
57
54
60
71
76
75
69
63
60
73
80
88
91
92
87
77
67
88
82
72
62
48
31
10
4
1
5
4
18
78
96
118
161
173
175
180
189
200
211
219
223
215
221
233
246
246
231
207
187
149
146
134
119
111
106
93
79
52
39
15
17
0
2
8
2
5
2
3
40
57
66
55
63
61
60
66
71
48
50
74
59
56
78
87
99
108
115
120
106
87
114
113
47
4
10
129
199
247
253
255
255
255
252
252
253
255
255
255
255
255
255
255
255
255
255
255
255
255
255
255
255
255
255
255
255
255
255
255
255
255
255
255
255
255
255
255
255
255
255
255
255
255
255
255
255
255
255
255
255
255
255
255
255
255
255
255
255
255
255
255
255
255
255
255
255
255
255
255
255
255
255
255
255
255
255
255
255
255
255
255
255
255
255
255
255
255
255
255
255
255
254
254
254
253
255
253
250
136
4
66
85
82
84
82
91
93
108
97
26
98
121
116
115
127
121
123
126
125
120
116
113
113
76
98
110
114
118
115
116
121
107
109
114
116
112
108
111
119
86
78
115
121
106
103
78
66
69
87
102
119
134
61
97
126
110
109
128
132
139
107
68
104
126
127
128
127
123
117
111
107
69
62
82
88
82
84
80
86
91
93
82
53
67
93
77
91
86
62
82
74
87
79
70
47
116
116
100
83
100
131
123
93
68
98
118
130
96
80
123
129
129
114
121
132
109
128
146
44
79
108
132
121
91
83
111
143
120
137
134
112
128
98
93
121
125
126
122
110
90
81
91
108
126
110
54
85
109
72
67
123
119
79
14
2
10
4
15
63
80
85
82
46
4
1
6
0
2
1
0
0
7
20
35
44
0
39
251
250
255
255
255
255
255
255
255
255
255
255
255
255
255
255
255
255
255
255
255
255
255
255
255
255
255
255
255
255
252
254
255
253
242
250
255
254
255
252
253
255
252
255
254
241
255
252
248
246
242
213
157
106
33
16
2
7
46
70
81
91
107
98
99
102
86
65
70
94
95
98
97
91
90
90
84
73
48
52
57
59
60
56
45
34
19
13
5
1
2
1
13
26
55
108
130
144
243
251
251
250
254
254
254
254
254
253
251
248
253
253
251
250
251
252
252
251
252
252
252
251
245
241
229
215
213
173
178
172
147
88
51
10
5
7
14
61
72
71
62
85
78
63
53
53
38
48
74
52
52
64
68
106
134
123
109
71
118
122
129
88
46
15
1
45
216
229
245
253
254
253
255
255
255
255
255
255
255
255
255
255
255
255
255
255
255
255
255
255
255
255
255
255
255
255
255
255
255
255
255
255
255
255
255
255
255
255
255
255
255
255
255
255
255
255
255
255
255
255
255
255
255
255
255
255
255
255
255
255
255
255
255
255
255
255
255
255
255
255
255
255
255
255
255
255
255
255
255
255
255
255
255
255
255
255
255
255
255
255
252
255
255
245
255
250
161
13
53
87
78
76
91
86
94
104
83
43
59
79
74
97
111
136
128
118
115
118
122
120
118
41
96
110
112
115
111
115
115
108
112
115
114
115
118
118
115
74
94
112
116
115
117
117
115
88
65
72
93
122
74
93
116
111
124
108
111
120
103
69
119
128
127
128
133
133
130
131
133
103
42
94
99
84
84
92
90
92
92
106
50
78
80
72
66
52
76
94
134
146
137
123
56
78
118
128
102
77
105
140
112
70
38
119
133
119
66
93
134
120
111
130
138
116
115
129
124
63
90
128
84
72
116
120
139
125
123
132
136
119
92
89
105
124
123
101
75
82
100
114
120
109
101
97
46
88
70
64
127
122
40
57
7
1
15
37
70
76
91
82
39
3
0
5
7
6
0
0
7
1
33
76
55
0
52
242
255
254
253
251
255
255
255
255
255
255
255
255
255
255
255
255
255
255
255
255
255
255
255
255
255
255
255
255
255
255
255
255
255
255
255
255
255
255
255
255
255
255
255
255
255
255
254
253
255
255
255
245
237
176
121
57
16
1
2
14
28
54
58
65
73
73
63
46
33
71
71
72
68
61
51
42
36
28
14
0
0
0
0
3
2
4
14
32
57
85
112
134
146
202
220
241
253
254
252
254
255
255
255
255
255
255
255
255
255
255
255
255
255
255
255
255
255
255
255
255
255
255
255
254
254
255
255
252
251
250
225
163
104
29
16
0
0
3
21
35
43
55
63
68
63
56
53
54
55
50
70
50
97
128
115
79
91
131
114
119
139
105
80
78
23
1
130
230
253
254
248
250
250
253
254
255
255
255
255
255
255
255
255
255
255
255
255
255
255
255
255
255
255
255
255
255
255
255
255
255
255
255
255
255
255
255
255
255
255
255
255
255
255
255
255
255
255
255
255
255
255
255
255
255
255
255
255
255
255
255
255
255
255
255
255
255
255
255
255
255
255
255
255
255
255
255
255
255
255
255
255
255
255
255
255
255
255
255
255
252
255
255
247
255
253
171
3
53
82
75
77
87
87
93
96
77
50
73
92
78
80
81
87
105
123
125
117
110
115
125
43
94
107
108
113
112
120
124
118
119
117
113
113
116
118
116
73
94
113
116
114
115
117
116
124
100
84
69
73
41
94
140
124
134
129
129
134
110
66
107
126
127
132
139
141
136
134
134
118
68
121
132
115
106
103
95
97
87
98
71
65
53
61
91
115
141
162
153
131
151
132
83
66
118
107
109
90
63
107
126
88
41
65
136
120
93
63
117
121
117
126
130
119
123
132
127
104
89
63
76
107
122
129
126
123
128
133
131
120
104
91
85
117
112
82
80
114
113
100
116
105
110
82
79
63
63
42
115
101
30
27
28
10
3
33
69
77
90
79
36
2
0
3
4
3
4
0
1
12
68
104
59
0
47
236
254
255
255
252
255
255
255
255
255
255
255
255
255
255
255
255
255
255
255
255
255
255
255
255
255
255
255
255
255
255
255
255
255
255
255
255
255
255
255
255
255
255
255
255
255
255
254
252
254
255
255
251
245
245
227
195
150
95
43
12
2
13
11
11
15
20
20
15
9
31
26
16
5
3
2
2
6
0
0
6
23
45
69
90
101
140
149
165
186
209
229
245
253
241
250
255
255
255
251
251
252
255
255
255
255
255
255
255
255
255
255
255
255
255
255
255
255
255
255
255
255
255
255
254
254
253
254
251
250
255
255
231
201
171
134
79
30
1
2
3
4
14
23
29
22
15
17
27
35
53
63
49
97
114
97
87
114
117
133
125
114
93
87
101
80
2
29
145
252
254
249
252
238
253
254
255
255
255
255
255
255
255
255
255
255
255
255
255
255
255
255
255
255
255
255
255
255
255
255
255
255
255
255
255
255
255
255
255
255
255
255
255
255
255
255
255
255
255
255
255
255
255
255
255
255
255
255
255
255
255
255
255
255
255
255
255
255
255
255
255
255
255
255
255
255
255
255
255
255
255
255
255
255
255
255
255
255
255
255
253
254
255
251
255
255
184
1
54
77
72
80
79
86
89
89
72
62
95
116
103
95
90
70
78
93
107
116
118
115
112
50
101
111
112
114
107
111
113
118
120
117
113
113
115
116
114
71
94
115
117
113
113
116
116
124
119
113
87
76
26
61
93
108
125
117
123
129
113
72
106
134
132
133
139
140
138
137
139
116
71
119
140
132
130
128
126
98
82
84
80
48
70
104
151
148
156
173
146
106
152
132
107
64
104
109
116
110
51
52
123
111
55
14
107
126
107
56
85
120
126
129
122
118
124
130
130
122
84
18
72
137
125
132
115
123
129
127
120
122
123
104
76
95
80
78
104
125
114
100
106
94
108
94
112
60
31
24
114
76
54
25
31
11
27
66
67
78
89
75
32
1
0
2
1
3
1
1
19
51
99
117
64
0
37
227
252
255
255
253
255
255
255
255
255
255
255
255
255
255
255
255
255
255
255
255
255
255
255
255
255
255
255
255
255
255
255
255
255
255
255
255
255
255
255
255
255
255
255
255
255
255
255
252
252
255
255
255
252
254
254
255
253
234
200
157
125
54
40
21
6
2
3
5
6
10
8
8
16
32
56
80
94
117
131
152
171
188
207
226
240
250
252
254
254
254
254
252
250
255
255
255
255
254
252
254
255
255
255
255
255
255
255
255
255
255
255
255
255
255
255
255
255
255
255
255
255
255
255
254
254
253
255
255
249
253
255
255
255
252
239
216
186
149
106
65
40
2
4
2
1
1
3
3
1
38
43
45
97
105
93
99
120
114
125
99
91
103
108
117
120
55
9
63
203
254
252
251
249
253
253
255
255
255
255
255
255
255
255
255
255
255
255
255
255
255
255
255
255
255
255
255
255
255
255
255
255
255
255
255
255
255
255
255
255
255
255
255
255
255
255
255
255
255
255
255
255
255
255
255
255
255
255
255
255
255
255
255
255
255
255
255
255
255
255
255
255
255
255
255
255
255
255
255
255
255
255
255
255
255
255
255
255
255
255
255
254
255
252
255
255
196
1
52
74
70
81
72
84
81
88
67
68
101
120
118
117
117
94
79
70
80
100
115
113
105
42
93
108
113
119
110
110
110
109
112
115
114
113
114
112
107
69
94
117
119
113
112
116
117
110
112
125
122
120
47
47
57
66
76
72
85
101
105
78
113
129
124
122
124
124
125
130
135
132
80
96
106
88
81
81
83
107
106
102
102
62
125
161
163
156
148
154
148
110
152
146
127
74
75
128
115
116
89
17
79
116
100
20
46
119
104
97
56
116
124
122
116
126
132
120
108
101
84
43
74
126
125
125
118
124
123
116
114
127
135
115
83
58
66
96
118
112
103
103
101
100
94
112
115
92
18
23
101
73
64
24
19
4
51
81
75
81
89
71
29
1
0
2
0
2
0
13
68
100
109
105
71
1
27
216
250
255
255
255
253
255
255
255
255
255
255
255
255
255
255
255
255
255
255
255
255
255
255
255
255
255
255
255
255
255
255
255
255
255
255
255
255
255
255
255
255
255
255
255
255
255
255
253
253
255
255
254
252
248
250
250
253
254
254
254
232
217
200
178
158
145
140
140
140
159
161
165
173
186
203
218
227
239
247
255
255
255
255
255
255
254
254
254
254
253
250
248
246
254
252
250
249
252
255
255
255
255
255
255
255
255
255
255
255
255
255
255
255
255
255
255
255
255
255
255
255
255
255
254
254
251
255
255
253
248
251
254
253
254
254
255
254
246
225
202
186
152
133
111
104
106
92
53
16
4
15
46
98
97
83
103
119
113
96
83
101
126
120
119
133
98
63
26
109
249
253
234
253
252
253
254
255
255
255
255
254
255
255
255
255
255
255
255
255
255
255
255
255
255
255
255
255
255
255
255
255
255
255
255
255
255
255
255
255
255
255
255
255
255
255
255
255
255
255
255
255
255
255
255
255
255
255
255
255
255
255
255
255
255
255
255
255
255
255
255
255
255
255
255
255
255
255
255
255
255
255
255
255
255
255
255
255
255
255
255
253
255
253
254
251
206
29
44
73
69
80
68
81
73
86
59
68
93
103
106
113
121
113
105
92
82
78
86
99
110
47
93
103
106
110
99
99
101
107
110
110
109
109
110
109
106
68
94
116
119
113
112
114
116
121
106
112
120
126
63
78
101
82
89
77
77
80
80
49
69
69
69
70
76
80
81
83
88
79
39
52
90
98
113
124
137
133
145
148
147
94
141
162
131
134
145
149
157
115
135
157
124
84
69
125
112
120
132
47
27
86
130
61
7
84
112
137
54
89
108
118
122
130
125
98
75
83
96
106
76
89
124
115
124
126
117
111
117
128
126
104
82
30
78
108
108
106
105
100
101
112
90
101
111
104
48
21
77
87
44
12
19
16
50
58
86
85
89
68
26
1
1
5
0
0
18
49
99
119
109
100
76
4
17
209
251
255
255
255
251
255
255
255
255
255
255
255
255
255
255
255
255
255
255
255
255
255
255
255
255
255
255
255
255
255
255
255
255
255
255
255
255
255
255
255
255
255
255
255
255
255
255
255
255
255
254
250
247
254
255
255
246
237
243
253
254
253
251
245
240
237
237
237
237
250
249
249
248
247
247
246
246
252
253
254
253
251
249
248
248
250
250
251
252
254
255
255
255
255
255
254
254
255
255
254
253
255
255
255
255
255
255
255
255
255
255
255
255
255
255
255
255
255
255
255
255
255
255
254
254
247
254
255
255
255
254
252
250
252
250
247
247
249
252
254
255
255
242
224
222
228
217
176
137
38
8
26
83
85
62
97
127
102
88
106
132
131
123
124
131
75
74
5
26
199
253
232
255
252
252
254
255
255
255
254
254
255
255
255
255
255
255
255
255
255
255
255
255
255
255
255
255
255
255
255
255
255
255
255
255
255
255
255
255
255
255
255
255
255
255
255
255
255
255
255
255
255
255
255
255
255
255
255
255
255
255
255
255
255
255
255
255
255
255
255
255
255
255
255
255
255
255
255
255
255
255
255
255
255
255
255
255
255
255
255
252
255
254
251
250
218
69
31
74
70
78
69
78
68
80
52
71
94
98
105
111
123
125
123
116
100
84
75
80
86
54
91
92
94
101
98
111
121
109
109
106
101
101
106
109
110
68
93
115
118
113
113
114
114
124
105
110
116
119
60
94
136
129
133
117
108
98
88
42
45
85
89
99
113
118
116
114
114
106
72
77
131
144
152
149
155
153
155
160
160
104
113
152
149
95
126
156
162
113
108
158
123
99
87
87
97
108
130
107
24
44
114
98
23
40
122
135
81
49
90
134
136
107
87
83
83
100
113
140
84
65
114
111
124
123
115
113
119
117
101
84
76
52
79
102
103
100
111
110
91
99
104
91
118
69
67
5
79
85
54
36
28
34
63
63
86
87
87
63
24
1
4
7
0
1
55
88
102
108
112
112
84
7
11
205
253
254
255
255
250
255
255
255
255
255
255
255
255
255
255
255
255
255
255
255
255
255
255
255
255
255
255
255
255
255
255
255
255
255
255
255
255
255
255
255
255
255
255
255
255
254
255
255
255
255
252
249
247
253
255
255
255
255
255
255
255
247
250
253
254
254
254
254
254
254
254
254
254
254
254
254
254
255
253
251
252
255
255
255
255
255
255
254
250
247
247
247
248
255
254
254
255
255
255
255
253
255
255
255
255
255
255
255
255
255
255
255
255
255
255
255
255
255
255
255
255
255
255
254
254
254
255
255
255
255
255
255
255
251
253
254
254
254
254
253
252
247
248
249
250
253
253
251
242
162
53
1
39
72
59
93
114
94
93
122
128
125
135
125
109
63
53
2
4
112
236
249
242
251
252
253
254
254
254
254
253
255
255
255
255
255
255
255
255
255
255
255
255
255
255
255
255
255
255
255
255
255
255
255
255
255
255
255
255
255
255
255
255
255
255
255
255
255
255
255
255
255
255
255
255
255
255
255
255
255
255
255
255
255
255
255
255
255
255
255
255
255
255
255
255
255
255
255
255
255
255
255
255
255
255
255
255
255
254
255
252
255
255
252
253
232
110
16
74
72
76
75
77
68
80
45
73
96
100
110
116
124
119
117
114
112
105
87
61
43
2
29
28
31
45
49
68
85
93
97
98
98
102
108
111
110
70
92
114
117
115
116
115
112
112
106
117
118
120
61
87
119
118
126
122
125
124
125
84
82
114
118
128
139
144
141
138
139
137
99
86
141
151
152
143
143
155
146
152
147
110
90
153
168
100
88
156
165
135
97
148
151
114
85
37
52
59
74
113
69
26
75
109
55
17
89
111
119
54
80
118
117
81
70
95
111
120
119
133
108
72
86
111
119
120
117
113
106
93
80
82
90
90
68
86
109
101
104
110
89
90
105
96
91
51
83
3
89
72
78
55
33
44
55
83
81
87
84
58
19
1
5
7
0
15
83
109
107
107
110
112
87
9
7
204
255
254
253
255
251
255
255
255
255
255
255
255
255
255
255
255
255
255
255
255
255
255
255
255
255
255
255
255
255
255
255
255
255
255
255
255
255
255
255
255
255
255
255
255
255
255
255
255
255
254
253
254
254
255
249
247
255
254
254
250
242
253
253
253
253
253
252
250
249
254
253
252
250
250
252
252
252
254
251
249
249
251
253
252
251
251
252
252
253
255
255
255
255
247
249
252
254
255
255
255
255
255
255
255
255
255
255
255
255
255
255
255
255
255
255
255
255
255
255
255
255
255
255
254
254
255
255
255
255
254
253
254
255
254
254
250
246
245
249
254
254
254
254
254
253
246
247
251
253
251
155
54
11
40
53
94
91
81
98
119
113
125
134
106
98
108
77
39
4
33
151
247
251
251
252
253
254
254
254
253
253
255
255
255
255
255
255
255
255
255
255
255
255
255
255
255
255
255
255
255
255
255
255
255
255
255
255
255
255
255
255
255
255
255
255
255
255
255
255
255
255
255
255
255
255
255
255
255
255
255
255
255
255
255
255
255
255
255
255
255
255
255
255
255
255
255
255
255
255
255
255
255
255
255
255
255
255
255
252
255
252
255
255
254
255
241
134
9
74
73
75
79
79
68
84
43
68
89
92
105
107
112
102
106
113
120
113
86
48
21
87
111
93
81
77
49
36
41
71
81
93
102
109
113
110
106
70
92
112
117
117
117
115
110
116
110
113
108
116
71
94
112
118
124
119
121
120
124
84
79
127
126
128
133
134
133
134
138
148
111
79
128
141
149
144
152
152
147
155
148
127
89
143
144
127
44
133
160
152
78
114
157
121
58
13
3
6
20
76
112
35
45
101
76
18
39
95
138
108
74
69
76
78
101
124
118
124
115
110
136
92
57
111
114
117
120
111
88
68
71
94
116
106
71
71
107
113
91
88
102
107
89
89
42
74
105
26
77
70
70
30
38
51
10
71
89
85
81
55
15
1
5
7
0
39
92
113
121
119
104
100
87
10
5
204
255
253
252
255
251
255
255
255
255
255
255
255
255
255
255
255
255
255
255
255
255
255
255
255
255
255
255
255
255
255
255
255
255
255
255
255
255
255
255
255
255
255
255
255
255
255
255
255
254
253
255
255
255
255
255
255
254
251
244
253
254
252
253
254
253
253
254
253
252
250
251
251
252
253
254
254
254
254
255
255
255
255
255
255
255
254
255
255
255
255
255
253
252
255
255
255
255
255
253
254
255
255
255
255
255
255
255
255
255
255
255
255
255
255
255
255
255
255
255
255
255
255
255
254
254
255
255
255
255
255
252
255
255
250
254
255
255
255
254
253
250
254
254
254
252
252
254
254
254
250
250
170
27
4
24
91
86
62
102
128
119
129
111
81
121
146
125
93
38
1
64
181
242
251
251
253
254
254
254
253
253
255
255
255
255
255
255
255
255
255
255
255
255
255
255
255
255
255
255
255
255
255
255
255
255
255
255
255
255
255
255
255
255
255
255
255
255
255
255
255
255
255
255
255
255
255
255
255
255
255
255
255
255
255
255
255
255
255
255
255
255
255
255
255
255
255
255
255
255
255
255
255
255
255
255
255
255
255
255
255
255
255
255
255
254
253
140
4
69
59
69
77
76
80
83
49
53
81
89
91
106
112
107
114
108
112
109
37
41
92
127
131
134
134
131
120
98
79
36
33
54
86
104
105
103
103
76
87
102
112
112
109
111
114
109
114
113
112
117
84
67
126
111
110
114
117
117
118
98
68
105
123
118
132
134
126
139
131
143
137
74
117
136
138
151
142
149
148
147
151
140
61
148
135
151
47
107
153
151
90
93
146
129
50
2
5
7
3
34
95
34
55
110
104
22
30
108
129
105
52
21
98
109
115
118
115
116
111
111
126
121
82
73
111
121
113
81
66
90
108
104
104
112
100
50
84
104
102
93
97
115
75
65
74
88
91
23
79
83
64
46
52
40
40
80
104
84
82
56
7
1
4
0
7
47
108
116
111
120
116
104
82
4
14
205
252
255
253
250
255
255
255
255
255
255
255
255
255
255
255
255
255
255
255
255
255
255
255
255
255
255
255
255
255
255
255
255
255
255
255
255
255
255
255
255
255
255
255
255
255
255
255
255
255
255
255
255
255
255
255
255
255
255
255
255
255
255
255
255
255
255
255
255
255
255
255
255
255
255
255
255
255
255
255
255
255
255
255
255
255
255
255
255
255
255
255
255
255
255
255
255
255
255
255
255
255
255
255
255
255
255
255
255
255
255
255
255
255
255
255
255
255
255
255
255
255
255
255
255
255
255
255
255
255
255
255
255
255
255
255
255
255
255
255
255
255
255
255
255
255
255
255
255
255
246
254
248
146
23
8
58
76
57
102
108
126
109
77
125
134
142
145
123
80
32
2
39
122
208
255
245
242
251
252
253
252
255
255
255
255
255
253
252
254
255
255
255
255
255
255
255
255
255
255
255
255
255
255
255
255
255
255
255
255
255
255
255
255
255
255
255
255
255
255
255
255
255
255
255
255
255
255
255
255
255
255
255
255
255
255
255
255
255
255
255
255
255
255
255
255
255
255
255
255
255
255
255
255
255
255
255
255
255
255
255
255
255
255
255
254
253
148
4
55
64
62
64
66
77
82
50
53
81
88
87
94
97
109
106
99
102
62
37
92
131
126
134
140
140
136
132
121
111
110
68
33
40
69
93
102
104
66
79
100
114
117
114
112
113
111
119
118
113
113
81
67
127
122
121
124
124
123
124
109
83
95
122
121
129
133
127
136
132
143
136
83
105
135
141
147
143
145
146
149
148
145
85
131
147
144
91
51
165
146
118
82
153
127
55
7
13
18
11
21
63
69
88
114
82
26
50
96
95
100
79
16
89
124
119
109
123
118
115
111
113
117
102
79
68
115
92
72
87
112
108
100
114
111
98
69
69
99
101
102
101
90
67
73
82
94
95
29
79
77
56
52
59
39
74
77
110
87
81
53
6
2
7
0
6
55
109
113
106
114
113
104
81
5
15
205
252
255
255
252
255
255
255
255
255
255
255
255
255
255
255
255
255
255
255
255
255
255
255
255
255
255
255
255
255
255
255
255
255
255
255
255
255
255
255
255
255
255
255
255
255
255
255
255
255
255
255
255
255
255
255
255
255
255
255
255
255
255
255
255
255
255
255
255
255
255
255
255
255
255
255
255
255
255
255
255
255
255
255
255
255
255
255
255
255
255
255
255
255
255
255
255
255
255
255
255
255
255
255
255
255
255
255
255
255
255
255
255
255
255
255
255
255
255
255
255
255
255
255
255
255
255
255
255
255
255
255
255
255
255
255
255
255
255
255
255
255
255
255
255
255
255
255
255
255
250
250
253
239
156
45
18
48
48
93
102
130
96
84
113
140
139
131
101
98
92
57
32
6
85
199
254
255
254
241
254
252
249
254
255
250
249
255
255
255
255
255
255
255
255
255
255
255
255
255
255
255
255
255
255
255
255
255
255
255
255
255
255
255
255
255
255
255
255
255
255
255
255
255
255
255
255
255
255
255
255
255
255
255
255
255
255
255
255
255
255
255
255
255
255
255
255
255
255
255
255
255
255
255
255
255
255
255
255
255
255
255
255
255
255
254
253
181
26
44
82
67
60
57
74
76
47
48
75
83
81
87
95
105
105
104
100
23
56
124
133
122
132
138
136
131
129
128
125
118
113
99
67
34
35
79
120
66
78
95
108
111
108
112
117
102
117
123
121
123
85
62
116
118
117
120
120
116
118
111
92
80
120
124
125
131
126
131
135
142
134
100
88
133
143
140
144
142
145
151
141
145
118
90
154
149
132
4
131
152
145
73
136
150
75
10
3
7
7
9
31
65
86
94
82
85
108
94
58
78
114
76
70
116
110
109
115
110
118
120
110
110
119
96
55
85
75
75
103
124
111
101
114
107
97
89
53
86
102
107
96
64
64
84
90
99
97
30
79
97
66
59
43
13
83
68
107
91
82
52
7
4
8
0
9
73
113
112
104
111
113
107
80
6
16
205
251
255
255
254
255
255
255
255
255
255
255
255
255
255
255
255
255
255
255
255
255
255
255
255
255
255
255
255
255
255
255
255
255
255
255
255
255
255
255
255
255
255
255
255
255
255
255
255
255
255
255
255
255
255
255
255
255
255
255
255
255
255
255
255
255
255
255
255
255
255
255
255
255
255
255
255
255
255
255
255
255
255
255
255
255
255
255
255
255
255
255
255
255
255
255
255
255
255
255
255
255
255
255
255
255
255
255
255
255
255
255
255
255
255
255
255
255
255
255
255
255
255
255
255
255
255
255
255
255
255
255
255
255
255
255
255
255
255
255
255
255
255
255
255
255
255
255
255
255
254
250
248
254
248
118
12
10
31
76
85
106
79
111
116
132
117
113
105
133
151
136
102
43
4
69
153
237
254
245
246
246
253
255
255
253
251
255
255
253
255
255
255
255
255
255
255
255
255
255
255
255
255
255
255
255
255
255
255
255
255
255
255
255
255
255
255
255
255
255
255
255
255
255
255
255
255
255
255
255
255
255
255
255
255
255
255
255
255
255
255
255
255
255
255
255
255
255
255
255
255
255
255
255
255
255
255
255
255
255
255
255
255
255
255
254
253
222
64
30
93
80
66
53
64
74
51
48
69
77
72
80
97
99
108
111
79
21
82
135
119
122
129
132
128
123
121
119
117
114
112
105
91
67
48
53
70
76
82
95
103
102
100
110
124
119
124
117
109
115
86
67
123
115
114
120
120
114
117
116
103
69
113
126
123
129
127
126
135
141
131
116
78
125
143
134
143
140
144
150
134
142
143
55
145
156
140
28
70
158
155
66
53
82
39
4
1
4
9
14
29
43
73
94
109
128
106
51
19
35
99
126
50
82
109
122
104
111
112
117
113
111
126
114
74
40
71
98
107
110
110
106
104
103
99
99
54
70
103
94
78
62
74
93
92
98
93
24
82
103
81
69
32
13
72
76
96
91
84
57
11
4
6
0
21
91
119
115
110
114
116
109
77
5
17
206
250
255
255
254
253
255
255
255
255
255
255
255
255
255
255
255
255
255
255
255
255
255
255
255
255
255
255
255
255
255
255
255
255
255
255
255
255
255
255
255
255
255
255
255
255
255
255
255
255
255
255
255
255
255
255
255
255
255
255
255
255
255
255
255
255
255
255
255
255
255
255
255
255
255
255
255
255
255
255
255
255
255
255
255
255
255
255
255
255
255
255
255
255
255
255
255
255
255
255
255
255
255
255
255
255
255
255
255
255
255
255
255
255
255
255
255
255
255
255
255
255
255
255
255
255
255
255
255
255
255
255
255
255
255
255
255
255
255
255
255
255
255
255
255
255
255
255
255
255
253
255
246
241
254
212
97
2
9
60
86
79
65
122
119
125
110
100
122
145
149
149
122
90
43
7
14
117
221
254
254
246
255
255
255
255
255
255
254
249
255
255
255
255
255
255
255
255
255
255
255
255
255
255
255
255
255
255
255
255
255
255
255
255
255
255
255
255
255
255
255
255
255
255
255
255
255
255
255
255
255
255
255
255
255
255
255
255
255
255
255
255
255
255
255
255
255
255
255
255
255
255
255
255
255
255
255
255
255
255
255
255
255
255
255
254
253
243
98
12
83
93
76
55
50
72
56
53
70
76
65
69
91
92
111
102
40
42
103
138
126
122
126
127
126
125
124
120
113
112
92
75
77
90
86
58
33
41
52
70
86
83
75
80
92
99
108
109
112
128
100
68
108
114
113
120
121
114
115
117
109
65
102
126
124
126
127
123
132
138
131
126
79
113
138
131
142
139
141
148
132
142
150
50
131
156
139
89
36
131
157
102
32
42
37
39
33
11
1
1
10
27
89
122
114
93
44
15
16
9
31
101
76
58
116
121
112
120
103
109
121
114
113
106
86
21
71
114
112
97
100
106
102
101
104
101
71
60
99
78
63
78
88
97
87
92
84
12
86
77
80
79
42
48
70
104
85
88
87
65
19
3
2
0
35
101
120
116
116
115
116
110
70
2
19
209
250
255
255
253
252
255
255
255
255
255
255
255
255
255
255
255
255
255
255
255
255
255
255
255
255
255
255
255
255
255
255
255
255
255
255
255
255
255
255
255
255
255
255
255
255
255
255
255
255
255
255
255
255
255
255
255
255
255
255
255
255
255
255
255
255
255
255
255
255
255
255
255
255
255
255
255
255
255
255
255
255
255
255
255
255
255
255
255
255
255
255
255
255
255
255
255
255
255
255
255
255
255
255
255
255
255
255
255
255
255
255
255
255
255
255
255
255
255
255
255
255
255
255
255
255
255
255
255
255
255
255
255
255
255
255
255
255
255
255
255
255
255
255
255
255
255
255
255
255
247
255
254
243
252
255
200
77
3
34
81
64
63
101
106
122
107
80
125
142
143
149
114
116
126
83
31
23
101
202
249
254
255
247
244
255
255
255
253
255
255
255
255
255
255
255
255
255
255
255
255
255
255
255
255
255
255
255
255
255
255
255
255
255
255
255
255
255
255
255
255
255
255
255
255
255
255
255
255
255
255
255
255
255
255
255
255
255
255
255
255
255
255
255
255
255
255
255
255
255
255
255
255
255
255
255
255
255
255
255
255
255
255
255
255
254
253
249
141
7
66
103
86
69
53
56
45
45
67
84
72
69
89
84
106
91
22
69
116
121
111
111
116
120
120
120
122
117
110
106
95
77
66
70
84
93
94
12
21
47
75
84
72
62
64
64
74
82
95
124
102
65
99
120
117
122
125
119
121
126
121
72
89
122
128
123
126
122
127
135
130
130
92
100
128
131
140
137
138
144
136
144
155
76
111
156
140
126
37
60
143
151
113
129
116
102
86
56
21
9
11
26
79
103
79
57
50
64
84
33
6
36
106
60
108
99
116
108
107
120
123
96
72
77
96
44
67
104
116
98
91
99
104
102
105
101
92
58
78
65
63
92
99
96
83
90
77
5
88
76
80
77
37
59
65
115
81
85
87
68
22
3
1
3
46
106
118
117
118
112
111
106
65
2
24
216
253
253
253
253
253
255
255
255
255
255
255
255
255
255
255
255
255
255
255
255
255
255
255
255
255
255
255
255
255
255
255
255
255
255
255
255
255
255
255
255
255
255
255
255
255
255
255
255
255
255
255
255
255
255
255
255
255
255
255
255
255
255
255
255
255
255
255
255
255
255
255
255
255
255
255
255
255
255
255
255
255
255
255
255
255
255
255
255
255
255
255
255
255
255
255
255
255
255
255
255
255
255
255
255
255
255
255
255
255
255
255
255
255
255
255
255
255
255
255
255
255
255
255
255
255
255
255
255
255
255
255
255
255
255
255
255
255
255
255
255
255
255
255
255
255
255
255
255
255
255
249
255
254
249
254
252
200
50
9
22
37
73
93
92
108
93
80
125
136
133
139
129
170
174
175
127
41
17
62
140
234
255
253
250
255
255
251
254
255
255
255
255
255
255
255
255
255
255
255
255
255
255
255
255
255
255
255
255
255
255
255
255
255
255
255
255
255
255
255
255
255
255
255
255
255
255
255
255
255
255
255
255
255
255
255
255
255
255
255
255
255
255
255
255
255
255
255
255
255
255
255
255
255
255
255
255
255
255
255
255
255
255
255
255
254
253
251
192
30
51
106
89
84
65
56
38
28
53
82
76
67
87
80
91
71
16
63
115
98
92
103
110
113
108
103
101
99
97
116
91
60
50
69
100
114
114
73
49
50
81
103
101
90
86
86
83
65
59
82
70
54
98
109
102
106
112
111
119
128
128
83
77
118
132
122
126
123
120
132
130
128
109
88
117
133
138
139
137
139
140
144
144
110
84
149
148
136
76
23
84
140
149
111
91
71
61
39
10
13
12
23
32
57
69
73
93
111
115
84
39
15
66
69
69
100
110
102
113
111
95
76
65
77
102
80
65
80
104
103
97
98
96
98
97
99
100
60
43
64
77
93
98
93
83
93
76
4
87
98
79
74
29
48
77
100
77
84
83
64
20
3
1
4
49
110
118
117
120
108
106
107
64
3
30
225
255
252
251
254
255
255
255
255
255
255
255
255
255
255
255
255
255
255
255
255
255
255
255
255
255
255
255
255
255
255
255
255
255
255
255
255
255
255
255
255
255
255
255
255
255
255
255
255
255
255
255
255
255
255
255
255
255
255
255
255
255
255
255
255
255
255
255
255
255
255
255
255
255
255
255
255
255
255
255
255
255
255
255
255
255
255
255
255
255
255
255
255
255
255
255
255
255
255
255
255
255
255
255
255
255
255
255
255
255
255
255
255
255
255
255
255
255
255
255
255
255
255
255
255
255
255
255
255
255
255
255
255
255
255
255
255
255
255
255
255
255
255
255
255
255
255
255
255
255
254
253
253
254
250
247
255
254
161
72
2
12
50
87
86
97
74
99
118
122
107
94
119
163
178
188
164
100
65
33
35
128
225
249
255
255
251
253
255
253
255
255
255
255
255
255
255
255
255
255
255
255
255
255
255
255
255
255
255
255
255
255
255
255
255
255
255
255
255
255
255
255
255
255
255
255
255
255
255
255
255
255
255
255
255
255
255
255
255
255
255
255
255
255
255
255
255
255
255
255
255
255
255
255
255
255
255
255
255
255
255
255
255
255
255
254
253
250
225
50
40
100
80
86
71
75
47
19
39
72
68
59
76
85
78
42
6
30
107
97
104
106
114
115
102
87
81
82
83
88
79
63
55
66
91
104
105
132
77
38
63
95
107
106
106
106
109
97
82
87
53
12
45
60
51
55
64
68
82
98
102
92
70
115
135
120
126
123
117
130
130
126
121
81
110
136
136
142
136
135
142
140
130
130
61
130
145
145
128
38
13
53
75
94
105
117
109
67
14
1
12
5
5
44
96
97
87
81
68
110
103
34
18
73
31
131
105
120
111
72
49
76
104
103
99
102
66
63
87
102
111
104
84
96
87
97
97
62
12
68
90
87
92
91
85
97
76
9
87
100
69
78
43
56
109
86
73
83
79
58
16
3
2
5
48
116
121
120
121
106
106
110
69
4
35
231
255
253
251
255
255
255
255
255
255
255
255
255
255
255
255
255
255
255
255
255
255
255
255
255
255
255
255
255
255
255
255
255
255
255
255
255
255
255
255
255
255
255
255
255
255
255
255
255
255
255
255
255
255
255
255
255
255
255
255
255
255
255
255
255
255
255
255
255
255
255
255
255
255
255
255
255
255
255
255
255
255
255
255
255
255
255
255
255
255
255
255
255
255
255
255
255
255
255
255
255
255
255
255
255
255
255
255
255
255
255
255
255
255
255
255
255
255
255
255
255
255
255
255
255
255
255
255
255
255
255
255
255
255
255
255
255
255
255
255
255
255
255
255
255
255
255
255
255
255
242
254
254
244
253
255
245
246
253
185
55
16
14
64
81
100
49
102
96
116
115
90
128
136
165
177
153
125
160
127
22
7
159
221
255
255
248
255
255
245
255
255
255
255
255
255
255
255
255
255
255
255
255
255
255
255
255
255
255
255
255
255
255
255
255
255
255
255
255
255
255
255
255
255
255
255
255
255
255
255
255
255
255
255
255
255
255
255
255
255
255
255
255
255
255
255
255
255
255
255
255
255
255
255
255
255
255
255
255
255
255
255
255
255
255
254
254
251
236
107
13
78
92
80
74
66
69
48
28
34
35
33
45
65
56
26
3
9
65
115
93
107
102
103
97
87
85
73
49
59
56
40
36
56
78
94
109
102
125
89
35
58
102
105
98
91
101
101
107
122
109
75
57
112
107
98
96
94
76
57
57
61
38
76
70
74
73
72
72
89
84
97
108
72
94
118
122
133
124
133
142
143
148
130
89
104
159
141
130
113
76
128
138
147
143
152
99
35
8
1
13
4
3
21
52
82
86
42
8
65
111
114
14
58
85
45
128
99
57
74
92
96
104
94
102
103
96
48
81
99
98
95
105
100
92
67
49
52
50
63
99
100
91
97
83
100
81
2
92
97
74
59
31
105
96
94
67
83
84
49
2
6
3
2
56
118
129
120
116
113
116
105
53
0
78
252
255
246
255
252
255
255
255
255
255
255
255
255
255
255
255
255
255
255
255
255
255
255
255
255
255
255
255
255
255
255
255
255
255
255
255
255
255
255
255
255
255
255
255
255
255
255
255
255
255
255
255
255
255
255
255
255
255
255
255
255
255
255
255
255
255
255
255
255
255
255
255
255
255
255
255
255
255
255
255
255
255
255
255
255
255
255
255
255
255
255
255
255
255
255
255
255
255
255
255
255
255
255
255
255
255
255
255
255
255
255
255
255
255
255
255
255
255
255
255
255
255
255
255
255
255
255
255
255
255
255
255
255
255
255
255
255
255
255
255
255
255
255
255
255
255
255
255
255
255
255
255
255
255
255
254
253
252
254
253
205
104
9
2
37
69
40
75
99
111
98
85
105
122
143
158
121
145
175
151
97
3
56
217
255
243
248
252
252
255
255
255
255
255
255
255
255
255
255
255
255
255
255
255
255
255
255
255
255
255
255
255
255
255
255
255
255
255
255
255
255
255
255
255
255
255
255
255
255
255
255
255
255
255
255
255
255
255
255
255
255
255
255
255
255
255
255
255
255
255
255
255
255
255
255
255
255
255
255
255
255
255
255
255
255
254
254
247
254
169
3
72
98
84
72
72
77
63
41
37
44
52
57
55
43
11
1
2
38
90
97
99
96
102
98
82
74
62
43
53
50
31
26
47
70
90
110
106
114
119
70
22
60
100
95
108
106
105
98
104
122
100
46
116
116
109
107
112
103
92
90
74
51
67
80
89
91
90
84
73
62
69
63
40
22
43
61
69
58
59
62
69
95
110
93
107
117
98
91
105
139
132
141
150
110
74
56
31
6
6
4
6
3
5
29
77
102
65
5
23
91
114
44
29
92
51
95
62
68
91
94
96
106
103
99
108
96
63
64
94
98
101
100
104
68
44
65
88
67
56
83
96
92
98
84
99
80
2
91
87
70
52
53
106
110
93
75
86
84
51
4
3
0
1
51
106
123
117
111
111
120
107
51
2
93
252
255
249
255
253
255
255
255
255
255
255
255
255
255
255
255
255
255
255
255
255
255
255
255
255
255
255
255
255
255
255
255
255
255
255
255
255
255
255
255
255
255
255
255
255
255
255
255
255
255
255
255
255
255
255
255
255
255
255
255
255
255
255
255
255
255
255
255
255
255
255
255
255
255
255
255
255
255
255
255
255
255
255
255
255
255
255
255
255
255
255
255
255
255
255
255
255
255
255
255
255
255
255
255
255
255
255
255
255
255
255
255
255
255
255
255
255
255
255
255
255
255
255
255
255
255
255
255
255
255
255
255
255
255
255
255
255
255
255
255
255
255
255
255
255
255
255
255
255
255
255
255
255
255
255
254
253
253
252
245
251
223
116
9
3
17
40
62
75
90
83
71
87
97
110
126
99
123
156
140
103
31
10
174
249
252
255
255
250
255
255
255
255
255
255
255
255
255
255
255
255
255
255
255
255
255
255
255
255
255
255
255
255
255
255
255
255
255
255
255
255
255
255
255
255
255
255
255
255
255
255
255
255
255
255
255
255
255
255
255
255
255
255
255
255
255
255
255
255
255
255
255
255
255
255
255
255
255
255
255
255
255
255
255
255
254
254
245
254
229
13
32
92
100
77
72
76
75
58
44
55
68
67
58
47
10
1
5
13
61
98
95
91
91
89
82
78
64
38
38
34
16
10
29
54
80
108
125
102
119
122
58
22
63
103
101
100
114
106
91
114
107
42
106
117
115
110
118
121
116
114
108
87
75
110
122
126
125
114
128
123
131
111
107
65
81
117
111
113
119
110
88
71
50
28
39
79
92
115
111
123
76
81
48
78
102
129
80
9
3
4
4
4
0
4
55
104
89
41
1
56
108
79
15
99
63
47
55
86
95
97
101
103
106
97
107
95
82
48
82
100
103
92
75
61
64
91
99
69
54
76
93
94
97
86
101
80
1
88
77
67
50
80
110
118
88
80
88
79
45
5
2
1
0
47
98
122
118
109
110
121
105
39
6
113
252
255
253
255
254
254
255
255
255
255
255
255
255
255
255
255
255
255
255
255
255
255
255
255
255
255
255
255
255
255
255
255
255
255
255
255
255
255
255
255
255
255
255
255
255
255
255
255
255
255
255
255
255
255
255
255
255
255
255
255
255
255
255
255
255
255
255
255
255
255
255
255
255
255
255
255
255
255
255
255
255
255
255
255
255
255
255
255
255
255
255
255
255
255
255
255
255
255
255
255
255
255
255
255
255
255
255
255
255
255
255
255
255
255
255
255
255
255
255
255
255
255
255
255
255
255
255
255
255
255
255
255
255
255
255
255
255
255
255
255
255
255
255
255
255
255
255
255
255
255
255
255
255
255
255
254
253
253
254
248
249
254
237
170
71
2
1
16
42
78
80
66
80
89
102
106
78
95
122
106
69
9
0
156
237
251
255
252
251
255
255
255
255
255
255
255
255
255
255
255
255
255
255
255
255
255
255
255
255
255
255
255
255
255
255
255
255
255
255
255
255
255
255
255
255
255
255
255
255
255
255
255
255
255
255
255
255
255
255
255
255
255
255
255
255
255
255
255
255
255
255
255
255
255
255
255
255
255
255
255
255
255
255
255
255
254
254
252
245
252
125
3
58
108
97
73
67
74
71
54
55
70
70
71
64
22
7
8
2
34
75
96
92
84
73
75
90
72
29
17
17
5
0
9
32
67
104
122
110
104
127
125
57
29
80
103
97
105
105
97
107
100
62
85
110
118
110
113
118
118
117
117
102
70
111
123
129
129
117
121
125
122
119
129
85
84
131
122
130
140
141
136
132
126
116
47
106
125
145
114
54
66
94
119
115
110
118
87
34
13
10
2
6
6
2
23
72
94
88
12
18
95
101
26
90
83
21
80
102
87
97
110
95
98
94
101
95
93
47
67
102
95
78
48
76
99
99
91
78
66
61
92
96
94
87
104
82
3
79
78
64
61
97
114
111
86
80
89
66
34
2
4
1
1
42
97
124
122
110
109
120
98
24
0
134
252
255
255
255
255
254
255
255
255
255
255
255
255
255
255
255
255
255
255
255
255
255
255
255
255
255
255
255
255
255
255
255
255
255
255
255
255
255
255
255
255
255
255
255
255
255
255
255
255
255
255
255
255
255
255
255
255
255
255
255
255
255
255
255
255
255
255
255
255
255
255
255
255
255
255
255
255
255
255
255
255
255
255
255
255
255
255
255
255
255
255
255
255
255
255
255
255
255
255
255
255
255
255
255
255
255
255
255
255
255
255
255
255
255
255
255
255
255
255
255
255
255
255
255
255
255
255
255
255
255
255
255
255
255
255
255
255
255
255
255
255
255
255
255
255
255
255
255
255
255
255
255
255
255
255
254
254
254
248
254
255
252
254
254
210
124
7
9
5
21
19
19
60
91
94
88
61
79
104
88
49
2
3
158
242
251
254
249
254
255
255
255
255
255
255
255
255
255
255
255
255
255
255
255
255
255
255
255
255
255
255
255
255
255
255
255
255
255
255
255
255
255
255
255
255
255
255
255
255
255
255
255
255
255
255
255
255
255
255
255
255
255
255
255
255
255
255
255
255
255
255
255
255
255
255
255
255
255
255
255
255
255
255
255
255
254
254
254
240
253
220
55
10
77
112
92
68
70
77
59
51
63
71
72
69
26
2
3
1
12
29
84
97
93
65
52
67
57
15
1
6
2
1
0
14
52
96
102
122
109
101
128
116
57
30
101
105
99
93
107
117
106
91
63
103
122
114
110
113
114
118
113
104
67
99
113
122
123
116
119
126
111
126
128
102
79
111
141
141
133
125
125
130
134
140
96
109
142
145
131
27
74
138
135
80
88
121
116
65
4
2
4
6
10
4
3
36
83
117
47
8
84
110
65
63
100
44
80
106
90
96
105
91
96
93
95
99
96
66
52
93
75
63
64
87
96
87
90
102
81
38
87
97
92
89
106
81
4
67
77
62
78
102
117
96
88
84
91
53
20
0
6
2
1
36
96
125
124
113
111
119
92
14
0
158
252
255
254
255
255
255
255
255
255
255
255
255
255
255
255
255
255
255
255
255
255
255
255
255
255
255
255
255
255
255
255
255
255
255
255
255
255
255
255
255
255
255
255
255
255
255
255
255
255
255
255
255
255
255
255
255
255
255
255
255
255
255
255
255
255
255
255
255
255
255
255
255
255
255
255
255
255
255
255
255
255
255
255
255
255
255
255
255
255
255
255
255
255
255
255
255
255
255
255
255
255
255
255
255
255
255
255
255
255
255
255
255
255
255
255
255
255
255
255
255
255
255
255
255
255
255
255
255
255
255
255
255
255
255
255
255
255
255
255
255
255
255
255
255
255
255
255
255
255
255
255
255
255
255
255
255
255
254
252
253
255
254
245
249
254
251
194
127
36
3
1
2
27
37
57
52
36
46
59
38
7
3
18
171
254
255
255
253
255
246
255
255
255
255
255
255
255
255
255
255
255
255
255
255
255
255
255
255
255
255
255
255
255
255
255
255
255
255
255
255
255
255
255
255
255
255
255
255
255
255
255
255
255
255
255
255
255
255
255
255
255
255
255
255
255
255
255
255
255
255
255
255
255
255
255
255
255
255
255
255
255
255
255
255
255
254
254
254
252
255
237
160
11
26
89
109
83
73
74
59
47
56
72
72
65
24
1
2
1
7
1
55
87
106
73
31
21
20
2
0
4
3
1
0
5
35
76
111
105
115
112
107
123
102
35
44
97
114
100
104
112
106
103
47
93
120
117
110
109
112
119
117
110
80
90
111
125
125
123
123
126
110
129
125
117
82
84
126
131
125
120
125
124
120
127
95
67
139
140
138
38
36
132
99
29
63
130
132
65
4
25
12
4
6
4
1
16
64
115
69
10
71
112
93
42
102
87
51
92
103
94
90
94
100
91
95
99
96
85
48
67
58
59
92
88
87
85
91
103
87
49
71
93
89
89
104
75
5
61
73
65
93
112
113
88
91
89
87
38
9
0
5
2
3
36
97
121
121
114
113
115
86
10
10
190
253
255
252
254
255
255
255
255
255
255
255
255
255
255
255
255
255
255
255
255
255
255
255
255
255
255
255
255
255
255
255
255
255
255
255
255
255
255
255
255
255
255
255
255
255
255
255
255
255
255
255
255
255
255
255
255
255
255
255
255
255
255
255
255
255
255
255
255
255
255
255
255
255
255
255
255
255
255
255
255
255
255
255
255
255
255
255
255
255
255
255
255
255
255
255
255
255
255
255
255
255
255
255
255
255
255
255
255
255
255
255
255
255
255
255
255
255
255
255
255
255
255
255
255
255
255
255
255
255
255
255
255
255
255
255
255
255
255
255
255
255
255
255
255
255
255
255
255
255
255
255
255
255
255
255
255
255
255
254
244
245
255
255
250
251
250
251
251
216
165
89
20
3
2
2
2
3
5
5
3
1
20
107
218
255
255
248
251
255
247
255
255
255
255
255
255
255
255
255
255
255
255
255
255
255
255
255
255
255
255
255
255
255
255
255
255
255
255
255
255
255
255
255
255
255
255
255
255
255
255
255
255
255
255
255
255
255
255
255
255
255
255
255
255
255
255
255
255
255
255
255
255
255
255
255
255
255
255
255
255
255
255
255
255
255
254
254
250
254
252
235
234
111
23
41
89
90
80
70
60
50
50
62
80
61
25
11
4
2
13
1
26
58
96
92
41
3
0
2
0
3
1
2
5
2
16
45
108
91
107
123
110
112
115
93
13
58
101
106
95
99
105
100
43
83
112
116
112
108
110
119
118
107
89
71
103
122
117
116
120
114
114
120
118
122
101
65
127
133
124
119
127
126
128
144
123
73
104
134
125
57
16
112
114
36
37
120
144
88
10
5
7
4
5
5
2
8
44
93
76
13
48
106
100
48
87
104
46
69
101
95
86
98
97
91
95
92
91
92
54
36
59
74
96
90
93
91
82
91
94
75
48
84
89
91
98
64
5
63
71
80
106
133
100
90
86
89
70
22
2
1
4
2
9
50
102
120
116
116
113
107
75
1
43
227
255
253
252
255
255
251
255
255
255
255
255
255
255
255
255
255
255
255
255
255
255
255
255
255
255
255
255
255
255
255
255
255
255
255
255
255
255
255
255
255
255
255
255
255
255
255
255
255
255
255
255
255
255
255
255
255
255
255
255
255
255
255
255
255
255
255
255
255
255
255
255
255
255
255
255
255
255
255
255
255
255
255
255
255
255
255
255
255
255
255
255
255
255
255
255
255
255
255
255
255
255
255
255
255
255
255
255
255
255
255
255
255
255
255
255
255
255
255
255
255
255
255
255
255
255
255
255
255
255
255
255
255
255
255
255
255
255
255
255
255
255
255
255
255
255
255
255
255
255
255
255
255
255
255
255
255
255
255
246
253
254
254
249
248
253
247
253
254
240
246
236
180
101
22
2
1
1
2
6
15
50
108
216
255
255
250
246
246
255
255
255
255
255
255
255
255
255
255
255
255
255
255
255
255
255
255
255
255
255
255
255
255
255
255
255
255
255
255
255
255
255
255
255
255
255
255
255
255
255
255
255
255
255
255
255
255
255
255
255
255
255
255
255
255
255
255
255
255
255
255
255
255
255
255
255
255
255
255
255
255
255
255
255
255
255
254
254
252
254
250
251
254
231
64
9
53
85
87
69
63
55
44
49
87
57
25
20
6
3
16
1
12
26
74
106
68
10
1
8
5
0
0
1
7
0
1
18
70
103
103
95
117
122
111
121
73
22
50
85
88
101
114
98
49
83
109
117
116
112
111
119
129
113
105
66
103
125
115
113
128
113
130
118
120
128
124
58
102
120
124
125
132
122
116
131
135
90
47
141
131
84
16
58
119
58
14
80
129
106
71
26
2
4
12
8
0
5
30
76
81
33
26
99
104
68
71
96
71
52
85
97
93
98
88
92
94
81
88
90
62
16
72
92
96
94
94
88
77
96
105
83
31
78
88
91
92
55
4
67
72
96
113
151
88
93
76
85
52
7
0
1
3
4
20
66
108
121
116
117
112
99
63
0
72
252
255
249
252
255
255
248
255
255
255
255
255
255
255
255
255
255
255
255
255
255
255
255
255
255
255
255
255
255
255
255
255
255
255
255
255
255
255
255
255
255
255
255
255
255
255
255
255
255
255
255
255
255
255
255
255
255
255
255
255
255
255
255
255
255
255
255
255
255
255
255
255
255
255
255
255
255
255
255
255
255
255
255
255
255
255
255
255
255
255
255
255
255
255
255
255
255
255
255
255
255
255
255
255
255
255
255
255
255
255
255
255
255
255
255
255
255
255
255
255
255
255
255
255
255
255
255
255
255
255
255
255
255
255
255
255
255
255
255
255
255
255
255
255
255
255
255
255
255
255
255
254
255
255
255
255
255
255
255
254
251
249
254
251
250
254
254
246
254
252
251
251
252
254
243
233
201
174
159
163
174
206
250
254
255
249
255
255
251
255
255
255
255
255
255
255
255
255
255
255
255
255
255
255
255
255
255
255
255
255
255
255
255
255
255
255
255
255
255
255
255
255
255
255
255
255
255
255
255
255
255
255
255
255
255
255
255
255
255
255
255
255
255
255
255
255
255
255
255
255
255
255
255
255
255
255
255
255
255
255
255
255
255
255
255
255
255
255
255
249
255
255
240
255
196
57
1
51
90
87
74
59
43
35
70
66
29
4
10
3
2
4
7
4
35
91
100
53
10
3
1
1
1
1
2
2
1
1
59
84
104
108
108
113
112
106
125
53
22
44
44
39
66
85
79
50
105
110
133
111
116
110
118
112
115
95
71
115
119
125
117
119
118
118
119
119
109
96
66
121
119
124
135
120
118
115
130
141
63
96
134
122
2
35
112
117
48
14
96
145
95
42
2
2
6
4
6
5
7
72
80
53
29
97
98
77
74
96
82
56
76
92
101
84
95
94
100
79
61
51
43
42
58
81
88
90
93
93
90
89
94
101
64
50
92
93
67
51
36
58
87
115
141
123
87
81
89
84
24
7
2
0
6
1
29
82
124
111
116
114
114
99
41
4
117
239
252
250
255
244
255
253
255
255
255
255
255
255
255
255
255
255
255
255
255
255
255
255
255
255
255
255
255
255
255
255
255
255
255
255
255
255
255
255
255
255
255
255
255
255
255
255
255
255
255
255
255
255
255
255
255
255
255
255
255
255
255
255
255
255
255
255
255
255
255
255
255
255
255
255
255
255
255
255
255
255
255
255
255
255
255
255
255
255
255
255
255
255
255
255
255
255
255
255
255
255
255
255
255
255
255
255
255
255
255
255
255
255
255
255
255
255
255
255
255
255
255
255
255
255
255
255
255
255
255
255
255
255
255
255
255
255
255
255
255
255
255
255
255
255
255
255
255
255
255
255
255
255
255
255
255
255
255
255
255
255
255
255
255
255
255
255
251
251
251
251
251
251
251
251
255
255
255
255
255
255
255
255
255
255
255
255
255
255
255
255
255
255
255
255
255
255
255
255
255
255
255
255
255
255
255
255
255
255
255
255
255
255
255
255
255
255
255
255
255
255
255
255
255
255
255
255
255
255
255
255
255
255
255
255
255
255
255
255
255
255
255
255
255
255
255
255
255
255
255
255
255
255
255
255
255
255
255
255
255
255
255
255
255
255
255
255
255
255
246
255
255
249
255
243
166
54
16
52
102
88
73
56
15
56
54
26
3
6
11
3
6
9
2
12
46
53
25
4
5
6
4
1
1
3
3
2
0
36
70
100
108
107
110
113
112
123
112
55
32
67
70
45
37
72
34
71
84
96
86
92
91
107
117
121
107
81
113
110
98
116
119
119
119
121
123
117
109
66
111
122
122
129
128
129
126
133
118
101
57
124
102
55
15
75
122
84
14
51
135
129
64
18
7
5
1
6
5
4
65
79
49
20
90
97
82
78
93
89
66
64
87
91
90
86
91
67
63
65
70
65
57
62
74
90
91
92
93
93
92
91
93
87
45
79
85
50
28
8
79
112
120
138
113
62
70
97
85
55
55
46
30
9
1
38
103
113
108
118
119
119
92
28
3
142
246
251
247
255
249
255
251
255
255
255
255
255
255
255
255
255
255
255
255
255
255
255
255
255
255
255
255
255
255
255
255
255
255
255
255
255
255
255
255
255
255
255
255
255
255
255
255
255
255
255
255
255
255
255
255
255
255
255
255
255
255
255
255
255
255
255
255
255
255
255
255
255
255
255
255
255
255
255
255
255
255
255
255
255
255
255
255
255
255
255
255
255
255
255
255
255
255
255
255
255
255
255
255
255
255
255
255
255
255
255
255
255
255
255
255
255
255
255
255
255
255
255
255
255
255
255
255
255
255
255
255
255
255
255
255
255
255
255
255
255
255
255
255
255
255
255
255
255
255
255
255
255
255
255
255
255
255
255
255
255
255
255
255
255
255
255
255
252
252
252
252
252
252
252
252
255
255
255
255
255
255
255
255
255
255
255
255
255
255
255
255
255
255
255
255
255
255
255
255
255
255
255
255
255
255
255
255
255
255
255
255
255
255
255
255
255
255
255
255
255
255
255
255
255
255
255
255
255
255
255
255
255
255
255
255
255
255
255
255
255
255
255
255
255
255
255
255
255
255
255
255
255
255
255
255
255
255
255
255
255
255
255
255
255
255
255
255
255
255
250
254
255
250
255
255
246
160
35
2
73
110
104
77
38
30
34
25
2
0
4
8
3
6
1
2
9
11
3
0
7
7
5
2
1
2
4
4
3
13
51
90
104
104
106
110
113
97
122
84
30
46
91
91
75
50
10
28
51
52
51
54
57
32
57
57
60
54
93
121
118
117
115
110
106
109
120
128
133
77
99
121
114
112
122
118
117
130
129
130
89
94
125
107
8
28
112
132
44
6
86
135
92
45
22
6
1
8
6
6
62
77
46
10
77
90
88
84
92
99
78
49
79
89
100
73
76
51
60
76
89
87
74
65
65
93
91
91
92
93
92
87
83
83
36
49
56
41
16
17
115
131
133
137
89
24
39
88
91
83
92
78
42
7
2
49
114
112
111
117
120
122
84
17
5
175
254
250
246
255
255
255
250
255
255
255
255
255
255
255
255
255
255
255
255
255
255
255
255
255
255
255
255
255
255
255
255
255
255
255
255
255
255
255
255
255
255
255
255
255
255
255
255
255
255
255
255
255
255
255
255
255
255
255
255
255
255
255
255
255
255
255
255
255
255
255
255
255
255
255
255
255
255
255
255
255
255
255
255
255
255
255
255
255
255
255
255
255
255
255
255
255
255
255
255
255
255
255
255
255
255
255
255
255
255
255
255
255
255
255
255
255
255
255
255
255
255
255
255
255
255
255
255
255
255
255
255
255
255
255
255
255
255
255
255
255
255
255
255
255
255
255
255
255
255
255
255
255
255
255
255
255
255
255
255
255
255
255
255
255
255
255
255
254
254
254
254
254
254
254
254
255
255
255
255
255
255
255
255
255
255
255
255
255
255
255
255
255
255
255
255
255
255
255
255
255
255
255
255
255
255
255
255
255
255
255
255
255
255
255
255
255
255
255
255
255
255
255
255
255
255
255
255
255
255
255
255
255
255
255
255
255
255
255
255
255
255
255
255
255
255
255
255
255
255
255
255
255
255
255
255
255
255
255
255
255
255
255
255
255
255
255
255
255
253
255
255
255
252
246
247
255
237
149
30
2
75
125
109
89
29
28
28
14
1
0
2
3
1
0
1
3
3
1
1
4
1
3
2
2
1
2
5
8
3
32
68
89
99
105
106
104
109
110
117
85
27
56
106
103
97
58
61
103
94
98
93
99
103
108
76
55
26
19
49
49
58
58
55
51
50
54
62
69
63
53
78
77
75
85
72
78
66
83
82
85
42
112
133
47
6
64
133
97
12
26
97
106
73
43
18
2
8
9
4
57
76
49
8
65
79
85
85
90
100
81
49
65
88
94
61
56
71
78
87
96
95
83
68
59
91
94
93
91
88
86
81
77
65
43
26
35
66
23
57
134
138
148
125
56
1
5
53
88
92
95
67
25
4
16
59
108
118
116
115
115
119
70
13
34
199
255
253
248
255
255
255
251
255
255
255
255
255
255
255
255
255
255
255
255
255
255
255
255
255
255
255
255
255
255
255
255
255
255
255
255
255
255
255
255
255
255
255
255
255
255
255
255
255
255
255
255
255
255
255
255
255
255
255
255
255
255
255
255
255
255
255
255
255
255
255
255
255
255
255
255
255
255
255
255
255
255
255
255
255
255
255
255
255
255
255
255
255
255
255
255
255
255
255
255
255
255
255
255
255
255
255
255
255
255
255
255
255
255
255
255
255
255
255
255
255
255
255
255
255
255
255
255
255
255
255
255
255
255
255
255
255
255
255
255
255
255
255
255
255
255
255
255
255
255
255
255
255
255
255
255
255
255
255
255
255
255
255
255
255
255
255
255
255
255
255
255
255
255
255
255
255
255
255
255
255
255
255
255
255
255
255
255
255
255
255
255
255
255
255
255
255
255
255
255
255
255
255
255
255
255
255
255
255
255
255
255
255
255
255
255
255
255
255
255
255
255
255
255
255
255
255
255
255
255
255
255
255
255
255
255
255
255
255
255
255
255
255
255
255
255
255
255
255
255
255
255
255
255
255
255
255
255
255
255
255
255
255
255
255
255
255
255
255
248
255
255
252
255
255
249
254
249
255
147
12
5
75
113
123
77
48
27
14
1
0
2
3
1
2
5
4
3
3
2
2
1
2
6
6
2
0
2
6
0
12
36
61
87
102
104
98
118
96
117
119
57
22
60
84
99
71
56
99
95
99
93
104
100
107
94
96
80
51
79
97
94
100
107
108
102
94
87
86
67
33
48
67
79
83
68
80
77
62
74
49
40
50
118
111
34
8
73
130
71
20
46
83
91
66
41
15
10
9
1
51
76
57
12
58
67
77
81
84
92
86
72
56
74
64
62
66
97
95
95
95
95
88
69
52
86
92
95
89
82
80
78
75
69
64
15
57
105
19
61
129
149
157
94
19
4
0
10
59
90
86
52
9
0
21
58
92
107
113
109
109
114
54
7
66
212
252
255
253
255
255
255
255
255
255
255
255
255
255
255
255
255
255
255
255
255
255
255
255
255
255
255
255
255
255
255
255
255
255
255
255
255
255
255
255
255
255
255
255
255
255
255
255
255
255
255
255
255
255
255
255
255
255
255
255
255
255
255
255
255
255
255
255
255
255
255
255
255
255
255
255
255
255
255
255
255
255
255
255
255
255
255
255
255
255
255
255
255
255
255
255
255
255
255
255
255
255
255
255
255
255
255
255
255
255
255
255
255
255
255
255
255
255
255
255
255
255
255
255
255
255
255
255
255
255
255
255
255
255
255
255
255
255
255
255
255
255
255
255
255
255
255
255
255
255
255
255
255
255
255
255
255
255
255
255
255
255
255
255
255
255
255
255
255
255
255
255
255
255
255
255
255
255
255
255
255
255
255
255
255
255
255
255
255
255
255
255
255
255
255
255
255
255
255
255
255
255
255
255
255
255
255
255
255
255
255
255
255
255
255
255
255
255
255
255
255
255
255
255
255
255
255
255
255
255
255
255
255
255
255
255
255
255
255
255
255
255
255
255
255
255
255
255
255
255
255
255
255
255
255
255
255
255
255
255
255
255
255
255
255
255
255
255
255
254
255
255
249
255
255
252
249
254
255
238
145
24
2
56
119
126
81
29
2
2
5
2
1
0
2
3
1
1
0
2
1
2
4
9
13
13
9
4
0
0
0
8
32
62
86
97
97
104
98
95
115
113
47
27
80
86
76
45
76
85
88
86
100
97
101
104
108
105
70
84
109
111
112
114
117
114
110
111
115
111
72
66
94
119
116
104
115
141
118
121
97
85
45
89
132
99
13
24
107
119
54
24
39
81
72
63
41
23
7
1
46
73
63
19
59
61
72
74
72
85
91
93
55
53
43
74
93
94
94
91
89
91
88
70
50
77
89
93
87
79
77
75
71
71
61
21
82
129
8
24
111
155
135
50
0
18
8
2
25
82
77
43
2
1
10
42
73
85
101
99
102
109
39
0
94
225
248
255
255
255
253
252
255
255
255
255
255
255
255
255
255
255
255
255
255
255
255
255
255
255
255
255
255
255
255
255
255
255
255
255
255
255
255
255
255
255
255
255
255
255
255
255
255
255
255
255
255
255
255
255
255
255
255
255
255
255
255
255
255
255
255
255
255
255
255
255
255
255
255
255
255
255
255
255
255
255
255
255
255
255
255
255
255
255
255
255
255
255
255
255
255
255
255
255
255
255
255
255
255
255
255
255
255
255
255
255
255
255
255
255
255
255
255
255
255
255
255
255
255
255
255
255
255
255
255
255
255
255
255
255
255
255
255
255
255
255
255
255
255
255
255
255
255
255
255
255
255
255
255
255
255
255
255
255
255
255
255
255
255
255
255
255
255
255
255
255
255
255
255
255
255
255
255
255
255
255
255
255
255
255
255
255
255
255
255
255
255
255
255
255
255
255
255
255
255
255
255
255
255
255
255
255
255
255
255
255
255
255
255
255
255
255
255
255
255
255
255
255
255
255
255
255
255
255
255
255
255
255
255
255
255
255
255
255
255
255
255
255
255
255
255
255
255
255
255
255
255
255
255
255
255
255
255
255
255
255
255
255
255
255
255
255
255
255
255
255
254
254
252
249
248
249
254
238
250
245
141
23
13
70
121
112
62
9
1
5
1
0
4
1
0
0
0
0
0
2
6
2
6
19
32
30
16
0
1
1
0
9
28
54
80
97
108
118
104
104
119
87
40
47
78
89
49
65
95
85
79
98
85
85
97
85
98
75
72
92
110
104
100
102
103
107
116
127
127
104
72
90
123
119
114
118
133
122
117
137
116
93
72
110
119
72
28
49
98
95
46
25
48
56
70
63
48
21
6
47
69
66
24
62
62
73
69
57
70
74
73
48
33
48
77
86
71
77
77
75
78
82
71
55
67
81
89
87
83
81
73
63
61
73
59
84
128
8
1
81
131
81
17
1
13
8
1
16
77
65
29
1
2
12
33
57
68
91
87
89
97
23
0
124
241
247
255
255
254
254
251
255
255
255
255
255
255
255
255
255
255
255
255
255
255
255
255
255
255
255
255
255
255
255
255
255
255
255
255
255
255
255
255
255
255
255
255
255
255
255
255
255
255
255
255
255
255
255
255
255
255
255
255
255
255
255
255
255
255
255
255
255
255
255
255
255
255
255
255
255
255
255
255
255
255
255
255
255
255
255
255
255
255
255
255
255
255
255
255
255
255
255
255
255
255
255
255
255
255
255
255
255
255
255
255
255
255
255
255
255
255
255
255
255
255
255
255
255
255
255
255
255
255
255
255
255
255
255
255
255
255
255
255
255
255
255
255
255
255
255
255
255
255
255
255
255
255
255
255
255
255
255
255
255
255
255
255
255
255
255
255
255
254
254
254
254
254
254
254
254
255
255
255
255
255
255
255
255
255
255
255
255
255
255
255
255
255
255
255
255
255
255
255
255
255
255
255
255
255
255
255
255
255
255
255
255
255
255
255
255
255
255
255
255
255
255
255
255
255
255
255
255
255
255
255
255
255
255
255
255
255
255
255
255
255
255
255
255
255
255
255
255
255
255
255
255
255
255
255
255
255
255
255
255
255
255
255
255
255
255
255
255
255
253
244
254
255
255
245
251
255
250
253
240
239
240
142
25
6
93
136
109
34
5
3
2
9
7
2
0
3
5
2
2
2
5
1
1
21
47
52
30
6
2
2
0
1
4
27
64
94
90
100
113
98
89
114
97
22
62
91
52
60
101
82
69
85
93
96
118
94
110
94
65
66
111
107
108
113
112
107
103
106
116
113
63
71
109
110
112
112
105
95
94
115
115
106
68
58
90
123
58
12
54
113
89
49
15
37
66
76
67
40
19
54
65
67
26
65
67
77
65
45
53
45
30
34
21
58
64
52
53
64
65
60
63
72
71
62
62
75
84
86
87
86
72
56
60
109
116
74
120
33
9
51
96
33
5
12
1
0
19
30
81
56
14
1
18
34
42
53
67
88
78
75
85
13
4
152
254
248
254
253
253
255
250
255
255
255
255
255
255
255
255
255
255
255
255
255
255
255
255
255
255
255
255
255
255
255
255
255
255
255
255
255
255
255
255
255
255
255
255
255
255
255
255
255
255
255
255
255
255
255
255
255
255
255
255
255
255
255
255
255
255
255
255
255
255
255
255
255
255
255
255
255
255
255
255
255
255
255
255
255
255
255
255
255
255
255
255
255
255
255
255
255
255
255
255
255
255
255
255
255
255
255
255
255
255
255
255
255
255
255
255
255
255
255
255
255
255
255
255
255
255
255
255
255
255
255
255
255
255
255
255
255
255
255
255
255
255
255
255
255
255
255
255
255
255
255
255
255
255
255
255
255
255
255
255
255
255
255
255
255
255
255
255
255
254
254
254
254
254
254
254
254
255
255
255
255
255
255
255
255
255
255
255
255
255
255
255
255
255
255
255
255
255
255
255
255
255
255
255
255
255
255
255
255
255
255
255
255
255
255
255
255
255
255
255
255
255
255
255
255
255
255
255
255
255
255
255
255
255
255
255
255
255
255
255
255
255
255
255
255
255
255
255
255
255
255
255
255
255
255
255
255
255
255
255
255
255
255
255
255
255
255
255
255
255
255
255
255
255
255
255
255
255
255
255
255
255
248
250
178
52
11
92
123
88
16
5
1
16
5
8
2
1
1
1
4
1
1
7
5
1
4
40
60
58
5
1
0
7
6
2
18
44
84
95
99
99
104
111
96
74
15
49
88
51
65
85
91
90
83
88
90
90
92
90
79
66
84
100
109
103
101
104
105
99
105
108
107
39
95
128
88
109
106
106
108
110
109
101
87
76
82
107
107
68
34
45
78
105
70
26
20
62
81
56
37
47
48
66
81
77
65
55
43
30
38
32
59
69
42
45
68
59
61
63
65
63
63
66
68
68
43
58
83
93
78
62
73
95
135
129
147
50
116
65
11
69
67
11
0
6
2
0
21
59
96
46
5
13
43
46
45
61
83
91
90
75
60
4
15
168
253
253
253
254
254
255
255
255
255
255
255
255
255
255
255
255
255
255
255
255
255
255
255
255
255
255
255
255
255
255
255
255
255
255
255
255
255
255
255
255
255
255
255
255
255
255
255
255
254
254
253
253
254
255
255
255
252
252
252
252
252
252
252
251
253
254
255
255
255
254
253
251
255
255
255
255
255
255
255
255
255
255
255
255
255
255
255
255
255
255
255
255
255
255
255
255
255
255
255
255
255
255
255
255
255
255
255
255
255
255
255
255
255
255
255
255
255
255
255
255
255
255
255
255
255
255
255
255
255
255
255
255
255
255
255
255
255
255
255
255
255
255
255
255
255
255
255
255
255
255
255
255
255
255
255
255
255
255
255
255
255
255
255
255
255
255
255
255
255
255
255
255
255
255
255
255
255
255
255
255
255
255
255
255
255
255
255
255
255
255
255
255
255
255
255
255
255
255
255
255
255
255
255
255
255
255
255
255
255
255
255
255
255
255
255
255
255
255
255
255
255
255
255
255
255
255
255
255
255
255
255
255
255
255
255
255
255
255
255
255
255
255
255
255
255
255
255
255
255
255
255
255
255
255
255
255
255
255
255
255
255
255
255
255
255
255
255
255
255
255
255
255
255
255
255
255
255
255
247
254
255
252
255
237
168
49
6
59
97
31
8
24
4
0
13
4
4
3
1
8
1
1
2
2
1
4
19
40
56
50
16
0
3
7
1
4
22
62
82
98
100
99
102
102
99
56
31
41
52
63
80
71
81
79
82
85
85
88
87
79
67
76
93
105
102
101
104
105
100
100
106
104
65
71
112
98
103
101
102
104
108
109
103
92
84
60
85
100
88
68
63
73
84
87
70
48
40
51
62
49
26
60
65
64
53
45
47
47
45
60
47
61
64
39
44
65
61
63
64
64
63
64
66
67
68
46
66
85
80
65
69
99
131
132
137
126
106
68
74
3
49
36
3
1
15
6
1
37
82
117
83
36
20
35
45
50
58
84
88
88
78
61
3
25
180
253
253
253
254
254
255
255
255
255
255
255
255
255
255
255
255
255
255
255
255
255
255
255
255
255
255
255
255
255
255
255
255
255
255
255
255
255
255
255
255
255
255
255
255
255
255
255
255
255
255
255
254
253
251
249
248
255
255
255
255
255
255
255
255
254
255
255
255
255
255
255
255
255
255
255
255
255
255
255
255
255
255
255
255
255
255
255
255
255
255
255
255
255
255
255
255
255
255
255
255
255
255
255
255
255
255
255
255
255
255
255
255
255
255
255
255
255
255
255
255
255
255
255
255
255
255
255
255
255
255
255
255
255
255
255
255
255
255
255
255
255
255
255
255
255
255
255
255
255
255
255
255
255
255
255
255
255
255
255
255
255
255
255
255
255
255
255
255
255
255
255
255
255
255
255
255
255
255
255
255
255
255
255
255
255
255
255
255
255
255
255
255
255
255
255
255
255
255
255
255
255
255
255
255
255
255
255
255
255
255
255
255
255
255
255
255
255
255
255
255
255
255
255
255
255
255
255
255
255
255
255
255
255
255
255
255
255
255
255
255
255
255
255
255
255
255
255
255
255
255
255
255
255
255
255
255
255
255
255
255
255
255
255
255
255
255
255
255
255
255
255
255
255
255
255
255
255
255
246
253
255
247
254
255
250
176
23
15
84
46
2
17
8
1
1
1
0
0
1
14
6
3
0
1
8
2
1
18
49
50
22
5
13
12
1
0
3
28
57
89
102
97
93
98
107
108
45
15
48
51
79
70
74
77
79
81
83
86
86
82
75
65
81
94
97
96
100
101
99
95
104
100
95
52
84
104
99
96
96
99
103
106
104
98
92
55
66
86
104
103
89
77
75
90
93
76
54
54
70
63
37
51
50
45
39
40
51
63
72
75
59
63
61
42
44
60
60
66
65
63
64
65
67
67
67
45
65
80
77
78
94
119
136
130
134
120
136
53
56
0
21
10
0
2
14
2
8
60
112
132
118
76
39
39
53
56
55
81
81
87
90
65
3
36
189
253
253
253
254
254
255
255
255
255
255
255
255
255
255
255
255
255
255
255
255
255
255
255
255
255
255
255
255
255
255
255
255
255
255
255
255
255
255
255
255
255
255
255
255
255
255
255
255
254
255
255
255
255
255
255
254
252
251
250
250
250
251
252
253
252
252
253
254
254
253
252
251
255
255
255
255
255
255
255
255
255
255
255
255
255
255
255
255
255
255
255
255
255
255
255
255
255
255
255
255
255
255
255
255
255
255
255
255
255
255
255
255
255
255
255
255
255
255
255
255
255
255
255
255
255
255
255
255
255
255
255
255
255
255
255
255
255
255
255
255
255
255
255
255
255
255
255
255
255
255
255
255
255
255
255
255
255
255
255
255
255
255
255
255
255
255
255
255
255
255
255
255
255
255
255
255
255
255
255
255
255
255
255
255
255
255
255
255
255
255
255
255
255
255
255
255
255
255
255
255
255
255
255
255
255
255
255
255
255
255
255
255
255
255
255
255
255
255
255
255
255
255
255
255
255
255
255
255
255
255
255
255
255
255
255
255
255
255
255
255
255
255
255
255
255
255
255
255
255
255
255
255
255
255
255
255
255
255
255
255
255
255
255
255
255
255
255
255
255
255
255
255
255
255
255
255
255
255
251
255
255
245
243
253
255
239
99
2
62
81
28
12
54
37
33
14
14
8
1
6
7
4
0
1
7
1
1
6
35
43
24
7
3
4
2
0
1
2
28
65
94
99
90
87
91
117
75
44
35
25
65
85
77
76
76
76
79
82
83
81
78
57
69
82
88
90
93
94
94
91
102
95
106
60
53
93
100
92
93
95
98
102
102
99
96
74
62
67
93
108
100
86
84
94
87
88
90
79
57
46
44
27
33
42
50
55
60
69
77
68
63
66
66
51
45
52
60
67
65
62
65
67
66
66
68
66
61
63
80
105
124
128
126
131
125
136
137
95
20
0
3
10
1
2
2
0
25
86
134
134
130
98
64
60
65
61
56
80
80
93
106
69
2
51
196
253
253
253
254
254
255
255
255
255
255
255
255
255
255
255
255
255
255
255
255
255
255
255
255
255
255
255
255
255
255
255
255
255
255
255
255
255
255
255
255
255
255
255
255
255
255
255
255
254
255
255
255
255
255
255
255
255
255
255
255
255
255
255
255
255
255
255
255
255
255
255
255
255
255
255
255
255
255
255
255
255
255
255
255
255
255
255
255
255
255
255
255
255
255
255
255
255
255
255
255
255
255
255
255
255
255
255
255
255
255
255
255
255
255
255
255
255
255
255
255
255
255
255
255
255
255
255
255
255
255
255
255
255
255
255
255
255
255
255
255
255
255
255
255
255
255
255
255
255
255
255
255
255
255
255
255
255
255
255
255
255
255
255
255
255
255
255
255
255
255
255
255
255
255
255
255
255
255
255
255
255
255
255
255
255
255
255
255
255
255
255
255
255
255
255
255
255
255
255
255
255
255
255
255
255
255
255
255
255
255
255
255
255
255
255
255
255
255
255
255
255
255
255
255
255
255
255
255
255
255
255
255
255
255
255
255
255
255
255
255
255
255
255
255
255
255
255
255
255
255
255
255
255
255
255
255
255
255
255
255
255
255
255
255
255
255
255
255
255
255
255
255
255
255
255
255
255
251
253
255
255
254
255
254
246
243
161
10
55
108
86
25
44
128
117
93
89
62
14
1
2
1
1
1
0
1
1
8
17
69
56
27
1
0
8
12
2
0
6
30
63
86
92
86
82
92
88
88
41
5
28
83
85
75
74
74
76
78
77
78
77
58
63
72
81
85
86
88
90
88
96
91
99
85
36
70
100
91
91
91
93
95
96
95
94
96
67
53
70
90
94
90
93
99
84
78
81
72
47
27
22
18
29
48
66
69
64
60
63
60
67
68
66
58
43
46
65
67
63
62
66
67
67
67
70
95
65
54
82
121
135
134
132
127
128
138
120
138
18
1
3
14
3
1
1
8
55
113
141
142
129
100
82
81
72
63
66
97
92
102
114
63
3
77
217
253
253
253
254
254
255
255
255
255
255
255
255
255
255
255
255
255
255
255
255
255
255
255
255
255
255
255
255
255
255
255
255
255
255
255
255
255
255
255
255
255
255
255
255
255
255
255
255
255
255
255
253
252
252
253
254
248
250
253
255
255
254
252
251
251
252
252
253
254
255
255
255
255
255
255
255
255
255
255
255
255
255
255
255
255
255
255
255
255
255
255
255
255
255
255
255
255
255
255
255
255
255
255
255
255
255
255
255
255
255
255
255
255
255
255
255
255
255
255
255
255
255
255
255
255
255
255
255
255
255
255
255
255
255
255
255
255
255
255
255
255
255
255
255
255
255
255
255
255
255
255
255
255
255
255
255
255
255
255
255
255
255
255
255
255
255
255
255
255
255
255
255
255
255
255
255
255
255
255
255
255
255
255
255
255
255
255
255
255
255
255
255
255
255
255
255
255
255
255
255
255
255
255
255
255
255
255
255
255
255
255
255
255
255
255
255
255
255
255
255
255
255
255
255
255
255
255
255
255
255
255
255
255
255
255
255
255
255
255
255
255
255
255
255
255
255
255
255
255
255
255
255
255
255
255
255
255
255
255
255
255
255
255
255
255
255
255
255
255
255
255
255
255
255
255
255
255
248
255
255
251
255
255
255
245
255
192
40
37
89
110
64
10
131
142
140
144
118
67
34
4
0
5
3
0
0
9
10
4
60
93
101
59
13
1
2
4
6
0
3
24
57
84
92
89
78
86
104
73
36
4
62
82
75
72
72
75
75
75
75
79
65
60
63
73
82
83
84
89
85
86
89
88
100
45
48
86
90
89
89
89
89
89
88
88
102
78
59
63
76
86
90
92
84
78
54
30
42
72
66
35
33
33
46
67
75
68
60
63
60
71
66
60
57
39
40
71
64
60
62
68
68
65
69
76
90
65
62
98
129
130
125
128
123
140
123
126
138
58
2
7
10
4
1
0
26
86
133
142
155
132
101
91
90
76
70
83
119
110
109
111
47
3
107
244
253
253
253
254
254
255
255
255
255
255
255
255
255
255
255
255
255
255
255
255
255
255
255
255
255
255
255
255
255
255
255
255
255
255
255
255
255
255
255
255
254
254
254
254
254
254
254
254
255
255
254
254
255
255
255
255
255
255
255
255
255
255
255
255
255
255
255
255
253
252
251
251
254
254
254
254
254
254
254
254
255
255
255
255
255
255
255
255
255
255
255
255
255
255
255
255
255
255
255
255
255
255
255
255
255
255
255
255
255
255
255
255
255
255
255
255
255
255
255
255
255
255
255
255
255
255
255
255
255
255
255
255
255
255
255
255
255
255
255
255
255
255
255
255
255
255
255
255
255
255
255
255
255
255
255
255
255
255
255
255
255
255
255
255
255
255
255
255
255
255
255
255
255
255
255
255
255
255
255
255
255
255
255
255
255
255
255
255
255
255
255
255
255
255
255
255
255
255
255
255
255
255
255
255
255
255
255
255
255
255
255
255
255
255
255
255
255
255
255
255
255
255
255
255
255
255
255
255
255
255
255
255
255
255
255
255
255
255
255
255
255
255
255
255
255
255
255
255
255
255
255
255
255
255
255
255
255
255
255
255
255
255
255
255
255
255
255
255
255
255
255
255
255
255
255
255
255
253
255
255
250
254
254
249
250
254
202
72
4
69
115
122
41
64
111
135
145
140
123
93
39
1
4
4
0
2
8
7
1
24
88
144
132
69
13
1
2
3
3
1
1
24
60
87
96
79
91
90
95
69
25
40
51
62
59
60
64
65
63
65
70
69
55
51
64
78
80
82
87
86
74
87
81
92
77
39
63
86
87
87
85
84
83
82
82
88
82
70
59
64
75
80
77
61
68
42
7
27
85
102
77
54
35
31
49
65
63
59
61
54
67
55
51
56
37
33
67
58
58
62
70
68
65
71
83
90
74
77
108
132
132
122
118
126
135
120
132
121
107
34
3
4
6
4
0
26
94
140
142
155
138
114
104
102
87
82
93
121
115
113
108
35
3
126
254
253
253
253
254
254
255
255
255
255
255
255
255
255
255
255
255
255
255
255
255
255
255
255
255
255
255
255
255
255
255
255
255
255
255
255
255
255
255
255
255
254
254
254
254
254
254
254
254
251
252
254
255
255
253
250
248
255
255
253
246
241
241
243
245
251
251
250
250
251
253
254
255
254
254
254
254
254
254
254
254
255
255
255
255
255
255
255
255
255
255
255
255
255
255
255
255
255
255
255
255
255
255
255
255
255
255
255
255
255
255
255
255
255
255
255
255
255
255
255
255
255
255
255
255
255
255
255
255
255
255
255
255
255
255
255
255
255
255
255
255
255
255
255
255
255
255
255
255
255
255
255
255
255
255
255
255
255
255
255
255
255
255
255
255
255
255
255
255
255
255
255
255
255
255
255
255
255
255
255
255
255
255
255
255
255
255
255
255
255
255
255
255
255
255
255
255
255
255
255
255
255
255
255
255
255
255
255
255
255
255
255
255
255
255
255
255
255
255
255
255
255
255
255
255
255
255
255
255
255
255
255
255
255
255
255
255
255
255
255
255
255
255
255
255
255
255
255
255
255
255
255
255
255
255
255
255
255
255
255
255
255
255
255
255
255
255
255
255
255
255
255
255
255
255
255
255
255
254
255
255
255
255
249
247
255
251
233
121
4
76
108
137
74
24
98
131
132
139
152
129
59
1
1
4
6
4
2
1
2
18
58
114
142
115
55
9
2
0
6
6
1
2
37
73
92
80
99
71
96
81
60
31
13
42
40
41
46
47
45
47
53
69
49
41
55
71
76
78
84
87
69
88
81
78
103
40
43
85
85
85
83
80
79
78
79
67
75
71
54
49
61
66
60
62
67
53
24
24
61
91
97
71
37
17
32
50
49
42
40
42
57
45
45
58
37
27
59
56
56
63
71
68
64
72
87
117
97
85
100
127
140
134
123
133
118
135
125
113
129
76
9
4
10
4
1
11
84
139
144
142
141
128
117
113
101
91
97
109
109
113
110
32
2
131
249
253
253
253
254
254
255
255
255
255
255
255
255
255
255
255
255
255
255
255
255
255
255
255
255
255
255
255
255
255
255
255
255
255
255
255
255
255
255
255
255
254
254
254
254
254
254
254
254
255
255
255
252
243
231
219
212
199
188
172
155
145
143
146
149
185
188
195
205
217
229
239
245
254
254
254
254
254
254
254
254
255
255
255
255
255
255
255
255
255
255
255
255
255
255
255
255
255
255
255
255
255
255
255
255
255
255
255
255
255
255
255
255
255
255
255
255
255
255
255
255
255
255
255
255
255
255
255
255
255
255
255
255
255
255
255
255
255
255
255
255
255
255
255
255
255
255
255
255
255
255
255
255
255
255
255
255
255
255
255
255
255
255
255
255
255
255
255
255
255
255
255
255
255
255
255
255
255
255
255
255
255
255
255
255
255
255
255
255
255
255
255
255
255
255
255
255
255
255
255
255
255
255
255
255
255
255
255
255
255
255
255
255
255
255
255
255
255
255
255
255
255
255
255
255
255
255
255
255
255
255
255
255
255
255
255
255
255
255
255
255
255
255
255
255
255
255
255
255
255
255
255
255
255
255
255
255
255
255
255
255
255
255
255
255
255
255
255
255
255
255
255
255
255
255
255
255
255
254
254
254
254
254
254
254
254
255
243
172
7
29
65
78
91
42
44
141
142
133
151
136
79
36
0
0
4
0
51
82
10
63
109
138
135
138
135
80
9
2
7
9
4
1
4
25
43
93
86
76
77
91
91
55
12
33
52
63
57
56
61
56
43
52
38
26
27
39
49
49
44
51
51
51
51
53
53
45
36
49
64
53
46
60
53
37
46
46
43
43
45
38
33
44
63
67
81
79
47
11
16
61
104
90
101
58
25
48
32
44
19
42
44
39
47
57
37
21
37
80
85
76
60
62
92
121
135
141
125
106
79
131
141
128
126
120
137
135
128
144
118
65
5
5
2
7
3
0
29
99
149
134
115
124
114
113
122
102
109
115
112
116
91
17
0
149
249
253
253
253
254
254
255
255
255
255
255
255
255
255
255
255
255
255
255
255
255
255
255
255
255
254
255
254
250
250
253
254
254
247
251
254
254
253
253
251
248
249
251
246
247
254
250
245
253
250
217
173
153
117
77
58
26
1
17
16
17
31
28
25
42
15
10
4
14
39
63
99
142
185
212
253
253
237
252
255
237
250
255
255
255
255
250
248
255
255
255
255
255
255
255
255
255
255
255
255
255
255
255
255
255
255
255
255
255
255
255
255
255
255
255
255
255
255
255
255
255
255
255
255
255
255
255
255
255
255
255
255
255
255
255
255
255
255
255
255
255
255
255
255
255
255
255
255
255
255
255
255
255
255
255
255
255
255
255
255
255
255
255
255
255
255
255
255
255
255
255
255
255
255
255
255
255
255
255
255
255
255
255
255
255
255
255
255
255
255
255
255
255
255
255
255
255
255
255
255
255
255
255
255
255
255
255
255
255
255
255
255
255
255
255
255
255
255
255
255
255
255
255
255
255
255
255
255
255
255
255
255
255
255
255
255
255
255
255
255
255
255
255
255
255
255
255
255
255
255
255
255
255
255
255
255
255
255
255
255
255
255
255
255
255
255
255
255
255
255
255
255
255
255
255
255
255
255
254
254
254
254
254
254
254
254
252
251
218
29
14
63
95
112
79
26
112
142
150
139
144
80
29
0
0
6
7
52
81
35
75
123
154
152
153
156
128
82
20
3
1
6
7
1
5
21
57
78
93
92
87
82
71
59
25
38
53
60
61
60
59
59
68
58
47
40
39
42
44
45
46
48
48
48
51
52
46
38
29
31
43
57
61
64
67
64
64
60
61
64
59
52
56
68
76
82
82
61
25
12
53
105
109
113
91
50
58
96
79
69
73
72
67
68
77
71
49
36
102
79
62
73
108
134
131
117
125
126
118
83
117
131
129
138
124
124
120
115
122
94
68
20
3
3
6
6
0
14
72
136
142
119
124
120
117
108
87
103
107
110
116
89
19
3
158
253
253
253
253
254
254
255
255
255
255
255
255
255
255
255
255
255
255
255
255
255
255
255
255
255
254
252
255
255
255
252
245
244
254
254
252
241
245
252
252
251
250
251
245
236
223
187
151
138
109
77
36
31
34
55
103
116
130
143
158
180
195
186
170
167
172
168
153
138
121
82
46
34
6
95
146
174
230
253
248
255
255
255
250
240
253
255
255
251
255
255
255
255
255
255
255
255
255
255
255
255
255
255
255
255
255
255
255
255
255
255
255
255
255
255
255
255
255
255
255
255
255
255
255
255
255
255
255
255
255
255
255
255
255
255
255
255
255
255
255
255
255
255
255
255
255
255
255
255
255
255
255
255
255
255
255
255
255
255
255
255
255
255
255
255
255
255
255
255
255
255
255
255
255
255
255
255
255
255
255
255
255
255
255
255
255
255
255
255
255
255
255
255
255
255
255
255
255
255
255
255
255
255
255
255
255
255
255
255
255
255
255
255
255
255
255
255
255
255
255
255
255
255
255
255
255
255
255
255
255
255
255
255
255
255
255
255
255
255
255
255
255
255
255
255
255
255
255
255
255
255
255
255
255
255
255
255
255
255
255
255
255
255
255
255
255
255
255
255
255
255
255
255
255
255
255
255
255
254
254
254
254
254
254
254
254
249
252
254
78
4
66
107
122
126
43
62
134
150
131
129
68
28
6
0
1
5
29
46
38
110
140
158
157
161
170
158
134
68
21
2
4
10
0
0
5
14
52
86
92
83
79
82
86
44
34
36
52
63
62
59
60
68
66
59
50
44
44
51
59
61
62
62
62
66
69
66
60
38
26
50
72
66
72
84
74
78
74
74
78
77
67
63
65
79
83
91
77
38
9
47
110
117
115
112
91
58
132
105
108
100
105
110
112
117
116
81
28
83
76
85
109
130
133
127
123
127
127
113
77
109
137
133
131
127
128
117
86
91
104
108
46
1
5
3
8
6
2
35
106
140
124
124
121
113
88
66
88
96
107
115
85
20
14
170
255
253
253
253
254
254
255
255
255
255
255
255
255
255
255
255
255
255
255
255
255
255
255
255
255
254
247
241
253
254
254
253
251
249
253
255
254
253
255
234
207
153
140
110
86
67
36
9
2
62
74
94
136
159
173
199
195
204
209
223
222
204
200
212
220
218
218
203
193
197
191
173
164
113
70
25
34
100
165
215
251
244
255
255
254
255
255
254
253
255
255
255
255
255
255
255
255
255
255
255
255
255
255
255
255
255
255
255
255
255
255
255
255
255
255
255
255
255
255
255
255
255
255
255
255
255
255
255
255
255
255
255
255
255
255
255
255
255
255
255
255
255
255
255
255
255
255
255
255
255
255
255
255
255
255
255
255
255
255
255
255
255
255
255
255
255
255
255
255
255
255
255
255
255
255
255
255
255
255
255
255
255
255
255
255
255
255
255
255
255
255
255
255
255
255
255
255
255
255
255
255
255
255
255
255
255
255
255
255
255
255
255
255
255
255
255
255
255
255
255
255
255
255
255
255
255
255
255
255
255
255
255
255
255
255
255
255
255
255
255
255
255
255
255
255
255
255
255
255
255
255
255
255
255
255
255
255
255
255
255
255
255
255
255
255
255
255
255
255
255
255
255
255
255
255
255
255
255
254
254
254
254
254
254
254
254
252
251
254
137
4
64
99
117
144
93
37
113
149
154
126
73
27
9
1
1
3
7
12
42
146
147
144
147
162
176
170
152
130
69
14
1
3
1
0
4
1
20
49
68
81
89
88
84
79
47
22
33
54
65
62
58
62
63
63
57
50
49
56
63
61
62
61
60
63
67
66
61
56
41
51
69
67
70
74
69
77
71
69
74
76
69
60
56
68
85
99
81
35
8
50
117
109
103
109
102
57
94
112
109
121
116
119
118
114
115
81
26
49
85
125
139
125
112
121
137
133
134
115
78
99
138
135
126
126
119
106
80
96
127
139
63
1
11
4
2
8
1
7
63
127
129
122
109
96
68
50
67
89
105
113
80
20
21
177
255
253
253
253
254
254
255
255
255
255
255
255
255
255
255
255
255
254
254
254
254
254
254
254
254
253
254
254
254
254
253
249
244
253
252
238
217
189
144
93
55
16
21
28
53
90
112
125
141
163
174
185
210
213
207
215
197
203
210
225
213
181
177
180
161
150
161
154
146
166
191
203
209
193
158
134
102
33
4
100
234
248
254
254
255
255
253
249
255
255
255
255
255
255
255
255
255
255
255
255
255
255
255
255
255
255
255
255
255
255
255
255
255
255
255
255
255
255
255
255
255
255
255
255
255
255
255
255
255
255
255
255
255
255
255
255
255
255
255
255
255
255
255
255
255
255
255
255
255
255
255
255
255
255
255
255
255
255
255
255
255
255
255
255
255
255
255
255
255
255
255
255
255
255
255
255
255
255
255
255
255
255
255
255
255
255
255
255
255
255
255
255
255
255
255
255
255
255
255
255
255
255
255
255
255
255
255
255
255
255
255
255
255
255
255
255
255
255
255
255
255
255
255
255
255
255
255
255
255
255
255
255
255
255
255
255
255
255
255
255
255
255
255
255
255
255
255
255
255
255
255
255
255
255
255
255
255
255
255
255
255
255
255
255
255
255
255
255
255
255
255
255
255
255
255
255
255
255
254
254
254
254
254
254
254
254
254
250
251
191
4
41
74
119
134
121
50
48
143
160
131
75
24
7
1
1
18
18
18
79
152
145
140
144
163
181
183
174
171
121
55
7
0
2
6
3
5
6
14
35
64
86
92
88
90
70
39
24
37
58
67
66
61
62
62
59
53
50
48
48
58
59
59
57
58
62
61
57
56
52
41
46
64
63
57
67
69
62
59
62
67
64
57
52
55
84
98
68
22
13
60
119
106
101
104
109
83
48
122
111
127
103
90
81
73
77
72
46
57
97
133
138
128
125
127
131
123
139
133
91
85
123
130
133
109
88
95
113
130
124
124
73
1
15
3
1
7
1
0
22
106
136
120
88
73
52
42
51
90
105
111
75
16
22
176
251
253
253
253
254
254
255
255
255
255
255
255
255
255
255
255
255
254
254
254
254
254
254
254
254
249
254
255
246
242
253
255
255
243
204
146
82
23
4
19
55
133
144
155
169
180
162
135
126
105
104
99
115
124
139
165
159
149
157
177
188
193
203
170
103
71
114
145
158
180
196
199
199
197
207
181
179
166
69
26
104
247
255
251
241
249
255
254
255
255
255
255
255
255
255
255
255
255
255
255
255
255
255
255
255
255
255
255
255
255
255
255
255
255
255
255
255
255
255
255
255
255
255
255
255
255
255
255
255
255
255
255
255
255
255
255
255
255
255
255
255
255
255
255
255
255
255
255
255
255
255
255
255
255
255
255
255
255
255
255
255
255
255
255
255
255
255
255
255
255
255
255
255
255
255
255
255
255
255
255
255
255
255
255
255
255
255
255
255
255
255
255
255
255
255
255
255
255
255
255
255
255
255
255
255
255
255
255
255
255
255
255
255
255
255
255
255
255
255
255
255
255
255
255
255
255
255
255
255
255
255
255
255
255
255
255
255
255
255
255
255
255
255
255
255
255
255
255
255
255
255
255
255
255
255
255
255
255
255
255
255
255
255
255
255
255
255
255
255
255
255
255
255
255
255
255
255
255
254
254
254
254
254
254
254
254
255
253
251
231
32
5
54
121
120
135
92
3
132
142
135
73
30
9
6
3
31
36
33
107
145
149
150
148
155
171
181
185
180
153
91
22
0
4
8
0
6
2
0
6
26
54
76
88
86
91
79
49
28
35
53
63
60
59
59
59
59
53
45
38
61
64
64
61
62
64
63
60
61
63
41
34
58
61
52
68
63
60
58
58
62
63
61
57
51
74
78
47
19
33
76
112
115
114
112
123
116
44
114
118
104
85
77
78
79
85
93
94
73
103
126
128
128
133
132
122
124
135
129
98
85
123
121
116
75
88
116
134
143
123
113
65
1
12
2
0
3
5
0
1
79
128
104
65
54
41
44
57
96
106
109
75
16
20
173
249
253
253
253
254
254
255
255
255
255
255
255
255
255
255
255
255
253
253
253
253
253
253
253
253
252
251
245
243
253
254
211
158
100
42
7
37
102
152
171
174
154
147
123
100
79
46
18
13
16
44
80
129
150
155
157
131
122
114
105
101
125
171
198
190
154
194
218
222
225
222
211
208
213
214
199
201
204
141
51
10
165
236
255
255
247
255
255
249
255
255
255
255
255
255
255
255
255
255
255
255
255
255
255
255
255
255
255
255
255
255
255
255
255
255
255
255
255
255
255
255
255
255
255
255
255
255
255
255
255
255
255
255
255
255
255
255
255
255
255
255
255
255
255
255
255
255
255
255
255
255
255
255
255
255
255
255
255
255
255
255
255
255
255
255
255
255
255
255
255
255
255
255
255
255
255
255
255
255
255
255
255
255
255
255
255
255
255
255
255
255
255
255
255
255
255
255
255
255
255
255
255
255
255
255
255
255
255
255
255
255
255
255
255
255
255
255
255
255
255
255
255
255
255
255
255
255
255
255
255
255
255
255
255
255
255
255
255
255
255
255
255
255
255
255
255
255
255
255
255
255
255
255
255
255
255
255
255
255
255
255
255
255
255
255
255
255
255
255
255
255
255
255
255
255
255
255
255
254
254
254
254
254
254
254
254
253
253
254
247
101
3
45
102
114
133
120
28
101
138
137
90
35
7
8
5
33
47
44
117
145
151
150
145
149
166
177
177
182
163
107
32
0
1
7
0
2
1
1
1
1
15
36
54
66
81
91
81
50
27
34
49
60
58
57
60
63
60
50
43
53
57
58
56
55
57
57
55
67
67
54
42
46
57
62
63
62
62
63
63
63
64
66
66
50
52
41
26
33
64
94
108
122
117
121
125
112
64
65
100
87
95
101
109
121
123
123
129
75
101
126
129
123
122
126
130
128
131
122
104
90
122
101
83
79
120
139
124
133
130
118
59
3
2
1
1
2
1
0
1
40
93
69
41
41
31
54
83
105
107
106
75
18
18
172
251
253
253
253
254
254
255
255
255
255
255
255
255
255
255
255
255
253
253
253
253
253
253
253
253
254
253
251
247
220
158
78
22
35
83
138
168
166
146
121
102
62
46
12
3
2
5
30
62
120
144
166
183
167
140
121
84
50
35
8
1
1
39
124
205
197
210
210
208
223
231
235
240
237
213
215
216
203
191
123
14
57
145
224
253
255
251
249
255
255
255
255
255
255
255
255
255
255
255
255
255
255
255
255
255
255
255
255
255
255
255
255
255
255
255
255
255
255
255
255
255
255
255
255
255
255
255
255
255
255
255
255
255
255
255
255
255
255
255
255
255
255
255
255
255
255
255
255
255
255
255
255
255
255
255
255
255
255
255
255
255
255
255
255
255
255
255
255
255
255
255
255
255
255
255
255
255
255
255
255
255
255
255
255
255
255
255
255
255
255
255
255
255
255
255
255
255
255
255
255
255
255
255
255
255
255
255
255
255
255
255
255
255
255
255
255
255
255
255
255
255
255
255
255
255
255
255
255
255
255
255
255
255
255
255
255
255
255
255
255
255
255
255
255
255
255
255
255
255
255
255
255
255
255
255
255
255
255
255
255
255
255
255
255
255
255
255
255
255
255
255
255
255
255
255
255
255
255
254
254
254
254
254
254
254
254
251
251
254
250
165
7
47
73
74
96
93
43
36
124
113
93
31
1
4
5
36
58
58
129
147
146
138
136
156
182
187
175
185
165
108
34
1
1
7
6
3
2
4
4
2
0
5
13
39
47
71
93
80
43
30
42
68
66
64
65
65
60
51
44
53
58
60
59
59
60
60
57
62
55
61
49
35
54
75
62
59
64
68
65
64
65
67
68
50
31
9
12
49
91
108
108
117
111
120
114
88
77
33
68
102
123
123
122
135
135
128
135
82
99
125
136
128
119
124
137
119
132
136
119
84
101
80
68
118
135
128
112
131
122
112
73
7
0
1
7
4
2
0
5
9
59
36
24
34
26
61
110
110
107
105
77
20
18
172
254
253
253
253
254
254
255
255
255
255
255
255
255
255
255
255
255
253
253
253
253
253
253
253
253
254
251
226
166
76
17
40
97
143
163
156
121
88
65
31
9
3
3
1
8
42
85
135
180
191
192
169
136
87
49
39
13
2
0
1
7
8
1
43
129
208
207
201
206
230
238
230
227
218
231
225
220
236
233
184
135
15
42
107
199
255
254
245
255
255
255
255
255
255
255
255
255
255
255
255
255
255
255
255
255
255
255
255
255
255
255
255
255
255
255
255
255
255
255
255
255
255
255
255
255
255
255
255
255
255
255
255
255
255
255
255
255
255
255
255
255
255
255
255
255
255
255
255
255
255
255
255
255
255
255
255
255
255
255
255
255
255
255
255
255
255
255
255
255
255
255
255
255
255
255
255
255
255
255
255
255
255
255
255
255
255
255
255
255
255
255
255
255
255
255
255
255
255
255
255
255
255
255
255
255
255
255
255
255
255
255
255
255
255
255
255
255
255
255
255
255
255
255
255
255
255
255
255
255
255
255
255
255
255
255
255
255
255
255
255
255
255
255
255
255
255
255
255
255
255
255
255
255
255
255
255
255
255
255
255
255
255
255
255
255
255
255
255
255
255
255
255
255
255
255
255
255
255
255
255
255
255
255
255
255
255
253
255
254
250
217
60
3
46
64
94
107
78
32
93
124
115
45
1
4
2
27
38
69
91
126
139
146
145
157
177
183
177
176
163
128
54
3
1
1
2
3
2
2
1
1
2
2
3
0
5
20
47
66
65
46
25
36
34
37
45
54
59
57
53
34
47
58
61
62
62
60
54
67
65
61
53
41
38
50
67
63
69
74
74
70
66
59
52
23
10
12
49
101
123
112
100
94
69
77
71
90
94
48
70
140
122
121
129
131
138
141
120
101
93
112
132
128
126
130
121
125
141
132
124
51
44
95
137
127
128
126
126
126
119
97
73
7
3
0
0
0
1
1
1
8
2
11
13
1
33
91
119
104
108
81
49
3
19
156
254
253
252
252
253
255
254
253
251
252
252
255
255
255
243
247
255
248
249
250
251
251
253
254
254
226
152
69
19
32
105
159
154
123
75
32
23
17
4
1
11
1
7
42
109
154
168
191
199
157
110
72
39
1
1
4
0
13
1
6
8
3
0
30
106
184
201
204
192
200
226
234
224
236
246
250
244
218
190
170
162
48
13
0
77
204
254
247
255
253
255
255
248
255
255
253
249
255
255
255
255
255
255
255
255
255
255
255
255
255
255
255
255
255
255
255
255
255
255
255
255
255
255
255
255
255
255
255
255
255
255
255
255
255
255
255
255
255
255
255
255
255
255
255
255
255
255
255
255
255
255
255
255
255
255
255
255
255
255
255
255
255
255
255
255
255
255
255
255
255
255
255
255
255
255
255
255
255
255
255
255
255
255
255
255
255
255
255
255
255
255
255
255
255
255
255
255
255
255
255
255
255
255
255
255
255
255
255
255
255
255
255
255
255
255
255
255
255
255
255
255
255
255
255
255
255
255
255
255
255
255
255
255
255
255
255
255
255
255
255
255
255
255
255
255
255
255
255
255
255
255
255
255
255
255
255
255
255
255
255
255
255
255
255
255
255
255
255
255
255
255
255
255
255
255
255
255
255
255
255
255
255
255
255
255
255
253
252
250
251
234
118
2
35
85
102
114
113
58
51
129
116
48
1
2
2
32
55
93
122
132
142
146
143
153
173
181
176
172
162
129
74
16
1
6
4
3
2
1
1
1
1
2
3
7
2
3
6
14
24
29
29
5
16
30
38
40
39
39
39
28
45
62
65
62
60
63
65
71
71
69
63
53
49
54
64
54
60
62
58
49
40
28
17
8
13
57
100
100
87
78
70
72
70
90
103
127
129
87
69
133
119
117
125
128
129
128
123
126
99
97
115
122
130
136
129
126
114
93
93
58
55
107
139
130
126
120
123
128
121
96
70
3
5
5
4
3
2
0
1
6
1
0
2
32
91
117
92
117
94
61
52
11
6
131
251
252
252
252
253
254
255
255
254
255
254
249
250
255
255
255
248
254
254
255
255
255
249
182
105
49
17
35
96
134
134
98
53
21
23
13
3
1
5
5
2
41
94
133
169
197
206
191
142
84
57
43
28
3
1
10
5
5
1
7
0
5
64
111
160
180
197
205
194
190
210
242
252
241
194
141
105
75
46
28
26
7
1
0
13
97
209
255
246
255
255
247
254
255
255
250
255
255
255
255
255
255
255
255
255
255
255
255
255
255
255
255
255
255
255
255
255
255
255
255
255
255
255
255
255
255
255
255
255
255
255
255
255
255
255
255
255
255
255
255
255
255
255
255
255
255
255
255
255
255
255
255
255
255
255
255
255
255
255
255
255
255
255
255
255
255
255
255
255
255
255
255
255
255
255
255
255
255
255
255
255
255
255
255
255
255
255
255
255
255
255
255
255
255
255
255
255
255
255
255
255
255
255
255
255
255
255
255
255
255
255
255
255
255
255
255
255
255
255
255
255
255
255
255
255
255
255
255
255
255
255
255
255
255
255
255
255
255
255
255
255
255
255
255
255
255
255
255
255
255
255
255
255
255
255
255
255
255
255
255
255
255
255
255
255
255
255
255
255
255
255
255
255
255
255
255
255
255
255
255
255
255
255
255
255
255
254
255
251
254
255
194
21
16
86
97
103
131
91
20
126
123
68
12
2
1
17
44
81
113
139
145
145
140
149
170
178
173
167
160
129
102
35
0
14
4
3
2
1
1
1
1
2
3
1
1
2
2
2
1
8
14
0
7
24
38
44
44
43
42
24
34
48
53
51
46
51
58
53
54
59
61
58
51
51
53
64
65
60
46
32
22
10
2
26
16
50
76
59
54
78
97
101
112
108
119
129
126
104
50
127
128
127
129
130
120
117
128
119
98
98
118
125
126
132
133
97
81
82
97
94
80
115
135
127
125
124
125
125
118
97
78
1
2
3
3
1
0
0
1
3
1
4
26
69
119
123
88
80
60
39
41
15
1
112
245
252
252
252
252
253
255
255
255
253
255
255
252
243
244
253
255
254
236
237
250
219
133
54
21
52
91
142
144
97
53
22
2
4
3
2
13
3
2
15
70
108
162
191
208
215
204
161
87
66
54
48
33
9
1
5
1
3
0
7
10
61
143
181
194
167
172
187
205
202
180
159
151
104
54
11
4
3
1
1
1
0
0
2
0
2
113
224
248
246
255
255
250
252
255
255
255
255
255
255
255
255
255
255
255
255
255
255
255
255
255
255
255
255
255
255
255
255
255
255
255
255
255
255
255
255
255
255
255
255
255
255
255
255
255
255
255
255
255
255
255
255
255
255
255
255
255
255
255
255
255
255
255
255
255
255
255
255
255
255
255
255
255
255
255
255
255
255
255
255
255
255
255
255
255
255
255
255
255
255
255
255
255
255
255
255
255
255
255
255
255
255
255
255
255
255
255
255
255
255
255
255
255
255
255
255
255
255
255
255
255
255
255
255
255
255
255
255
255
255
255
255
255
255
255
255
255
255
255
255
255
255
255
255
255
255
255
255
255
255
255
255
255
255
255
255
255
255
255
255
255
255
255
255
255
255
255
255
255
255
255
255
255
255
255
255
255
255
255
255
255
255
255
255
255
255
255
255
255
255
255
255
255
255
255
255
254
254
252
254
255
241
89
2
55
90
92
124
110
32
93
126
73
20
3
1
20
62
101
136
138
144
144
139
148
170
177
170
167
158
128
121
52
0
16
3
2
2
1
0
0
1
2
2
1
2
7
8
4
1
1
1
9
5
9
27
49
61
60
54
37
28
24
33
41
41
38
37
35
36
42
49
48
38
29
27
45
44
34
18
6
4
5
4
22
23
34
52
68
80
93
106
111
121
101
118
122
116
126
66
104
128
134
126
124
111
108
124
121
92
88
114
138
131
106
83
87
86
116
129
124
86
107
132
122
129
134
131
120
107
96
91
9
3
0
0
0
0
2
5
4
1
14
61
100
110
93
71
23
39
38
32
11
4
97
229
252
253
253
253
252
253
255
255
250
245
249
255
255
253
246
249
253
255
240
160
63
16
38
79
154
152
121
59
12
2
3
2
8
12
7
4
6
47
105
144
180
197
205
222
216
175
135
92
83
78
62
34
6
1
1
0
5
0
22
77
147
192
195
187
177
149
142
159
154
107
57
30
2
1
1
3
8
3
6
16
13
0
6
8
0
16
132
235
250
255
255
247
249
253
253
255
255
255
255
255
255
255
255
255
255
255
255
255
255
255
255
255
255
255
255
255
255
255
255
255
255
255
255
255
255
255
255
255
255
255
255
255
255
255
255
255
255
255
255
255
255
255
255
255
255
255
255
255
255
255
255
255
255
255
255
255
255
255
255
255
255
255
255
255
255
255
255
255
255
255
255
255
255
255
255
255
255
255
255
255
255
255
255
255
255
255
255
255
255
255
255
255
255
255
255
255
255
255
255
255
255
255
255
255
255
255
255
255
255
255
255
255
255
255
255
255
255
255
255
255
255
255
255
255
255
255
255
255
255
255
255
255
255
255
255
255
255
255
255
255
255
255
255
255
255
255
255
255
255
255
255
255
255
255
255
255
255
255
255
255
255
255
255
255
255
255
255
255
255
255
255
255
255
255
255
255
255
255
255
255
255
255
255
255
255
254
253
250
247
255
251
181
10
8
77
95
107
111
75
41
122
82
30
6
1
15
63
98
132
134
141
142
139
151
171
176
166
168
159
125
128
67
2
9
1
2
1
0
0
0
0
1
2
4
3
0
0
1
0
1
2
5
0
2
6
27
47
56
60
65
38
20
25
47
58
48
34
45
44
47
50
46
31
16
10
20
22
22
14
13
21
35
45
55
70
50
49
98
118
101
97
99
110
98
127
125
113
130
86
64
106
122
112
109
106
104
113
110
103
98
100
98
84
73
77
112
113
139
136
122
77
93
130
126
129
130
125
112
98
87
85
20
8
1
4
7
5
3
3
2
4
33
84
118
101
53
20
9
37
44
34
17
1
66
208
252
254
255
253
251
250
252
254
255
254
249
244
246
255
255
255
255
166
53
4
17
77
131
155
124
70
20
7
11
5
2
12
6
1
1
17
68
132
175
191
216
213
206
219
199
144
115
95
75
76
54
18
0
1
4
6
4
24
75
149
198
204
194
186
142
111
95
102
91
46
8
2
3
9
11
4
0
0
0
0
0
0
0
10
2
0
44
152
254
252
246
252
255
255
247
253
255
255
255
255
255
255
255
255
255
255
255
255
255
255
255
255
255
255
255
255
255
255
255
255
255
255
255
255
255
255
255
255
255
255
255
255
255
255
255
255
255
255
255
255
255
255
255
255
255
255
255
255
255
255
255
255
255
255
255
255
255
255
255
255
255
255
255
255
255
255
255
255
255
255
255
255
255
255
255
255
255
255
255
255
255
255
255
255
255
255
255
255
255
255
255
255
255
255
255
255
255
255
255
255
255
255
255
255
255
255
255
255
255
255
255
255
255
255
255
255
255
255
255
255
255
255
255
255
255
255
255
255
255
255
255
255
255
255
255
255
255
255
255
255
255
255
255
255
255
255
255
255
255
255
255
255
255
255
255
255
255
255
255
255
255
255
255
255
255
255
255
255
255
255
255
255
255
255
255
255
255
255
255
255
255
255
255
255
255
252
255
252
251
255
254
252
93
5
40
81
88
97
93
18
110
96
43
8
1
4
53
79
109
132
138
139
138
151
172
176
166
168
157
127
126
85
11
1
2
1
1
0
0
0
0
1
1
4
0
0
0
1
2
1
0
1
2
2
2
5
19
40
56
74
53
34
32
51
68
64
51
61
59
61
64
59
47
35
28
22
35
47
49
51
59
71
80
97
114
78
50
89
116
107
105
105
106
103
119
115
103
110
98
52
87
108
105
108
112
109
106
98
100
85
63
53
56
77
107
114
111
127
126
115
87
84
120
130
121
113
108
101
89
75
67
16
5
1
7
9
2
0
1
3
55
97
111
109
78
26
1
15
20
23
30
38
2
31
180
247
251
254
254
250
248
250
252
255
255
255
243
247
254
218
165
36
11
27
89
135
132
117
115
26
20
9
6
13
3
1
5
3
9
52
116
156
167
188
216
213
223
214
210
185
139
111
80
89
92
59
14
3
4
1
0
10
80
142
186
199
199
208
197
116
79
51
48
45
22
2
3
1
6
3
1
1
9
7
1
0
12
0
0
7
4
3
33
163
241
255
253
243
255
255
250
255
255
255
255
255
255
255
255
255
255
255
255
255
255
255
255
255
255
255
255
255
255
255
255
255
255
255
255
255
255
255
255
255
255
255
255
255
255
255
255
255
255
255
255
255
255
255
255
255
255
255
255
255
255
255
255
255
255
255
255
255
255
255
255
255
255
255
255
255
255
255
255
255
255
255
255
255
255
255
255
255
255
255
255
255
255
255
255
255
255
255
255
255
255
255
255
255
255
255
255
255
255
255
255
255
255
255
255
255
255
255
255
255
255
255
255
255
255
255
255
255
255
255
255
255
255
255
255
255
255
255
255
255
255
255
255
255
255
255
255
255
255
255
255
255
255
255
255
255
255
255
255
255
255
255
255
255
255
255
255
255
255
255
255
255
255
255
255
255
255
255
255
255
255
255
255
255
255
255
255
255
255
255
255
255
255
255
255
255
253
255
253
255
255
255
255
200
59
3
41
67
85
76
16
77
95
46
8
8
12
72
101
134
136
140
137
134
148
169
174
165
166
158
131
122
105
39
1
8
1
0
0
0
0
0
0
1
0
0
1
5
6
5
2
1
1
6
9
4
1
4
21
36
55
62
56
42
40
56
68
68
62
61
62
66
68
63
59
58
32
48
63
67
66
70
80
86
96
103
99
79
78
100
109
100
100
96
103
96
103
112
106
123
79
79
91
105
108
107
98
84
92
79
44
36
71
102
103
102
99
96
103
110
109
101
76
105
114
108
102
96
86
73
67
68
10
2
0
4
2
0
6
21
58
118
148
128
87
38
6
8
8
4
3
22
72
39
13
118
239
245
252
254
251
249
250
253
250
247
247
255
255
210
103
7
36
76
109
124
140
137
86
21
1
7
1
1
1
13
10
9
37
99
152
165
175
199
211
205
209
220
208
201
185
158
135
101
123
119
69
14
5
8
1
0
40
121
172
198
198
195
206
184
155
114
60
24
8
7
6
5
1
2
2
2
5
8
3
1
1
12
6
0
2
12
2
0
39
174
255
249
233
255
255
253
255
255
255
255
255
255
255
255
255
255
255
255
255
255
255
255
255
255
255
255
255
255
255
255
255
255
255
255
255
255
255
255
255
255
255
255
255
255
255
255
255
255
255
255
255
255
255
255
255
255
255
255
255
255
255
255
255
255
255
255
255
255
255
255
255
255
255
255
255
255
255
255
255
255
255
255
255
255
255
255
255
255
255
255
255
255
255
255
255
255
255
255
255
255
255
255
255
255
255
255
255
255
255
255
255
255
255
255
255
255
255
255
255
255
255
255
255
255
255
255
255
255
255
255
255
255
255
255
255
255
255
255
255
255
255
255
255
255
255
255
255
255
255
255
255
255
255
255
255
255
255
255
255
255
255
255
255
255
255
255
255
255
255
255
255
255
255
255
255
255
255
255
255
255
255
255
255
255
255
255
255
255
255
255
255
255
255
255
255
252
255
247
255
247
252
239
254
165
4
10
55
81
50
19
38
104
53
8
3
2
61
86
119
141
143
136
131
144
167
174
165
163
157
135
122
120
60
1
13
1
0
0
0
0
0
0
1
3
2
0
0
0
1
3
7
0
1
4
5
4
4
5
7
35
67
79
53
28
41
63
82
63
60
59
62
62
61
61
63
37
54
68
72
71
79
91
101
104
90
100
89
58
83
120
107
104
101
120
96
106
123
93
117
104
71
71
96
99
86
68
48
50
79
77
68
88
105
106
109
104
101
97
97
93
96
67
98
92
99
104
95
72
57
66
85
14
6
2
1
0
2
30
61
135
148
140
115
76
15
1
13
5
7
3
24
103
84
10
54
232
241
250
254
252
250
251
254
248
249
255
233
146
48
20
46
110
125
142
143
118
71
24
2
8
13
7
7
10
1
13
62
137
137
152
176
193
200
206
215
191
186
165
171
169
151
143
124
127
117
57
2
0
13
10
7
70
131
168
203
210
196
188
151
155
160
142
91
36
5
0
2
5
3
4
6
1
1
1
10
7
0
0
17
0
0
13
14
0
74
176
250
255
252
243
255
255
255
255
255
255
255
255
255
255
255
255
255
255
255
255
255
255
255
255
255
255
255
255
255
255
255
255
255
255
255
255
255
255
255
255
255
255
255
255
255
255
255
255
255
255
255
255
255
255
255
255
255
255
255
255
255
255
255
255
255
255
255
255
255
255
255
255
255
255
255
255
255
255
255
255
255
255
255
255
255
255
255
255
255
255
255
255
255
255
255
255
255
255
255
255
255
255
255
255
255
255
255
255
255
255
255
255
255
255
255
255
255
255
255
255
255
255
255
255
255
255
255
255
255
255
255
255
255
255
255
255
255
255
255
255
255
255
255
255
255
255
255
255
255
255
255
255
255
255
255
255
255
255
255
255
255
255
255
255
255
255
255
255
255
255
255
255
255
255
255
255
255
255
255
255
255
255
255
255
255
255
255
255
255
255
255
255
255
255
255
255
254
252
251
249
248
247
253
154
4
9
61
98
72
35
76
60
21
1
18
67
106
130
130
138
140
135
141
157
166
164
165
158
131
111
111
91
36
0
0
0
0
1
1
0
0
3
5
5
2
0
0
1
1
1
1
1
6
1
2
9
7
0
3
30
58
62
46
39
54
74
66
74
71
63
68
70
67
68
66
42
54
89
104
103
106
100
99
99
108
96
71
79
107
117
99
108
105
105
116
117
104
97
81
64
51
49
45
40
51
66
75
90
86
66
63
83
96
92
101
96
97
107
110
96
74
58
99
100
92
66
59
82
103
95
18
2
1
14
1
1
44
123
137
141
126
84
36
7
3
6
10
11
11
65
106
135
41
2
145
246
252
249
252
253
253
244
251
253
212
79
3
15
92
142
136
144
134
91
40
8
2
6
2
8
5
2
8
47
99
133
141
156
182
208
217
206
180
158
149
147
143
159
160
155
152
123
122
75
22
0
1
5
2
1
112
146
169
177
187
187
169
158
162
154
167
162
145
79
4
1
0
16
8
1
1
8
0
2
3
3
2
4
4
4
2
4
0
13
74
203
254
240
253
253
255
255
255
255
255
255
255
255
255
255
255
255
255
255
255
255
255
255
255
255
255
255
255
255
255
255
255
255
255
255
255
255
255
255
255
255
255
255
255
255
255
255
255
255
255
255
255
255
255
255
255
255
255
255
255
255
255
255
255
255
255
255
255
255
255
255
255
255
255
255
255
255
255
255
255
255
255
255
255
255
255
255
255
255
255
255
255
255
255
255
255
255
255
255
255
255
255
255
255
255
255
255
255
255
255
255
255
255
255
255
255
255
255
255
255
255
255
255
255
255
255
255
255
255
255
255
255
255
255
255
255
255
255
255
255
255
255
255
255
255
255
255
255
255
255
255
255
255
255
255
255
255
255
255
255
255
255
255
255
255
255
255
255
255
255
255
255
255
255
255
255
255
255
255
255
255
255
255
255
255
255
255
255
255
255
255
255
255
255
255
255
254
253
252
251
250
249
248
252
149
5
33
71
89
28
61
59
29
1
15
61
105
132
129
137
139
134
140
156
166
164
168
159
136
114
108
96
50
0
3
0
0
1
1
0
0
1
0
0
2
3
3
4
2
1
6
2
0
2
3
1
1
2
1
4
21
62
74
52
45
57
81
85
80
76
80
81
77
80
74
50
59
84
97
97
93
92
91
97
104
97
78
76
94
108
107
117
115
108
106
90
65
51
53
48
33
21
40
73
82
67
69
79
77
60
52
62
73
74
81
81
84
94
101
97
81
64
109
86
64
57
67
88
95
85
19
6
0
1
1
10
59
108
126
113
83
42
9
1
3
8
4
14
40
48
91
131
83
12
30
233
242
255
251
236
246
254
224
109
10
17
83
126
131
124
140
110
66
27
6
1
4
7
9
1
1
38
86
120
143
158
192
196
194
179
156
142
139
143
146
147
143
157
157
152
150
122
102
46
4
3
8
1
3
22
119
149
162
159
163
159
146
138
147
163
155
149
177
118
27
51
5
1
2
1
1
2
4
1
4
2
1
1
2
5
7
9
1
1
0
75
201
254
253
251
255
255
255
255
255
255
255
255
255
255
255
255
255
255
255
255
255
255
255
255
255
255
255
255
255
255
255
255
255
255
255
255
255
255
255
255
255
255
255
255
255
255
255
255
255
255
255
255
255
255
255
255
255
255
255
255
255
255
255
255
255
255
255
255
255
255
255
255
255
255
255
255
255
255
255
255
255
255
255
255
255
255
255
255
255
255
255
255
255
255
255
255
255
255
255
255
255
255
255
255
255
255
255
255
255
255
255
255
255
255
255
255
255
255
255
255
255
255
255
255
255
255
255
255
255
255
255
255
255
255
255
255
255
255
255
255
255
255
255
255
255
255
255
255
255
255
255
255
255
255
255
255
255
255
255
255
255
255
255
255
255
255
255
255
255
255
255
255
255
255
255
255
255
255
255
255
255
255
255
255
255
255
255
255
255
255
255
255
255
255
255
255
254
254
253
253
253
243
254
232
101
1
33
79
65
43
57
38
4
10
52
100
132
127
135
137
134
140
154
164
165
172
158
143
119
104
104
70
4
5
1
0
1
1
0
0
1
0
0
1
2
1
2
4
6
12
2
2
11
10
0
0
9
17
14
11
19
40
56
55
47
85
87
82
81
85
82
78
87
94
70
53
69
94
99
99
111
95
102
104
99
89
78
85
106
104
107
94
80
74
63
47
42
60
36
17
22
51
76
79
70
66
72
73
64
56
57
67
75
73
73
71
72
80
83
74
59
94
63
45
55
74
79
74
70
20
17
3
1
4
41
69
80
90
73
43
13
1
0
3
4
2
48
75
50
99
140
130
30
1
144
254
243
254
252
253
172
46
18
33
98
144
139
127
132
111
60
8
0
1
4
4
1
2
13
49
95
135
158
170
178
177
163
146
133
131
139
150
157
145
147
142
154
154
148
147
118
73
14
1
12
15
1
9
56
131
155
159
146
141
136
126
122
121
135
133
137
168
139
68
66
25
0
1
12
6
8
8
1
5
5
4
4
3
1
1
1
12
5
1
0
97
253
255
249
255
255
255
255
255
255
255
255
255
255
255
255
255
255
255
255
255
255
255
255
255
255
255
255
255
255
255
255
255
255
255
255
255
255
255
255
255
255
255
255
255
255
255
255
255
255
255
255
255
255
255
255
255
255
255
255
255
255
255
255
255
255
255
255
255
255
255
255
255
255
255
255
255
255
255
255
255
255
255
255
255
255
255
255
255
255
255
255
255
255
255
255
255
255
255
255
255
255
255
255
255
255
255
255
255
255
255
255
255
255
255
255
255
255
255
255
255
255
255
255
255
255
255
255
255
255
255
255
255
255
255
255
255
255
255
255
255
255
255
255
255
255
255
255
255
255
255
255
255
255
255
255
255
255
255
255
255
255
255
255
255
255
255
255
255
255
255
255
255
255
255
255
255
255
255
255
255
255
255
255
255
255
255
255
255
255
255
255
255
255
255
255
255
255
255
255
255
251
245
251
214
37
3
58
93
33
56
44
6
3
40
89
125
124
131
135
133
138
151
161
165
173
156
146
124
100
109
86
19
4
0
0
1
1
0
0
3
10
5
2
1
1
0
0
4
1
1
0
0
2
2
14
30
46
71
74
46
33
43
39
23
62
65
63
65
70
63
60
72
79
69
59
77
109
107
96
103
94
103
102
99
98
85
87
112
82
79
66
60
67
68
64
66
68
47
32
36
49
59
63
66
70
71
73
70
61
56
65
80
67
68
61
53
57
67
61
46
50
46
48
61
69
59
53
59
16
16
7
2
20
49
54
39
34
31
21
8
2
2
2
1
13
78
76
72
127
149
134
46
0
54
213
254
245
251
142
32
5
66
120
133
129
130
122
107
47
16
0
2
10
4
1
0
17
73
119
127
135
156
166
157
146
135
126
127
137
145
146
143
145
148
142
151
149
144
140
109
44
1
1
14
12
1
25
90
135
156
155
135
125
119
109
107
99
90
112
121
114
128
106
43
40
17
0
2
50
85
78
59
3
3
2
1
1
4
9
12
11
1
15
10
12
183
254
247
254
254
254
254
254
255
255
255
255
255
255
255
255
255
255
255
255
255
255
255
255
255
255
255
255
255
255
255
255
255
255
255
255
255
255
255
255
255
255
255
255
255
255
255
255
255
255
255
255
255
255
255
255
255
255
255
255
255
255
255
255
255
255
255
255
255
255
255
255
255
255
255
255
255
255
255
255
255
255
255
255
255
255
255
255
255
255
255
255
255
255
255
255
255
255
255
255
255
255
255
255
255
255
255
255
255
255
255
255
255
255
255
255
255
255
255
255
255
255
255
255
255
255
255
255
255
255
255
255
255
255
255
255
255
255
255
255
255
255
255
255
255
255
255
255
255
255
255
255
255
255
255
255
255
255
255
255
255
255
255
255
255
255
255
255
255
255
255
255
255
255
255
255
255
255
255
255
255
255
255
255
255
255
255
255
255
255
255
255
255
255
255
255
255
255
255
255
254
233
253
243
147
26
35
71
33
53
43
8
3
28
76
114
122
128
132
132
135
145
156
163
167
153
149
127
102
110
96
39
3
0
0
0
1
0
2
7
4
4
14
27
31
20
5
1
6
16
22
17
23
46
71
87
102
99
92
72
35
11
11
31
24
36
41
44
45
38
37
48
38
43
44
61
86
80
57
55
43
53
53
55
61
48
39
55
65
69
72
81
94
87
69
60
38
57
56
33
27
50
64
63
67
63
60
59
48
37
44
61
53
56
55
48
52
59
52
35
21
46
59
60
62
54
51
61
17
6
0
6
19
27
19
8
1
5
11
5
0
2
9
13
39
84
45
94
148
146
104
64
17
3
191
251
254
102
1
6
82
113
127
118
124
130
88
28
2
0
3
11
3
1
5
30
89
118
134
129
137
155
149
124
126
135
143
142
133
128
130
136
145
147
140
146
144
137
128
89
19
2
2
8
1
2
44
107
131
150
143
119
107
97
86
81
78
77
90
88
79
118
127
59
63
69
5
2
125
216
213
210
215
181
127
71
29
6
2
4
1
1
0
13
1
115
249
247
252
253
253
253
254
255
255
255
255
255
255
255
255
255
255
255
255
255
255
255
255
255
255
255
255
255
255
255
255
255
255
255
255
255
255
255
255
255
255
255
255
255
255
255
255
255
255
255
255
255
255
255
255
255
255
255
255
255
255
255
255
255
255
255
255
255
255
255
255
255
255
255
255
255
255
255
255
255
255
255
255
255
255
255
255
255
255
255
255
255
255
255
255
255
255
255
255
255
255
255
255
255
255
255
255
255
255
255
255
255
255
255
255
255
255
255
255
255
255
255
255
255
255
255
255
255
255
255
255
255
255
255
255
255
255
255
255
255
255
255
255
255
255
255
255
255
255
255
255
255
255
255
255
255
255
255
255
255
255
255
255
255
255
255
255
255
255
255
255
255
255
255
255
255
255
255
255
255
255
255
255
255
255
255
255
255
255
255
255
255
255
255
255
255
255
255
255
255
253
252
251
235
106
4
45
36
49
40
14
2
17
59
105
120
124
129
130
131
138
150
159
160
154
150
130
107
109
98
61
5
0
0
0
0
0
2
7
0
4
33
69
84
67
36
14
7
34
57
66
76
93
101
96
80
64
43
20
2
3
15
32
48
73
87
89
88
85
84
93
89
77
43
16
25
50
75
88
94
100
102
103
103
87
63
52
83
87
87
92
96
76
47
36
27
43
52
41
27
30
49
68
51
44
44
46
38
28
33
45
52
55
55
53
54
54
42
27
25
59
64
58
66
69
68
78
33
7
0
6
13
5
0
3
0
5
5
1
1
17
42
59
72
72
41
116
149
132
86
89
35
17
89
198
105
1
2
74
107
118
135
142
116
64
14
1
1
3
9
2
0
2
46
93
131
123
120
127
134
133
129
127
126
127
131
132
134
137
143
148
141
142
132
136
131
124
107
60
4
6
7
1
0
7
60
112
131
141
126
96
82
72
58
52
50
79
57
50
85
116
124
107
36
78
6
3
129
236
228
227
226
237
246
238
205
151
95
61
14
8
0
1
5
46
183
254
251
252
252
253
254
254
255
255
255
255
255
255
255
255
255
255
255
255
255
255
255
255
255
255
255
255
255
255
255
255
255
255
255
255
255
255
255
255
255
255
255
255
255
255
255
255
255
255
255
255
255
255
255
255
255
255
255
255
255
255
255
255
255
255
255
255
255
255
255
255
255
255
255
255
255
255
255
255
255
255
255
255
255
255
255
255
255
255
255
255
255
255
255
255
255
255
255
255
255
255
255
255
255
255
255
255
255
255
255
255
255
255
255
255
255
255
255
255
255
255
255
255
255
255
255
255
255
255
255
255
255
255
255
255
255
255
255
255
255
255
255
255
255
255
255
255
255
255
255
255
255
255
255
255
255
255
255
255
255
255
255
255
255
255
255
255
255
255
255
255
255
255
255
255
255
255
255
255
255
255
255
255
255
255
255
255
255
255
255
255
255
255
255
254
254
254
254
253
251
231
251
251
192
39
24
33
42
42
24
5
5
45
99
118
122
127
128
127
132
144
155
154
156
152
135
118
108
96
82
10
4
0
1
0
0
0
4
3
4
28
72
100
94
70
53
5
17
32
50
61
61
48
35
3
5
5
1
5
16
11
2
32
71
96
95
91
92
93
99
107
109
97
67
57
85
106
99
107
105
107
104
99
91
67
37
95
95
87
79
72
52
36
37
45
33
38
50
43
22
33
62
46
44
47
52
50
44
43
49
65
60
52
48
49
51
47
43
37
70
74
69
80
84
83
98
44
13
1
5
11
2
1
7
9
8
3
4
19
49
75
90
83
45
87
141
139
112
92
102
73
14
20
43
0
0
88
104
132
123
116
101
59
8
1
4
10
9
4
0
11
45
93
130
124
118
121
127
122
113
120
136
145
134
124
125
135
142
139
133
134
132
119
122
118
108
83
27
4
6
6
1
1
26
74
114
127
127
99
62
48
44
35
29
33
50
29
56
106
112
119
127
49
106
52
9
115
214
220
224
221
227
235
237
229
214
197
185
79
19
3
1
8
1
124
248
251
251
252
252
253
254
255
255
255
255
255
255
255
255
255
255
255
255
255
255
255
255
255
255
255
255
255
255
255
255
255
255
255
255
255
255
255
255
255
255
255
255
255
255
255
255
255
255
255
255
255
255
255
255
255
255
255
255
255
255
255
255
255
255
255
255
255
255
255
255
255
255
255
255
255
255
255
255
255
255
255
255
255
255
255
255
255
255
255
255
255
255
255
255
255
255
255
255
255
255
255
255
255
255
255
255
255
255
255
255
255
255
255
255
255
255
255
255
255
255
255
255
255
255
255
255
255
255
255
255
255
255
255
255
255
255
255
255
255
255
255
255
255
255
255
255
255
255
255
255
255
255
255
255
255
255
255
255
255
255
255
255
255
255
255
255
255
255
255
255
255
255
255
255
255
255
255
255
255
255
255
255
255
255
255
255
255
255
255
255
255
254
254
254
253
253
253
251
239
251
243
242
233
134
1
30
36
44
34
10
1
36
98
117
121
126
127
125
129
141
153
150
159
153
139
124
106
93
96
14
7
2
1
0
0
0
1
14
0
6
41
76
89
84
80
47
18
1
2
12
10
6
7
17
2
7
10
14
6
1
19
12
61
91
88
83
86
88
91
81
97
104
77
58
85
104
84
102
94
95
94
92
101
89
50
82
85
81
73
66
50
43
52
50
43
39
43
46
46
45
47
59
58
62
67
65
58
52
50
73
56
40
36
42
53
66
78
37
74
85
85
94
88
89
114
41
10
1
4
11
4
2
4
3
1
1
12
42
73
89
90
72
24
128
155
125
94
103
99
116
49
2
1
0
70
88
134
117
125
105
54
13
4
8
5
6
1
1
8
46
89
117
125
118
126
128
122
121
125
127
126
123
130
137
138
133
131
134
138
128
125
110
111
110
97
67
6
5
4
2
1
12
42
84
116
114
108
71
29
18
19
16
14
35
12
22
95
120
107
124
113
46
95
50
4
60
164
215
237
235
235
234
230
222
213
203
198
150
5
8
7
5
2
108
213
250
250
251
252
253
254
255
255
255
255
255
255
255
255
255
255
255
255
255
255
255
255
255
255
255
255
255
255
255
255
255
255
255
255
255
255
255
255
255
255
255
255
255
255
255
255
255
255
255
255
255
255
255
255
255
255
255
255
255
255
255
255
255
255
255
255
255
255
255
255
255
255
255
255
255
255
255
255
255
255
255
255
255
255
255
255
255
255
255
255
255
255
255
255
255
255
255
255
255
255
255
255
255
255
255
255
255
255
255
255
255
255
255
255
255
255
255
255
255
255
255
255
255
255
255
255
255
255
255
255
255
255
255
255
255
255
255
255
255
255
255
255
255
255
255
255
255
255
255
255
255
255
255
255
255
255
255
255
255
255
255
255
255
255
255
255
255
255
255
255
255
255
255
255
255
255
255
255
255
255
255
255
255
255
255
255
255
255
255
255
255
255
255
255
255
255
255
255
247
252
255
252
255
196
46
7
10
47
36
8
4
17
67
120
117
116
125
133
125
129
151
151
151
147
135
119
105
98
94
58
3
1
8
1
5
0
8
6
1
9
35
64
81
89
92
91
56
22
10
6
1
1
1
0
4
5
1
1
4
4
3
3
38
89
105
88
84
93
87
87
81
101
98
58
66
99
101
95
107
109
101
99
106
102
89
74
98
86
60
61
71
71
73
61
65
68
81
85
58
42
63
74
69
62
62
72
75
56
32
42
47
58
69
74
76
82
90
47
60
91
87
100
104
117
95
56
5
4
4
1
8
2
1
10
4
15
44
80
95
81
53
31
37
133
146
100
105
114
117
61
28
2
4
50
102
125
126
118
77
27
1
0
1
2
2
11
1
4
42
89
116
122
121
118
120
120
120
120
121
125
128
122
127
130
129
128
128
125
119
110
118
109
98
105
90
40
1
1
4
2
1
6
43
87
118
125
87
38
5
2
8
12
12
2
23
83
121
110
109
118
104
46
96
90
35
46
124
183
197
225
217
225
239
228
200
192
205
169
63
0
9
2
4
46
204
240
255
243
249
255
249
253
253
255
255
255
255
255
255
255
255
255
255
255
255
255
255
255
255
255
255
255
255
255
255
255
255
255
255
255
255
255
255
255
255
255
255
255
255
255
255
255
255
255
255
255
255
255
255
255
255
255
255
255
255
255
255
255
255
255
255
255
255
255
255
255
255
255
255
255
255
255
255
255
255
255
255
255
255
255
255
255
255
255
255
255
255
255
255
255
255
255
255
255
255
255
255
255
255
255
255
255
255
255
255
255
255
255
255
255
255
255
255
255
255
255
255
255
255
255
255
255
255
255
255
255
255
255
255
255
255
255
255
255
255
255
255
255
255
255
255
255
255
255
255
255
255
255
255
255
255
255
255
255
255
255
255
255
255
255
255
255
255
255
255
255
255
255
255
255
255
255
255
255
255
255
255
255
255
255
255
255
255
255
255
255
255
255
255
255
255
255
255
251
249
253
249
255
235
133
3
1
20
49
0
9
4
48
108
115
118
123
129
123
127
145
147
149
149
140
125
109
97
91
67
5
0
4
1
3
0
7
2
1
0
23
66
93
94
84
91
83
71
60
55
51
42
33
24
10
0
0
0
0
2
6
7
17
47
76
95
100
97
96
103
96
104
95
60
59
85
97
95
99
99
92
90
95
95
88
59
62
62
61
61
52
52
63
88
92
88
88
98
85
62
60
94
97
95
88
83
73
50
27
47
59
73
82
84
84
88
92
53
73
88
97
134
111
106
126
55
4
5
4
1
7
2
1
9
3
22
67
88
62
25
10
37
62
88
114
123
111
85
55
17
9
4
32
94
140
117
68
45
24
5
0
1
3
3
4
0
2
28
73
106
114
116
123
121
121
122
123
123
125
126
126
117
124
128
126
121
115
105
94
97
103
105
109
104
68
18
0
1
3
1
0
22
67
106
123
115
73
22
1
2
2
1
1
13
56
110
86
78
125
126
105
66
104
94
40
30
74
125
154
199
214
233
239
227
206
191
185
183
88
3
7
2
0
25
138
250
233
255
250
240
255
255
253
255
255
255
255
255
255
255
255
255
255
255
255
255
255
255
255
255
255
255
255
255
255
255
255
255
255
255
255
255
255
255
255
255
255
255
255
255
255
255
255
255
255
255
255
255
255
255
255
255
255
255
255
255
255
255
255
255
255
255
255
255
255
255
255
255
255
255
255
255
255
255
255
255
255
255
255
255
255
255
255
255
255
255
255
255
255
255
255
255
255
255
255
255
255
255
255
255
255
255
255
255
255
255
255
255
255
255
255
255
255
255
255
255
255
255
255
255
255
255
255
255
255
255
255
255
255
255
255
255
255
255
255
255
255
255
255
255
255
255
255
255
255
255
255
255
255
255
255
255
255
255
255
255
255
255
255
255
255
255
255
255
255
255
255
255
255
255
255
255
255
255
255
255
255
255
255
255
255
255
255
255
255
255
255
255
255
255
255
255
253
255
250
249
249
255
255
219
41
1
2
50
1
5
2
19
89
112
123
121
123
122
125
135
140
147
151
145
130
111
97
88
83
17
0
2
6
3
0
6
1
2
2
8
33
65
82
85
75
80
70
51
47
64
75
74
72
36
6
1
0
0
1
9
4
2
4
39
84
100
97
98
95
94
96
92
75
65
80
101
99
99
99
97
95
92
91
90
55
46
55
71
68
60
67
76
81
93
90
90
106
111
85
61
113
112
103
89
83
77
62
45
75
91
101
98
92
92
94
94
68
61
93
114
129
130
124
86
54
1
5
5
1
5
1
1
4
34
69
81
64
16
3
10
98
115
65
73
105
76
37
8
0
2
33
90
123
105
60
28
4
3
1
4
7
4
1
2
1
17
64
108
121
111
110
120
122
120
120
123
126
127
123
120
125
124
118
109
106
109
111
109
103
102
105
113
95
40
0
1
7
6
1
0
37
90
119
119
95
49
5
1
3
5
3
4
22
107
90
65
113
101
53
69
71
103
103
67
41
43
67
95
134
167
192
193
193
202
204
195
193
118
15
3
4
0
6
56
221
236
255
251
238
255
254
252
255
255
255
255
255
255
255
255
255
255
255
255
255
255
255
255
255
255
255
255
255
255
255
255
255
255
255
255
255
255
255
255
255
255
255
255
255
255
255
255
255
255
255
255
255
255
255
255
255
255
255
255
255
255
255
255
255
255
255
255
255
255
255
255
255
255
255
255
255
255
255
255
255
255
255
255
255
255
255
255
255
255
255
255
255
255
255
255
255
255
255
255
255
255
255
255
255
255
255
255
255
255
255
255
255
255
255
255
255
255
255
255
255
255
255
255
255
255
255
255
255
255
255
255
255
255
255
255
255
255
255
255
255
255
255
255
255
255
255
255
255
255
255
255
255
255
255
255
255
255
255
255
255
255
255
255
255
255
255
255
255
255
255
255
255
255
255
255
255
255
255
255
255
255
255
255
255
255
255
255
255
255
255
255
255
255
255
255
255
248
255
255
255
255
251
255
248
124
8
1
33
28
1
5
1
68
107
126
120
119
122
124
127
135
142
150
147
133
114
98
89
98
35
0
2
9
4
0
8
2
10
9
1
8
31
46
44
39
36
21
6
9
34
61
76
99
67
30
8
2
1
1
2
7
1
12
27
43
66
79
74
86
89
90
92
88
64
60
83
101
97
98
102
99
89
84
85
49
43
54
64
61
74
90
85
90
103
108
107
119
124
99
68
88
87
82
82
90
98
89
74
97
114
121
111
101
104
108
106
93
58
91
129
125
126
107
38
56
1
5
4
1
4
2
1
11
78
93
51
20
4
6
50
131
144
95
65
58
21
2
2
10
37
82
105
77
24
5
11
8
4
3
6
6
1
1
1
4
47
97
121
119
112
110
111
120
117
116
119
123
123
115
109
109
107
101
94
95
104
112
113
108
100
89
84
63
17
0
11
5
5
0
4
46
100
121
113
73
31
1
1
7
3
4
12
64
102
49
93
134
32
2
12
58
92
105
82
54
39
47
71
110
144
171
175
179
192
196
190
187
139
31
0
4
0
3
6
117
246
255
247
255
251
254
255
255
255
255
255
255
255
255
255
255
255
255
255
255
255
255
255
255
255
255
255
255
255
255
255
255
255
255
255
255
255
255
255
255
255
255
255
255
255
255
255
255
255
255
255
255
255
255
255
255
255
255
255
255
255
255
255
255
255
255
255
255
255
255
255
255
255
255
255
255
255
255
255
255
255
255
255
255
255
255
255
255
255
255
255
255
255
255
255
255
255
255
255
255
255
255
255
255
255
255
255
255
255
255
255
255
255
255
255
255
255
255
255
255
255
255
255
255
255
255
255
255
255
255
255
255
255
255
255
255
255
255
255
255
255
255
255
255
255
255
255
255
255
255
255
255
255
255
255
255
255
255
255
255
255
255
255
255
255
255
255
255
255
255
255
255
255
255
255
255
255
255
255
255
255
255
255
255
255
255
255
255
255
255
255
255
255
255
255
255
247
255
255
255
255
245
247
249
204
54
1
18
43
1
7
1
46
96
123
116
116
122
122
121
132
139
146
144
132
116
100
94
102
52
2
1
7
1
0
3
3
1
0
0
18
36
24
3
10
0
0
0
4
11
25
40
75
67
41
9
0
4
3
1
13
15
61
62
12
34
68
54
61
69
69
78
86
65
56
78
99
92
91
95
91
80
77
82
57
47
58
71
71
82
97
92
103
109
114
111
102
94
81
63
45
65
85
100
111
115
107
96
88
111
124
118
113
118
122
120
107
81
87
130
127
79
50
67
62
2
2
4
1
4
2
1
52
83
55
3
1
8
35
90
131
123
118
73
30
16
4
8
15
69
93
52
5
1
0
1
7
1
1
1
3
1
2
6
30
78
113
112
108
119
119
109
119
116
113
115
117
115
106
98
97
103
108
107
103
98
89
80
70
67
49
34
22
2
1
7
1
2
1
6
40
83
100
92
51
22
1
2
3
0
1
15
113
48
66
117
59
0
8
1
37
84
112
94
58
34
44
75
75
101
139
169
182
186
181
176
179
152
54
1
3
0
7
0
13
180
245
252
255
251
255
255
255
255
255
255
255
255
255
255
255
255
255
255
255
255
255
255
255
255
255
255
255
255
255
255
255
255
255
255
255
255
255
255
255
255
255
255
255
255
255
255
255
255
255
255
255
255
255
255
255
255
255
255
255
255
255
255
255
255
255
255
255
255
255
255
255
255
255
255
255
255
255
255
255
255
255
255
255
255
255
255
255
255
255
255
255
255
255
255
255
255
255
255
255
255
255
255
255
255
255
255
255
255
255
255
255
255
255
255
255
255
255
255
255
255
255
255
255
255
255
255
255
255
255
255
255
255
255
255
255
255
255
255
255
255
255
255
255
255
255
255
255
255
255
255
255
255
255
255
255
255
255
255
255
255
255
255
255
255
255
255
255
255
255
255
255
255
255
255
255
255
255
255
255
255
255
255
255
255
255
255
255
255
255
255
255
255
255
255
255
250
255
248
254
255
247
252
254
241
127
8
16
36
19
0
3
27
80
113
111
114
119
119
118
126
134
142
141
131
116
103
97
95
68
10
1
3
0
0
1
9
5
0
0
10
31
37
32
20
2
0
2
4
0
0
9
25
35
27
1
0
6
7
0
7
28
90
95
28
32
74
74
58
61
57
63
74
60
50
66
76
68
62
62
59
54
56
63
66
47
55
82
86
76
79
88
80
79
89
90
78
73
74
70
50
82
112
118
113
112
118
122
78
100
120
124
122
121
119
115
106
93
99
112
73
45
54
94
70
2
2
4
2
4
2
2
43
39
12
2
1
12
65
135
142
96
90
48
4
9
4
12
22
39
33
6
1
4
11
3
2
1
1
1
3
2
4
7
58
96
113
101
100
118
120
104
108
105
104
102
101
96
88
81
92
92
89
76
64
54
41
30
16
21
12
1
3
4
1
4
0
4
3
2
14
32
40
38
21
7
1
4
4
2
16
36
76
40
112
70
6
17
12
10
4
67
123
133
99
53
44
68
60
67
96
138
168
177
181
185
180
160
82
5
3
0
6
0
0
78
228
255
241
255
255
251
255
255
255
255
255
255
255
255
255
255
255
255
255
255
255
255
255
255
255
255
255
255
255
255
255
255
255
255
255
255
255
255
255
255
255
255
255
255
255
255
255
255
255
255
255
255
255
255
255
255
255
255
255
255
255
255
255
255
255
255
255
255
255
255
255
255
255
255
255
255
255
255
255
255
255
255
255
255
255
255
255
255
255
255
255
255
255
255
255
255
255
255
255
255
255
255
255
255
255
255
255
255
255
255
255
255
255
255
255
255
255
255
255
255
255
255
255
255
255
255
255
255
255
255
255
255
255
255
255
255
255
255
255
255
255
255
255
255
255
255
255
255
255
255
255
255
255
255
255
255
255
255
255
255
255
255
255
255
255
255
255
255
255
255
255
255
255
255
255
255
255
255
255
255
255
255
255
255
255
255
255
255
255
255
255
255
255
255
255
254
255
247
254
255
251
255
254
250
205
67
14
42
28
2
1
12
63
98
104
110
114
113
113
119
128
139
142
133
118
104
97
88
84
24
0
2
0
3
1
8
11
8
0
0
6
38
64
41
28
13
3
0
0
0
0
1
8
8
0
0
4
5
1
5
17
55
73
48
27
53
87
93
88
77
71
67
49
29
27
44
42
40
40
40
38
39
41
49
40
40
56
69
60
56
67
68
70
88
97
92
96
101
89
85
108
125
118
107
108
119
128
81
95
113
122
121
116
113
114
111
93
80
70
29
65
94
90
79
5
2
3
3
5
2
2
8
4
3
2
14
50
106
148
131
76
34
11
1
3
6
7
18
0
1
1
9
5
4
10
2
2
4
4
1
0
6
16
81
97
103
95
94
100
99
87
82
81
79
75
69
61
56
52
48
42
27
9
2
1
0
0
0
2
0
0
5
6
1
5
4
3
3
1
0
1
2
2
2
1
0
2
5
13
32
49
29
85
97
12
0
21
0
10
1
26
89
149
153
99
59
62
103
91
96
122
156
176
184
187
187
163
107
13
5
1
0
3
8
16
157
248
246
255
255
249
255
255
255
255
255
255
255
255
255
255
255
255
255
255
255
255
255
255
255
255
255
255
255
255
255
255
255
255
255
255
255
255
255
255
255
255
255
255
255
255
255
255
255
255
255
255
255
255
255
255
255
255
255
255
255
255
255
255
255
255
255
255
255
255
255
255
255
255
255
255
255
255
255
255
255
255
255
255
255
255
255
255
255
255
255
255
255
255
255
255
255
255
255
255
255
255
255
255
255
255
255
255
255
255
255
255
255
255
255
255
255
255
255
255
255
255
255
255
255
255
255
255
255
255
255
255
255
255
255
255
255
255
255
255
255
255
255
255
255
255
255
255
255
255
255
255
255
255
255
255
255
255
255
255
255
255
255
255
255
255
255
255
255
255
255
255
255
255
255
255
255
255
255
255
255
255
255
255
255
255
255
255
255
255
255
255
255
255
255
255
255
251
255
255
251
255
246
250
255
134
7
64
26
12
2
3
52
89
100
108
111
110
111
113
124
138
142
135
119
105
96
86
96
37
4
5
1
9
1
1
1
0
0
1
1
11
25
47
50
43
22
10
10
7
0
3
1
1
1
2
1
2
3
2
6
4
24
45
8
4
69
91
89
85
82
77
63
43
32
55
61
69
73
74
72
66
60
41
53
42
36
56
67
62
64
78
84
106
116
111
116
107
76
100
114
122
119
115
117
113
108
85
90
102
114
116
116
121
127
131
102
33
30
64
103
90
97
84
8
1
3
3
6
2
1
10
6
2
7
36
103
139
130
85
55
1
5
9
1
7
2
1
1
6
4
4
3
2
1
1
0
4
1
1
0
13
34
93
93
95
95
91
80
71
68
58
58
55
49
41
32
27
24
9
10
5
1
0
1
4
3
2
4
2
2
5
0
0
5
1
0
1
7
6
1
1
8
1
0
0
1
0
6
22
33
49
116
41
3
9
3
11
2
6
0
24
118
171
132
81
75
86
79
83
111
153
185
189
181
192
161
120
18
8
4
0
8
0
0
61
211
255
240
253
255
255
255
255
255
255
255
255
255
255
255
255
255
255
255
255
255
255
255
255
255
255
255
255
255
255
255
255
255
255
255
255
255
255
255
255
255
255
255
255
255
255
255
255
255
255
255
255
255
255
255
255
255
255
255
255
255
255
255
255
255
255
255
255
255
255
255
255
255
255
255
255
255
255
255
255
255
255
255
255
255
255
255
255
255
255
255
255
255
255
255
255
255
255
255
255
255
255
255
255
255
255
255
255
255
255
255
255
255
255
255
255
255
255
255
255
255
255
255
255
255
255
255
255
255
255
255
255
255
255
255
255
255
255
255
255
255
255
255
255
255
255
255
255
255
255
255
255
255
255
255
255
255
255
255
255
255
255
255
255
255
255
255
255
255
255
255
255
255
255
255
255
255
255
255
255
255
255
255
255
255
255
255
255
255
255
255
255
255
255
255
255
255
255
255
255
254
253
241
255
203
76
9
47
23
1
0
31
71
96
108
113
114
110
108
115
127
134
133
123
108
99
92
93
58
9
1
4
4
0
3
0
0
12
2
0
10
0
5
13
76
81
55
50
24
9
2
2
4
5
4
2
1
0
4
1
0
2
2
2
8
16
37
48
56
52
60
71
68
54
51
80
83
74
81
85
79
80
76
63
73
27
72
89
99
92
77
91
97
98
108
117
99
69
109
124
107
119
128
106
107
113
99
82
99
117
109
122
135
112
85
62
27
60
96
87
90
89
98
25
3
4
4
4
3
8
8
3
6
16
84
138
129
86
16
13
8
3
0
0
1
2
0
0
0
0
0
0
0
0
1
0
5
2
1
2
10
50
95
89
82
76
65
57
58
65
53
46
33
21
10
5
4
4
2
2
1
1
1
0
0
0
0
0
0
0
0
0
0
0
0
0
0
0
0
0
0
0
2
4
0
1
8
3
5
28
99
54
11
0
2
2
2
3
0
5
1
30
140
173
124
129
120
98
92
119
155
176
182
185
180
169
125
43
1
2
4
6
3
11
1
148
255
231
251
255
251
252
253
255
255
255
255
255
255
255
255
255
255
255
255
255
255
255
255
255
255
255
255
255
255
255
255
255
255
255
255
255
255
255
255
255
255
255
255
255
255
255
255
255
255
255
255
255
255
255
255
255
255
255
255
255
255
255
255
255
255
255
255
255
255
255
255
255
255
255
255
255
255
255
255
255
255
255
255
255
255
255
255
255
255
255
255
255
255
255
255
255
255
255
255
255
255
255
255
255
255
255
255
255
255
255
255
255
255
255
255
255
255
255
255
255
255
255
255
255
255
255
255
255
255
255
255
255
255
255
255
255
255
255
255
255
255
255
255
255
255
255
255
255
255
255
255
255
255
255
255
255
255
255
255
255
255
255
255
255
255
255
255
255
255
255
255
255
255
255
255
255
255
255
255
255
255
255
255
255
255
255
255
255
255
255
255
255
255
255
255
255
255
255
255
254
253
252
255
233
126
1
50
29
6
0
21
58
89
103
107
107
108
104
110
120
129
131
124
110
100
92
90
66
25
1
3
6
0
4
0
0
6
0
0
22
46
19
7
58
85
73
85
78
41
4
4
3
0
0
0
0
5
3
1
2
5
4
1
4
10
25
47
66
71
72
77
76
72
45
67
78
75
76
79
76
79
79
73
73
48
57
90
90
83
83
90
91
89
94
100
87
66
89
118
110
115
122
114
122
123
111
84
97
123
121
119
103
66
69
67
40
51
96
90
94
95
76
15
8
4
2
6
3
1
7
4
6
51
122
140
87
24
12
9
6
3
0
0
0
1
0
0
0
0
0
0
0
0
2
0
3
2
1
3
10
49
109
96
79
67
63
59
56
52
27
22
15
6
2
0
0
1
2
2
1
1
1
0
0
0
0
0
0
0
0
0
0
0
0
0
0
0
0
0
0
0
4
1
1
4
3
1
21
68
76
40
6
0
2
1
1
2
2
1
1
13
86
152
157
157
144
122
114
134
163
177
181
182
178
169
127
51
2
2
3
3
5
0
0
69
227
251
254
249
251
252
253
255
255
255
255
255
255
255
255
255
255
255
255
255
255
255
255
255
255
255
255
255
255
255
255
255
255
255
255
255
255
255
255
255
255
255
255
255
255
255
255
255
255
255
255
255
255
255
255
255
255
255
255
255
255
255
255
255
255
255
255
255
255
255
255
255
255
255
255
255
255
255
255
255
255
255
255
255
255
255
255
255
255
255
255
255
255
255
255
255
255
255
255
255
255
255
255
255
255
255
255
255
255
255
255
255
255
255
255
255
255
255
255
255
255
255
255
255
255
255
255
255
255
255
255
255
255
255
255
255
255
255
255
255
255
255
255
255
255
255
255
255
255
255
255
255
255
255
255
255
255
255
255
255
255
255
255
255
255
255
255
255
255
255
255
255
255
255
255
255
255
255
255
255
255
255
255
255
255
255
255
255
255
255
255
255
255
255
255
255
255
255
255
254
253
253
249
255
188
2
39
36
23
1
7
37
74
96
100
102
107
99
104
111
122
128
124
113
101
92
86
80
46
2
1
8
1
0
2
1
2
2
2
53
135
102
32
29
83
89
90
102
71
32
20
6
1
2
2
1
0
2
1
3
7
5
0
0
3
12
36
69
84
82
77
80
86
49
57
75
82
75
74
79
79
81
83
76
72
45
89
84
77
82
83
82
81
85
87
84
78
69
107
110
105
108
113
122
117
105
82
86
100
89
77
65
48
78
92
64
45
98
89
86
84
53
3
11
4
2
7
8
2
20
14
38
86
113
90
36
3
6
5
4
2
1
0
0
0
0
0
0
0
0
0
0
0
2
0
4
1
1
4
8
44
98
92
78
64
61
61
48
31
6
4
2
0
0
0
1
1
2
2
1
1
1
0
0
0
0
0
0
0
0
0
0
0
0
0
0
0
0
0
0
0
7
0
1
8
0
2
47
96
44
21
1
1
2
1
0
2
8
1
3
2
28
114
170
174
167
148
138
149
167
175
177
178
176
170
130
64
13
2
3
2
6
1
9
4
140
255
250
247
251
252
253
255
255
255
255
255
255
255
255
255
255
255
255
255
255
255
255
255
255
255
255
255
255
255
255
255
255
255
255
255
255
255
255
255
255
255
255
255
255
255
255
255
255
255
255
255
255
255
255
255
255
255
255
255
255
255
255
255
255
255
255
255
255
255
255
255
255
255
255
255
255
255
255
255
255
255
255
255
255
255
255
255
255
255
255
255
255
255
255
255
255
255
255
255
255
255
255
255
255
255
255
255
255
255
255
255
255
255
255
255
255
255
255
255
255
255
255
255
255
255
255
255
255
255
255
255
255
255
255
255
255
255
255
255
255
255
255
255
255
255
255
255
255
255
255
255
255
255
255
255
255
255
255
255
255
255
255
255
255
255
255
255
255
255
255
255
255
255
255
255
255
255
255
255
255
255
255
255
255
255
255
255
255
255
255
255
255
255
255
255
255
255
255
254
253
249
242
253
228
41
14
36
46
2
0
12
53
88
97
99
104
100
101
106
117
125
124
112
101
94
83
88
62
7
1
9
1
0
2
1
0
7
6
64
191
211
86
5
54
87
62
76
83
83
51
14
1
1
6
3
2
1
0
2
6
4
0
0
4
5
17
48
74
81
76
76
83
63
53
66
81
74
74
81
76
82
85
82
84
44
82
86
80
86
83
82
84
84
84
88
92
61
87
99
98
99
104
108
103
112
84
68
68
64
63
74
84
93
108
77
42
93
82
69
73
53
3
5
5
1
6
9
1
14
57
110
106
59
19
8
7
1
2
3
3
3
2
0
0
0
0
0
0
0
0
0
0
1
0
7
1
1
4
2
29
76
92
96
79
61
47
27
6
3
3
3
2
2
1
1
1
2
2
1
1
1
0
0
0
0
0
0
0
0
0
0
0
0
0
0
0
0
0
0
0
2
1
2
1
1
29
70
78
18
6
0
2
3
1
0
1
5
1
11
2
2
67
130
158
175
163
157
163
171
173
172
173
177
173
129
75
24
1
4
3
5
2
11
1
41
240
250
253
251
252
253
255
255
255
255
255
255
255
255
255
255
255
255
255
255
255
255
255
255
255
255
255
255
255
255
255
255
255
255
255
255
255
255
255
255
255
255
255
255
255
255
255
255
255
255
255
255
255
255
255
255
255
255
255
255
255
255
255
255
255
255
255
255
255
255
255
255
255
255
255
255
255
255
255
255
255
255
255
255
255
255
255
255
255
255
255
255
255
255
255
255
255
255
255
255
255
255
255
255
255
255
255
255
255
255
255
255
255
255
255
255
255
255
255
255
255
255
255
255
255
255
255
255
255
255
255
255
255
255
255
255
255
255
255
255
255
255
255
255
255
255
255
255
255
255
255
255
255
255
255
255
255
255
255
255
255
255
255
255
255
255
255
255
255
255
255
255
255
255
255
255
255
255
255
255
255
255
255
255
255
255
255
255
255
255
255
255
255
255
255
255
255
255
254
253
246
250
253
243
121
4
27
58
22
0
0
30
75
96
100
101
103
102
104
112
120
120
110
101
97
83
90
72
14
1
6
2
2
2
1
0
3
0
46
189
254
151
9
14
67
50
50
72
106
81
46
16
3
2
4
7
1
0
0
3
2
0
2
8
3
2
18
49
74
79
76
76
73
51
55
71
73
78
83
75
82
80
85
81
51
63
88
83
88
86
87
90
88
85
88
95
70
71
85
96
96
92
87
88
94
62
33
42
69
85
90
100
89
100
81
47
72
68
64
82
72
9
0
5
0
6
4
4
33
101
138
91
19
11
9
4
0
1
3
5
5
3
2
0
0
0
0
0
0
0
0
0
1
1
10
2
5
5
1
11
60
92
109
84
46
18
4
1
3
4
5
6
5
4
3
2
2
2
1
1
1
0
0
0
0
0
0
0
0
0
0
0
0
0
0
0
0
0
0
0
1
4
6
0
8
65
77
30
4
3
2
4
4
1
1
0
1
1
9
2
3
24
64
126
171
169
171
174
176
173
172
173
181
176
130
87
34
1
6
6
3
0
1
5
0
177
255
253
251
252
253
255
255
255
255
255
255
255
255
255
255
255
255
255
255
255
255
255
255
255
255
255
255
255
255
255
255
255
255
255
255
255
255
255
255
255
255
255
255
255
255
255
255
255
255
255
255
255
255
255
255
255
255
255
255
255
255
255
255
255
255
255
255
255
255
255
255
255
255
255
255
255
255
255
255
255
255
255
255
255
255
255
255
255
255
255
255
255
255
255
255
255
255
255
255
255
255
255
255
255
255
255
255
255
255
255
255
255
255
255
255
255
255
255
255
255
255
255
255
255
255
255
255
255
255
255
255
255
255
255
255
255
255
255
255
255
255
255
255
255
255
255
255
255
255
255
255
255
255
255
255
255
255
255
255
255
255
255
255
255
255
255
255
255
255
255
255
255
255
255
255
255
255
255
255
255
255
255
255
255
255
255
255
255
255
255
255
255
255
255
255
255
255
254
253
253
254
251
250
196
37
14
55
47
12
0
11
54
86
96
98
102
102
103
108
114
114
109
101
98
85
89
77
30
1
1
3
3
0
3
0
3
0
43
188
252
215
82
3
34
59
47
35
65
78
85
70
38
12
4
6
2
0
0
3
2
0
3
10
5
4
6
28
58
75
77
77
78
56
48
62
76
84
83
76
79
73
80
73
57
41
76
79
73
77
82
88
89
88
91
96
86
62
74
86
82
72
59
63
51
45
34
46
85
95
87
92
88
95
91
59
42
61
77
97
83
24
2
3
3
4
2
34
101
111
89
33
2
13
15
3
0
1
2
4
4
3
2
1
0
0
0
0
0
0
0
0
0
2
11
2
6
6
0
3
26
56
74
54
18
1
1
4
0
0
0
2
2
2
1
0
2
2
1
1
1
0
0
0
0
0
0
0
0
0
0
0
0
0
0
0
0
0
0
0
0
11
8
0
27
77
61
2
2
3
4
4
2
0
0
0
1
4
3
0
5
2
16
90
148
159
173
179
179
176
174
175
182
179
132
98
45
1
8
7
3
3
1
1
2
97
255
248
251
252
253
255
255
255
255
255
255
255
255
255
255
255
255
255
255
255
255
255
255
255
255
255
255
255
255
255
255
255
255
255
255
255
255
255
255
255
255
255
255
255
255
255
255
255
255
255
255
255
255
255
255
255
255
255
255
255
255
255
255
255
255
255
255
255
255
255
255
255
255
255
255
255
255
255
255
255
255
255
255
255
255
255
255
255
255
255
255
255
255
255
255
255
255
255
255
255
255
255
255
255
255
255
255
255
255
255
255
255
255
255
255
255
255
255
255
255
255
255
255
255
255
255
255
255
255
255
255
255
255
255
255
255
255
255
255
255
255
255
255
255
255
255
255
255
255
255
255
255
255
255
255
255
255
255
255
255
255
255
255
255
255
255
255
255
255
255
255
255
255
255
255
255
255
255
255
255
255
255
255
255
255
255
255
255
255
255
255
255
255
255
255
255
255
254
253
254
249
255
254
236
108
6
38
68
33
1
0
29
68
90
96
97
98
100
104
108
110
106
104
98
88
88
83
50
9
0
4
2
0
6
0
2
7
54
196
252
255
176
36
5
69
65
16
14
42
73
82
62
31
7
0
3
2
4
7
5
1
1
6
7
2
1
14
36
56
70
76
74
61
47
51
71
77
70
65
66
65
65
69
59
27
55
74
63
69
77
82
85
87
87
86
84
47
60
71
64
63
55
63
60
76
65
63
95
100
88
98
97
87
84
58
17
75
97
90
66
32
10
1
9
14
26
80
122
77
23
1
2
13
11
6
0
0
0
1
1
1
0
0
0
0
0
0
0
0
0
0
0
2
9
1
4
7
0
1
1
10
19
14
2
0
0
8
1
0
0
1
1
1
1
1
2
2
1
1
1
0
0
0
0
0
0
0
0
0
0
0
0
0
0
0
0
0
0
0
4
8
2
8
38
50
24
0
2
4
4
2
1
1
1
1
2
2
5
2
4
1
2
49
103
126
156
172
174
174
175
178
181
180
134
110
55
1
7
6
5
44
23
2
8
29
204
250
251
252
253
255
255
255
255
255
255
255
255
255
255
255
255
255
255
255
255
255
255
255
255
255
255
255
255
255
255
255
255
255
255
255
255
255
255
255
255
255
255
255
255
255
255
255
255
255
255
255
255
255
255
255
255
255
255
255
255
255
255
255
255
255
255
255
255
255
255
255
255
255
255
255
255
255
255
255
255
255
255
255
255
255
255
255
255
255
255
255
255
255
255
255
255
255
255
255
255
255
255
255
255
255
255
255
255
255
255
255
255
255
255
255
255
255
255
255
255
255
255
255
255
255
255
255
255
255
255
255
255
255
255
255
255
255
255
255
255
255
255
255
255
255
255
255
255
255
255
255
255
255
255
255
255
255
255
255
255
255
255
255
255
255
255
255
255
255
255
255
255
255
255
255
255
255
255
255
255
255
255
255
255
255
255
255
255
255
255
255
255
255
255
255
255
254
253
253
232
255
254
246
168
3
27
79
48
7
0
14
53
84
94
93
95
98
101
104
106
105
106
97
92
89
86
64
17
0
3
7
0
10
0
0
2
51
190
251
253
230
75
1
73
89
29
4
8
18
32
41
34
16
2
3
4
8
12
9
1
0
1
8
3
4
5
17
36
57
74
64
61
43
39
59
62
47
44
53
58
49
67
56
21
39
70
73
80
82
79
78
78
72
66
63
27
47
58
60
75
79
92
104
103
60
41
82
98
85
89
98
70
61
42
6
100
115
74
41
32
17
1
13
31
54
117
87
32
1
8
15
2
1
4
0
0
0
0
0
0
0
0
0
0
0
0
0
0
0
0
0
2
5
2
1
8
0
5
4
1
0
0
6
4
0
0
2
2
2
1
1
1
2
2
2
2
1
1
1
0
0
0
0
0
0
0
0
0
0
0
0
0
0
0
0
0
0
0
10
2
2
17
40
16
0
6
3
4
3
2
2
1
2
1
3
1
13
6
3
5
0
15
62
93
132
156
165
169
174
177
178
180
135
120
63
0
7
4
5
97
51
20
1
0
141
254
251
252
253
255
255
255
255
255
255
255
255
255
255
255
255
255
255
255
255
255
255
255
255
255
255
255
255
255
255
255
255
255
255
255
255
255
255
255
255
255
255
255
255
255
255
255
255
255
255
255
255
255
255
255
255
255
255
255
255
255
255
255
255
255
255
255
255
255
255
255
255
255
255
255
255
255
255
255
255
255
255
255
255
255
255
255
255
255
255
255
255
255
255
255
255
255
255
255
255
255
255
255
255
255
255
255
255
255
255
255
255
255
255
255
255
255
255
255
255
255
255
255
255
255
255
255
255
255
255
255
255
255
255
255
255
255
255
255
255
255
255
255
255
255
255
255
255
255
255
255
255
255
255
255
255
255
255
255
255
255
253
254
255
255
255
255
251
252
255
255
255
254
255
254
254
254
253
253
253
253
253
254
253
252
253
253
252
252
252
251
252
253
253
253
253
252
251
255
246
255
254
250
196
69
2
76
78
16
1
7
23
66
92
84
96
102
96
94
99
101
99
97
91
96
89
91
21
0
2
3
0
8
0
2
3
43
195
253
249
228
58
8
71
86
55
13
4
0
3
2
1
4
8
2
2
24
57
67
48
25
16
3
6
7
2
0
11
31
44
50
44
31
16
14
21
21
16
20
22
33
29
34
36
36
71
57
55
51
48
47
49
50
53
37
33
61
94
103
101
100
102
89
89
63
55
88
100
85
77
53
41
85
103
58
55
71
43
74
64
13
9
46
65
63
75
25
7
0
1
4
0
0
5
0
0
0
0
0
0
0
0
0
0
0
0
0
0
0
0
0
0
0
0
0
0
0
0
2
2
2
2
2
2
2
2
0
0
0
0
0
0
0
0
0
0
0
0
0
0
0
0
0
0
0
0
0
0
0
0
2
1
0
0
0
0
1
2
4
4
4
4
4
4
4
4
1
1
1
1
1
1
1
1
0
0
1
2
3
4
4
5
37
69
94
115
152
176
174
165
178
170
149
114
78
2
1
6
1
46
138
32
5
3
77
232
255
252
255
253
254
255
255
255
255
255
255
255
255
255
255
255
255
255
255
255
255
255
255
255
255
255
255
255
255
255
255
255
255
255
255
255
255
255
255
255
255
255
255
255
255
255
255
255
255
255
255
255
255
255
255
255
255
255
255
255
255
255
255
255
255
255
255
255
255
255
255
255
255
255
255
255
255
255
255
255
255
255
255
255
255
255
255
255
255
255
255
255
255
255
255
255
255
255
255
255
255
255
255
255
255
255
255
255
255
255
255
255
255
255
255
255
255
255
255
255
255
255
255
255
255
255
255
255
255
255
255
255
255
255
255
255
255
255
255
255
255
255
255
255
255
255
255
255
255
255
255
255
255
255
255
255
255
255
254
252
252
254
255
255
254
255
252
249
251
251
249
253
255
248
250
251
251
251
250
248
247
254
254
254
254
254
254
255
254
253
254
254
255
255
255
255
255
255
253
255
255
255
225
108
2
48
76
38
6
1
1
47
92
91
90
93
98
99
97
96
100
97
101
92
92
82
42
2
2
4
0
7
0
2
1
34
170
243
254
219
65
18
52
74
69
23
10
1
4
6
4
1
1
5
2
15
42
64
70
68
68
40
23
13
15
6
2
10
33
65
63
54
39
31
37
42
43
68
74
72
57
53
36
13
35
53
56
61
68
77
86
93
96
76
69
79
94
91
85
91
97
90
88
73
78
100
87
56
51
82
78
91
107
89
50
38
53
99
74
20
23
77
63
14
16
16
2
0
4
8
2
0
4
0
0
0
0
0
0
0
0
0
0
0
0
0
0
0
0
0
0
0
0
0
0
0
0
2
2
2
2
2
2
2
2
0
0
0
0
0
0
0
0
0
0
0
0
0
0
0
0
0
0
0
0
0
0
0
0
2
1
0
0
0
0
1
2
4
4
4
4
4
4
4
4
1
1
1
1
1
1
1
1
0
0
1
1
2
3
4
4
36
64
76
79
104
139
164
178
181
175
157
123
86
6
0
4
0
46
113
87
11
2
39
189
252
252
255
252
254
255
250
252
255
255
255
255
255
255
255
255
255
255
255
255
255
255
255
255
255
255
255
255
255
255
255
255
255
255
255
255
255
255
255
255
255
255
255
255
255
255
255
255
255
255
255
255
255
255
255
255
255
255
255
255
255
255
255
255
255
255
255
255
255
255
255
255
255
255
255
255
255
255
255
255
255
255
255
255
255
255
255
255
255
255
255
255
255
255
255
255
255
255
255
255
255
255
255
255
255
255
255
255
255
255
255
255
255
255
255
255
255
255
255
255
255
255
255
255
255
255
255
255
255
255
255
255
255
255
255
255
255
255
255
255
255
255
255
255
255
255
255
255
255
255
255
255
255
255
255
255
255
255
254
254
255
255
255
255
255
255
255
255
255
255
255
252
252
253
253
252
252
252
252
251
251
254
254
254
254
253
249
246
244
254
253
252
251
253
254
254
254
251
254
253
251
254
244
153
12
23
76
62
23
1
1
20
69
95
85
86
99
104
96
92
99
96
106
88
93
70
58
9
1
4
0
5
0
3
0
20
128
238
253
154
24
29
52
70
65
32
18
3
3
4
4
3
3
8
3
3
14
35
54
67
71
80
67
57
49
35
19
17
26
58
70
74
64
51
52
69
85
76
85
85
78
81
63
37
55
102
101
99
97
93
89
85
82
70
64
75
92
90
88
95
101
97
80
51
57
78
69
59
80
85
101
93
97
95
32
16
83
90
95
72
50
60
45
19
9
6
0
0
7
11
5
1
2
0
0
0
0
0
0
0
0
0
0
0
0
0
0
0
0
0
0
0
0
0
0
0
0
2
2
2
2
2
2
2
2
0
0
0
0
0
0
0
0
0
0
0
0
0
0
0
0
0
0
0
0
0
0
0
0
2
1
0
0
0
0
1
2
3
3
3
3
3
3
3
3
1
1
1
1
1
1
1
1
0
0
0
1
2
3
3
4
2
25
43
57
85
118
145
167
177
178
163
132
95
14
1
2
1
28
94
140
57
1
7
127
245
255
255
254
255
255
252
255
255
255
255
255
255
255
255
255
255
255
255
255
255
255
255
255
255
255
255
255
255
255
255
255
255
255
255
255
255
255
255
255
255
255
255
255
255
255
255
255
255
255
255
255
255
255
255
255
255
255
255
255
255
255
255
255
255
255
255
255
255
255
255
255
255
255
255
255
255
255
255
255
255
255
255
255
255
255
255
255
255
255
255
255
255
255
255
255
255
255
255
255
255
255
255
255
255
255
255
255
255
255
255
255
255
255
255
255
255
255
255
255
255
255
255
255
255
255
255
255
255
255
255
255
255
255
255
255
255
255
255
255
255
255
255
255
255
255
255
255
255
254
254
254
254
254
254
254
254
255
255
253
254
255
255
255
253
255
255
249
244
243
245
252
255
252
251
251
249
252
252
252
249
249
251
254
255
255
255
255
255
252
248
242
235
228
224
222
222
221
231
220
225
227
231
186
55
10
74
78
36
9
0
3
27
84
85
89
98
99
95
93
94
96
100
91
92
68
47
9
0
3
0
3
0
3
0
7
82
214
251
99
2
46
67
71
49
23
13
1
1
1
3
6
6
6
6
2
1
7
24
39
45
59
79
80
51
33
29
16
1
31
51
71
68
51
46
65
89
67
73
76
73
82
71
47
65
83
83
84
84
84
84
83
83
51
44
62
83
85
79
73
68
80
61
26
33
62
74
82
108
102
97
72
64
69
35
29
89
98
51
52
87
66
20
4
18
2
0
0
6
9
5
1
1
0
0
0
0
0
0
0
0
0
0
0
0
0
0
0
0
0
0
0
0
0
0
0
0
1
1
1
1
1
1
1
1
0
0
0
0
0
0
0
0
0
0
0
0
0
0
0
0
0
0
0
0
1
1
1
1
2
1
0
0
0
0
1
2
2
2
2
2
2
2
2
2
1
1
1
1
1
1
1
1
0
0
0
1
1
2
2
2
21
24
29
54
87
110
135
166
170
175
165
136
101
20
4
2
5
2
87
154
125
2
3
68
223
255
255
252
255
254
255
255
255
255
255
255
255
255
255
255
255
255
255
255
255
255
255
255
255
255
255
255
255
255
255
255
255
255
255
255
255
255
255
255
255
255
255
255
255
255
255
255
255
255
255
255
255
255
255
255
255
255
255
255
255
255
255
255
255
255
255
255
255
255
255
255
255
255
255
255
255
255
255
255
255
255
255
255
255
255
255
255
255
255
255
255
255
255
255
255
255
255
255
255
255
255
255
255
255
255
255
255
255
255
255
255
255
255
255
255
255
255
255
255
255
255
255
255
255
255
255
255
255
255
255
255
255
255
255
255
255
255
255
255
255
255
255
255
255
255
255
255
255
254
254
254
254
254
254
254
254
253
250
248
248
250
253
253
253
248
250
253
255
255
255
255
254
252
252
253
253
254
254
250
237
225
219
206
187
168
154
146
144
128
122
112
101
90
82
76
74
81
84
78
92
89
100
99
22
4
58
87
49
13
1
1
3
58
81
95
92
90
96
96
89
98
88
100
90
71
22
5
1
2
0
1
0
3
0
0
42
170
241
90
6
57
72
72
45
18
14
5
2
1
3
13
19
3
8
10
4
4
20
40
52
40
65
70
44
22
18
8
2
12
32
59
66
50
37
48
70
66
69
71
67
76
62
36
52
70
70
69
69
70
71
73
74
60
47
52
62
59
50
41
29
53
50
32
36
77
95
89
91
110
76
51
53
66
76
66
44
54
43
70
80
39
4
2
2
3
0
0
3
4
1
0
1
0
0
0
0
0
0
0
0
0
0
0
0
0
0
0
0
0
0
0
0
0
0
0
0
1
1
1
1
1
1
1
1
0
0
0
0
0
0
0
0
0
0
0
0
0
0
0
0
0
0
0
1
1
2
2
2
2
1
0
0
0
0
1
2
2
2
2
2
2
2
2
2
1
1
1
1
1
1
1
1
0
0
0
0
1
1
1
1
0
1
13
63
98
102
120
159
166
178
172
143
108
27
9
3
10
2
67
147
160
9
2
21
184
252
255
250
254
247
255
254
255
255
255
255
255
255
255
255
255
255
255
255
255
255
255
255
255
255
255
255
255
255
255
255
255
255
255
255
255
255
255
255
255
255
255
255
255
255
255
255
255
255
255
255
255
255
255
255
255
255
255
255
255
255
255
255
255
255
255
255
255
255
255
255
255
255
255
255
255
255
255
255
255
255
255
255
255
255
255
255
255
255
255
255
255
255
255
255
255
255
255
255
255
255
255
255
255
255
255
255
255
255
255
255
255
255
255
255
255
255
255
255
255
255
255
255
255
255
255
255
255
255
255
255
255
255
255
255
255
255
255
255
255
255
255
255
255
255
255
255
255
253
253
253
253
253
253
253
253
253
251
250
252
254
255
255
255
255
255
250
245
248
252
248
241
251
241
211
183
160
136
111
94
63
58
49
34
17
6
4
4
12
10
7
4
3
3
2
2
6
4
4
7
4
4
14
4
6
32
80
65
16
0
0
1
29
63
87
82
82
95
97
87
100
85
105
88
61
5
5
3
0
3
1
1
3
0
0
14
148
201
53
5
48
64
70
45
45
44
35
18
4
1
4
6
4
7
8
4
2
13
36
56
49
45
44
38
22
5
4
16
2
16
44
61
55
42
47
62
69
78
77
71
78
61
33
47
70
68
62
55
49
44
42
41
48
32
28
37
44
53
58
53
64
69
44
33
73
101
95
85
62
48
69
95
91
96
70
14
34
98
102
32
4
1
16
6
4
2
1
0
0
0
0
0
0
0
0
0
0
0
0
0
0
0
0
0
0
0
0
0
0
0
0
0
0
0
0
0
0
0
0
0
0
0
0
0
0
0
0
0
0
0
0
0
0
0
0
0
0
0
0
0
0
0
0
1
2
3
3
4
2
1
0
0
0
0
1
2
1
1
1
1
1
1
1
1
1
1
1
1
1
1
1
1
0
0
0
0
0
0
0
0
1
8
27
54
64
52
67
108
164
180
179
153
119
36
12
2
8
1
30
133
152
66
4
1
132
246
255
255
255
248
255
251
255
255
255
255
255
255
255
255
255
255
255
255
255
255
255
255
255
255
255
255
255
255
255
255
255
255
255
255
255
255
255
255
255
255
255
255
255
255
255
255
255
255
255
255
255
255
255
255
255
255
255
255
255
255
255
255
255
255
255
255
255
255
255
255
255
255
255
255
255
255
255
255
255
255
255
255
255
255
255
255
255
255
255
255
255
255
255
255
255
255
255
255
255
255
255
255
255
255
255
255
255
255
255
255
255
255
255
255
255
255
255
255
255
255
255
255
255
255
255
255
255
255
255
255
255
255
255
255
255
255
255
255
255
255
255
255
255
255
255
255
255
253
253
253
253
253
253
253
253
254
255
255
255
255
254
248
243
237
245
253
255
245
215
165
123
40
28
12
0
1
1
5
9
27
38
55
71
86
104
119
131
130
131
133
136
139
141
143
145
148
137
143
138
133
134
130
140
52
9
56
80
31
1
1
7
5
35
64
75
83
94
96
88
96
88
96
78
35
4
6
2
0
6
2
2
2
0
2
0
97
120
4
6
37
48
59
44
66
66
60
45
30
19
8
2
10
3
1
2
1
0
11
27
31
13
4
9
5
1
1
11
2
3
16
39
45
35
33
44
56
61
59
51
52
37
12
29
28
30
34
38
43
46
49
50
24
17
28
44
57
74
89
91
85
88
59
39
67
92
86
79
40
55
95
116
93
64
47
32
100
70
27
10
12
5
7
17
0
1
2
0
0
0
0
0
0
0
0
0
0
0
0
0
0
0
0
0
0
0
0
0
0
0
0
0
0
0
0
0
0
0
0
0
0
0
0
0
0
0
0
0
0
0
0
0
0
0
0
0
0
0
0
0
0
0
1
1
2
3
4
4
2
1
0
0
0
0
1
2
0
0
0
0
0
0
0
0
1
1
1
1
1
1
1
1
0
0
0
0
0
0
0
0
2
2
2
3
34
71
111
146
148
172
182
162
130
47
18
1
4
3
8
109
143
132
22
1
63
222
255
255
255
252
255
251
255
255
255
255
255
255
255
255
255
255
255
255
255
255
255
255
255
255
255
255
255
255
255
255
255
255
255
255
255
255
255
255
255
255
255
255
255
255
255
255
255
255
255
255
255
255
255
255
255
255
255
255
255
255
255
255
255
255
255
255
255
255
255
255
255
255
255
255
255
255
255
255
255
255
255
255
255
255
255
255
255
255
255
255
255
255
255
255
255
255
255
255
255
255
255
255
255
255
255
255
255
255
255
255
255
255
255
255
255
255
255
255
255
255
255
255
255
255
255
255
255
255
255
255
255
255
255
255
255
255
255
255
255
255
255
255
255
255
255
255
255
253
253
253
253
253
253
253
253
251
252
254
255
251
241
229
220
204
157
84
22
0
0
1
0
38
52
70
87
99
112
127
137
162
168
174
173
166
161
160
161
160
160
159
158
157
154
152
151
151
143
157
147
152
158
137
157
106
4
32
88
50
10
1
7
1
12
43
71
87
93
92
90
90
93
84
69
8
9
6
1
0
7
3
3
2
1
5
0
12
50
3
41
44
28
41
45
59
64
65
61
58
53
41
28
14
2
0
9
10
1
1
4
7
2
0
1
1
6
5
0
13
4
4
12
17
8
2
11
6
4
10
10
10
8
3
30
53
56
61
65
67
67
66
66
30
36
58
76
78
78
78
71
79
94
81
71
89
86
56
37
97
98
92
87
66
37
36
92
85
33
16
2
7
2
5
17
0
0
2
1
0
1
0
0
0
0
0
0
0
0
0
0
0
0
0
0
0
0
0
0
0
0
0
0
0
0
0
0
0
0
0
0
0
0
0
0
0
0
0
0
0
0
0
0
0
0
0
0
0
0
0
0
0
0
1
2
3
4
4
5
2
1
0
0
0
0
1
2
0
0
0
0
0
0
0
0
1
1
1
1
1
1
1
1
0
0
0
0
0
0
0
0
2
8
7
8
46
76
64
38
128
159
177
165
137
54
23
1
3
6
7
85
147
172
48
2
2
191
255
251
253
251
255
246
255
255
255
255
255
255
255
255
255
255
255
255
255
255
255
255
255
255
255
255
255
255
255
255
255
255
255
255
255
255
255
255
255
255
255
255
255
255
255
255
255
255
255
255
255
255
255
255
255
255
255
255
255
255
255
255
255
255
255
255
255
255
255
255
255
255
255
255
255
255
255
255
255
255
255
255
255
255
255
255
255
255
255
255
255
255
255
255
255
255
255
255
255
255
255
255
255
255
255
255
255
255
255
255
255
255
255
255
255
255
255
255
255
255
255
255
255
255
255
255
255
255
255
255
255
255
255
255
255
255
255
253
251
252
254
254
254
253
253
252
249
250
253
254
252
244
253
254
249
251
231
204
184
162
122
67
24
1
3
18
45
76
105
123
131
157
160
164
168
169
167
163
161
166
163
157
153
151
152
153
155
150
150
147
149
150
152
152
151
149
151
151
146
140
140
146
153
115
22
1
70
82
21
10
3
2
10
25
46
70
88
93
88
88
98
72
27
4
0
0
3
9
0
9
1
1
6
0
8
13
10
15
43
63
47
21
16
37
51
61
61
60
65
67
64
37
18
11
13
4
1
4
3
2
10
4
6
3
3
4
1
2
4
5
21
41
30
24
46
54
49
47
44
47
54
36
6
32
35
34
31
32
32
23
10
1
9
6
23
70
95
97
101
93
83
87
63
58
42
73
104
97
94
66
35
45
80
84
60
8
7
6
5
5
5
5
6
0
0
0
0
0
0
0
0
0
0
0
0
0
0
0
0
0
0
0
0
0
0
0
0
0
0
0
0
0
0
0
0
0
0
0
0
0
0
0
0
0
0
0
0
0
0
0
0
1
1
1
2
2
1
1
0
1
4
13
6
3
19
40
52
30
6
2
2
0
1
4
1
0
0
0
0
0
0
0
0
0
0
0
0
0
0
0
0
0
0
0
0
0
0
0
0
0
6
8
0
1
29
69
100
130
161
148
172
164
64
6
6
2
4
2
53
144
157
113
2
1
115
252
243
253
249
248
254
253
254
255
255
255
255
255
255
255
255
255
255
255
255
255
255
255
255
255
255
255
255
255
255
255
255
255
255
255
255
255
255
255
255
255
255
255
255
255
255
255
255
255
255
255
255
255
255
255
255
255
255
255
255
255
255
255
255
255
255
255
255
255
255
255
255
255
255
255
255
255
255
255
255
255
255
255
255
255
255
255
255
255
255
255
255
255
255
255
255
255
255
255
255
255
255
255
255
255
255
255
255
255
255
255
255
255
255
255
255
255
255
255
255
255
255
255
255
255
255
255
255
255
255
255
239
253
255
254
253
255
255
255
255
255
254
255
255
254
254
254
253
249
248
253
253
253
225
173
143
100
44
5
2
15
31
40
106
118
136
156
169
173
169
166
168
168
168
166
161
155
149
146
147
147
146
146
146
146
145
145
147
142
135
128
123
118
111
108
100
101
101
97
92
92
97
102
81
31
3
44
71
37
12
4
1
5
19
36
56
77
89
90
92
88
55
16
1
0
0
3
0
0
9
1
1
10
0
10
1
19
44
58
60
45
34
38
36
42
49
54
60
59
51
41
54
38
41
51
47
32
14
9
5
4
3
4
4
3
14
10
6
10
6
14
28
23
23
47
75
76
83
86
84
82
61
30
82
88
89
85
82
82
79
74
62
71
58
51
74
94
92
90
95
104
89
39
52
65
84
78
67
56
47
64
101
115
66
14
7
6
5
4
3
4
4
5
0
0
0
0
0
0
0
0
0
0
0
0
0
0
0
0
0
0
0
0
0
0
0
0
0
0
0
0
0
0
0
0
0
0
0
0
0
0
0
0
0
0
0
0
0
0
0
0
3
2
1
1
1
1
1
1
7
7
0
1
5
41
76
95
33
5
2
2
0
1
0
1
0
0
0
0
0
0
0
0
0
0
0
0
0
0
0
0
0
0
0
0
0
0
0
0
5
3
1
2
11
31
56
74
47
73
110
150
169
110
23
2
4
1
18
21
131
160
133
34
1
70
238
253
253
253
251
254
253
254
255
255
255
255
255
255
255
255
255
255
255
255
255
255
255
255
255
255
255
255
255
255
255
255
255
255
255
255
255
255
255
255
255
255
255
255
255
255
255
255
255
255
255
255
255
255
255
255
255
255
255
255
255
255
255
255
255
255
255
255
255
255
255
255
255
255
255
255
255
255
255
255
255
255
255
255
255
255
255
255
255
255
255
255
255
255
255
255
255
255
255
255
255
255
255
255
255
255
255
255
255
255
255
255
255
255
255
255
255
255
255
255
255
255
255
255
255
255
255
255
255
255
255
255
252
250
252
254
252
247
242
244
250
254
251
244
242
249
255
248
253
254
221
141
69
30
10
4
5
31
71
116
155
180
193
180
177
171
168
166
165
167
167
156
156
156
154
153
149
147
146
139
134
125
113
96
78
65
57
37
33
27
21
17
13
9
7
8
9
9
5
1
1
6
11
18
27
32
30
62
62
17
4
4
3
1
4
21
50
77
89
91
69
29
1
1
1
0
7
0
0
8
1
1
8
4
12
5
62
120
134
108
62
35
36
53
41
33
34
40
49
62
71
48
43
55
74
80
82
82
78
66
45
15
19
23
9
7
3
3
6
3
1
1
2
2
9
29
34
51
67
73
79
73
55
57
73
91
97
96
94
93
92
97
103
84
59
63
76
76
70
37
43
28
14
71
109
108
85
25
62
105
117
94
54
16
14
5
4
3
2
2
2
2
3
0
0
0
0
0
0
0
0
0
0
0
0
0
0
0
0
0
0
0
0
0
0
0
0
0
0
0
0
0
0
0
0
0
0
0
0
0
0
0
0
0
0
0
0
0
0
0
0
1
1
1
2
1
2
2
1
5
0
1
14
55
94
103
93
40
5
1
2
3
1
0
1
0
0
0
0
0
0
0
0
0
0
0
0
0
0
0
0
0
0
0
0
0
0
0
0
0
3
10
11
3
6
35
67
94
111
169
179
172
138
40
1
6
2
21
4
85
157
141
76
6
20
192
254
243
253
254
250
253
254
255
255
255
255
255
255
255
255
255
255
255
255
255
255
255
255
255
255
255
255
255
255
255
255
255
255
255
255
255
255
255
255
255
255
255
255
255
255
255
255
255
255
255
255
255
255
255
255
255
255
255
255
255
255
255
255
255
255
255
255
255
255
255
255
255
255
255
255
255
255
255
255
255
255
255
255
255
255
255
255
255
255
255
255
255
255
255
255
255
255
255
255
255
255
255
255
255
255
255
255
255
255
255
255
255
255
255
255
255
255
255
255
255
255
255
255
255
255
255
255
255
255
255
255
247
246
255
255
246
247
255
255
255
255
252
255
255
227
183
120
59
8
1
6
36
67
79
169
173
180
184
183
176
168
161
174
170
164
159
151
137
121
108
119
110
95
74
52
32
17
10
4
4
4
6
8
7
6
4
2
1
1
1
2
3
3
3
2
2
2
2
2
2
2
4
2
21
62
43
45
73
43
19
22
11
1
2
5
35
61
75
86
52
8
0
3
5
2
10
5
4
6
0
0
2
5
10
17
89
149
156
130
93
65
58
16
12
14
18
14
11
15
26
51
46
56
66
63
64
74
82
95
77
57
75
89
78
75
62
41
47
46
36
26
18
16
22
2
0
2
9
6
7
6
3
20
35
52
60
59
58
60
63
64
62
51
42
51
65
70
70
100
85
64
70
94
72
40
38
81
99
114
98
55
13
2
7
3
2
1
0
0
0
1
1
0
0
0
0
0
0
0
0
0
0
0
0
0
0
0
0
0
0
0
0
0
0
0
0
0
0
0
0
0
0
0
0
0
0
0
0
0
0
0
0
0
0
0
0
0
0
0
0
2
1
2
3
2
2
4
4
2
10
37
67
99
116
103
82
46
7
1
5
7
1
1
3
0
0
0
0
0
0
0
0
0
0
0
0
0
0
0
0
0
0
0
0
0
0
0
0
0
0
7
8
0
1
19
56
95
67
79
104
154
185
110
16
3
7
4
3
27
136
140
109
28
2
120
237
248
253
254
251
253
254
255
255
255
255
255
255
255
255
255
255
255
255
255
255
255
255
255
255
255
255
255
255
255
255
255
255
255
255
255
255
255
255
255
255
255
255
255
255
255
255
255
255
255
255
255
255
255
255
255
255
255
255
255
255
255
255
255
255
255
255
255
255
255
255
255
255
255
255
255
255
255
255
255
255
255
255
255
255
255
255
255
255
255
255
255
255
255
255
255
255
255
255
255
255
255
255
255
255
255
255
255
255
255
255
255
255
255
255
255
255
255
255
255
255
255
255
255
255
255
255
255
255
255
248
254
255
255
244
236
245
255
251
252
248
225
177
108
39
1
0
18
70
115
131
148
181
204
179
179
179
179
178
171
159
150
126
113
98
88
82
69
50
34
1
1
0
1
1
2
2
3
9
8
6
3
0
1
1
1
1
0
0
0
1
2
2
1
1
1
1
1
1
1
1
3
11
26
89
74
29
63
71
44
52
35
11
2
8
35
56
66
84
47
3
0
5
6
1
7
4
3
3
13
13
3
3
5
5
68
120
139
144
139
128
126
113
88
59
38
17
2
5
17
7
4
22
43
48
52
61
65
75
65
57
82
104
105
112
110
96
100
102
91
73
69
75
80
84
68
61
60
56
53
44
28
51
45
39
33
34
37
49
59
47
29
31
54
73
80
86
91
75
86
84
84
72
65
75
113
129
121
95
49
10
9
8
4
2
1
0
0
0
0
0
0
0
0
0
0
0
0
0
0
0
0
0
0
0
0
0
0
0
0
0
0
0
0
0
0
0
0
0
0
0
0
0
0
0
0
0
0
0
0
0
0
0
0
0
0
0
0
0
0
4
4
4
2
1
1
5
9
16
52
89
98
95
94
96
98
45
10
1
5
5
1
3
3
0
0
0
0
0
0
0
0
0
0
0
0
0
0
0
0
0
0
0
0
0
0
0
0
13
0
1
1
5
2
5
16
44
71
98
134
154
166
137
44
1
15
2
6
5
89
148
137
50
6
49
196
254
253
254
254
253
254
255
255
255
255
255
255
255
255
255
255
255
255
255
255
255
255
255
255
255
255
255
255
255
255
255
255
255
255
255
255
255
255
255
255
255
255
255
255
255
255
255
255
255
255
255
255
255
255
255
255
255
255
255
255
255
255
255
255
255
255
255
255
255
255
255
255
255
255
255
255
255
255
255
255
255
255
255
255
255
255
255
255
255
255
255
255
255
255
255
255
255
255
255
255
255
255
255
255
255
255
255
255
255
255
255
255
255
255
255
255
255
255
255
255
255
255
255
255
255
255
255
255
255
247
255
255
247
255
255
255
233
234
169
102
59
20
4
45
108
155
160
185
203
196
187
183
175
176
171
164
152
132
100
64
40
49
28
5
1
0
1
2
2
6
5
4
5
6
8
9
10
5
4
3
3
3
3
5
5
6
4
2
2
3
4
4
3
6
6
5
5
5
6
7
8
9
28
107
113
40
45
71
36
87
58
16
1
0
28
63
83
88
56
13
0
5
4
0
4
1
0
2
37
42
12
3
1
1
30
56
72
98
123
136
146
141
131
121
118
106
76
35
9
32
9
3
17
26
31
34
28
51
44
33
50
67
74
87
89
112
110
117
108
86
82
99
112
116
106
104
108
110
109
93
68
124
113
101
95
95
100
109
118
97
66
66
98
112
105
103
104
106
124
103
59
25
59
101
127
128
104
63
18
5
12
10
13
2
1
0
0
0
0
0
0
0
0
0
0
0
0
0
0
0
0
0
0
0
0
0
0
0
0
0
0
0
0
0
0
0
0
0
0
0
0
0
0
0
0
0
0
0
0
0
0
0
0
0
0
0
0
0
0
2
2
1
1
1
0
9
18
70
86
99
100
99
99
94
84
44
16
1
2
0
1
2
1
0
0
0
0
0
0
0
0
0
0
0
0
0
0
0
0
0
0
0
0
0
0
0
0
5
0
1
6
8
1
1
1
49
60
54
93
135
171
182
107
16
1
2
2
14
35
148
153
74
9
9
130
247
254
255
254
253
254
255
255
255
255
255
255
255
255
255
255
255
255
255
255
255
255
255
255
255
255
255
255
255
255
255
255
255
255
255
255
255
255
255
255
255
255
255
255
255
255
255
255
255
255
255
255
255
255
255
255
255
255
255
255
255
255
255
255
255
255
255
255
255
255
255
255
255
255
255
255
255
255
255
255
255
255
255
255
255
255
255
255
255
255
255
255
255
255
255
255
255
255
255
255
255
255
255
255
255
255
255
255
255
255
255
255
255
255
255
255
255
255
255
255
255
255
255
255
255
255
255
255
255
249
253
250
246
250
243
205
161
54
10
3
38
97
139
173
204
207
194
190
188
186
190
183
163
139
113
74
37
14
6
4
6
1
1
1
7
10
8
1
1
4
4
3
3
1
1
1
1
5
4
3
1
0
0
0
1
0
0
0
0
1
3
3
3
2
2
2
2
2
2
2
2
2
40
112
128
56
33
67
39
80
61
30
5
5
32
68
91
87
65
26
1
2
3
3
12
11
0
3
54
63
17
5
0
12
12
2
3
4
35
68
95
125
124
124
123
125
124
114
101
54
28
14
13
12
21
35
41
37
37
25
35
46
53
70
68
82
79
98
104
84
78
100
118
111
110
113
115
115
113
92
57
116
112
110
114
116
114
115
120
129
95
95
121
126
119
115
108
125
116
93
72
39
91
123
118
110
49
20
6
13
22
6
4
3
2
1
0
0
0
0
0
0
0
0
0
0
0
0
0
0
0
0
0
0
0
0
0
0
0
0
0
0
0
0
0
0
0
0
0
0
0
0
0
0
0
0
0
0
0
0
0
0
0
0
0
0
0
0
0
1
0
1
1
2
17
38
54
94
95
94
97
105
109
88
63
48
29
16
5
1
1
4
1
0
0
0
0
0
0
0
0
0
0
0
0
0
0
0
0
0
0
0
0
0
0
0
0
1
4
12
9
1
0
3
14
5
49
102
144
166
178
167
127
59
3
9
3
13
3
110
148
115
12
8
48
179
251
255
249
253
254
255
255
255
255
255
255
255
255
255
255
255
255
255
255
255
255
255
255
255
255
255
255
255
255
255
255
255
255
255
255
255
255
255
255
255
255
255
255
255
255
255
255
255
255
255
255
255
255
255
255
255
255
255
255
255
255
255
255
255
255
255
255
255
255
255
255
255
255
255
255
255
255
255
255
255
255
255
255
255
255
255
255
255
255
255
255
255
255
255
255
255
255
255
255
255
255
255
255
255
255
255
255
255
255
255
255
255
255
255
255
255
255
255
255
255
255
255
255
255
255
255
255
255
255
250
250
232
161
65
8
0
58
110
167
196
205
209
202
190
196
191
188
177
155
128
85
36
2
2
1
1
1
1
3
5
2
3
4
1
2
2
7
13
2
3
3
3
5
5
5
3
4
4
4
4
4
4
4
3
4
1
0
0
0
1
1
0
2
1
1
2
4
5
5
4
5
65
107
118
57
28
79
76
38
48
56
54
50
55
64
72
83
69
31
2
0
5
12
24
32
9
2
57
66
15
6
6
1
4
9
10
16
10
3
6
6
37
64
72
77
91
106
113
139
119
102
74
31
7
16
27
33
36
21
22
26
26
30
17
31
30
65
91
76
70
94
113
90
95
103
105
107
112
95
59
120
115
114
115
113
110
114
122
112
84
89
111
118
124
128
118
93
61
61
93
77
99
110
104
32
20
10
7
6
2
4
18
3
2
1
0
0
0
0
1
0
0
0
0
0
0
0
0
0
0
0
0
0
0
0
0
0
0
0
0
0
0
0
0
0
0
0
0
0
0
0
0
0
0
0
0
0
0
0
0
0
0
0
0
0
0
0
0
3
4
6
9
22
47
76
97
83
98
106
98
87
84
82
78
55
42
29
9
1
2
7
1
0
0
0
0
0
0
0
0
0
0
0
0
0
0
0
0
0
0
0
0
0
0
0
0
5
3
1
1
1
11
22
25
31
23
57
82
138
192
177
169
98
6
9
12
5
1
60
134
155
13
20
1
111
246
255
247
253
254
255
255
255
255
255
255
255
255
255
255
255
255
255
255
255
255
255
255
255
255
255
255
255
255
255
255
255
255
255
255
255
255
255
255
255
255
255
255
255
255
255
255
255
255
255
255
255
255
255
255
255
255
255
255
255
255
255
255
255
255
255
255
255
255
255
255
255
255
255
255
255
255
255
255
255
255
255
255
255
255
255
255
255
255
255
255
255
255
255
255
255
255
255
255
255
255
255
255
255
255
255
255
255
255
255
255
255
255
254
253
255
255
255
255
255
254
254
254
251
245
255
255
247
251
220
152
66
11
24
93
155
184
202
210
202
197
202
202
196
176
143
107
81
48
10
1
1
11
8
6
4
4
2
0
0
1
1
2
2
4
4
3
3
2
2
10
10
1
3
8
1
3
2
1
0
0
0
0
1
0
0
0
0
0
0
0
0
0
1
1
1
1
2
2
2
18
75
102
81
37
31
93
106
94
112
118
117
126
126
107
95
55
30
6
2
5
23
53
79
77
29
6
34
56
26
2
3
17
1
7
28
11
1
0
1
3
2
1
11
40
65
75
76
61
94
126
132
119
92
55
25
22
12
15
37
55
62
65
68
45
40
33
29
33
49
75
95
100
102
102
107
116
118
96
71
113
114
119
122
120
117
119
125
107
113
76
94
131
100
80
68
83
101
120
121
105
81
64
55
3
3
3
2
2
1
1
1
0
0
0
0
0
0
0
0
0
0
0
0
0
0
0
0
0
0
0
0
0
0
0
0
0
0
0
0
0
0
0
0
4
0
0
0
0
1
4
2
4
5
5
4
2
0
0
2
0
1
2
3
5
9
15
20
32
37
49
62
76
88
97
102
89
90
93
91
87
82
76
72
64
49
29
13
4
0
1
4
0
0
1
3
1
1
1
3
4
0
0
0
2
0
0
0
1
1
1
1
1
1
1
1
1
2
1
1
0
12
30
45
33
21
40
81
129
184
198
166
130
29
5
2
7
7
11
113
154
60
17
2
62
252
235
252
255
255
255
252
254
255
255
252
255
255
255
255
255
255
255
255
255
255
255
255
255
255
255
255
255
255
255
255
255
255
255
255
255
255
255
255
255
255
255
255
255
255
255
255
255
255
255
255
255
255
255
255
255
255
255
255
255
255
255
255
255
255
255
255
255
255
255
255
255
255
255
255
255
255
255
255
255
255
255
255
255
255
255
255
255
255
255
255
255
255
255
255
255
255
255
255
255
255
255
255
255
255
255
255
255
255
255
255
255
255
253
251
250
249
248
249
251
255
244
246
255
255
249
233
209
121
76
29
28
84
155
198
208
200
200
199
197
193
175
143
115
68
43
21
9
2
1
1
10
0
0
0
1
8
13
15
15
10
10
12
11
9
6
3
1
0
0
2
3
1
1
4
1
3
2
1
0
0
0
0
1
0
0
0
0
0
0
0
0
0
1
1
1
1
2
3
2
21
76
105
107
67
12
35
51
99
123
124
113
128
147
140
124
9
1
1
11
9
16
42
61
56
27
6
25
52
39
9
0
1
2
36
84
89
72
58
44
31
22
10
2
2
8
24
36
64
64
70
88
110
118
104
82
57
35
13
13
28
44
56
64
74
69
61
48
32
29
47
69
52
59
64
63
68
79
77
69
99
105
111
109
105
102
103
105
113
121
88
77
96
84
76
82
110
118
126
122
99
64
32
12
3
3
2
2
2
1
1
1
0
0
0
0
0
0
0
0
0
0
0
0
0
0
0
0
0
0
0
0
0
0
0
0
0
0
0
0
0
0
0
0
3
0
5
8
0
1
4
1
2
1
0
0
0
0
1
1
1
6
17
28
39
50
59
65
73
75
79
83
87
91
92
93
91
92
93
91
86
82
77
74
64
58
40
16
2
2
4
1
1
4
2
0
0
5
7
4
5
3
4
5
2
0
0
0
1
1
1
1
1
1
1
1
1
2
2
1
0
12
34
51
53
26
32
70
116
165
188
179
142
62
20
2
10
7
6
67
154
96
30
12
55
219
254
244
248
254
255
255
254
255
255
254
255
255
255
255
255
255
255
255
255
255
255
255
255
255
255
255
255
255
255
255
255
255
255
255
255
255
255
255
255
255
255
255
255
255
255
255
255
255
255
255
255
255
255
255
255
255
255
255
255
255
255
255
255
255
255
255
255
255
255
255
255
255
255
255
255
255
255
255
255
255
255
255
255
255
255
255
255
255
255
255
255
255
255
255
255
255
255
255
255
255
255
255
255
255
255
255
255
255
255
255
255
251
254
255
255
252
251
252
254
249
249
253
254
234
182
95
14
2
57
122
163
186
202
207
202
221
201
175
151
120
77
33
8
8
2
2
2
1
0
0
2
20
20
26
34
43
51
56
56
60
61
61
60
57
53
49
46
31
24
24
20
5
2
5
1
3
2
1
0
0
0
0
1
0
0
0
0
0
0
0
0
0
1
1
1
1
2
4
3
48
99
120
126
99
27
6
13
57
108
133
125
130
144
140
128
52
12
2
10
1
0
4
4
24
18
4
10
38
44
19
0
2
2
37
95
123
124
115
105
88
83
73
57
38
24
14
11
18
34
55
72
74
73
82
92
104
91
62
26
4
4
20
32
64
69
76
74
54
35
38
55
48
56
60
57
54
52
42
29
40
56
67
63
57
57
58
57
65
72
57
35
59
91
98
114
115
121
122
107
76
38
6
2
3
2
2
2
1
1
1
1
0
0
0
0
0
0
0
0
0
0
0
0
0
0
0
0
0
0
0
0
0
0
0
0
0
0
0
0
0
0
0
0
2
3
12
12
0
0
2
0
3
1
1
1
10
16
19
19
35
43
55
67
76
82
86
89
92
93
94
94
95
94
93
93
93
93
92
89
84
82
78
76
66
67
54
27
7
3
3
1
0
5
4
0
0
8
8
1
3
3
6
7
1
0
0
2
1
1
1
1
1
1
1
1
1
2
2
1
1
12
39
61
76
40
33
62
101
142
176
191
168
108
35
0
1
1
5
28
129
136
65
39
30
105
241
244
244
252
255
255
254
255
255
255
255
255
255
255
255
255
255
255
255
255
255
255
255
255
255
255
255
255
255
255
255
255
255
255
255
255
255
255
255
255
255
255
255
255
255
255
255
255
255
255
255
255
255
255
255
255
255
255
255
255
255
255
255
255
255
255
255
255
255
255
255
255
255
255
255
255
255
255
255
255
255
255
255
255
255
255
255
255
255
255
255
255
255
255
255
255
255
255
255
255
255
255
255
255
255
255
255
255
255
255
255
251
255
255
255
253
253
253
251
252
234
228
195
91
6
30
101
150
185
216
219
214
211
201
185
157
107
53
23
8
0
1
2
2
6
11
13
30
56
78
87
83
82
83
86
91
94
96
95
90
91
91
92
89
87
83
82
77
69
65
50
20
3
5
4
3
2
1
0
0
0
0
1
0
0
0
0
0
0
0
0
1
1
1
1
1
3
5
5
58
111
110
101
96
47
7
2
14
80
127
129
123
127
135
145
108
37
1
1
2
7
16
4
2
7
1
1
20
28
12
1
6
1
15
65
106
125
128
128
129
123
118
116
112
96
70
51
22
12
14
31
47
54
64
76
80
95
101
87
67
43
14
2
6
18
44
70
70
57
59
71
89
90
92
99
108
110
96
79
47
71
90
88
84
88
93
91
85
82
74
43
62
110
113
115
111
112
102
73
35
6
1
8
2
2
2
1
1
1
0
0
0
0
0
0
0
0
0
0
0
0
0
0
0
0
0
0
0
0
0
0
0
0
0
0
0
0
0
0
0
0
0
0
2
2
9
6
1
1
11
10
17
15
14
23
38
51
58
59
77
81
87
91
91
89
88
88
91
91
93
93
94
94
94
94
92
91
89
85
82
79
78
77
70
68
61
45
24
4
0
1
0
0
3
3
2
3
6
9
6
2
1
2
0
0
0
4
1
1
1
1
1
1
1
1
1
2
3
1
0
13
45
69
91
65
48
58
85
125
169
196
182
143
58
20
11
1
9
9
85
136
86
56
26
7
170
253
250
255
255
254
255
255
255
254
255
255
255
255
255
255
255
255
255
255
255
255
255
255
255
255
255
255
255
255
255
255
255
255
255
255
255
255
255
255
255
255
255
255
255
255
255
255
255
255
255
255
255
255
255
255
255
255
255
255
255
255
255
255
255
255
255
255
255
255
255
255
255
255
255
255
255
255
255
255
255
255
255
255
255
255
255
255
255
255
255
255
255
255
255
255
255
255
255
255
255
255
255
255
255
255
255
255
255
255
255
255
255
252
248
251
255
255
251
245
197
114
34
22
94
166
186
218
216
206
196
194
182
141
98
45
10
1
1
7
7
3
5
4
37
75
97
114
133
144
144
132
129
127
125
122
121
118
115
109
108
107
105
100
97
94
92
92
87
86
66
24
1
0
4
3
2
1
0
0
0
0
1
0
0
0
0
0
0
0
0
1
1
1
1
1
3
6
7
65
106
94
91
107
73
25
2
0
33
58
64
65
71
98
136
158
108
65
34
1
2
3
3
0
3
1
1
6
5
1
2
2
1
5
47
91
109
112
118
127
118
112
112
119
122
118
112
105
76
46
28
21
28
52
77
68
69
70
73
87
92
76
53
22
7
5
25
38
45
58
74
75
71
70
75
88
99
100
95
67
95
117
118
114
118
122
120
123
114
112
74
71
112
117
113
120
100
68
32
4
1
1
4
2
2
1
1
0
0
0
0
0
0
0
0
0
0
0
0
0
0
0
0
0
0
0
0
0
0
0
0
0
0
0
0
0
0
0
0
0
0
0
0
3
0
3
1
2
20
40
41
49
47
46
53
67
79
84
86
84
86
88
90
88
88
89
90
92
92
92
93
91
90
89
88
88
86
85
81
79
77
77
77
75
65
64
65
46
12
0
2
1
0
0
3
1
2
18
43
19
8
0
0
0
0
0
2
1
1
1
1
1
1
1
1
1
2
3
1
1
16
47
73
100
93
70
50
63
107
159
195
182
162
90
64
40
0
5
1
40
109
91
53
53
2
110
249
255
255
254
251
255
255
255
252
255
255
255
255
255
255
255
255
255
255
255
255
255
255
255
255
255
255
255
255
255
255
255
255
255
255
255
255
255
255
255
255
255
255
255
255
255
255
255
255
255
255
255
255
255
255
255
255
255
255
255
255
255
255
255
255
255
255
255
255
255
255
255
255
255
255
255
255
255
255
255
255
255
255
255
255
255
255
255
255
255
255
255
255
255
255
255
255
255
255
255
255
255
255
255
255
255
255
255
255
255
255
255
250
249
255
255
255
238
156
39
3
85
178
203
197
194
181
198
204
179
126
71
25
1
1
1
12
20
11
0
4
23
86
120
156
172
172
164
151
140
153
149
144
139
136
130
125
122
123
121
116
111
105
101
98
97
84
82
87
72
28
1
0
7
3
2
1
0
0
0
0
1
0
0
0
0
0
0
0
0
2
1
1
1
1
4
7
9
66
92
90
113
137
98
42
6
7
1
3
3
11
14
27
55
84
105
112
86
41
5
2
17
1
5
2
1
4
0
1
7
3
2
2
26
62
79
86
104
104
107
108
105
101
103
112
120
130
129
119
89
51
27
32
49
80
75
63
47
44
60
83
99
88
58
22
1
1
6
25
40
60
67
74
77
78
82
89
95
57
81
103
107
101
101
103
101
108
107
117
92
69
95
122
127
107
72
27
6
5
6
3
2
1
1
1
0
0
0
0
0
0
0
0
0
0
0
0
0
0
0
0
0
0
0
0
0
0
0
0
0
0
0
0
0
0
0
0
0
0
0
0
0
2
0
2
2
11
43
72
78
80
75
73
75
80
85
86
86
77
78
79
81
81
83
85
88
81
82
84
85
86
86
86
85
83
82
81
79
78
77
77
77
77
65
67
76
64
32
8
6
6
0
0
0
0
15
47
79
29
13
0
0
3
3
0
0
1
1
1
1
1
1
1
1
1
2
2
1
1
17
47
72
104
115
94
55
50
84
139
185
190
174
111
76
38
1
1
4
2
84
109
58
62
14
59
205
255
255
255
252
254
255
255
252
255
255
255
255
255
255
255
255
255
255
255
255
255
255
255
255
255
255
255
255
255
255
255
255
255
255
255
255
255
255
255
255
255
255
255
255
255
255
255
255
255
255
255
255
255
255
255
255
255
255
255
255
255
255
255
255
255
255
255
255
255
255
255
255
255
255
255
255
255
255
255
255
255
255
255
255
255
255
255
255
255
255
255
255
255
255
255
255
255
255
255
255
255
255
255
255
255
255
255
255
255
255
255
254
255
255
236
183
132
4
44
126
189
197
191
207
225
220
179
120
67
26
3
0
4
0
1
1
2
4
17
76
131
172
174
171
164
158
159
162
165
147
142
136
128
121
114
107
102
95
93
88
86
85
86
88
89
83
79
86
77
39
7
4
7
3
2
1
0
0
0
0
1
0
0
0
0
0
0
0
0
2
1
1
1
1
4
8
11
53
84
96
121
139
112
61
11
18
11
3
1
12
5
0
3
39
96
124
121
108
63
8
1
0
8
5
2
7
2
1
4
5
7
0
1
21
30
43
73
71
83
96
101
97
92
91
94
98
99
101
107
112
100
68
38
56
71
87
85
63
42
39
46
90
87
72
43
22
11
8
8
16
29
47
61
67
73
82
91
70
88
109
118
116
111
111
114
111
109
117
115
76
72
106
106
56
31
3
2
3
10
8
2
1
1
0
0
0
0
0
0
0
0
0
0
0
0
0
0
0
0
0
0
0
0
0
0
0
0
0
0
0
0
0
0
0
0
0
0
0
0
0
0
0
1
6
3
8
45
82
91
86
83
81
80
81
80
81
81
78
80
81
78
77
77
79
80
70
72
74
77
80
82
83
84
79
79
80
79
79
79
79
79
77
74
72
73
72
58
31
8
1
4
0
0
4
40
69
79
20
8
1
1
3
1
0
0
1
1
1
1
1
1
1
1
2
2
1
1
2
19
46
66
100
127
120
87
66
68
108
164
191
185
139
90
45
6
1
7
2
46
98
80
66
15
21
143
240
250
255
255
253
254
255
255
255
255
255
255
255
255
255
255
255
255
255
255
255
255
255
255
255
255
255
255
255
255
255
255
255
255
255
255
255
255
255
255
255
255
255
255
255
255
255
255
255
255
255
255
255
255
255
255
255
255
255
255
255
255
255
255
255
255
255
255
255
255
255
255
255
255
255
255
255
255
255
255
255
255
255
255
255
255
255
255
255
255
255
255
255
255
255
255
255
255
255
255
255
255
255
255
255
255
255
255
255
253
255
255
251
231
170
69
0
91
162
219
211
198
217
216
179
127
67
7
1
1
5
2
3
6
1
7
35
80
127
162
182
169
168
170
171
165
151
135
127
128
122
113
101
92
82
72
67
62
62
62
63
70
79
87
92
91
81
85
80
46
14
3
1
3
2
1
0
0
0
0
1
0
0
0
0
0
0
0
0
2
1
1
1
1
4
9
12
56
104
121
125
136
136
99
28
4
17
13
3
5
5
1
4
5
55
81
119
181
165
73
17
0
8
6
2
7
13
3
1
2
8
1
1
3
1
1
27
38
43
56
73
88
94
89
83
92
99
99
95
98
104
101
91
62
53
60
82
94
79
52
35
24
63
98
98
71
43
18
8
5
0
2
13
31
47
59
66
51
65
88
105
106
100
102
109
105
98
99
117
79
57
83
67
9
8
5
2
4
4
1
7
1
1
0
0
0
0
0
0
0
0
0
0
0
0
0
0
0
0
0
0
0
0
0
0
0
0
0
0
0
0
0
0
0
0
0
0
0
0
0
0
0
2
9
2
2
35
73
85
76
77
78
79
78
78
79
81
79
81
83
83
80
77
77
77
78
79
79
79
79
78
78
77
79
79
81
81
81
81
80
80
76
83
78
69
73
77
50
9
1
9
8
0
13
58
74
58
1
1
1
1
2
0
0
1
1
1
1
1
1
1
1
1
4
2
1
1
3
20
44
63
93
129
140
121
91
62
84
142
176
191
175
127
82
42
8
2
19
3
52
94
89
32
15
96
224
244
255
255
252
249
253
255
255
255
255
255
255
255
255
255
255
255
255
255
255
255
255
255
255
255
255
255
255
255
255
255
255
255
255
255
255
255
255
255
255
255
255
255
255
255
255
255
255
255
255
255
255
255
255
255
255
255
255
255
255
255
255
255
255
255
255
255
255
255
255
255
255
255
255
255
255
255
255
255
255
255
255
255
255
255
255
255
255
255
255
255
255
255
255
255
255
255
255
255
255
254
239
249
255
247
248
255
252
254
250
252
223
119
14
33
128
213
208
206
208
202
171
123
86
29
10
1
3
5
2
2
9
1
7
30
63
99
122
126
123
126
117
108
104
105
101
93
84
75
68
56
45
42
36
21
6
8
8
9
10
10
18
36
54
75
85
91
89
67
24
3
3
3
2
1
0
0
0
0
1
0
0
0
0
0
0
0
0
0
2
3
1
5
1
3
30
76
112
122
124
127
125
105
58
4
9
4
12
20
5
1
6
9
48
80
104
150
188
159
97
37
1
6
21
2
1
3
4
10
4
3
10
0
0
29
16
28
45
44
40
57
74
76
74
75
82
87
88
90
94
101
104
98
89
73
62
66
82
89
87
42
31
40
77
103
98
78
65
33
12
2
1
7
10
15
25
22
33
55
80
92
98
107
118
114
108
105
102
86
58
40
37
1
0
0
0
0
0
0
0
0
0
0
0
0
0
0
0
0
0
0
0
0
0
0
0
0
0
0
0
0
0
0
0
0
0
0
0
0
0
0
0
0
0
0
0
0
0
0
0
1
1
3
3
0
7
45
88
83
81
78
77
78
79
78
78
81
82
82
83
82
79
77
74
78
79
79
75
71
72
78
83
88
83
77
73
72
71
69
67
59
56
54
55
57
57
53
51
1
2
4
1
25
77
76
18
2
2
1
1
1
0
0
0
4
1
0
9
2
0
6
8
5
1
0
1
2
6
31
60
73
130
120
127
121
89
58
126
159
187
181
155
123
53
1
9
7
0
37
82
99
53
7
54
179
246
253
254
254
242
255
254
255
255
255
255
255
255
255
255
255
255
255
255
255
255
255
255
255
255
255
255
255
255
255
255
255
255
255
255
255
255
255
255
255
255
255
255
255
255
255
255
255
255
255
255
255
255
255
255
255
255
255
255
255
255
255
255
255
255
255
255
255
255
255
255
255
255
255
255
255
255
255
255
255
255
255
255
255
255
255
255
255
255
255
255
255
255
255
255
255
255
255
255
255
254
255
255
251
255
255
248
251
252
253
198
76
14
86
176
192
189
205
214
194
144
82
32
7
1
1
1
10
13
3
0
2
1
3
10
25
39
43
39
34
35
33
30
29
31
31
30
28
32
25
12
3
2
1
3
1
2
0
3
6
6
4
5
9
28
53
81
94
75
24
1
4
3
2
1
0
0
0
0
1
0
0
0
0
0
0
0
0
1
1
2
1
4
0
8
41
94
115
118
124
130
130
121
89
17
14
5
6
3
1
5
3
1
16
58
92
132
170
186
180
78
14
3
2
3
8
11
7
1
0
0
13
7
18
57
49
44
56
50
39
45
52
55
61
59
64
71
77
82
89
94
97
103
99
87
75
76
86
97
100
101
63
33
36
60
80
90
93
69
53
24
1
1
2
3
11
5
6
14
25
38
52
70
85
95
96
102
101
78
43
17
10
1
1
1
1
0
0
0
0
0
0
0
0
0
0
0
0
0
0
0
0
0
0
0
0
0
0
0
0
0
0
0
0
0
0
0
0
0
0
0
0
0
0
0
0
0
0
0
0
2
1
3
3
0
4
32
67
76
77
79
80
80
81
81
81
82
82
81
82
83
84
85
86
83
84
87
87
85
80
72
67
55
50
44
42
42
45
47
46
63
65
66
69
70
66
59
52
11
7
2
8
39
70
51
1
2
2
1
1
1
0
0
0
4
0
1
3
0
1
1
1
9
3
4
7
1
2
19
47
65
118
119
134
133
103
61
95
155
188
188
164
132
64
4
3
3
0
23
58
94
82
26
24
139
239
254
250
254
249
247
254
255
255
255
255
255
255
255
255
255
255
255
255
255
255
255
255
255
255
255
255
255
255
255
255
255
255
255
255
255
255
255
255
255
255
255
255
255
255
255
255
255
255
255
255
255
255
255
255
255
255
255
255
255
255
255
255
255
255
255
255
255
255
255
255
255
255
255
255
255
255
255
255
255
255
255
255
255
255
255
255
255
255
255
255
255
255
255
255
255
255
255
255
255
250
253
252
252
252
247
246
252
229
161
48
15
101
180
196
199
200
188
155
101
42
3
1
0
11
16
31
44
40
20
7
4
2
2
2
2
2
1
2
2
1
1
4
4
2
1
1
3
0
0
1
0
0
3
5
4
8
1
0
1
2
1
2
2
0
20
57
90
84
34
0
2
3
2
1
0
0
0
0
1
0
0
0
0
0
0
0
0
2
1
2
0
2
1
19
57
106
115
117
133
135
121
116
101
13
2
10
10
4
25
38
38
73
63
46
33
38
71
126
173
147
82
22
6
12
14
4
1
2
5
1
1
1
16
68
82
67
75
70
60
56
49
49
61
43
44
50
59
67
74
77
78
88
92
91
87
84
90
95
96
102
89
70
51
43
52
71
86
103
101
79
40
15
13
15
12
10
9
4
1
4
11
22
27
44
51
65
69
51
20
2
0
2
2
2
2
1
1
1
0
0
0
0
0
0
0
0
0
0
0
0
0
0
0
0
0
0
0
0
0
0
0
0
0
0
0
0
0
0
0
0
0
0
0
0
0
0
0
0
0
2
1
2
4
1
0
16
37
73
79
86
88
86
82
82
82
79
79
80
81
81
81
82
82
76
66
55
47
45
41
34
29
38
39
42
49
57
64
68
69
59
56
52
48
43
35
27
21
4
0
1
17
53
58
27
0
2
2
1
1
1
0
0
0
1
0
1
0
0
9
14
3
0
0
1
6
0
0
8
32
59
99
115
136
139
120
76
75
140
182
193
175
149
88
19
2
1
1
8
24
81
108
53
3
72
215
254
249
254
255
250
253
255
255
255
255
255
255
255
255
255
255
255
255
255
255
255
255
255
255
255
255
255
255
255
255
255
255
255
255
255
255
255
255
255
255
255
255
255
255
255
255
255
255
255
255
255
255
255
255
255
255
255
255
255
255
255
255
255
255
255
255
255
255
255
255
255
255
255
255
255
255
255
255
255
255
255
255
255
255
255
255
255
255
255
255
255
255
255
255
255
255
255
255
255
255
247
254
254
252
254
243
184
90
18
48
154
198
196
198
193
138
116
90
81
92
111
125
129
116
115
115
110
88
54
25
11
3
4
4
4
3
3
4
5
7
8
6
3
2
2
2
2
1
1
4
5
7
8
4
1
7
1
1
1
4
3
3
6
1
5
31
74
89
50
6
1
3
2
1
0
0
0
0
1
0
0
0
0
0
0
0
0
4
3
1
0
1
1
29
72
105
113
120
139
128
95
91
92
50
27
57
74
76
102
106
108
122
121
123
125
107
75
52
48
83
67
29
3
0
1
2
6
9
7
2
1
1
3
47
84
77
84
82
79
75
59
50
59
46
41
40
47
55
60
62
63
64
72
82
90
93
93
89
86
74
90
100
88
67
51
42
38
76
90
97
89
75
64
53
43
46
42
28
11
5
6
4
1
3
6
16
21
16
3
1
6
3
3
3
2
2
2
1
1
0
0
0
0
0
0
0
0
0
0
0
0
0
0
0
0
0
0
0
0
0
0
0
0
0
0
0
0
0
0
0
0
0
0
0
0
0
0
0
0
2
1
2
5
2
1
4
14
62
71
79
80
76
69
65
65
63
64
62
59
55
49
44
40
26
22
20
23
30
39
46
49
54
54
57
57
52
44
33
28
28
20
12
3
0
0
1
1
8
14
16
37
60
40
7
8
2
2
1
1
1
0
0
0
1
0
2
0
7
37
51
36
7
0
0
5
4
0
1
15
49
81
108
126
132
127
103
87
123
167
190
183
164
116
43
1
1
5
0
4
59
109
79
21
11
148
244
250
241
251
254
253
255
255
255
255
255
255
255
255
255
255
255
255
255
255
255
255
255
255
255
255
255
255
255
255
255
255
255
255
255
255
255
255
255
255
255
255
255
255
255
255
255
255
255
255
255
255
255
255
255
255
255
255
255
255
255
255
255
255
255
255
255
255
255
255
255
255
255
255
255
255
255
255
255
255
255
255
255
255
255
255
255
255
255
255
255
255
255
255
255
255
255
255
255
255
255
252
250
254
233
138
51
19
111
169
191
215
204
179
188
156
159
167
177
177
154
113
83
75
68
60
53
41
21
0
1
3
4
5
3
2
2
5
8
6
2
1
0
1
13
23
30
31
23
8
1
2
2
2
2
1
1
1
1
1
1
1
1
20
26
46
80
96
64
19
4
3
2
1
0
0
0
0
1
0
0
0
0
0
0
0
0
3
3
1
0
2
2
34
77
104
110
115
124
104
75
85
101
95
59
96
131
134
140
132
136
139
138
140
145
148
142
125
113
28
56
53
20
6
3
3
3
4
4
4
15
10
0
24
75
85
87
80
77
76
58
44
46
56
45
38
41
44
45
47
52
55
57
65
79
90
93
88
83
85
86
86
89
91
82
54
28
31
43
68
95
104
95
83
81
71
54
27
6
1
6
9
9
6
0
1
1
2
1
1
3
3
3
3
2
2
2
1
1
0
0
0
0
0
0
0
0
0
0
0
0
0
0
0
0
0
0
0
0
0
0
0
0
0
0
0
0
0
0
0
0
0
0
0
0
0
0
0
0
1
0
1
5
5
2
1
3
31
40
50
52
46
38
35
34
40
36
28
22
19
20
23
25
35
44
54
63
62
59
55
53
38
38
33
26
16
5
0
0
1
0
1
1
6
17
27
34
45
57
60
65
56
15
1
13
2
2
1
1
1
0
0
0
0
2
3
0
16
61
87
78
33
11
0
4
8
2
0
0
27
59
98
115
126
130
126
112
116
155
184
188
178
140
68
9
1
5
2
1
32
79
92
63
1
49
167
247
249
249
254
248
255
255
255
255
255
255
255
255
255
255
255
255
255
255
255
255
255
255
255
255
255
255
255
255
255
255
255
255
255
255
255
255
255
255
255
255
255
255
255
255
255
255
255
255
255
255
255
255
255
255
255
255
255
255
255
255
255
255
255
255
255
255
255
255
255
255
255
255
255
255
255
255
255
255
255
255
255
255
255
255
255
255
255
255
255
255
255
255
255
255
255
255
255
247
255
243
254
249
115
12
47
143
179
215
196
168
198
209
159
182
188
185
160
115
69
36
23
4
0
0
1
8
13
12
8
3
3
3
3
2
2
3
5
2
1
2
13
36
65
89
102
97
87
72
61
57
52
40
26
10
5
2
1
1
5
20
35
63
74
87
103
107
75
28
5
3
2
1
0
0
0
0
1
0
0
0
0
0
0
0
0
2
3
1
2
5
4
33
74
109
110
98
95
84
80
109
131
115
71
88
127
138
130
121
129
113
121
130
138
148
152
151
148
87
108
115
93
73
64
49
26
19
3
1
3
3
0
16
79
107
108
94
84
80
67
52
50
56
43
33
32
30
25
26
32
48
40
39
47
61
69
70
72
81
79
82
89
97
94
82
71
47
44
57
83
97
93
91
98
48
27
6
1
3
5
6
7
10
4
0
1
2
4
1
1
2
2
2
2
1
1
1
0
0
0
0
0
0
0
0
0
0
0
0
0
0
0
0
0
0
0
0
0
0
0
0
0
0
0
0
0
0
0
0
0
0
0
0
0
0
0
0
0
0
0
1
3
4
3
2
1
4
11
20
23
21
16
14
13
16
10
4
4
14
33
54
67
69
71
69
57
41
24
14
10
7
4
1
1
1
1
4
10
9
18
29
41
51
59
66
71
66
81
86
72
39
0
0
12
2
2
1
1
1
0
0
0
3
2
2
0
17
65
101
102
48
14
1
1
6
6
1
1
4
34
77
99
127
131
136
127
121
148
175
189
186
157
91
28
0
5
2
6
11
44
90
92
32
1
78
212
255
255
250
250
255
255
255
255
255
255
255
255
255
255
255
255
255
255
255
255
255
255
255
255
255
255
255
255
255
255
255
255
255
255
255
255
255
255
255
255
255
255
255
255
255
255
255
255
255
255
255
255
255
255
255
255
255
255
255
255
255
255
255
255
255
255
255
255
255
255
255
255
255
255
255
255
255
255
255
255
255
255
255
255
255
255
255
255
255
255
255
255
255
255
255
255
255
252
255
251
229
149
43
51
153
178
196
190
183
190
184
181
200
175
151
106
53
13
3
2
8
1
1
0
1
0
1
1
1
1
1
3
5
7
7
6
5
1
13
37
65
92
116
133
143
143
143
141
136
133
125
110
97
75
60
44
38
39
48
61
74
71
77
74
83
101
88
40
3
3
2
1
0
0
0
0
1
0
0
0
0
0
0
0
0
1
2
2
4
10
6
30
67
110
106
82
77
87
106
135
138
126
93
79
112
134
125
128
134
132
130
130
132
138
143
146
148
116
106
119
133
127
125
119
102
87
64
41
8
2
2
6
59
112
126
121
108
103
93
76
69
61
48
40
35
24
8
5
12
24
16
11
16
22
25
29
37
36
46
65
79
76
70
78
93
82
78
77
81
86
89
90
91
43
16
2
5
11
4
1
2
3
3
2
2
3
5
3
0
1
1
1
1
0
0
0
0
0
0
0
0
0
0
0
0
0
0
0
0
0
0
0
0
0
0
0
0
0
0
0
0
0
0
0
0
0
0
0
0
0
0
0
0
0
0
0
0
1
1
0
0
1
2
2
1
1
1
5
8
8
7
4
3
3
0
1
4
17
36
55
67
32
26
16
6
0
0
0
3
5
4
0
1
2
8
19
28
49
57
67
74
76
77
77
77
71
77
84
61
19
1
1
2
2
2
1
1
1
0
0
0
3
0
1
1
15
61
99
108
69
29
2
0
3
4
3
5
1
15
47
69
124
131
135
130
128
140
166
188
193
171
114
54
2
4
2
7
2
21
81
91
52
1
26
115
210
254
245
253
255
255
255
255
255
255
255
255
255
255
255
255
255
255
255
255
255
255
255
255
255
255
255
255
255
255
255
255
255
255
255
255
255
255
255
255
255
255
255
255
255
255
255
255
255
255
255
255
255
255
255
255
255
255
255
255
255
255
255
255
255
255
255
255
255
255
255
255
255
255
255
255
255
255
255
255
255
255
255
255
255
255
255
255
255
255
255
255
255
255
255
255
255
250
248
245
132
1
46
171
187
197
195
191
185
188
195
176
138
81
45
4
0
2
7
3
2
1
1
4
4
3
4
4
3
1
1
1
4
5
4
0
0
13
46
92
129
148
153
154
153
150
152
148
144
143
146
149
147
129
118
109
107
104
92
77
68
40
29
15
31
83
103
58
7
3
2
1
0
0
0
0
1
0
0
0
0
0
0
0
0
1
2
2
6
13
7
28
61
104
101
77
77
102
130
140
121
129
108
74
97
125
119
129
128
136
123
118
130
142
144
143
146
143
107
116
146
140
131
136
131
143
129
102
46
27
18
2
12
90
121
132
124
120
111
90
77
77
65
57
50
31
7
1
3
1
1
1
3
2
2
2
2
4
4
16
37
45
43
53
69
77
88
90
83
82
90
89
81
80
38
8
6
7
0
1
7
7
9
8
4
1
1
2
4
1
0
0
0
0
0
0
0
0
0
0
0
0
0
0
0
0
0
0
0
0
0
0
0
0
0
0
0
0
0
0
0
0
0
0
0
0
0
0
0
0
0
0
0
0
0
0
0
1
2
0
0
1
1
2
1
2
1
1
2
3
1
0
0
1
2
3
3
3
3
2
2
5
2
1
1
6
7
5
3
0
7
18
29
41
55
69
78
75
78
82
81
78
76
78
79
81
80
81
55
11
2
6
1
2
2
1
1
1
0
0
0
1
0
1
3
16
56
95
108
107
63
20
6
5
1
0
3
7
6
21
43
117
128
132
130
131
134
158
186
196
183
133
75
3
2
2
7
1
15
73
77
40
33
11
15
132
237
241
251
255
255
255
255
255
255
255
255
255
255
255
255
255
255
255
255
255
255
255
255
255
255
255
255
255
255
255
255
255
255
255
255
255
255
255
255
255
255
255
255
255
255
255
255
255
255
255
255
255
255
255
255
255
255
255
255
255
255
255
255
255
255
255
255
255
255
255
255
255
255
255
255
255
255
255
255
255
255
255
255
255
255
255
255
255
253
252
255
254
254
254
254
254
254
213
110
10
68
184
195
183
187
193
195
183
153
109
61
29
1
3
5
6
4
2
3
4
4
3
3
1
0
3
4
4
5
4
2
2
2
13
33
48
98
126
147
142
139
164
174
154
150
149
150
145
135
139
142
130
125
127
125
110
80
45
14
1
3
2
4
15
64
117
87
11
4
3
2
1
0
0
0
0
2
1
0
0
0
0
1
2
0
3
2
4
4
47
60
37
89
65
71
105
125
129
128
125
127
133
92
57
120
118
112
139
119
134
140
132
129
138
143
141
150
142
85
128
148
135
134
139
136
146
137
129
100
34
59
47
37
100
120
130
117
135
116
105
109
99
82
67
55
40
15
0
6
5
4
2
1
1
3
4
0
0
1
0
0
4
13
19
47
67
85
86
87
89
86
78
85
76
58
36
14
2
1
1
2
2
1
1
1
1
1
3
0
0
0
0
0
0
0
0
0
0
0
0
0
0
0
0
0
0
0
0
0
0
0
0
0
0
0
0
0
0
0
0
0
0
0
0
0
0
0
0
0
0
0
0
0
0
0
0
0
0
0
0
0
0
0
0
1
1
1
1
1
1
1
1
0
0
0
0
0
0
1
2
5
9
4
0
1
2
8
30
45
50
59
68
77
80
81
82
78
81
83
82
84
87
81
72
69
64
43
26
5
0
1
3
0
0
0
1
1
1
2
2
0
1
5
1
2
44
96
109
142
148
110
35
1
4
10
5
2
4
1
19
84
126
127
125
130
135
148
174
193
184
146
112
34
2
3
3
15
4
35
72
51
60
69
1
17
143
254
253
255
254
255
255
255
255
255
244
255
255
255
255
255
255
255
255
255
255
255
255
255
255
255
255
255
255
255
255
255
255
255
255
255
255
255
255
255
255
255
255
255
255
255
255
255
255
255
255
255
255
255
255
255
255
255
255
255
255
255
255
255
255
255
255
255
255
255
255
255
255
255
255
255
255
255
255
255
255
255
255
255
255
255
255
255
255
255
249
243
254
252
241
254
248
104
41
79
149
192
184
185
191
167
135
99
57
19
6
12
3
3
3
3
4
6
9
12
6
7
6
5
3
1
1
1
13
6
1
1
15
51
95
124
140
138
150
160
153
150
154
151
160
154
154
146
135
136
133
118
131
109
74
36
10
2
6
15
2
2
3
11
48
96
90
42
3
3
2
1
0
0
0
0
2
1
0
0
0
0
1
2
1
2
3
4
8
49
62
40
65
60
78
106
119
124
127
125
128
130
108
92
81
131
142
124
141
120
103
99
95
88
90
100
105
113
91
108
128
104
108
108
94
107
128
131
114
75
67
68
28
9
105
118
125
108
127
119
116
108
96
84
76
62
40
20
0
0
2
3
1
1
1
3
1
2
3
1
0
3
8
13
23
48
73
82
82
80
81
82
85
86
83
75
62
45
31
24
4
11
17
16
9
3
1
2
0
0
0
0
0
0
0
0
0
0
0
0
0
0
0
0
0
0
0
0
0
0
0
0
0
0
0
0
0
0
0
0
0
0
0
0
0
0
0
0
0
0
0
0
0
0
0
0
0
0
0
0
0
0
0
0
1
1
1
1
1
1
1
1
2
1
0
0
0
0
0
0
3
5
13
22
26
34
50
64
77
78
80
81
80
77
73
70
86
90
82
64
54
53
50
44
21
28
11
1
0
8
8
1
0
0
0
1
1
1
2
2
0
2
4
1
11
53
98
114
147
170
153
90
28
2
1
8
1
6
1
3
47
104
129
130
133
133
142
164
186
186
156
126
52
1
2
1
9
3
23
58
63
62
114
24
1
68
222
248
254
251
253
253
250
255
255
255
255
255
255
255
255
255
255
255
255
255
255
255
255
255
255
255
255
255
255
255
255
255
255
255
255
255
255
255
255
255
255
255
255
255
255
255
255
255
255
255
255
255
255
255
255
255
255
255
255
255
255
255
255
255
255
255
255
255
255
255
255
255
255
255
255
255
255
255
255
255
255
255
255
255
255
255
255
255
252
254
254
254
252
251
251
125
19
64
179
203
186
185
198
160
98
38
14
1
1
2
3
11
8
4
2
1
0
0
0
3
3
2
2
1
1
6
12
0
6
35
65
92
116
136
148
157
144
153
166
160
150
153
154
145
141
146
146
138
130
117
95
53
39
20
7
4
5
2
1
5
2
1
16
59
103
100
62
3
3
2
1
0
0
0
0
2
1
0
0
0
0
1
2
1
2
5
4
14
54
69
48
34
55
90
110
111
116
125
124
127
118
135
123
52
103
147
129
86
77
77
89
97
95
94
100
70
72
65
34
57
56
76
75
90
63
77
84
102
124
76
82
90
33
27
96
114
112
115
122
114
111
103
95
91
82
64
45
0
0
1
3
4
4
3
2
3
4
4
3
1
1
3
6
3
26
59
80
82
77
80
90
81
83
88
91
87
79
66
58
51
56
56
43
24
7
2
2
0
0
0
0
0
0
0
0
0
0
0
0
0
0
0
0
0
0
0
0
0
0
0
0
0
0
0
0
0
0
0
0
0
0
0
0
0
0
0
0
0
0
0
0
0
0
0
0
0
0
0
0
0
0
0
0
1
1
1
1
1
1
1
1
5
4
2
1
0
0
0
0
2
2
31
58
62
73
87
83
71
71
72
71
69
68
66
65
55
54
45
31
20
14
9
4
5
1
0
8
13
8
2
3
0
0
0
1
1
1
2
2
0
7
1
1
27
66
99
120
152
185
185
148
92
25
0
9
4
8
4
0
15
80
129
136
136
133
134
152
178
187
169
143
83
4
3
2
2
2
9
39
72
53
146
80
2
7
184
250
255
255
255
255
254
253
255
255
255
255
255
255
255
255
255
255
255
255
255
255
255
255
255
255
255
255
255
255
255
255
255
255
255
255
255
255
255
255
255
255
255
255
255
255
255
255
255
255
255
255
255
255
255
255
255
255
255
255
255
255
255
255
255
255
255
255
255
255
255
255
255
255
255
255
255
255
255
255
255
255
255
255
255
255
255
254
239
254
254
248
253
238
145
17
61
164
212
186
185
194
171
74
27
1
0
6
6
4
6
1
0
0
2
5
5
4
1
3
4
3
0
1
6
18
29
89
97
110
122
132
142
149
155
148
151
160
158
150
156
160
149
151
133
117
101
80
65
48
26
7
2
1
1
11
16
7
1
3
6
33
68
90
96
72
35
2
2
2
1
1
0
0
0
2
1
0
0
0
0
1
2
2
2
5
4
15
57
76
58
16
55
102
116
106
109
120
119
143
113
133
119
88
72
105
94
52
80
104
112
119
132
140
139
140
132
114
66
80
113
131
128
142
112
101
72
47
74
52
83
111
102
6
54
113
120
108
113
108
108
106
102
99
92
77
63
19
10
2
0
4
7
6
2
3
3
4
4
3
1
1
1
1
8
36
68
83
80
81
87
80
77
75
79
83
86
84
82
81
75
60
38
17
3
1
2
0
0
0
0
0
0
0
0
0
0
0
0
0
0
0
0
0
0
0
0
0
0
0
0
0
0
0
0
0
0
0
0
0
0
0
0
0
0
0
0
0
0
0
0
0
0
0
0
0
0
0
0
0
0
0
0
1
1
1
1
1
1
1
1
4
3
2
1
1
1
2
3
2
1
41
78
74
77
81
58
80
76
69
60
51
43
37
34
12
5
3
6
2
0
0
0
1
4
23
13
0
0
0
8
0
0
0
1
1
1
2
2
1
9
0
1
40
77
101
126
149
180
186
176
153
88
23
4
4
2
10
4
2
51
111
129
138
132
130
142
168
186
177
156
114
18
4
3
1
3
2
26
70
44
136
135
37
1
118
235
255
255
252
255
255
255
249
254
255
255
255
255
255
255
255
255
255
255
255
255
255
255
255
255
255
255
255
255
255
255
255
255
255
255
255
255
255
255
255
255
255
255
255
255
255
255
255
255
255
255
255
255
255
255
255
255
255
255
255
255
255
255
255
255
255
255
255
255
255
255
255
255
255
255
255
255
255
255
255
255
255
255
255
255
255
250
252
247
241
252
241
136
3
63
165
210
180
176
203
170
86
2
2
5
7
6
4
2
2
10
7
2
1
1
1
2
3
2
12
31
52
74
99
126
143
143
141
137
136
139
146
158
165
154
158
164
158
143
143
145
135
110
78
46
21
3
2
2
1
3
4
6
5
2
1
0
2
40
62
103
117
81
39
13
1
2
1
1
1
1
0
0
0
2
1
0
0
0
0
1
2
6
2
4
3
13
58
80
69
18
54
101
117
105
106
115
116
121
141
142
115
106
36
26
72
116
131
137
126
122
129
140
141
147
151
142
113
96
135
137
138
115
133
144
148
127
102
46
24
65
90
61
11
95
115
123
109
108
111
111
107
104
100
89
78
52
31
7
0
1
6
5
1
1
1
1
2
3
3
1
0
1
2
11
47
78
86
83
83
84
83
81
83
85
84
81
76
44
33
18
4
0
1
1
3
0
0
0
0
0
0
0
0
0
0
0
0
0
0
0
0
0
0
0
0
0
0
0
0
0
0
0
0
0
0
0
0
0
0
0
0
0
0
0
0
0
0
0
0
0
0
0
0
0
0
0
0
0
0
0
0
1
1
1
1
1
1
1
1
0
0
0
1
2
3
5
6
3
1
28
57
47
45
43
18
21
18
12
4
1
1
1
1
5
0
1
4
1
1
37
86
139
175
167
60
0
14
12
3
0
0
0
1
1
1
2
2
2
6
0
5
51
86
106
128
138
168
181
180
180
140
61
2
5
1
3
12
1
19
77
116
133
132
130
138
161
181
178
160
133
42
5
3
2
6
1
16
52
48
107
173
93
8
31
185
245
248
241
245
255
255
250
255
255
255
255
255
255
255
255
255
255
255
255
255
255
255
255
255
255
255
255
255
255
255
255
255
255
255
255
255
255
255
255
255
255
255
255
255
255
255
255
255
255
255
255
255
255
255
255
255
255
255
255
255
255
255
255
255
255
255
255
255
255
255
255
255
255
255
255
255
255
255
255
255
255
255
255
255
255
249
255
245
254
254
130
18
30
148
211
199
182
205
184
100
14
1
4
7
5
3
4
1
1
1
1
1
3
8
19
34
44
86
94
108
119
127
131
136
139
123
130
141
152
160
161
158
156
162
149
152
160
144
128
126
126
32
8
1
1
0
1
12
12
1
3
11
4
1
3
30
56
106
96
89
68
26
3
1
2
1
1
1
1
1
1
1
1
2
1
0
0
0
0
1
2
8
3
3
3
12
57
82
73
31
47
84
109
109
106
111
113
100
147
115
93
87
54
19
83
142
138
131
132
128
119
120
129
128
149
147
141
94
110
124
136
132
133
113
133
141
138
110
65
46
52
87
18
18
122
122
108
105
110
112
108
105
101
94
86
79
55
24
4
0
1
0
0
0
0
0
0
2
3
1
0
3
0
0
29
64
85
87
82
82
87
92
94
86
70
51
36
5
0
0
0
1
2
2
3
0
0
0
0
0
0
0
0
0
0
0
0
0
0
0
0
0
0
0
0
0
0
0
0
0
0
0
0
0
0
0
0
0
0
0
0
0
0
0
0
0
0
0
0
0
0
0
0
0
0
0
0
0
0
0
0
1
1
1
1
1
1
1
1
0
0
0
0
1
4
6
7
5
1
5
18
8
7
11
1
0
0
1
2
5
8
12
14
4
3
3
1
3
43
132
214
254
255
217
70
0
5
0
0
0
0
0
1
1
1
2
2
2
2
3
22
65
97
114
126
126
158
183
183
178
160
93
16
10
0
1
8
1
2
50
103
124
130
132
135
153
175
175
162
140
77
4
2
2
3
0
8
23
44
79
184
142
50
1
136
242
255
249
240
255
255
250
255
255
255
255
255
255
255
255
255
255
255
255
255
255
255
255
255
255
255
255
255
255
255
255
255
255
255
255
255
255
255
255
255
255
255
255
255
255
255
255
255
255
255
255
255
255
255
255
255
255
255
255
255
255
255
255
255
255
255
255
255
255
255
255
255
255
255
255
255
255
255
255
255
255
255
255
255
255
252
254
255
251
168
31
24
143
180
206
193
208
197
100
25
1
19
5
0
0
7
9
9
10
4
16
40
61
81
101
121
134
118
122
130
137
140
140
138
136
170
167
165
160
160
158
158
157
157
144
142
145
134
125
114
100
12
1
6
14
9
5
5
0
7
1
1
2
14
49
87
115
102
59
22
3
2
0
10
11
0
1
1
1
1
1
1
1
2
1
0
0
0
0
1
2
7
2
4
4
14
55
81
73
42
33
56
97
112
109
109
112
115
100
66
79
104
128
87
62
123
117
121
131
133
126
125
132
124
138
140
148
106
84
123
139
134
139
129
123
127
120
123
102
70
69
80
54
4
86
103
117
103
108
110
106
102
100
96
92
95
79
53
28
9
0
0
0
3
0
0
0
1
2
0
0
4
1
1
11
35
61
74
74
73
78
81
76
60
37
15
2
5
4
4
4
5
5
3
1
0
0
0
0
0
0
0
0
0
0
0
0
0
0
0
0
0
0
0
0
0
0
0
0
0
0
0
0
0
0
0
0
0
0
0
0
0
0
0
0
0
0
0
0
0
0
0
0
0
0
0
0
0
0
0
0
1
1
1
1
1
1
1
1
0
0
0
0
0
2
3
4
6
0
0
0
0
0
1
3
6
5
4
2
1
1
0
0
0
4
0
0
35
124
217
255
254
238
198
73
1
7
0
17
0
0
0
1
1
1
2
2
3
0
17
49
81
110
125
122
120
139
175
186
175
169
122
39
6
3
1
4
1
2
29
78
116
127
132
131
145
169
174
166
145
115
6
1
3
0
1
3
9
28
50
157
173
107
7
80
215
255
255
246
254
252
245
255
255
255
255
255
255
255
255
255
255
255
255
255
255
255
255
255
255
255
255
255
255
255
255
255
255
255
255
255
255
255
255
255
255
255
255
255
255
255
255
255
255
255
255
255
255
255
255
255
255
255
255
255
255
255
255
255
255
255
255
255
255
255
255
255
255
255
255
255
255
255
255
255
255
255
255
255
255
254
253
255
184
32
13
113
172
198
204
196
207
142
19
1
6
18
4
2
9
1
1
3
32
87
110
140
160
164
162
162
164
165
161
159
161
165
169
171
173
155
155
157
158
160
159
157
155
153
153
145
124
116
126
107
61
8
0
0
2
0
1
8
11
5
1
8
46
92
113
99
78
25
4
1
3
3
8
7
4
0
0
1
1
1
1
1
2
2
1
0
0
0
0
1
2
5
2
5
7
16
55
78
71
48
23
36
87
113
112
109
113
89
47
91
124
130
130
128
55
110
129
138
127
119
124
133
135
123
126
136
154
137
80
127
126
136
133
134
118
139
137
131
104
73
110
99
89
62
4
96
132
104
110
111
108
103
102
102
99
101
95
78
50
19
2
0
4
6
2
0
0
0
0
0
0
1
2
1
1
3
28
49
56
70
68
60
45
25
8
2
3
10
11
9
6
2
0
1
2
0
0
0
0
0
0
0
0
0
0
0
0
0
0
0
0
0
0
0
0
0
0
0
0
0
0
0
0
0
0
0
0
0
0
0
0
0
0
0
0
0
0
0
0
0
0
0
0
0
0
0
0
0
0
0
0
1
1
1
1
1
1
1
1
0
0
0
0
0
0
1
1
6
9
5
4
7
1
1
9
1
1
2
3
3
2
1
1
0
8
1
1
75
191
253
251
252
254
229
83
1
9
0
0
0
0
0
1
1
1
2
2
3
1
27
69
93
118
132
119
121
120
158
184
178
183
145
58
2
2
0
1
4
2
9
48
110
125
131
129
141
164
174
169
150
142
12
1
8
0
2
4
19
12
26
119
180
141
23
21
163
233
255
248
255
252
245
255
255
255
255
255
255
255
255
255
255
255
255
255
255
255
255
255
255
255
255
255
255
255
255
255
255
255
255
255
255
255
255
255
255
255
255
255
255
255
255
255
255
255
255
255
255
255
255
255
255
255
255
255
255
255
255
255
255
255
255
255
255
255
255
255
255
255
255
255
255
255
237
255
255
243
254
254
254
255
242
229
62
4
129
178
198
205
203
215
164
48
1
2
7
1
37
57
82
139
166
164
176
173
174
172
168
170
174
175
172
160
164
168
169
165
160
161
162
148
154
155
146
138
139
146
150
145
126
122
109
97
118
90
4
7
6
2
2
3
6
1
1
14
47
89
110
102
71
29
0
8
4
2
4
2
0
0
2
12
9
4
1
1
5
3
2
2
1
0
0
0
0
1
2
4
4
8
1
15
54
74
66
31
39
30
52
109
123
105
107
55
80
105
113
117
125
131
130
20
122
134
120
115
130
135
135
123
140
136
144
158
121
97
124
129
120
130
139
131
132
134
123
74
85
81
96
83
17
63
109
112
115
111
100
96
101
103
100
101
89
90
93
69
24
2
3
5
4
5
5
4
2
0
0
1
1
1
1
1
1
1
1
2
2
2
2
2
2
2
2
1
1
1
1
1
1
1
1
0
0
0
0
0
0
0
0
0
0
0
0
0
0
0
0
0
0
0
0
0
0
0
0
0
0
0
0
0
0
0
0
0
0
0
0
0
0
0
0
0
0
0
0
0
0
0
0
0
0
0
0
0
0
0
0
0
0
0
0
0
0
0
0
0
0
0
0
0
0
0
0
3
3
3
3
3
3
3
3
0
10
7
0
0
2
0
0
2
4
0
61
192
255
252
255
255
252
225
93
3
4
2
3
0
0
0
0
0
2
3
4
2
8
55
88
110
120
111
119
126
121
133
164
172
178
160
84
7
1
2
4
3
8
12
5
75
127
136
135
130
142
176
166
162
142
75
1
1
17
2
8
7
4
3
79
172
160
98
32
45
184
251
248
247
253
254
253
255
255
255
255
255
255
255
255
255
255
255
255
255
255
255
255
255
255
255
255
255
255
255
255
255
255
255
255
255
255
255
255
255
255
255
255
255
255
255
255
255
255
255
255
255
255
255
255
255
255
255
255
255
255
255
255
255
255
255
255
255
255
255
255
255
255
255
255
255
255
253
255
250
244
254
252
254
233
249
125
8
78
176
196
218
197
209
167
77
14
4
10
11
56
116
150
161
180
175
164
176
166
168
169
166
166
170
171
168
174
171
168
165
161
150
136
124
141
126
102
86
90
107
121
125
123
114
103
100
107
98
52
1
0
1
9
8
1
0
16
43
78
103
115
87
39
6
2
2
5
3
3
2
1
1
11
23
60
40
19
6
2
1
4
8
2
1
0
0
0
0
1
2
3
4
8
2
14
51
71
65
34
65
52
42
85
114
96
77
78
96
109
113
116
124
127
123
99
68
118
137
137
135
127
131
125
124
110
111
124
111
100
123
142
131
131
137
133
128
133
137
97
86
99
91
93
50
37
107
114
113
106
100
96
97
98
96
93
95
98
96
83
54
21
1
3
3
3
1
1
0
0
1
1
1
1
1
1
1
1
1
2
2
2
2
2
2
2
2
1
1
1
1
1
1
1
1
0
0
0
0
0
0
0
0
0
0
0
0
0
0
0
0
0
0
0
0
0
0
0
0
0
0
0
0
0
0
0
0
0
0
0
0
0
0
0
0
0
0
0
0
0
0
0
0
0
0
0
0
0
0
0
0
0
0
0
0
0
0
0
0
0
0
0
0
0
0
0
0
2
2
2
2
2
2
2
2
11
2
0
0
7
2
0
2
8
2
48
155
242
255
247
246
255
250
227
98
0
0
0
1
0
0
0
0
0
2
3
4
3
20
68
93
112
124
115
120
117
111
117
146
161
175
167
100
13
1
1
4
3
6
8
2
52
108
128
131
126
138
174
172
160
146
92
9
1
12
1
5
6
2
2
61
153
171
124
71
19
93
230
254
250
252
254
252
255
255
255
255
255
255
255
255
255
255
255
255
255
255
255
255
255
255
255
255
255
255
255
255
255
255
255
255
255
255
255
255
255
255
255
255
255
255
255
255
255
255
255
255
255
255
255
255
255
255
255
255
255
255
255
255
255
255
255
255
255
255
255
255
255
255
255
255
255
249
255
245
252
255
255
252
251
255
148
36
56
152
200
197
193
201
196
103
5
1
8
11
34
125
159
169
167
180
173
160
165
165
170
171
167
167
169
170
168
156
168
171
155
127
113
119
131
96
86
69
58
64
81
94
98
97
101
87
94
113
73
13
3
10
0
1
2
13
29
58
90
92
82
57
22
3
2
5
12
4
4
3
2
0
4
24
44
79
72
46
9
1
0
6
3
2
1
0
0
0
0
1
2
3
3
7
3
12
46
66
63
28
81
72
34
59
100
89
65
102
109
112
109
112
120
122
119
139
64
95
115
136
125
102
82
64
60
60
72
85
81
68
60
104
92
79
79
86
90
109
138
80
66
111
99
113
93
13
84
116
110
105
104
102
99
99
101
95
104
105
96
94
90
63
28
2
1
0
1
1
0
1
1
1
1
1
1
1
1
1
1
2
2
2
2
2
2
2
2
1
1
1
1
1
1
1
1
0
0
0
0
0
0
0
0
0
0
0
0
0
0
0
0
0
0
0
0
0
0
0
0
0
0
0
0
0
0
0
0
0
0
0
0
0
0
0
0
0
0
0
0
0
0
0
0
0
0
0
0
0
0
0
0
0
0
0
0
0
0
0
0
0
0
0
0
0
0
0
0
1
1
1
1
1
1
1
1
2
3
0
2
7
0
0
8
0
27
129
238
255
255
253
250
254
252
234
111
0
0
0
1
0
0
0
0
0
2
3
4
6
32
79
96
109
127
117
118
118
109
107
131
147
166
169
119
23
3
1
4
2
3
4
1
31
87
122
132
126
134
166
173
158
150
115
38
1
4
1
1
6
2
3
32
117
175
148
114
30
12
183
253
254
252
254
255
255
255
255
255
255
255
255
255
255
255
255
255
255
255
255
255
255
255
255
255
255
255
255
255
255
255
255
255
255
255
255
255
255
255
255
255
255
255
255
255
255
255
255
255
255
255
255
255
255
255
255
255
255
255
255
255
255
255
255
255
255
255
255
255
255
255
255
255
255
251
254
243
255
255
244
255
255
185
5
42
147
186
217
204
202
192
130
37
2
3
0
24
89
174
182
171
164
177
179
170
171
167
170
171
167
165
168
168
165
162
143
124
118
122
117
99
79
46
57
66
63
62
71
85
94
86
96
92
97
95
48
1
5
12
3
9
40
73
94
104
110
72
42
6
3
0
9
6
1
0
0
0
2
8
21
45
65
69
92
79
25
1
6
10
2
2
1
0
0
0
0
1
2
2
2
5
4
8
38
60
61
25
80
78
41
47
67
70
76
110
112
111
107
107
113
119
120
133
98
65
113
139
58
54
99
116
112
123
130
121
105
74
37
41
65
76
79
81
63
51
63
57
46
84
97
105
103
2
58
110
105
102
105
106
101
101
105
98
104
98
87
93
104
92
67
14
7
1
0
3
4
2
1
1
1
1
1
1
1
1
1
1
1
1
1
1
1
1
1
1
1
1
1
1
1
1
1
0
0
0
0
0
0
0
0
0
0
0
0
0
0
0
0
0
0
0
0
0
0
0
0
0
0
0
0
0
0
0
0
0
0
0
0
0
0
0
0
0
0
0
0
0
0
0
0
0
0
0
0
0
0
0
0
0
0
0
0
0
0
0
0
0
0
0
0
0
0
0
0
0
0
0
0
0
0
0
0
0
6
9
5
7
4
0
6
33
118
219
255
253
248
255
255
255
255
244
129
1
0
0
4
0
0
0
0
0
2
3
4
2
33
82
94
104
124
116
114
121
118
108
121
130
142
154
121
37
7
1
3
2
2
3
1
16
66
110
128
128
132
150
161
157
154
135
70
4
1
5
0
6
1
8
7
73
156
151
135
84
6
105
236
253
254
250
255
255
255
255
255
255
255
255
255
255
255
255
255
255
255
255
255
255
255
255
255
255
255
255
255
255
255
255
255
255
255
255
255
255
255
255
255
255
255
255
255
255
255
255
255
255
255
255
255
255
255
255
255
255
255
255
255
255
255
255
255
255
255
255
255
255
255
255
255
255
253
254
254
255
233
239
254
212
11
28
130
181
195
214
192
207
149
52
1
7
3
2
69
151
185
198
202
194
188
178
168
166
163
166
165
162
163
164
162
157
142
124
106
98
92
74
40
13
27
44
61
63
65
74
88
97
85
92
99
89
53
17
1
3
4
54
109
135
138
134
128
122
114
103
82
62
50
40
26
13
15
14
17
28
41
57
76
90
81
106
107
65
21
5
4
4
2
1
0
0
0
0
1
2
3
1
4
4
5
31
55
60
40
74
78
62
48
27
36
85
108
111
111
107
104
107
115
121
107
142
103
83
69
74
104
134
118
114
128
138
131
136
135
109
76
122
144
144
143
128
106
103
86
53
40
75
74
76
44
34
99
99
103
105
104
98
97
99
100
95
88
86
89
94
93
89
54
34
11
1
1
3
2
1
1
1
1
1
1
1
1
1
1
1
1
1
1
1
1
1
1
1
1
1
1
1
1
1
0
0
0
0
0
0
0
0
0
0
0
0
0
0
0
0
0
0
0
0
0
0
0
0
0
0
0
0
0
0
0
0
0
0
0
0
0
0
0
0
0
0
0
0
0
0
0
0
0
0
0
0
0
0
0
0
0
0
0
0
0
0
0
0
0
0
0
0
0
0
0
0
0
0
0
0
0
0
0
0
3
0
0
0
6
0
6
33
135
228
255
253
249
249
247
255
255
255
250
145
1
2
0
4
0
0
0
0
0
2
3
4
1
29
77
91
103
123
115
113
114
120
111
114
112
115
126
112
53
14
0
3
3
3
3
2
3
36
87
118
129
136
143
154
156
155
148
99
22
1
7
0
4
1
10
1
38
125
143
142
127
43
22
166
236
254
243
255
255
255
255
255
255
255
255
255
255
255
255
255
255
255
255
255
255
255
255
255
255
255
255
255
255
255
255
255
255
255
255
255
255
255
255
255
255
255
255
255
255
255
255
255
255
255
255
255
255
255
255
255
255
255
255
255
255
255
255
255
255
255
255
255
255
255
255
255
255
251
251
249
249
252
254
204
81
6
130
183
200
212
198
187
156
110
26
1
10
0
37
132
185
197
194
194
196
195
184
169
153
164
165
164
164
164
161
147
132
100
100
89
60
23
3
2
7
22
36
55
71
82
88
84
76
87
88
86
58
13
0
1
5
56
115
167
172
155
145
139
132
142
143
140
129
117
108
95
84
76
71
74
80
88
92
100
106
115
109
111
102
59
7
0
12
2
1
0
0
0
0
1
2
4
0
3
3
2
23
51
61
46
68
73
73
59
20
24
81
99
105
109
110
106
105
111
115
107
103
100
39
3
126
143
117
144
135
139
137
125
132
142
134
92
118
132
134
134
137
140
140
129
92
29
65
70
61
67
3
89
101
110
108
102
98
97
95
101
93
92
99
98
89
87
92
94
70
34
8
1
1
0
3
1
1
1
1
1
1
1
1
0
0
0
0
0
0
0
0
1
1
1
1
1
1
1
1
0
0
0
0
0
0
0
0
0
0
0
0
0
0
0
0
0
0
0
0
0
0
0
0
0
0
0
0
0
0
0
0
0
0
0
0
0
0
0
0
0
0
0
0
0
0
0
0
0
0
0
0
0
0
0
0
0
0
0
0
0
0
0
0
0
0
0
0
0
0
0
0
0
0
0
0
0
0
0
0
4
0
0
7
0
0
38
130
224
255
255
244
255
255
238
254
253
254
250
156
0
3
0
1
0
0
0
0
0
2
3
4
0
23
72
90
106
123
114
116
109
122
112
112
109
105
116
111
73
24
1
3
5
2
4
6
1
16
66
102
124
137
138
157
153
156
152
125
52
1
6
3
0
1
8
0
20
91
135
143
139
89
3
91
207
255
247
255
255
255
255
255
255
255
255
255
255
255
255
255
255
255
255
255
255
255
255
255
255
255
255
255
255
255
255
255
255
255
255
255
255
255
255
255
255
255
255
255
255
255
255
255
255
255
255
255
255
255
255
255
255
255
255
255
255
255
255
255
255
255
255
255
255
255
255
255
255
251
246
244
252
255
218
94
16
101
159
178
212
217
198
186
129
72
26
9
3
8
91
182
197
214
194
185
191
198
199
184
164
166
166
164
163
158
141
110
82
67
44
17
1
0
4
4
2
15
32
50
66
75
79
73
65
83
85
55
19
4
1
7
50
126
142
154
154
152
154
149
143
124
122
119
122
131
137
130
118
116
115
116
118
113
108
109
113
124
110
110
114
91
41
7
2
2
1
0
0
0
0
1
2
5
1
2
1
0
17
47
61
38
70
72
66
69
49
35
56
86
91
100
108
109
107
105
105
114
34
54
80
60
93
120
130
126
124
130
135
131
134
141
142
101
99
115
133
134
129
120
110
139
120
53
68
91
75
83
4
66
93
110
104
97
99
99
92
99
95
95
100
100
93
88
89
101
89
67
37
12
0
0
3
1
1
1
1
1
1
1
1
0
0
0
0
0
0
0
0
1
1
1
1
1
1
1
1
0
0
0
0
0
0
0
0
0
0
0
0
0
0
0
0
0
0
0
0
0
0
0
0
0
0
0
0
0
0
0
0
0
0
0
0
0
0
0
0
0
0
0
0
0
0
0
0
0
0
0
0
0
0
0
0
0
0
0
0
0
0
0
0
0
0
0
0
0
0
0
0
0
0
0
0
0
0
0
0
0
1
6
8
7
31
123
230
255
255
244
245
255
255
246
250
253
252
251
166
3
7
0
0
0
0
0
0
0
2
3
4
0
17
63
89
108
119
110
115
108
121
109
110
115
109
117
116
95
35
1
5
6
1
3
8
5
5
48
76
95
110
112
140
149
155
153
149
87
12
5
5
0
2
1
4
10
58
125
141
143
121
42
24
157
253
252
255
255
255
255
255
255
255
255
255
255
255
255
255
255
255
255
255
255
255
255
255
255
255
255
255
255
255
255
255
255
255
255
255
255
255
255
255
255
255
255
255
255
255
255
255
255
255
255
255
255
255
255
255
255
255
255
255
255
255
255
255
255
255
255
255
255
255
255
255
255
251
253
254
254
244
119
7
68
167
180
199
191
198
191
137
117
31
9
0
1
32
132
207
207
192
190
201
203
187
177
173
165
165
163
158
154
144
116
69
30
4
2
0
1
3
7
8
7
16
31
40
38
36
48
68
84
78
83
28
1
16
5
19
97
142
141
146
156
162
160
157
155
147
145
139
130
128
127
121
114
106
111
118
119
114
108
113
122
110
115
116
115
113
92
39
1
2
1
0
0
0
0
1
2
7
1
2
1
0
14
45
62
37
82
79
55
73
77
44
24
72
77
89
103
112
111
103
99
41
93
119
113
106
76
118
131
129
125
127
129
125
120
124
133
116
83
89
122
131
129
131
126
129
128
77
63
100
92
103
58
38
74
98
91
84
93
96
87
90
88
85
86
90
92
90
85
86
92
90
68
34
7
0
1
1
1
1
1
1
1
1
1
0
0
0
0
0
0
0
0
1
1
1
1
1
1
1
1
0
0
0
0
0
0
0
0
0
0
0
0
0
0
0
0
0
0
0
0
0
0
0
0
0
0
0
0
0
0
0
0
0
0
0
0
0
0
0
0
0
0
0
0
0
0
0
0
0
0
0
0
0
0
0
0
0
0
0
0
0
0
0
0
0
0
0
0
0
0
0
0
1
1
1
1
1
1
1
1
0
9
0
0
41
130
214
255
255
251
255
254
243
251
255
242
255
254
253
173
6
13
0
2
0
0
0
0
0
2
3
4
0
11
57
86
107
114
104
111
107
118
102
104
115
110
114
112
108
43
3
6
7
0
2
8
6
1
30
48
60
72
73
108
146
154
153
165
111
22
3
6
0
4
1
11
6
35
116
136
146
134
91
1
109
224
248
255
255
255
255
255
255
255
255
255
255
255
255
255
255
255
255
255
255
255
255
255
255
255
255
255
255
255
255
255
255
255
255
255
255
255
255
255
255
255
255
255
255
255
255
255
255
255
255
255
255
255
255
255
255
255
255
255
255
255
255
255
255
255
255
255
255
255
255
255
255
245
253
245
255
217
54
42
144
174
191
193
206
202
168
121
65
4
11
2
2
87
183
191
206
199
205
205
191
177
170
167
166
177
152
143
135
94
44
13
1
2
2
3
4
5
6
7
7
9
17
25
37
63
89
92
78
62
20
5
9
2
15
83
137
158
165
166
157
149
148
153
155
154
151
147
143
141
137
131
127
138
134
129
127
127
126
122
119
110
118
115
108
116
119
77
23
0
5
7
3
1
1
3
2
0
2
5
3
1
4
28
54
46
58
77
76
66
76
65
26
47
73
67
81
98
107
70
58
108
112
104
108
113
85
85
129
134
124
125
135
133
132
126
112
135
110
83
102
142
142
119
127
117
132
105
50
79
99
92
92
0
70
72
85
86
83
63
82
79
79
80
81
82
83
84
85
91
85
88
87
54
8
0
10
2
2
1
1
1
0
0
0
0
0
0
0
0
0
0
0
0
0
0
0
0
0
0
0
0
0
0
0
0
0
0
0
0
0
0
0
0
0
0
0
0
0
0
0
0
0
0
0
0
0
0
0
0
0
0
0
0
0
0
0
0
0
0
0
0
0
0
0
0
0
0
0
0
0
0
0
0
0
0
0
0
0
0
0
0
0
0
0
1
0
0
0
0
1
2
3
10
0
0
8
0
0
5
1
10
0
5
59
156
238
255
245
254
254
254
254
254
254
254
254
255
254
250
207
42
2
0
8
0
0
0
1
1
1
2
2
3
9
47
90
109
113
112
105
109
110
110
111
112
110
110
110
121
59
18
8
2
2
4
1
0
1
7
28
47
63
82
100
156
139
157
145
153
71
4
3
16
5
8
2
2
18
118
135
137
105
101
66
10
150
254
249
255
251
255
246
251
255
244
255
255
255
255
255
255
255
255
255
255
255
255
255
255
255
255
255
255
255
255
255
255
255
255
255
255
255
255
255
255
255
255
255
255
255
255
255
255
255
255
255
255
255
255
255
255
255
255
255
255
255
255
255
255
255
255
255
255
255
255
255
255
254
245
253
249
151
27
85
159
185
195
188
197
190
152
104
51
4
6
1
18
132
220
205
181
197
199
192
178
166
163
161
159
162
138
122
101
55
15
1
1
0
0
1
2
3
4
4
5
17
35
53
63
74
80
67
49
12
6
1
2
11
59
107
126
170
177
178
172
167
169
171
172
165
162
158
155
152
147
142
138
129
127
127
128
128
124
115
109
112
112
104
94
102
112
89
54
11
0
0
1
5
1
0
0
0
1
4
3
1
3
18
40
48
57
73
73
70
80
68
29
37
58
67
84
86
67
63
97
105
113
109
113
122
98
84
108
116
134
141
128
110
95
85
82
63
75
60
50
72
83
70
66
95
81
99
47
74
114
97
83
12
68
84
77
77
85
69
82
74
74
75
76
77
78
78
79
88
85
93
96
67
18
0
3
2
2
1
1
1
0
0
0
0
0
0
0
0
0
0
0
0
0
0
0
0
0
0
0
0
0
0
0
0
0
0
0
0
0
0
0
0
0
0
0
0
0
0
0
0
0
0
0
0
0
0
0
0
0
0
0
0
0
0
0
0
0
0
0
0
0
0
0
0
0
0
0
0
0
0
0
0
0
0
0
0
0
0
0
0
0
0
0
1
0
0
0
0
1
2
3
0
2
10
5
0
4
10
1
0
34
108
175
227
255
255
247
254
254
254
254
254
254
254
254
253
249
253
220
53
5
0
0
0
0
0
1
1
1
2
2
1
2
38
82
102
108
107
102
109
110
110
112
113
111
110
110
120
72
28
5
2
2
3
1
2
10
8
3
24
68
100
107
106
122
162
163
158
98
17
3
3
1
8
12
16
16
79
90
64
56
83
70
10
77
234
250
255
248
255
253
252
255
247
255
255
255
255
255
255
255
255
255
255
255
255
255
255
255
255
255
255
255
255
255
255
255
255
255
255
255
255
255
255
255
255
255
255
255
255
255
255
255
255
255
255
255
255
255
255
255
255
255
255
255
255
255
255
255
255
255
255
255
255
255
255
254
239
254
241
57
17
121
179
201
203
192
199
186
140
89
36
2
7
3
61
154
198
202
197
199
193
180
165
158
160
159
155
150
125
97
62
17
1
0
2
0
0
0
0
0
1
1
2
13
36
58
62
57
46
28
11
0
2
0
6
49
99
127
139
184
187
185
180
176
176
173
168
170
167
162
156
153
147
141
136
130
123
117
113
113
111
108
104
100
97
87
79
82
88
82
68
29
4
0
4
13
4
0
2
0
0
2
2
1
1
7
20
47
55
65
67
70
81
67
33
34
41
60
79
78
37
55
116
111
122
116
112
120
104
81
79
118
136
118
84
75
82
91
109
87
109
96
52
46
83
106
100
104
74
90
64
47
80
96
78
21
46
93
75
75
82
66
68
64
64
65
65
66
67
67
68
70
67
73
80
59
20
0
1
2
2
1
1
1
0
0
0
0
0
0
0
0
0
0
0
0
0
0
0
0
0
0
0
0
0
0
0
0
0
0
0
0
0
0
0
0
0
0
0
0
0
0
0
0
0
0
0
0
0
0
0
0
0
0
0
0
0
0
0
0
0
0
0
0
0
0
0
0
0
0
0
0
0
0
0
0
0
0
0
0
0
0
0
0
0
0
0
1
0
0
0
0
1
2
3
0
3
3
4
9
5
0
1
48
123
209
254
255
253
252
252
254
254
254
254
254
254
254
254
254
246
255
238
70
8
0
0
0
0
0
1
1
1
2
2
1
2
33
76
99
108
109
104
109
110
111
112
113
113
111
110
118
93
43
4
1
2
1
3
2
4
8
8
29
70
96
100
84
114
151
164
152
123
41
2
14
12
3
2
10
1
30
52
82
95
124
122
52
12
176
246
255
243
255
255
251
255
253
255
255
255
255
255
255
255
255
255
255
255
255
255
255
255
255
255
255
255
255
255
255
255
255
255
255
255
255
255
255
255
255
255
255
255
255
255
255
255
255
255
255
255
255
255
255
255
255
255
255
255
255
255
255
255
255
255
255
255
255
255
255
247
251
254
250
2
45
138
199
196
199
190
199
189
143
90
35
2
1
9
95
160
157
180
203
192
182
166
154
153
156
154
148
137
104
65
27
0
1
5
4
0
0
0
0
0
0
0
0
2
17
29
27
18
10
2
0
10
5
3
38
85
105
126
169
186
186
182
178
176
175
168
159
161
156
149
142
137
132
127
124
123
118
110
106
101
96
87
81
75
73
71
66
61
57
52
49
43
20
2
2
7
4
2
3
0
0
1
1
1
1
2
5
40
52
62
62
68
77
62
36
52
42
50
59
75
37
49
92
108
122
118
110
117
114
92
80
106
102
80
69
85
108
122
130
127
136
128
92
66
89
132
138
118
115
91
93
42
22
81
74
24
11
86
79
78
69
43
41
21
22
22
23
23
24
24
24
35
29
30
35
27
7
1
3
2
2
1
1
1
0
0
0
0
0
0
0
0
0
0
0
0
0
0
0
0
0
0
0
0
0
0
0
0
0
0
0
0
0
0
0
0
0
0
0
0
0
0
0
0
0
0
0
0
0
0
0
0
0
0
0
0
0
0
0
0
0
0
0
0
0
0
0
0
0
0
0
0
0
0
0
0
0
0
0
0
0
0
0
0
0
0
0
1
0
0
0
0
1
2
3
2
2
2
14
12
0
2
65
179
215
250
255
252
247
251
255
254
254
254
254
254
254
254
254
255
247
255
250
83
4
6
0
0
0
0
1
1
1
2
2
1
1
27
68
94
106
111
106
109
110
111
112
112
113
112
112
114
109
58
7
0
3
0
3
4
2
1
10
22
30
44
59
78
103
130
166
161
155
76
5
0
0
0
2
27
30
54
98
129
131
137
139
89
3
83
224
255
244
252
254
248
255
255
254
255
255
255
255
255
255
255
255
255
255
255
255
255
255
255
255
255
255
255
255
255
255
255
255
255
255
255
255
255
255
255
255
255
255
255
255
255
255
255
255
255
255
255
255
255
255
255
255
255
255
255
255
255
255
255
255
255
255
255
255
255
250
254
248
228
3
75
146
202
193
199
188
195
189
154
106
50
2
0
3
77
144
152
167
166
175
167
154
147
148
151
145
133
111
69
27
2
2
4
9
0
0
0
0
0
0
1
1
1
2
5
5
2
0
1
2
1
4
4
20
65
102
105
130
188
182
181
178
174
175
175
169
159
146
140
132
126
123
120
118
117
109
106
102
99
88
72
52
39
50
51
52
50
43
36
34
36
53
48
29
4
0
0
1
1
0
0
1
2
3
5
4
1
30
49
62
62
68
72
58
42
69
59
49
38
63
45
50
65
83
103
112
111
118
124
113
100
56
57
82
119
132
132
124
114
130
118
127
133
107
86
107
142
122
124
113
133
90
35
65
81
44
3
67
76
70
42
14
18
0
0
0
0
0
0
0
0
6
1
1
3
4
1
1
4
2
2
1
1
1
0
0
0
0
0
0
0
0
0
0
0
0
0
0
0
0
0
0
0
0
0
0
0
0
0
0
0
0
0
0
0
0
0
0
0
0
0
0
0
0
0
0
0
0
0
0
0
0
0
0
0
0
0
0
0
0
0
0
0
0
0
0
0
0
0
0
0
0
0
0
0
0
0
0
0
0
0
0
0
0
0
0
0
1
0
0
0
0
1
2
3
0
6
7
8
0
0
75
189
246
251
255
255
255
255
255
254
254
254
254
254
254
254
254
254
255
248
255
251
94
0
6
4
0
0
0
1
1
1
2
2
1
1
17
58
85
101
108
104
109
110
111
111
111
111
111
110
110
116
73
15
1
1
1
1
6
1
2
2
13
27
49
69
84
103
119
156
143
127
60
1
11
24
28
48
76
78
81
126
134
126
114
130
116
37
12
175
252
255
253
251
249
255
255
253
255
255
255
255
255
255
255
255
255
255
255
255
255
255
255
255
255
255
255
255
255
255
255
255
255
255
255
255
255
255
255
255
255
255
255
255
255
255
255
255
255
255
255
255
255
255
255
255
255
255
255
255
255
255
255
255
255
255
255
255
255
253
254
247
168
11
80
144
155
199
212
199
200
196
172
127
65
3
1
1
20
72
123
154
146
159
157
152
150
151
147
133
116
79
37
4
1
2
11
10
1
1
1
1
1
1
1
1
1
2
1
0
0
2
4
4
4
1
15
53
86
112
129
154
184
179
177
171
163
159
157
149
140
133
128
123
119
117
116
113
112
104
92
74
58
46
37
27
21
35
34
32
30
29
35
43
50
70
78
62
23
1
0
2
0
0
0
1
1
2
6
6
2
19
46
59
63
72
72
56
48
73
77
58
35
46
46
50
67
62
80
101
109
111
110
104
95
39
49
96
138
141
128
124
119
141
113
109
126
110
73
85
133
138
127
131
137
126
96
49
93
78
20
42
57
43
16
0
9
4
4
4
4
5
5
5
5
0
0
0
1
3
3
2
1
2
2
1
1
1
0
0
0
0
0
0
0
0
0
0
0
0
0
0
0
0
0
0
0
0
0
0
0
0
0
0
0
0
0
0
0
0
0
0
0
0
0
0
0
0
0
0
0
0
0
0
0
0
0
0
0
0
0
0
0
0
0
0
0
0
0
0
0
0
0
0
0
0
0
0
0
0
0
0
0
0
0
0
0
0
0
0
0
1
0
0
0
0
1
2
3
4
0
0
0
35
98
186
255
253
253
254
255
255
255
253
251
254
254
254
254
254
254
254
254
253
250
254
247
114
0
2
4
0
0
0
1
1
1
2
2
5
1
11
50
80
100
108
104
106
107
109
110
110
109
109
108
107
115
86
33
5
3
1
0
4
4
4
2
8
37
52
49
52
69
66
82
76
64
49
36
61
74
77
87
98
99
83
118
135
126
115
125
133
92
7
90
217
255
255
250
253
255
255
252
255
255
255
255
255
255
255
255
255
255
255
255
255
255
255
255
255
255
255
255
255
255
255
255
255
255
255
255
255
255
255
255
255
255
255
255
255
255
255
255
255
255
255
255
255
255
255
255
255
255
255
255
255
255
255
255
255
255
255
255
255
251
251
247
133
11
87
131
77
137
170
176
188
202
192
147
73
7
4
8
1
4
53
97
124
141
145
149
151
150
138
113
89
48
13
1
4
6
6
6
1
1
1
1
1
1
0
0
0
0
1
1
3
3
2
1
1
7
42
85
106
121
149
170
168
161
160
153
142
135
131
125
119
122
121
117
114
111
104
96
90
78
59
35
15
8
10
16
20
16
17
13
10
20
42
59
67
76
84
76
45
14
2
2
4
1
3
2
0
0
4
5
2
4
33
48
59
76
74
55
47
70
81
67
56
47
35
39
70
63
68
87
100
93
83
80
79
76
72
83
108
126
128
123
117
110
99
83
84
84
62
61
89
122
111
106
96
111
111
39
79
98
50
21
29
12
4
2
7
0
0
0
0
0
0
0
0
0
3
3
2
2
3
2
0
2
2
1
1
1
0
0
0
0
0
0
0
0
0
0
0
0
0
0
0
0
0
0
0
0
0
0
0
0
0
0
0
0
0
0
0
0
0
0
0
0
0
0
0
0
0
0
0
0
0
0
0
0
0
0
0
0
0
0
0
0
0
0
0
0
0
0
0
0
0
0
0
0
0
0
0
0
0
0
0
0
0
0
0
0
0
0
0
1
0
0
0
0
1
2
3
8
0
12
69
143
213
253
255
253
254
254
252
247
245
249
255
254
254
254
254
254
254
254
254
253
254
248
249
146
14
1
0
0
0
0
1
1
1
2
2
10
1
8
44
76
98
109
104
104
105
107
108
108
107
107
107
106
111
97
54
10
4
5
0
4
10
9
1
2
14
16
5
21
46
34
40
77
88
115
118
87
90
87
91
94
110
90
118
133
127
132
122
124
114
40
4
146
243
255
248
255
252
255
255
255
255
255
255
255
255
255
255
255
255
255
255
255
255
255
255
255
255
255
255
255
255
255
255
255
255
255
255
255
255
255
255
255
255
255
255
255
255
255
255
255
255
255
255
255
255
255
255
255
255
255
255
255
255
255
255
255
255
255
255
255
247
254
248
140
5
110
120
21
28
84
120
158
193
201
156
75
10
1
17
14
0
7
26
74
121
129
139
144
140
121
90
63
23
0
1
7
3
1
1
3
0
0
0
0
0
0
0
0
1
1
2
4
1
0
0
4
49
63
97
117
122
145
163
150
134
135
132
125
122
123
123
121
114
113
113
110
101
88
73
62
27
21
12
8
9
8
7
5
1
1
1
1
17
48
66
69
66
70
68
51
22
1
1
5
1
5
4
0
0
2
4
1
1
22
37
52
77
75
52
43
68
77
69
82
59
37
26
69
73
65
78
92
84
72
76
83
108
88
70
82
131
136
105
72
64
98
103
98
109
94
57
48
62
82
62
62
80
85
35
45
101
66
6
12
1
6
4
6
3
3
3
2
2
2
2
2
3
5
1
1
1
0
2
1
2
2
1
1
1
0
0
0
0
0
0
0
0
0
0
0
0
0
0
0
0
0
0
0
0
0
0
0
0
0
0
0
0
0
0
0
0
0
0
0
0
0
0
0
0
0
0
0
0
0
0
0
0
0
0
0
0
0
0
0
0
0
0
0
0
0
0
0
0
0
0
0
0
0
0
0
0
0
0
0
0
0
0
0
0
0
0
0
1
0
0
0
0
1
2
3
0
3
78
184
245
255
255
248
251
253
255
255
255
255
255
255
254
254
254
254
254
254
254
254
255
255
246
255
174
32
3
0
0
0
0
1
1
1
2
2
6
1
1
37
68
90
103
99
103
104
105
107
107
106
106
106
107
106
105
66
13
4
11
0
7
1
1
5
20
36
58
78
81
110
95
94
154
154
159
136
103
100
97
97
92
109
77
90
127
127
140
127
119
132
111
3
83
220
253
244
255
250
253
255
255
255
255
255
255
255
255
255
255
255
255
255
255
255
255
255
255
255
255
255
255
255
255
255
255
255
255
255
255
255
255
255
255
255
255
255
255
255
255
255
255
255
255
255
255
255
255
255
255
255
255
255
255
255
255
255
255
255
255
255
255
253
254
241
140
2
74
120
19
4
0
0
38
107
150
138
104
24
0
10
7
1
3
1
10
45
69
100
116
106
78
47
26
0
0
0
0
0
0
0
0
0
0
0
0
0
0
0
0
1
1
4
7
1
0
6
24
58
85
112
121
127
134
134
127
117
117
118
122
125
124
121
118
108
104
97
85
71
55
40
33
19
13
6
3
5
6
4
1
2
3
1
0
7
18
15
3
15
13
10
6
4
2
1
1
2
1
0
1
3
3
0
0
3
6
18
38
65
77
66
48
64
65
78
77
68
24
32
37
60
61
71
63
45
65
104
117
133
112
83
81
99
95
85
94
128
121
126
130
127
132
122
92
62
100
114
106
113
110
52
36
43
95
73
7
8
29
1
12
0
0
0
0
0
0
0
0
2
2
2
1
1
1
1
1
0
0
0
0
1
1
2
2
0
0
0
0
0
0
0
0
0
0
0
0
0
0
0
0
0
0
0
0
0
0
0
0
0
0
0
0
0
0
0
0
0
0
0
0
0
0
0
0
0
0
0
0
0
0
0
0
0
0
0
0
0
0
0
0
0
0
0
0
0
0
0
0
0
0
0
0
0
0
0
0
10
1
0
0
2
0
0
2
1
6
0
1
9
0
0
10
23
102
192
239
250
253
255
255
255
255
255
255
255
255
255
255
255
255
255
255
255
255
255
255
255
253
250
254
208
42
6
11
1
10
7
2
5
5
3
4
8
2
4
15
49
82
101
106
114
93
103
122
116
111
111
100
104
84
58
53
11
11
12
36
40
44
53
67
86
108
130
143
149
157
145
105
136
155
162
136
108
94
94
97
94
91
92
88
130
138
115
123
127
127
109
21
3
173
253
249
247
252
252
249
255
255
255
255
255
255
255
255
255
255
255
255
255
255
255
255
255
255
255
255
255
255
255
255
255
255
255
255
255
255
255
255
255
255
255
255
255
255
255
255
255
255
255
255
255
255
255
255
255
255
255
255
255
255
255
255
255
255
255
255
255
243
252
247
172
1
64
115
31
1
11
4
0
8
52
81
84
41
6
6
0
1
17
3
1
3
16
32
40
34
20
8
2
0
0
0
0
0
0
0
0
0
0
0
0
0
0
0
0
3
0
1
1
1
1
24
49
87
100
111
115
118
121
119
112
114
116
115
113
107
104
105
107
102
96
85
70
54
38
26
20
9
6
3
0
0
0
0
1
1
4
2
0
1
8
5
1
4
4
1
1
0
1
1
1
0
0
0
0
0
0
1
1
4
7
5
16
55
87
81
57
78
79
73
70
64
33
55
57
40
52
67
58
41
60
98
112
118
127
111
76
58
68
96
124
124
120
119
117
110
108
105
97
57
86
107
116
122
115
100
90
43
56
69
16
3
1
8
3
0
0
0
0
0
0
0
0
0
0
0
0
0
1
3
3
8
7
4
2
1
1
1
1
0
0
0
0
0
0
0
0
0
0
0
0
0
0
0
0
0
0
0
0
0
0
0
0
0
0
0
0
0
0
0
0
0
0
0
0
0
0
0
0
0
0
0
0
0
0
0
0
0
0
0
0
0
0
0
0
0
0
0
0
0
0
0
0
1
1
1
1
1
0
0
0
0
0
2
7
8
5
5
6
0
6
7
0
0
2
22
48
158
202
245
255
255
255
255
255
255
255
255
255
255
255
255
255
255
255
255
255
255
255
255
255
255
250
251
254
222
69
2
3
1
4
1
0
3
2
0
2
6
5
7
20
45
72
86
92
107
84
67
57
43
39
42
42
26
32
39
53
37
36
64
89
83
83
85
96
114
136
154
163
153
155
147
114
109
166
156
150
125
102
93
94
93
93
94
88
118
135
118
120
120
126
128
64
4
107
247
249
249
252
252
252
255
255
255
255
255
255
255
255
255
255
255
255
255
255
255
255
255
255
255
255
255
255
255
255
255
255
255
255
255
255
255
255
255
255
255
255
255
255
255
255
255
255
255
255
255
255
255
255
255
255
255
255
255
255
255
255
255
255
255
255
255
243
253
254
216
1
51
120
72
1
13
16
2
0
10
56
92
64
23
8
1
2
5
2
5
2
1
4
4
2
0
2
5
0
0
0
0
0
0
0
0
0
0
0
0
0
0
0
0
2
0
1
1
1
10
38
68
97
100
106
113
119
121
117
112
115
109
101
101
103
101
93
85
78
71
57
42
28
17
9
6
2
2
4
4
2
2
5
8
1
6
6
0
1
6
6
1
4
4
5
6
6
5
4
4
0
0
0
0
0
0
1
4
3
11
6
2
34
80
87
67
79
91
74
75
69
40
69
63
57
54
49
37
38
67
86
82
85
111
124
90
42
41
73
98
71
69
56
50
53
53
52
57
24
31
42
49
52
59
88
132
90
48
29
25
27
7
7
8
0
0
0
0
0
0
0
0
1
0
0
0
0
0
1
1
1
1
1
0
0
0
1
1
0
0
0
0
0
0
0
0
0
0
0
0
0
0
0
0
0
0
0
0
0
0
0
0
0
0
0
0
0
0
0
0
0
0
0
0
0
0
0
0
0
0
0
0
0
0
0
0
0
0
0
0
0
0
0
0
0
0
0
0
0
0
0
0
3
2
2
1
1
0
0
0
0
1
6
3
0
0
0
0
17
0
0
16
1
4
85
180
247
255
255
255
252
255
255
252
255
255
255
255
255
255
255
255
255
255
255
255
255
255
255
255
255
248
254
255
240
111
0
0
8
6
3
8
8
9
5
8
1
1
4
15
31
45
53
56
33
43
44
43
50
58
64
73
100
108
109
117
101
66
92
109
94
89
87
93
110
130
145
154
156
151
150
127
84
168
149
164
145
115
95
90
89
95
97
90
102
127
122
124
121
127
134
89
13
30
222
252
252
252
253
252
255
255
255
255
255
255
255
255
255
255
255
255
255
255
255
255
255
255
255
255
255
255
255
255
255
255
255
255
255
255
255
255
255
255
255
255
255
255
255
255
255
255
255
255
255
255
255
255
255
255
255
255
255
255
255
255
255
255
255
255
255
252
255
254
242
2
30
126
128
25
2
0
12
14
7
38
88
103
42
7
4
3
2
1
8
2
2
3
2
1
1
2
3
0
0
0
0
0
0
0
0
0
0
0
0
0
0
0
0
0
0
1
8
10
18
43
69
87
90
100
111
119
118
114
110
109
107
99
91
79
69
60
55
38
33
26
15
8
3
1
1
0
2
4
2
0
0
5
12
8
15
14
2
0
3
6
3
1
1
1
3
4
3
3
2
0
2
3
2
0
0
0
2
0
7
7
1
11
46
64
62
73
98
81
78
67
32
74
64
77
66
43
21
29
61
77
70
109
80
65
55
33
28
38
47
81
83
61
51
78
94
87
86
65
57
46
50
61
53
40
38
103
94
26
35
36
10
1
19
1
1
1
1
1
1
1
1
0
0
0
1
1
1
1
1
1
1
1
0
1
1
2
2
1
1
1
1
1
1
1
1
0
0
0
0
0
0
0
0
0
0
0
0
0
0
0
0
0
0
0
0
0
0
0
0
0
0
0
0
0
0
0
0
0
0
0
0
0
0
0
0
0
0
0
0
0
0
0
0
0
0
0
0
0
0
0
0
2
2
1
0
0
0
0
0
1
5
3
0
0
0
1
0
7
5
4
0
11
105
210
252
249
252
251
247
250
255
255
253
255
255
255
255
255
255
255
255
255
255
255
255
255
255
255
255
254
248
255
250
251
152
7
2
2
1
0
6
0
1
2
2
4
7
15
29
43
51
53
52
41
78
96
100
114
118
115
121
118
123
120
121
108
51
70
81
91
88
86
89
101
119
138
151
155
153
152
139
85
145
153
165
157
127
101
90
86
94
100
94
88
121
130
130
126
124
122
90
43
1
167
254
252
252
253
249
255
255
255
255
255
255
255
255
255
255
255
255
255
255
255
255
255
255
255
255
255
255
255
255
255
255
255
255
255
255
255
255
255
255
255
255
255
255
255
255
255
255
255
255
255
255
255
255
255
255
255
255
255
255
255
255
255
255
255
255
255
252
250
252
251
32
9
116
161
109
48
4
2
2
1
26
72
129
80
34
14
4
2
4
0
2
2
4
3
1
1
1
1
0
0
0
0
0
0
0
0
0
0
0
0
0
0
0
0
0
0
1
8
10
18
43
69
85
91
99
103
103
102
100
99
102
103
94
64
27
7
9
19
8
7
5
4
2
1
1
1
3
3
1
0
0
2
10
16
41
45
37
16
3
1
0
1
2
3
3
4
4
4
4
4
0
0
2
3
2
1
0
0
3
1
1
2
5
13
27
35
61
93
86
80
62
25
76
76
65
72
58
29
23
42
65
76
51
13
7
41
74
98
102
86
106
126
114
98
121
148
147
141
146
130
90
76
107
125
83
28
48
96
70
63
32
13
4
4
1
1
1
1
1
1
1
1
0
0
0
3
5
4
3
2
2
3
4
5
4
1
1
0
1
1
1
1
1
1
1
1
0
0
0
0
0
0
0
0
0
0
0
0
0
0
0
0
0
0
0
0
0
0
0
0
0
0
0
0
0
0
0
0
0
0
0
0
0
0
0
0
0
0
0
0
0
0
0
0
0
0
0
0
0
0
0
0
0
0
0
0
0
0
0
0
0
1
0
0
0
5
6
4
0
0
8
45
116
217
255
254
249
251
252
252
255
255
255
255
255
255
255
255
255
255
255
255
255
255
255
255
255
255
255
255
252
252
255
247
253
183
26
12
26
20
14
31
9
23
25
28
42
44
54
73
93
104
101
95
82
117
129
122
128
128
126
132
121
125
121
122
120
64
72
87
90
91
92
91
95
110
134
152
153
157
152
147
108
110
161
156
158
135
114
97
86
91
100
97
82
122
137
127
113
106
110
104
69
3
91
254
250
251
254
247
255
255
255
255
255
255
255
255
255
255
255
255
255
255
255
255
255
255
255
255
255
255
255
255
255
255
255
255
255
255
255
255
255
255
255
255
255
255
255
255
255
255
255
255
255
255
255
255
255
255
255
255
255
255
255
255
255
255
255
255
255
250
249
253
254
100
2
97
167
174
137
81
25
1
1
30
64
113
135
117
64
5
0
12
1
7
6
4
3
4
5
7
9
0
0
0
0
0
0
0
0
0
0
0
0
0
0
0
0
2
0
1
1
1
10
38
68
90
99
102
96
94
99
101
97
97
73
41
15
3
1
0
1
0
1
2
3
3
2
1
1
3
0
0
9
24
40
50
54
82
84
71
47
27
20
12
6
6
6
3
2
1
0
0
0
0
0
0
0
3
4
3
0
9
2
2
3
11
6
2
3
23
61
81
86
76
36
74
74
67
71
58
41
42
45
45
50
18
44
74
83
79
87
91
83
93
124
130
109
104
123
140
145
142
146
118
77
96
137
139
109
52
33
63
79
48
2
20
4
2
2
2
2
2
2
2
2
2
2
1
0
1
1
1
1
1
1
1
1
1
1
1
1
2
2
2
2
2
2
2
2
0
0
0
0
0
0
0
0
0
0
0
0
0
0
0
0
0
0
0
0
0
0
0
0
0
0
0
0
0
0
0
0
0
0
0
0
0
0
0
0
0
0
0
0
0
0
0
0
0
0
0
0
0
0
0
0
0
0
0
0
0
0
0
0
1
0
1
4
2
0
0
0
0
11
83
187
245
252
251
255
255
255
255
254
254
255
255
255
255
255
255
255
255
255
255
255
255
255
255
255
255
255
255
255
252
254
255
248
253
207
55
18
64
63
57
69
35
61
66
67
84
81
85
101
120
128
121
111
74
103
121
120
120
123
123
126
122
121
119
116
117
81
65
79
86
90
91
87
86
98
123
144
152
155
151
151
135
88
156
152
156
143
128
109
91
92
97
93
80
119
132
111
94
94
113
137
88
12
27
221
248
251
254
251
255
255
255
255
255
255
255
255
255
255
255
255
255
255
255
255
255
255
255
255
255
255
255
255
255
255
255
255
255
255
255
255
255
255
255
255
255
255
255
255
255
255
255
255
255
255
255
255
255
255
255
255
255
255
255
255
255
255
255
255
255
251
251
253
254
171
1
74
158
167
171
142
69
2
0
29
68
112
169
184
137
44
3
8
9
1
0
0
0
0
0
1
2
0
0
0
0
0
0
0
0
0
0
0
0
0
0
0
0
3
0
1
1
1
1
24
49
83
99
105
95
98
107
99
80
61
31
2
2
4
15
6
2
1
1
2
3
3
2
1
0
2
0
1
21
51
73
81
78
86
91
88
73
64
60
52
42
22
18
13
8
4
2
3
3
14
7
0
0
4
7
5
1
11
6
3
3
5
5
1
1
1
18
50
73
79
45
65
68
80
69
47
47
68
61
34
19
13
68
103
86
52
49
77
112
106
123
136
121
96
103
132
149
122
155
147
105
96
119
126
117
104
22
37
76
71
18
14
6
2
2
2
2
2
2
2
2
7
4
0
1
2
6
11
15
17
12
5
1
0
1
2
6
2
2
2
2
2
2
2
2
0
0
0
0
0
0
0
0
0
0
0
0
0
0
0
0
0
0
0
0
0
0
0
0
0
0
0
0
0
0
0
0
0
0
0
0
0
0
0
0
0
0
0
0
0
0
0
0
0
0
0
0
0
0
0
0
0
0
1
2
3
3
4
4
6
1
4
8
0
0
0
23
57
141
217
247
255
255
255
245
255
252
250
251
253
254
255
255
255
255
255
255
255
255
255
255
255
255
255
255
255
255
255
255
253
254
250
252
254
224
84
17
69
74
67
74
34
66
76
74
87
84
86
100
115
122
117
110
75
95
121
129
120
117
117
111
123
119
124
121
127
116
69
88
92
94
95
90
91
103
125
143
152
145
150
153
150
90
137
158
157
148
139
122
102
97
95
85
72
98
107
96
101
112
120
141
104
31
6
173
251
251
253
254
255
255
255
255
255
255
255
255
255
255
255
255
255
255
255
255
255
255
255
255
255
255
255
255
255
255
255
255
255
255
255
255
255
255
255
255
255
255
255
255
255
255
255
255
255
255
255
255
255
255
255
255
255
255
255
255
255
255
255
255
255
251
249
252
247
207
2
55
147
162
176
167
104
23
1
34
93
147
173
185
183
103
12
1
2
2
2
3
5
5
3
0
0
0
0
0
0
0
0
0
0
0
0
0
0
0
0
0
0
1
1
4
7
1
0
6
24
73
96
105
98
100
105
80
43
5
7
7
4
2
1
2
4
0
0
0
0
0
0
1
1
4
0
0
18
49
69
68
59
59
71
79
81
84
89
85
76
72
66
60
52
46
44
44
44
35
22
7
2
5
8
5
0
9
19
22
7
2
1
6
5
8
1
14
31
52
39
64
78
72
64
49
55
77
64
37
30
49
77
105
111
105
82
83
118
131
124
133
128
99
96
127
148
146
155
135
102
103
121
124
118
112
73
56
71
75
64
2
6
2
2
2
2
2
2
2
2
2
1
0
4
17
37
55
67
56
45
28
10
0
1
2
2
2
2
2
2
2
2
2
2
0
0
0
0
0
0
0
0
0
0
0
0
0
0
0
0
0
0
0
0
0
0
0
0
0
0
0
0
0
0
0
0
0
0
0
0
0
0
0
0
0
0
0
0
0
0
0
0
0
0
0
0
0
0
0
0
1
2
3
4
5
6
7
8
7
0
3
9
1
0
31
76
182
232
253
247
253
253
249
255
255
255
254
255
255
255
255
253
255
255
255
255
255
255
255
255
255
255
255
255
255
255
255
255
253
254
243
254
254
235
102
14
70
80
72
75
31
66
79
76
73
73
79
92
107
117
118
115
82
91
118
130
118
120
130
125
127
119
124
117
120
124
52
70
88
88
86
84
89
102
123
138
153
136
150
154
152
101
119
166
159
153
145
131
110
101
93
78
62
75
81
90
125
141
123
119
116
45
11
141
250
251
242
255
255
255
255
255
255
255
255
255
255
255
255
255
255
255
255
255
255
255
255
255
255
255
255
255
255
255
255
255
255
255
255
255
255
255
255
255
255
255
255
255
255
255
255
255
255
255
255
255
255
255
255
255
255
255
255
255
255
255
255
255
255
251
253
254
239
230
13
17
134
151
179
166
123
14
51
107
150
191
203
193
185
135
49
5
3
3
2
1
0
0
0
0
1
2
3
5
4
2
0
0
0
0
0
0
0
0
0
0
0
0
0
1
2
3
4
4
5
36
72
103
102
79
53
27
6
4
3
3
2
2
3
3
4
0
0
0
0
0
0
0
0
1
1
1
5
12
17
17
16
22
30
42
49
55
63
73
80
77
79
79
77
82
86
82
73
91
47
7
0
2
2
2
2
2
21
66
78
69
61
38
27
3
2
13
1
7
20
68
81
81
66
36
58
22
6
21
25
78
118
129
122
129
127
108
99
128
123
121
131
136
73
127
146
139
146
143
132
76
143
141
117
119
112
65
110
84
54
63
12
1
10
1
2
6
1
3
5
4
13
31
48
61
70
77
80
86
82
72
59
46
30
8
2
1
1
3
3
1
0
1
3
0
0
0
0
0
0
0
0
0
0
0
0
0
0
0
0
0
0
0
0
0
0
0
0
0
0
0
0
0
0
0
0
0
0
0
0
0
0
0
0
0
0
0
0
0
0
0
0
2
0
0
0
1
2
0
0
0
1
0
0
5
11
8
0
6
9
2
0
0
60
158
234
250
250
251
252
253
254
255
255
255
255
255
255
255
255
255
255
255
255
255
255
255
255
255
255
255
255
255
255
255
255
255
255
255
252
255
250
255
253
143
1
62
83
64
69
51
47
91
67
79
84
85
93
111
120
120
125
98
69
122
118
127
132
117
123
125
127
125
123
124
115
85
53
105
94
80
96
96
89
121
129
148
152
157
152
151
131
105
150
150
160
154
129
96
61
50
59
64
45
106
124
132
126
130
128
123
59
2
117
243
248
251
247
255
255
255
255
255
255
255
255
255
255
255
255
255
255
255
255
255
255
255
255
255
255
255
255
255
255
255
255
255
255
255
255
255
255
255
255
255
255
255
255
255
255
255
255
255
255
255
255
255
255
255
255
255
255
255
255
255
255
255
255
255
243
254
254
252
240
69
7
97
159
165
165
155
82
121
150
183
198
196
178
180
159
95
43
11
3
2
1
0
0
0
0
1
0
0
0
0
0
0
0
2
0
0
0
0
0
0
0
0
0
0
1
1
2
3
4
4
14
37
53
45
30
19
9
0
3
2
2
1
1
2
2
3
0
0
0
0
0
0
0
0
2
1
1
1
4
6
5
3
0
5
11
16
21
30
42
51
81
84
86
82
81
82
77
70
79
44
9
1
1
3
1
1
28
13
32
38
33
28
22
32
5
12
13
6
6
4
27
36
22
18
9
26
68
88
117
137
80
101
122
142
152
138
109
91
111
122
125
125
125
71
127
142
142
148
143
129
71
140
143
125
121
113
66
120
109
78
86
51
7
3
0
12
21
10
12
25
51
59
66
73
79
81
83
86
82
83
80
76
74
71
59
45
17
11
2
1
1
0
3
4
0
0
0
0
0
0
0
0
0
0
0
0
0
0
0
0
0
0
0
0
0
0
0
0
0
0
0
0
0
0
0
0
0
0
0
0
0
0
0
0
0
0
0
0
0
0
0
0
3
1
0
0
0
0
0
0
0
0
2
6
7
3
0
0
0
0
10
71
153
220
249
253
251
251
252
252
253
254
255
255
255
255
255
255
255
255
255
255
255
255
255
255
255
255
255
255
255
255
255
255
255
255
255
255
253
251
254
251
253
254
165
17
42
78
77
73
58
29
72
76
72
76
75
83
103
113
113
119
117
82
105
108
115
125
123
133
114
118
121
125
130
123
96
67
86
91
81
93
97
95
120
126
138
145
156
145
146
127
101
137
165
128
82
65
75
82
85
95
96
65
105
119
125
117
122
124
126
71
1
89
222
246
253
253
255
255
255
255
255
255
255
255
255
255
255
255
255
255
255
255
255
255
255
255
255
255
255
255
255
255
255
255
255
255
255
255
255
255
255
255
255
255
255
255
255
255
255
255
255
255
255
255
255
255
255
255
255
255
255
255
255
255
255
255
255
241
254
250
254
248
140
5
64
158
140
149
162
126
160
148
165
195
195
178
182
172
128
76
25
3
2
1
0
0
0
0
1
0
0
0
0
0
0
0
1
0
0
0
0
0
0
0
0
0
0
0
1
2
3
3
4
1
9
13
3
1
1
3
3
3
2
2
1
1
2
2
3
0
0
0
0
0
0
0
0
2
1
0
0
0
0
0
0
2
2
2
1
4
13
25
34
52
62
73
77
80
85
88
88
83
60
27
4
0
6
4
0
10
6
39
53
58
63
57
61
47
59
50
47
47
45
33
44
74
76
75
64
131
149
150
155
131
112
117
143
149
133
110
93
91
120
126
121
114
72
131
142
146
150
143
128
67
137
147
135
122
114
66
116
130
102
106
88
35
7
1
38
64
59
56
70
77
80
81
82
81
79
80
80
76
78
78
79
83
86
82
74
59
40
16
0
0
2
2
1
0
0
0
0
0
0
0
0
0
0
0
0
0
0
0
0
0
0
0
0
0
0
0
0
0
0
0
0
0
0
0
0
0
0
0
0
0
0
0
0
0
0
0
0
0
0
0
0
0
0
0
0
4
6
6
5
3
0
1
5
1
0
1
14
0
50
125
191
232
251
255
255
251
252
252
253
254
254
255
255
255
255
255
255
255
255
255
255
255
255
255
255
255
255
255
255
255
255
255
255
255
255
255
255
253
255
251
255
255
255
206
54
22
74
87
80
73
28
54
83
76
79
77
86
106
116
117
122
100
81
87
121
128
128
118
117
126
128
127
125
127
122
99
76
73
96
94
92
92
92
104
108
130
138
143
135
134
115
87
105
106
102
100
114
127
111
90
88
115
75
96
118
128
118
122
127
125
88
2
61
204
247
254
253
255
255
255
255
255
255
255
255
255
255
255
255
255
255
255
255
255
255
255
255
255
255
255
255
255
255
255
255
255
255
255
255
255
255
255
255
255
255
255
255
255
255
255
255
255
255
255
255
255
255
255
255
255
255
255
255
255
255
255
255
255
252
255
250
252
253
181
13
55
160
139
153
162
143
171
140
146
176
193
193
189
163
123
84
31
3
2
1
0
0
0
0
1
4
3
1
1
1
1
0
0
1
1
1
1
1
1
1
1
0
0
0
1
1
2
2
2
1
3
4
0
1
3
5
4
3
2
2
1
1
2
2
3
1
1
1
1
1
1
1
1
1
1
1
1
1
1
1
1
8
7
6
5
6
12
20
27
26
39
56
65
70
76
85
93
86
75
44
7
0
7
8
1
13
52
100
117
130
138
121
115
94
115
111
117
114
109
74
91
128
125
133
104
133
159
144
137
165
122
109
123
125
119
110
91
81
111
115
118
111
75
132
145
145
150
144
129
66
134
147
142
124
122
74
100
131
116
115
104
69
24
13
48
81
90
78
79
75
78
83
85
84
84
86
87
85
86
83
77
76
76
72
65
63
44
19
3
0
2
2
0
0
0
0
0
0
0
0
0
0
0
0
0
0
0
0
0
0
0
0
0
0
0
0
0
0
0
0
0
0
0
0
0
0
0
0
0
0
0
0
0
1
1
1
1
1
1
1
1
2
1
0
0
0
0
0
0
3
2
8
14
6
0
5
27
144
179
226
255
255
253
246
243
252
253
253
253
254
255
255
255
255
255
255
255
255
255
255
255
255
255
255
255
255
255
255
255
255
255
255
255
255
255
255
255
255
255
249
255
255
255
238
98
9
70
82
82
76
48
45
85
81
84
81
87
105
115
117
122
121
105
78
114
117
116
114
110
122
121
119
122
130
135
128
115
50
80
89
78
75
75
81
85
83
94
98
96
97
81
57
55
112
131
151
160
150
115
92
94
119
80
87
121
136
125
122
127
123
104
8
42
198
253
248
253
255
255
255
255
255
255
255
255
255
255
255
255
255
255
255
255
255
255
255
255
255
255
255
255
255
255
255
255
255
255
255
255
255
255
255
255
255
255
255
255
255
255
255
255
255
255
255
255
255
255
255
255
255
255
255
255
255
255
255
255
255
253
250
254
244
254
192
26
43
135
138
154
147
133
158
144
149
151
176
187
183
147
113
85
31
3
2
1
0
0
0
0
1
2
1
1
3
6
5
2
0
1
1
1
1
1
1
1
1
0
0
0
0
1
1
1
1
1
3
2
1
1
4
3
1
3
2
2
1
1
2
2
3
1
1
1
1
1
1
1
1
1
1
1
1
1
2
3
4
1
2
2
2
2
4
8
11
26
38
52
57
54
55
67
77
79
78
53
10
1
6
12
3
33
87
127
118
133
157
148
143
100
125
137
147
144
139
95
120
148
136
149
127
97
146
152
145
137
107
98
104
107
111
102
75
78
98
92
110
106
76
128
144
140
145
142
129
67
133
146
141
129
135
89
81
122
128
124
111
88
47
42
44
47
54
40
36
39
44
52
57
59
59
58
59
62
60
54
45
39
37
32
25
21
13
4
0
0
2
4
5
0
0
0
0
0
0
0
0
0
0
0
0
0
0
0
0
0
0
0
0
0
0
0
0
0
0
0
0
0
0
0
0
0
0
0
0
0
0
0
0
1
1
1
1
1
1
1
1
0
0
4
7
7
5
2
1
0
0
2
0
0
27
120
208
248
250
253
255
255
255
254
249
254
254
254
254
254
255
255
255
255
255
255
255
255
255
255
255
255
255
255
255
255
255
255
255
255
255
255
255
255
255
255
255
252
255
244
255
252
254
250
143
0
56
70
79
54
58
33
76
81
84
80
83
100
108
111
118
108
104
72
114
129
134
138
132
106
102
94
88
87
83
71
60
20
44
69
64
60
65
71
81
99
116
123
127
133
125
107
90
162
161
154
148
142
121
106
107
130
93
83
120
134
123
115
120
128
115
18
25
188
255
246
250
255
255
255
255
255
255
255
255
255
255
255
255
255
255
255
255
255
255
255
255
255
255
255
255
255
255
255
255
255
255
255
255
255
255
255
255
255
255
255
255
255
255
255
255
255
255
255
255
255
255
255
255
255
255
255
255
255
255
255
255
255
253
243
253
247
254
199
47
18
98
132
144
132
110
116
132
144
138
148
157
161
138
117
94
33
3
2
1
0
0
0
0
1
1
0
0
1
5
6
3
0
2
2
2
2
2
2
2
2
0
0
0
0
0
0
0
0
7
4
1
1
1
1
1
1
3
2
2
1
1
2
2
3
2
2
2
2
2
2
2
2
0
2
3
1
0
0
0
0
2
1
1
3
3
3
2
2
11
20
34
41
41
46
62
81
83
89
68
24
1
4
7
1
45
101
123
95
116
161
161
162
112
128
158
163
163
155
115
138
168
159
171
159
87
118
135
125
121
104
90
86
94
104
92
66
78
89
72
95
95
75
121
135
131
136
134
126
64
128
139
135
130
134
99
68
109
130
127
112
93
65
78
58
20
17
6
13
3
3
8
11
11
9
7
7
13
14
11
4
2
2
1
1
2
2
1
0
0
1
2
4
0
0
0
0
0
0
0
0
0
0
0
0
0
0
0
0
0
0
0
0
0
0
0
0
0
0
0
0
0
0
0
0
0
0
0
0
0
0
0
0
2
2
2
2
2
2
2
2
0
1
5
7
5
1
0
0
5
0
26
97
177
227
242
240
250
255
255
255
244
242
252
255
255
255
255
255
255
255
255
255
255
255
255
255
255
255
255
255
255
255
255
255
255
255
255
255
255
255
255
255
255
255
255
255
254
255
248
255
254
254
254
196
6
31
61
76
42
51
26
55
57
62
59
60
72
80
85
96
117
117
82
94
97
79
65
47
61
63
70
80
89
91
86
80
43
38
65
77
71
76
82
93
114
136
140
147
149
144
132
99
141
155
156
151
148
134
117
111
133
104
77
112
124
119
119
127
132
118
21
7
166
255
248
254
255
255
255
255
255
255
255
255
255
255
255
255
255
255
255
255
255
255
255
255
255
255
255
255
255
255
255
255
255
255
255
255
255
255
255
255
255
255
255
255
255
255
255
255
255
255
255
255
255
255
255
255
255
255
255
255
255
255
255
255
255
253
247
253
253
254
228
83
3
77
129
135
136
110
81
119
137
135
128
127
139
124
114
97
34
3
2
1
0
0
0
0
1
13
7
0
0
2
4
2
0
2
2
2
2
2
2
2
2
0
0
0
0
0
0
0
0
4
2
0
0
0
1
1
2
3
2
2
1
1
2
2
3
2
2
2
2
2
2
2
2
2
4
5
3
1
1
1
1
3
3
3
3
4
4
3
2
2
2
9
17
21
28
49
70
72
83
71
34
6
1
1
1
54
100
111
85
113
158
155
159
126
120
163
162
165
158
126
139
151
149
154
145
92
85
109
103
129
112
85
74
88
94
79
64
77
93
66
80
80
74
119
123
123
125
123
118
58
122
133
127
129
122
100
65
104
126
125
113
101
68
96
87
46
26
0
14
1
1
2
2
0
1
1
1
0
4
4
1
1
5
6
4
3
4
5
5
3
1
0
0
0
0
0
0
0
0
0
0
0
0
0
0
0
0
0
0
0
0
0
0
0
0
0
0
0
0
0
0
0
0
0
0
0
0
0
0
0
0
0
0
2
2
2
2
2
2
2
2
10
6
0
0
0
7
23
34
101
145
201
236
245
247
255
255
255
255
254
255
255
255
255
251
255
255
255
255
255
255
255
255
255
255
255
255
255
255
255
255
255
255
255
255
255
255
255
255
255
255
255
255
255
255
255
255
255
255
254
255
255
255
252
245
65
11
62
78
64
57
31
34
36
44
44
44
53
60
70
85
64
63
35
26
59
78
98
105
119
118
121
126
130
131
126
122
99
51
73
97
89
92
92
95
114
140
143
150
147
143
137
94
120
154
164
148
138
133
128
129
126
109
75
108
119
122
126
135
125
110
24
1
146
250
248
251
255
255
255
255
255
255
255
255
255
255
255
255
255
255
255
255
255
255
255
255
255
255
255
255
255
255
255
255
255
255
255
255
255
255
255
255
255
255
255
255
255
255
255
255
255
255
255
255
255
255
255
255
255
255
255
255
255
255
255
255
255
253
255
253
253
247
254
118
2
48
105
109
129
104
51
100
124
135
121
119
127
109
99
92
35
3
2
1
0
0
0
0
1
30
20
7
0
0
1
0
0
2
2
2
2
2
2
2
2
0
0
0
0
0
0
0
0
1
1
1
3
3
1
0
0
3
2
2
1
1
2
2
3
2
2
2
2
2
2
2
2
2
5
7
5
2
1
2
5
0
0
0
0
0
1
1
1
8
5
4
2
1
1
9
29
38
53
54
29
5
1
3
1
67
97
94
68
98
138
133
141
118
96
144
139
149
139
114
117
149
150
135
114
98
70
107
115
121
105
77
75
96
93
67
58
78
101
69
74
70
76
119
115
119
119
115
111
52
117
128
123
135
117
105
73
107
124
124
116
116
66
92
102
74
45
2
4
4
6
6
4
2
2
3
5
0
2
3
1
1
3
3
1
4
1
1
1
2
3
2
1
0
0
0
0
0
0
0
0
0
0
0
0
0
0
0
0
0
0
0
0
0
0
0
0
0
0
0
0
0
0
0
0
0
0
0
0
0
0
0
0
2
2
2
2
2
2
2
2
0
0
0
7
42
96
154
192
230
244
255
255
255
255
252
245
250
253
255
255
253
252
253
255
255
255
255
255
255
255
255
255
255
255
255
255
255
255
255
255
255
255
255
255
255
255
255
255
255
255
255
255
255
255
255
255
252
255
254
248
255
255
245
255
132
5
67
85
102
74
45
18
65
74
75
76
83
91
103
120
132
126
106
73
99
107
119
122
125
119
114
113
114
115
118
121
125
48
62
97
93
95
91
90
100
129
137
146
146
147
148
100
115
153
164
147
141
140
128
117
123
117
79
110
119
122
123
131
113
101
27
4
138
243
245
250
255
255
255
255
255
255
255
255
255
255
255
255
255
255
255
255
255
255
255
255
255
255
255
255
255
255
255
255
255
255
255
255
255
255
255
255
255
255
255
255
255
255
255
255
255
255
255
255
255
255
255
255
255
255
255
255
255
255
255
255
255
255
255
243
255
254
238
171
0
43
81
78
107
120
40
27
108
116
126
120
104
103
104
75
36
0
0
0
0
0
0
0
0
21
42
56
44
12
2
1
14
6
5
4
5
5
3
0
1
1
1
2
6
3
1
1
2
2
2
1
1
0
3
2
2
4
4
4
3
2
1
0
0
4
3
1
1
2
5
3
2
1
1
1
4
14
6
0
4
3
1
2
5
4
1
1
2
0
2
1
1
3
8
7
4
5
3
3
5
4
1
0
2
50
83
80
65
90
109
109
118
77
92
114
112
114
112
93
99
120
113
124
119
93
64
109
101
94
114
83
55
69
52
17
4
54
47
71
78
50
97
120
116
112
120
123
98
57
108
127
121
119
112
100
69
121
112
121
126
109
62
93
75
75
90
90
11
2
14
6
1
5
3
1
6
1
1
1
3
8
1
0
8
0
0
0
0
0
0
1
2
0
2
3
3
1
0
1
2
0
0
0
0
0
0
0
0
0
0
0
0
1
1
1
1
0
0
1
2
2
1
0
0
3
1
0
1
2
1
0
0
0
1
5
5
0
0
0
2
7
70
143
191
219
241
254
255
253
253
253
253
253
253
253
253
255
255
255
255
255
255
255
255
255
255
255
255
255
255
255
255
255
255
255
255
255
255
255
255
255
255
255
255
255
255
255
255
255
255
255
255
255
255
255
255
255
255
255
255
255
253
252
251
214
29
14
95
87
94
63
30
59
85
84
71
75
82
95
118
117
120
129
84
68
118
132
121
119
119
119
121
123
125
125
125
120
82
42
82
83
87
94
84
97
116
135
145
151
153
139
120
89
153
156
161
158
130
124
123
120
130
103
74
125
139
125
113
101
122
64
5
93
242
251
254
255
255
255
255
255
255
255
255
255
255
255
255
255
255
255
255
255
255
255
255
255
255
255
255
255
255
255
255
255
255
255
255
255
255
255
255
255
255
255
255
255
255
255
255
255
255
255
255
255
255
255
255
255
255
255
255
255
255
255
255
255
252
255
245
255
255
250
199
47
9
54
99
72
84
76
8
35
86
108
116
109
105
99
71
35
0
0
0
0
0
0
0
0
1
6
28
53
67
55
22
0
3
1
0
1
1
0
1
2
10
4
0
0
0
0
0
1
1
1
5
8
8
4
1
1
0
1
2
3
11
26
42
52
61
84
113
139
151
144
119
94
47
30
24
17
1
1
6
5
0
0
0
1
1
1
1
1
6
7
5
1
2
3
3
3
1
1
1
2
3
3
3
4
22
63
69
58
74
87
89
103
71
92
121
124
125
116
88
86
103
103
116
111
85
62
98
90
98
80
36
11
21
18
17
38
48
45
68
74
51
99
122
119
111
121
125
98
65
112
125
120
124
114
94
67
121
112
115
114
106
64
105
84
63
72
106
77
8
6
2
2
4
3
1
10
1
3
0
1
7
2
1
5
6
4
2
3
6
7
6
4
0
0
0
0
0
0
0
0
0
0
0
0
0
0
0
0
0
0
0
0
0
1
1
2
0
0
0
0
0
0
0
1
0
0
0
0
0
0
1
6
3
2
4
13
38
78
124
154
209
235
255
255
252
252
250
244
253
253
253
253
253
253
253
253
255
255
255
255
255
255
255
255
255
255
255
255
255
255
255
255
255
255
255
255
255
255
255
255
255
255
255
255
255
255
255
255
255
255
255
255
255
255
255
255
255
255
255
255
255
253
252
251
238
88
6
82
88
90
66
49
46
72
78
71
77
81
91
112
116
124
128
93
73
107
129
122
123
122
121
121
122
122
121
121
123
93
51
73
89
88
90
86
86
103
125
138
146
147
139
129
91
142
158
149
143
134
132
129
117
122
101
79
123
125
110
104
109
127
67
3
85
237
251
254
255
255
255
255
255
255
255
255
255
255
255
255
255
255
255
255
255
255
255
255
255
255
255
255
255
255
255
255
255
255
255
255
255
255
255
255
255
255
255
255
255
255
255
255
255
255
255
255
255
255
255
255
255
255
255
255
255
255
255
255
255
250
255
249
255
255
255
230
116
0
21
70
48
46
48
1
2
48
74
91
88
82
78
56
32
0
0
0
0
0
0
0
0
2
1
1
2
18
31
36
38
12
7
3
2
4
4
3
3
7
0
0
0
3
2
0
2
6
4
2
1
0
0
8
18
33
44
63
91
121
148
170
181
188
188
186
184
183
183
176
167
159
128
113
86
34
11
20
18
7
8
3
2
1
3
2
0
2
4
3
0
1
5
7
5
3
4
6
6
7
5
4
3
3
40
52
53
74
85
88
97
58
81
110
115
118
111
85
85
107
107
113
101
80
72
104
99
84
47
29
44
51
29
49
78
66
64
83
83
59
103
119
114
111
123
123
92
72
114
123
117
123
117
100
74
122
115
116
119
101
65
113
88
45
47
116
134
56
17
4
8
3
6
3
1
1
4
1
1
4
4
1
1
5
2
0
2
5
4
0
0
18
13
5
0
0
0
1
7
0
0
0
0
0
0
0
0
5
3
1
0
0
0
0
0
1
0
0
0
0
2
5
6
0
9
22
31
38
53
76
94
132
148
172
197
219
239
255
255
255
255
255
254
252
255
255
255
253
253
253
253
253
253
253
253
255
255
255
255
255
255
255
255
255
255
255
255
255
255
255
255
255
255
255
255
255
255
255
255
255
255
255
255
255
255
255
255
255
255
255
255
255
255
255
255
255
255
255
255
255
253
252
251
254
167
20
56
90
96
72
68
36
59
72
75
78
79
84
98
114
127
124
106
81
89
120
124
122
122
121
121
120
120
120
120
122
106
62
61
96
90
89
94
85
97
117
137
145
142
140
141
94
124
163
162
157
158
130
99
134
132
109
86
118
110
101
104
118
133
70
2
76
231
251
254
255
255
255
255
255
255
255
255
255
255
255
255
255
255
255
255
255
255
255
255
255
255
255
255
255
255
255
255
255
255
255
255
255
255
255
255
255
255
255
255
255
255
255
255
255
255
255
255
255
255
255
255
255
255
255
255
255
255
255
255
255
252
255
252
255
251
255
248
175
1
10
29
50
29
1
8
4
0
1
10
5
3
4
2
1
0
0
0
0
0
0
0
0
4
18
31
30
19
10
11
16
8
5
3
5
9
11
8
3
0
0
0
7
10
5
0
0
3
2
2
0
7
26
52
73
90
99
114
132
148
160
168
173
170
162
151
143
140
144
146
146
154
138
125
115
81
37
33
56
40
42
33
19
15
20
13
2
4
6
6
3
3
7
11
11
4
7
9
7
7
8
6
4
3
20
27
43
77
97
98
101
53
69
91
89
92
91
73
79
96
100
103
89
69
69
87
82
40
25
50
85
83
44
63
83
83
82
95
89
65
106
117
110
112
122
115
80
79
117
120
115
108
112
95
74
114
111
113
123
104
61
103
78
37
44
123
143
97
34
5
12
2
6
3
3
0
7
2
1
4
7
0
1
6
5
2
1
2
4
7
9
0
0
0
12
30
52
74
88
116
116
116
116
116
116
116
116
110
107
102
96
92
90
90
90
87
91
99
110
123
136
147
152
169
178
187
191
193
202
219
233
240
247
255
255
255
255
253
252
248
250
249
245
248
255
255
255
254
254
254
254
254
254
254
254
255
255
255
255
255
255
255
255
255
255
255
255
255
255
255
255
255
255
255
255
255
255
255
255
255
255
255
255
255
255
255
255
255
255
255
255
255
255
255
255
255
255
255
255
255
253
252
251
253
225
71
18
83
111
82
74
37
53
68
78
79
76
77
83
110
127
120
116
90
76
109
123
118
120
120
120
120
120
121
122
118
113
75
51
96
91
91
102
93
95
110
135
145
141
140
145
99
113
172
165
133
142
139
136
128
126
103
68
94
99
110
117
123
135
74
3
68
227
253
254
255
255
255
255
255
255
255
255
255
255
255
255
255
255
255
255
255
255
255
255
255
255
255
255
255
255
255
255
255
255
255
255
255
255
255
255
255
255
255
255
255
255
255
255
255
255
255
255
255
255
255
255
255
255
255
255
255
255
255
255
255
254
255
255
255
249
255
255
220
23
6
16
42
22
5
17
2
3
6
4
0
1
6
9
6
0
0
0
0
0
0
0
0
0
12
41
67
75
64
42
26
15
8
4
3
2
1
2
3
4
4
5
9
4
1
0
2
5
22
45
61
73
84
98
108
116
113
107
104
104
108
114
119
115
112
109
109
110
110
110
110
110
111
97
104
105
48
23
69
63
67
62
50
47
48
37
19
25
28
25
16
8
5
6
6
2
1
1
2
2
6
6
3
1
2
4
19
48
66
74
79
54
70
90
87
88
84
64
68
90
96
99
85
63
61
54
46
39
52
75
88
72
41
64
83
77
81
91
82
65
108
118
115
110
118
105
67
88
123
118
111
127
125
98
79
115
114
105
109
105
49
76
57
41
69
140
140
109
46
8
9
0
4
11
8
2
9
3
0
7
9
5
7
0
0
10
10
3
0
0
1
71
93
127
164
193
213
225
231
240
240
240
240
240
240
240
240
237
235
230
226
223
222
222
222
217
221
227
235
242
248
252
254
255
255
255
255
252
252
254
255
255
255
255
255
253
254
255
255
255
255
255
255
255
254
251
248
254
254
254
254
254
254
254
254
255
255
255
255
255
255
255
255
255
255
255
255
255
255
255
255
255
255
255
255
255
255
255
255
255
255
255
255
255
255
255
255
255
255
255
255
255
255
255
255
255
255
255
255
255
253
252
251
251
249
137
2
51
113
91
75
46
48
63
78
80
77
75
77
101
119
114
122
102
73
96
116
117
119
121
120
119
119
120
123
118
117
90
50
82
87
91
99
96
89
100
126
146
145
144
149
116
94
141
162
145
146
130
120
85
96
81
42
67
94
122
123
122
134
76
4
63
224
254
253
255
255
255
255
255
255
255
255
255
255
255
255
255
255
255
255
255
255
255
255
255
255
255
255
255
255
255
255
255
255
255
255
255
255
255
255
255
255
255
255
255
255
255
255
255
255
255
255
255
255
255
255
255
255
255
255
255
255
255
255
255
254
253
255
255
252
255
255
249
123
4
4
9
6
12
1
9
4
2
1
1
3
6
5
2
0
0
0
0
0
0
0
0
0
1
3
18
36
52
59
61
51
43
31
17
7
1
1
2
1
1
1
2
1
5
20
36
56
74
94
108
110
106
105
105
103
103
104
107
108
113
116
118
123
117
110
107
105
103
106
110
121
121
100
104
115
62
18
51
62
66
66
64
63
63
55
43
52
57
58
52
44
38
34
29
17
20
15
5
3
8
8
4
1
6
7
4
6
12
25
37
40
61
90
95
98
91
66
66
93
88
77
58
34
40
25
35
67
80
89
81
62
41
57
86
78
85
90
76
64
108
116
115
108
116
98
60
100
126
104
88
88
82
55
54
107
126
117
121
87
24
49
41
53
98
148
133
110
75
39
12
0
1
6
4
1
1
1
1
6
1
4
12
17
10
0
0
2
47
109
155
209
221
238
252
255
255
255
252
255
255
255
255
255
255
255
255
255
255
255
255
255
255
255
255
255
255
255
255
254
248
243
239
249
248
249
252
255
255
255
252
242
246
253
255
255
255
254
251
248
252
255
255
254
254
255
255
255
255
255
255
255
255
255
255
255
255
255
255
255
255
255
255
255
255
255
255
255
255
255
255
255
255
255
255
255
255
255
255
255
255
255
255
255
255
255
255
255
255
255
255
255
255
255
255
255
255
255
255
255
253
252
251
246
255
192
23
13
86
95
81
61
47
53
73
78
78
80
79
91
102
107
122
113
82
84
107
119
121
123
121
118
116
118
120
124
121
106
59
58
81
90
88
96
88
95
121
145
150
149
151
135
103
128
167
155
127
90
63
75
95
90
50
70
100
127
119
119
131
78
5
57
222
254
252
255
255
255
255
255
255
255
255
255
255
255
255
255
255
255
255
255
255
255
255
255
255
255
255
255
255
255
255
255
255
255
255
255
255
255
255
255
255
255
255
255
255
255
255
255
255
255
255
255
255
255
255
255
255
255
255
255
255
255
255
255
255
251
255
255
255
255
255
255
228
60
5
1
1
1
1
15
0
0
0
1
3
0
0
0
0
0
0
0
0
0
0
0
4
6
3
2
3
3
5
12
50
55
58
55
46
37
32
29
20
12
7
11
22
38
60
78
98
103
107
105
99
95
95
98
93
98
103
107
108
105
98
94
98
100
110
121
122
112
105
105
103
96
93
100
103
90
54
26
58
60
64
65
66
62
58
55
49
58
67
67
65
64
62
60
52
52
45
30
27
32
34
30
28
20
22
17
5
2
10
14
7
28
54
56
62
61
41
45
53
40
24
10
3
10
1
25
37
44
44
43
39
22
31
75
88
97
94
76
64
107
113
113
110
120
99
58
108
116
70
40
24
33
17
21
68
92
96
116
57
2
45
57
76
111
146
123
104
114
90
38
3
2
1
2
2
4
5
14
16
2
2
25
30
60
103
144
177
209
239
255
255
255
255
252
248
248
250
253
252
252
252
252
252
252
252
252
248
248
249
250
250
251
252
253
247
249
251
254
255
255
255
255
255
255
254
254
255
253
248
243
255
255
255
250
249
252
255
255
255
255
255
255
255
255
255
255
255
255
255
255
255
255
255
255
255
255
255
255
255
255
255
255
255
255
255
255
255
255
255
255
255
255
255
255
255
255
255
255
255
255
255
255
255
255
255
255
255
255
255
255
255
255
255
255
255
255
255
255
255
253
252
251
245
254
231
124
2
45
94
91
80
50
47
67
73
79
83
79
82
85
102
118
121
96
74
98
117
120
123
121
117
116
118
121
128
120
118
76
36
78
94
80
96
91
96
113
131
136
133
131
121
114
124
136
101
74
94
103
109
122
120
82
91
107
126
117
121
131
79
4
49
217
254
252
255
255
255
255
255
255
255
255
255
255
255
255
255
255
255
255
255
255
255
255
255
255
255
255
255
255
255
255
255
255
255
255
255
255
255
255
255
255
255
255
255
255
255
255
255
255
255
255
255
255
255
255
255
255
255
255
255
255
255
255
255
255
250
255
255
255
252
244
252
253
155
50
14
2
4
16
1
3
1
1
3
2
0
0
4
0
0
0
0
0
0
0
0
2
2
1
4
6
7
6
5
2
21
52
76
81
77
71
68
59
48
42
47
61
75
89
99
89
91
95
96
94
96
100
104
106
104
102
102
103
105
108
110
105
99
98
98
93
84
82
87
94
78
96
103
92
110
85
1
65
64
67
70
67
61
58
61
33
44
56
59
59
60
59
56
63
65
58
46
47
58
64
62
68
45
40
44
34
24
21
18
11
9
9
1
1
6
1
9
2
1
4
12
2
16
1
16
6
6
0
10
17
6
18
82
87
97
93
73
63
109
112
114
114
124
101
58
110
102
38
4
82
101
78
48
34
23
23
50
39
2
61
89
100
116
142
116
92
135
125
60
13
7
5
13
18
19
23
35
35
15
16
46
183
203
230
250
255
254
252
251
251
252
252
250
249
250
253
255
252
252
252
252
252
252
252
252
255
255
255
255
255
254
253
252
255
254
252
250
250
251
252
254
251
251
251
253
255
255
255
255
251
251
251
253
255
255
254
253
255
251
251
255
255
255
255
254
255
255
255
255
255
255
255
255
255
255
255
255
255
255
255
255
255
255
255
255
255
255
255
255
255
255
255
255
255
255
255
255
255
255
255
255
255
255
255
255
255
255
255
255
255
255
255
255
255
255
255
255
255
253
252
251
245
254
249
219
8
17
91
100
96
55
45
62
69
76
83
77
76
74
99
115
126
107
69
93
112
116
120
120
118
118
122
126
127
117
124
88
23
80
100
78
95
92
94
101
109
110
105
101
88
74
58
94
116
121
143
128
135
137
132
99
101
107
126
121
123
132
79
2
44
214
254
251
255
255
255
255
255
255
255
255
255
255
255
255
255
255
255
255
255
255
255
255
255
255
255
255
255
255
255
255
255
255
255
255
255
255
255
255
255
255
255
255
255
255
255
255
255
255
255
255
255
255
255
255
255
255
255
255
255
255
255
255
255
255
255
254
255
255
254
252
249
255
237
146
34
0
0
6
0
2
0
4
5
0
2
3
0
0
0
0
1
1
2
2
2
2
2
2
2
2
2
2
2
5
3
5
23
49
72
85
89
79
78
79
80
83
87
92
94
88
93
97
99
96
94
95
98
99
102
106
108
105
93
79
69
57
51
42
34
29
25
23
21
24
33
34
37
57
76
56
20
47
60
62
57
59
58
59
66
49
44
49
56
54
56
60
56
59
67
53
43
54
62
59
63
62
58
63
72
30
39
51
52
43
48
42
22
8
9
15
18
7
4
10
9
4
4
6
2
10
3
13
8
8
12
17
66
94
85
100
87
73
104
120
110
118
128
91
69
115
68
4
66
112
119
137
121
108
98
50
26
10
34
31
50
68
84
115
106
81
127
141
122
53
6
29
33
40
67
57
30
54
58
22
23
170
255
254
251
251
252
249
251
250
250
250
250
250
250
250
250
255
255
255
255
255
255
255
255
255
255
255
255
255
255
255
255
255
255
255
255
255
255
255
255
255
255
255
255
255
255
255
255
255
255
255
255
255
255
255
255
255
255
255
255
255
255
255
255
255
255
255
255
255
255
255
255
255
255
255
255
255
255
255
255
255
255
255
255
255
255
255
255
255
255
255
255
255
255
255
255
255
255
255
255
255
255
255
255
255
255
255
255
255
255
255
255
255
255
255
255
255
255
255
255
246
254
250
253
133
2
35
86
86
64
49
63
78
78
77
88
78
82
85
92
106
113
100
79
101
130
134
123
126
124
115
118
117
123
117
105
70
46
105
75
65
63
57
50
53
69
89
101
107
91
82
143
154
157
141
125
123
130
122
115
78
102
120
123
128
128
90
13
24
222
255
250
253
254
255
255
255
255
255
255
255
255
255
255
255
255
255
255
255
255
255
255
255
255
255
255
255
255
255
255
255
255
255
255
255
255
255
255
255
255
255
255
255
255
255
255
255
255
255
255
255
255
255
255
255
255
255
255
255
255
255
255
255
255
255
254
255
255
255
252
249
254
249
235
137
10
0
20
0
4
0
6
9
0
0
5
17
0
0
1
1
1
1
1
2
1
1
1
1
1
1
1
1
2
1
0
5
20
42
63
76
90
89
87
85
85
86
88
89
91
89
89
90
93
96
98
100
96
92
85
74
60
42
24
12
6
4
2
1
1
3
3
3
0
4
2
1
11
27
21
4
46
60
63
60
62
62
60
67
53
47
54
63
62
65
67
63
55
59
51
41
45
54
58
61
62
58
63
68
45
45
54
57
58
65
68
62
52
46
47
50
36
32
34
33
21
21
30
31
30
26
32
29
35
29
33
83
99
90
104
89
73
98
120
122
110
115
80
84
111
53
10
96
100
96
110
98
89
99
84
77
78
63
48
25
27
60
78
77
87
109
139
149
97
36
27
36
43
65
54
27
50
52
13
7
115
237
248
255
255
255
254
253
253
253
253
253
253
253
253
253
255
255
255
255
255
255
255
255
255
255
255
255
255
255
255
255
255
255
255
255
255
255
255
255
255
255
255
255
255
255
255
255
255
255
255
255
255
255
255
255
255
255
255
255
255
255
255
255
255
255
255
255
255
255
255
255
255
255
255
255
255
255
255
255
255
255
255
255
255
255
255
255
255
255
255
255
255
255
255
255
255
255
255
255
255
255
255
255
255
255
255
255
255
255
255
255
255
255
255
255
255
255
255
255
246
254
252
254
220
74
3
44
67
66
43
33
68
66
58
63
70
75
79
84
95
104
94
78
98
120
119
107
108
103
93
94
81
82
81
76
49
25
54
57
43
53
69
84
102
121
136
142
127
111
96
147
160
160
144
127
123
130
121
114
78
97
119
122
122
128
96
13
13
208
255
253
253
254
255
255
255
255
255
255
255
255
255
255
255
255
255
255
255
255
255
255
255
255
255
255
255
255
255
255
255
255
255
255
255
255
255
255
255
255
255
255
255
255
255
255
255
255
255
255
255
255
255
255
255
255
255
255
255
255
255
255
255
255
255
254
254
255
255
252
250
249
255
255
227
123
20
0
3
0
0
7
13
4
2
2
0
2
1
1
1
1
1
0
0
0
0
0
0
0
0
0
0
2
2
1
1
2
5
22
38
69
69
71
75
79
85
90
93
96
94
92
94
97
96
92
86
69
56
34
16
3
0
0
1
1
1
1
1
0
2
2
2
1
0
1
1
1
1
5
6
43
57
62
61
64
62
60
64
55
48
53
62
62
62
63
59
62
63
60
50
41
50
62
60
62
55
59
57
52
36
41
48
50
51
53
50
45
42
50
59
58
50
54
56
45
42
54
60
60
59
60
55
54
37
32
71
94
89
108
99
77
90
104
110
114
108
59
91
101
39
12
85
85
71
84
85
88
119
129
125
116
100
99
43
28
72
54
16
81
106
140
128
95
75
41
19
30
44
34
15
43
55
18
17
65
213
247
255
255
255
255
255
255
255
255
255
255
255
255
255
255
255
255
255
255
255
255
255
255
255
255
255
255
255
255
255
255
255
255
255
255
255
255
255
255
255
255
255
255
255
255
255
255
255
255
255
255
255
255
255
255
255
255
255
255
255
255
255
255
255
255
255
255
255
255
255
255
255
255
255
255
255
255
255
255
255
255
255
255
255
255
255
255
255
255
255
255
255
255
255
255
255
255
255
255
255
255
255
255
255
255
255
255
255
255
255
255
255
255
255
255
255
255
255
252
254
249
243
254
175
32
10
70
79
52
24
59
50
46
60
42
46
48
50
56
64
60
50
59
77
82
80
84
83
79
81
87
82
87
85
66
45
30
71
83
88
92
97
108
123
136
140
137
123
103
139
157
157
143
126
124
130
118
113
80
91
121
122
120
125
91
6
5
205
254
253
253
254
255
255
255
255
255
255
255
255
255
255
255
255
255
255
255
255
255
255
255
255
255
255
255
255
255
255
255
255
255
255
255
255
255
255
255
255
255
255
255
255
255
255
255
255
255
255
255
255
255
255
255
255
255
255
255
255
255
255
255
255
254
254
254
255
255
253
250
255
253
251
255
227
121
27
9
6
10
10
0
0
4
13
0
2
2
2
1
1
0
0
0
0
0
0
0
0
0
0
0
0
4
6
3
0
0
1
3
22
25
31
40
51
60
68
74
83
86
89
90
86
74
59
47
19
10
1
0
1
1
3
7
3
1
0
0
2
2
1
0
2
2
6
6
2
1
0
7
44
58
63
62
65
63
58
60
64
51
54
60
58
56
58
55
57
54
58
48
29
37
51
44
44
37
43
34
44
14
19
34
31
30
30
27
19
15
26
41
47
38
41
46
34
30
43
53
65
66
66
61
58
40
33
66
104
85
85
65
46
63
84
105
125
109
47
92
89
49
16
34
63
59
82
105
120
154
163
148
139
137
117
42
24
92
103
59
62
85
116
89
95
125
79
19
52
53
37
21
39
47
7
2
50
211
253
255
248
252
255
255
255
255
255
255
255
255
255
255
255
255
255
255
255
255
255
255
255
255
255
255
255
255
255
255
255
255
255
255
255
255
255
255
255
255
255
255
255
255
255
255
255
255
255
255
255
255
255
255
255
255
255
255
255
255
255
255
255
255
255
255
255
255
255
255
255
255
255
255
255
255
255
255
255
255
255
255
255
255
255
255
255
255
255
255
255
255
255
255
255
255
255
255
255
255
255
255
255
255
255
255
255
255
255
255
255
255
255
255
255
255
255
255
253
248
253
249
249
242
140
0
56
102
96
55
36
59
68
73
64
67
68
65
67
71
70
65
44
63
81
93
101
104
105
109
119
119
125
117
101
89
36
90
99
95
90
88
96
115
133
143
139
129
104
126
152
155
146
129
126
131
118
116
88
88
124
122
120
118
78
5
10
216
254
246
253
254
255
255
255
255
255
255
255
255
255
255
255
255
255
255
255
255
255
255
255
255
255
255
255
255
255
255
255
255
255
255
255
255
255
255
255
255
255
255
255
255
255
255
255
255
255
255
255
255
255
255
255
255
255
255
255
255
255
255
255
255
254
253
254
255
255
253
251
255
243
255
255
242
235
169
50
3
0
6
7
0
0
6
5
2
2
2
1
1
0
0
0
0
0
0
0
0
0
0
0
1
0
1
5
6
4
3
2
1
0
3
7
13
18
23
25
40
47
54
54
44
31
18
11
1
1
2
6
8
6
1
1
1
1
1
0
1
3
3
1
3
0
3
9
9
4
4
10
41
54
56
55
58
56
50
51
50
32
30
39
36
35
39
38
39
37
42
34
16
22
34
27
28
27
39
28
38
11
26
44
39
48
55
52
36
24
30
42
42
32
33
32
18
14
26
34
37
37
45
46
52
38
34
78
79
71
81
74
66
71
68
74
105
101
56
95
86
75
35
6
27
55
93
119
129
150
167
152
157
162
134
77
35
56
106
98
56
39
52
48
95
142
95
32
53
48
44
41
55
52
11
1
55
214
255
255
247
251
254
255
255
255
255
255
255
255
255
255
255
255
255
255
255
255
255
255
255
255
255
255
255
255
255
255
255
255
255
255
255
255
255
255
255
255
255
255
255
255
255
255
255
255
255
255
255
255
255
255
255
255
255
255
255
255
255
255
255
255
255
255
255
255
255
255
255
255
255
255
255
255
255
255
255
255
255
255
255
255
255
255
255
255
255
255
255
255
255
255
255
255
255
255
255
255
255
255
255
255
255
255
255
255
255
255
255
255
255
255
255
255
255
255
252
251
255
254
244
254
219
42
2
83
124
99
20
75
93
63
84
86
86
83
83
85
87
87
58
74
101
121
125
123
123
124
123
130
135
116
106
102
40
74
82
85
87
90
101
119
133
140
143
137
109
116
152
158
154
136
126
130
119
121
97
83
125
120
109
113
80
5
12
219
255
246
253
254
255
255
255
255
255
255
255
255
255
255
255
255
255
255
255
255
255
255
255
255
255
255
255
255
255
255
255
255
255
255
255
255
255
255
255
255
255
255
255
255
255
255
255
255
255
255
255
255
255
255
255
255
255
255
255
255
255
255
255
254
253
253
254
255
255
254
252
255
255
255
247
249
255
239
170
62
2
0
2
11
0
0
0
2
1
1
1
1
1
0
0
0
0
0
0
0
0
0
0
1
0
0
1
1
5
5
2
2
2
2
3
2
2
2
2
4
9
14
14
7
2
2
3
9
6
4
3
3
3
1
1
4
2
1
0
1
2
2
1
0
1
1
1
7
8
7
7
31
40
41
39
42
41
37
40
36
16
16
29
31
32
37
40
48
49
50
44
39
49
56
49
60
62
70
61
53
45
62
75
75
84
85
71
54
51
62
73
67
59
54
45
33
33
42
42
33
34
39
33
32
17
16
63
57
79
118
136
140
127
86
65
70
69
62
96
81
97
71
25
4
61
93
95
89
95
117
121
124
147
140
136
79
16
57
105
115
87
55
25
64
119
100
43
29
20
37
56
69
53
15
9
75
221
252
255
253
255
254
253
254
254
254
254
254
254
254
254
255
255
255
255
255
255
255
255
255
255
255
255
255
255
255
255
255
255
255
255
255
255
255
255
255
255
255
255
255
255
255
255
255
255
255
255
255
255
255
255
255
255
255
255
255
255
255
255
255
255
255
255
255
255
255
255
255
255
255
255
255
255
255
255
255
255
255
255
255
255
255
255
255
255
255
255
255
255
255
255
255
255
255
255
255
255
255
255
255
255
255
255
255
255
255
255
255
255
255
255
255
255
255
255
253
254
240
255
255
246
249
164
8
18
77
132
51
61
73
62
73
74
76
76
77
80
83
86
67
70
95
121
125
124
123
119
112
121
122
108
101
96
55
49
89
93
94
93
95
107
119
126
144
144
113
106
150
156
154
135
126
131
119
124
103
74
120
109
96
116
94
9
6
207
255
255
253
254
255
255
255
255
255
255
255
255
255
255
255
255
255
255
255
255
255
255
255
255
255
255
255
255
255
255
255
255
255
255
255
255
255
255
255
255
255
255
255
255
255
255
255
255
255
255
255
255
255
255
255
255
255
255
255
255
255
255
255
254
253
253
254
255
255
254
252
250
255
245
246
255
251
237
255
202
110
33
10
3
0
4
8
0
0
1
1
1
1
1
2
1
1
1
1
1
1
1
1
7
3
0
0
0
0
0
1
4
4
5
5
5
5
5
4
1
0
0
2
1
2
3
3
14
7
0
0
0
1
5
8
1
0
0
0
0
2
3
3
5
8
12
18
22
22
13
2
44
53
50
47
54
56
54
58
61
44
49
69
74
75
81
82
82
84
74
67
79
92
92
90
96
94
94
88
62
74
90
91
94
100
88
63
54
69
87
93
90
84
77
63
53
62
69
61
58
56
50
35
23
8
10
54
96
111
133
135
142
151
129
120
75
43
65
94
84
101
86
49
13
73
79
63
69
86
104
109
113
111
111
125
95
29
49
137
173
170
126
71
47
72
100
86
37
19
38
61
62
30
1
2
124
243
251
255
255
255
255
254
254
254
254
254
254
254
254
254
255
255
255
255
255
255
255
255
255
255
255
255
255
255
255
255
255
255
255
255
255
255
255
255
255
255
255
255
255
255
255
255
255
255
255
255
255
255
255
255
255
255
255
255
255
255
255
255
255
255
255
255
255
255
255
255
255
255
255
255
255
255
255
255
255
255
255
255
255
255
255
255
255
255
255
255
255
255
255
255
255
255
255
255
255
255
255
255
255
255
255
255
255
255
255
255
255
255
255
255
255
255
255
255
255
255
240
244
255
247
254
252
129
6
19
112
102
47
51
69
79
79
81
85
89
90
93
94
82
67
81
110
121
128
129
118
116
116
113
116
112
93
85
45
84
88
89
85
87
101
120
133
141
144
112
95
147
153
153
133
124
130
119
126
105
63
108
92
96
121
102
12
6
203
255
255
253
254
255
255
255
255
255
255
255
255
255
255
255
255
255
255
255
255
255
255
255
255
255
255
255
255
255
255
255
255
255
255
255
255
255
255
255
255
255
255
255
255
255
255
255
255
255
255
255
255
255
255
255
255
255
255
255
255
255
255
255
254
253
252
254
255
255
254
252
255
241
255
255
244
252
255
247
255
234
185
112
46
22
14
0
0
0
0
1
1
2
2
2
2
2
2
2
2
2
2
2
1
0
0
0
1
3
4
5
3
3
3
3
2
1
0
0
2
2
3
9
12
9
1
0
1
1
1
7
9
6
0
0
2
1
2
7
16
26
33
37
50
62
74
78
79
71
50
29
81
90
85
81
90
95
97
104
80
64
72
96
104
103
106
108
98
101
80
70
92
106
102
105
92
87
83
84
49
81
96
88
84
93
85
66
64
83
93
88
89
87
79
64
58
74
83
69
62
62
59
45
35
23
30
83
112
121
126
110
124
147
138
141
112
41
68
96
93
99
85
58
19
85
75
55
96
129
140
141
155
130
118
112
105
55
25
99
139
155
151
136
66
9
67
128
41
16
32
59
57
25
7
29
175
255
255
249
250
253
254
255
255
255
255
255
255
255
255
255
255
255
255
255
255
255
255
255
255
255
255
255
255
255
255
255
255
255
255
255
255
255
255
255
255
255
255
255
255
255
255
255
255
255
255
255
255
255
255
255
255
255
255
255
255
255
255
255
255
255
255
255
255
255
255
255
255
255
255
255
255
255
255
255
255
255
255
255
255
255
255
255
255
255
255
255
255
255
255
255
255
255
255
255
255
255
255
255
255
255
255
255
255
255
255
255
255
255
255
255
255
255
255
255
250
255
255
255
249
253
250
248
247
71
13
53
117
64
65
66
66
65
68
73
76
76
76
77
94
60
63
91
108
119
122
108
124
112
107
127
120
88
107
43
79
87
93
91
90
100
114
126
139
144
112
92
149
155
158
138
123
128
118
125
104
54
98
79
107
125
97
7
8
211
254
250
253
254
255
255
255
255
255
255
255
255
255
255
255
255
255
255
255
255
255
255
255
255
255
255
255
255
255
255
255
255
255
255
255
255
255
255
255
255
255
255
255
255
255
255
255
255
255
255
255
255
255
255
255
255
255
255
255
255
255
255
255
255
255
255
255
255
255
255
255
255
255
255
255
255
255
255
255
254
255
251
221
187
153
113
81
22
0
0
14
11
0
0
4
7
3
2
5
6
5
8
12
1
1
2
2
2
2
1
1
0
0
1
2
1
0
0
0
3
3
3
2
1
0
0
0
1
4
7
2
0
0
2
4
12
24
40
59
80
99
106
105
110
122
123
113
141
111
34
51
108
109
106
100
99
104
108
108
61
85
103
100
98
103
102
92
96
70
51
55
67
67
56
47
54
45
33
22
20
25
34
41
41
45
41
31
33
48
64
71
80
93
62
43
78
85
95
69
82
76
71
44
42
23
56
92
100
98
93
90
92
95
94
91
87
64
51
69
74
81
89
56
32
79
27
48
120
114
128
145
157
166
144
121
106
67
37
63
105
95
116
129
114
32
60
131
69
25
37
53
45
3
2
96
252
253
254
255
255
255
254
254
255
255
255
255
255
255
255
255
255
255
255
255
255
255
255
255
255
255
255
255
255
255
255
255
255
255
255
255
255
255
255
255
255
255
255
255
255
255
255
255
255
255
255
255
255
255
255
255
255
255
255
255
255
255
255
255
255
255
255
255
255
255
255
255
255
255
255
255
255
255
255
255
255
255
255
255
255
255
255
255
255
255
255
255
255
255
255
255
255
255
255
255
255
255
255
255
255
255
255
255
255
255
255
255
255
255
255
255
255
255
255
255
255
255
255
254
254
253
253
253
254
198
67
1
75
112
57
73
72
66
65
73
80
80
77
76
90
88
57
55
96
107
102
124
119
123
122
118
114
106
86
68
42
97
88
97
84
91
107
122
131
124
139
96
132
165
152
148
130
110
101
95
92
44
71
111
118
112
120
2
3
186
254
253
255
255
255
255
255
255
255
255
255
255
255
255
255
255
255
255
255
255
255
255
255
255
255
255
255
255
255
255
255
255
255
255
255
255
255
255
255
255
255
255
255
255
255
255
255
255
255
255
255
255
255
255
255
255
255
255
255
255
255
255
255
255
255
255
255
255
255
255
255
255
255
255
255
255
255
255
255
240
252
255
253
248
246
234
218
175
90
15
0
0
5
12
8
0
0
8
12
6
0
0
0
0
0
0
1
1
0
0
0
7
4
0
0
0
0
4
9
0
0
0
0
2
3
4
5
2
5
3
0
3
20
40
52
52
67
86
99
110
120
125
123
127
135
144
150
137
70
34
89
102
106
109
110
114
118
114
105
59
83
99
90
77
70
56
40
48
28
10
7
10
8
6
6
2
2
2
2
2
2
2
2
2
2
1
1
1
6
10
11
15
29
34
43
47
56
53
50
66
61
62
45
49
28
47
72
80
87
92
97
110
130
142
142
145
111
67
52
57
81
82
29
32
63
5
20
81
89
125
153
151
166
162
145
123
80
34
22
82
128
141
149
135
63
33
89
110
39
54
53
25
3
5
175
252
253
254
255
255
255
254
254
255
255
255
255
255
255
255
255
255
255
255
255
255
255
255
255
255
255
255
255
255
255
255
255
255
255
255
255
255
255
255
255
255
255
255
255
255
255
255
255
255
255
255
255
255
255
255
255
255
255
255
255
255
255
255
255
255
255
255
255
255
255
255
255
255
255
255
255
255
255
255
255
255
255
255
255
255
255
255
255
255
255
255
255
255
255
255
255
255
255
255
255
255
255
255
255
255
255
255
255
255
255
255
255
255
255
255
255
255
255
255
255
255
255
255
254
254
253
253
253
238
254
160
14
33
74
57
95
78
77
75
73
73
77
81
85
87
85
62
59
88
100
100
112
117
120
122
120
113
104
92
82
46
81
91
97
88
90
104
119
128
139
149
87
105
156
153
141
100
89
87
90
94
57
88
137
122
116
121
2
0
179
254
253
255
255
255
255
255
255
255
255
255
255
255
255
255
255
255
255
255
255
255
255
255
255
255
255
255
255
255
255
255
255
255
255
255
255
255
255
255
255
255
255
255
255
255
255
255
255
255
255
255
255
255
255
255
255
255
255
255
255
255
255
255
255
255
255
255
255
255
255
255
255
255
255
255
255
255
255
255
251
255
255
253
252
255
253
246
242
211
170
114
46
6
0
0
6
3
2
2
0
2
12
24
4
5
5
6
6
5
5
4
2
3
3
3
2
0
0
0
2
2
1
0
0
0
0
0
5
6
2
0
5
28
53
67
39
57
77
87
95
108
119
124
121
125
123
130
97
40
59
116
112
109
101
93
88
79
62
45
22
33
31
11
3
2
2
2
3
3
7
15
22
30
42
53
61
68
78
87
90
88
83
78
61
63
61
59
56
50
36
22
22
1
4
32
12
26
10
19
16
13
20
20
47
35
50
72
95
109
116
113
120
137
143
137
147
145
107
64
46
73
75
13
13
60
28
29
48
47
108
155
167
165
160
150
140
115
56
1
76
158
158
156
155
115
31
44
111
55
43
47
10
2
51
241
252
253
254
255
255
255
254
254
255
255
255
255
255
255
255
255
255
255
255
255
255
255
255
255
255
255
255
255
255
255
255
255
255
255
255
255
255
255
255
255
255
255
255
255
255
255
255
255
255
255
255
255
255
255
255
255
255
255
255
255
255
255
255
255
255
255
255
255
255
255
255
255
255
255
255
255
255
255
255
255
255
255
255
255
255
255
255
255
255
255
255
255
255
255
255
255
255
255
255
255
255
255
255
255
255
255
255
255
255
255
255
255
255
255
255
255
255
255
255
255
255
255
255
254
254
253
253
253
249
255
248
119
7
17
60
88
91
77
70
72
77
76
75
75
80
78
67
60
69
85
92
93
110
116
125
130
125
110
98
93
57
64
96
98
93
88
98
110
134
133
134
85
112
159
136
99
89
90
102
112
118
78
85
133
127
120
119
2
1
169
252
251
255
255
255
255
255
255
255
255
255
255
255
255
255
255
255
255
255
255
255
255
255
255
255
255
255
255
255
255
255
255
255
255
255
255
255
255
255
255
255
255
255
255
255
255
255
255
255
255
255
255
255
255
255
255
255
255
255
255
255
255
255
255
255
255
255
255
255
255
255
255
255
255
255
255
255
255
255
255
255
255
248
247
253
255
252
255
255
255
239
185
121
57
4
7
0
0
6
10
5
0
0
0
0
0
0
0
0
0
0
0
0
2
6
7
5
0
0
0
0
0
0
1
3
5
6
4
7
5
0
1
12
22
27
3
11
15
14
15
24
34
37
49
67
53
53
37
30
68
68
59
55
44
32
25
22
15
7
1
6
6
0
3
28
53
64
84
100
123
143
157
168
182
193
223
225
229
232
233
233
231
230
225
225
225
223
218
207
192
181
150
3
5
27
26
44
24
29
26
26
23
13
35
13
25
58
94
115
126
121
127
146
150
141
138
158
137
87
55
75
75
15
13
69
68
70
56
40
87
123
148
147
154
151
145
146
93
3
76
145
143
129
146
145
67
21
89
74
13
21
3
18
135
254
252
253
254
255
255
255
254
254
255
255
255
255
255
255
255
255
255
255
255
255
255
255
255
255
255
255
255
255
255
255
255
255
255
255
255
255
255
255
255
255
255
255
255
255
255
255
255
255
255
255
255
255
255
255
255
255
255
255
255
255
255
255
255
255
255
255
255
255
255
255
255
255
255
255
255
255
255
255
255
255
255
255
255
255
255
255
255
255
255
255
255
255
255
255
255
255
255
255
255
255
255
255
255
255
255
255
255
255
255
255
255
255
255
255
255
255
255
255
255
255
255
255
255
254
254
253
253
253
255
236
255
230
90
7
24
47
112
83
64
67
78
78
75
75
82
79
78
66
58
77
92
85
93
101
117
131
129
111
93
85
60
45
90
96
99
94
104
117
118
128
142
102
77
88
92
97
113
112
121
129
131
90
70
112
128
120
114
2
0
160
249
249
255
255
255
255
255
255
255
255
255
255
255
255
255
255
255
255
255
255
255
255
255
255
255
255
255
255
255
255
255
255
255
255
255
255
255
255
255
255
255
255
255
255
255
255
255
255
255
255
255
255
255
255
255
255
255
255
255
255
255
255
255
255
255
255
255
255
255
255
255
255
255
255
255
255
255
255
255
254
255
254
252
254
255
255
255
255
250
251
255
252
235
189
136
55
23
0
0
0
7
5
1
0
0
3
6
6
3
0
0
14
7
0
0
0
0
2
4
0
0
0
0
0
0
0
0
2
6
7
2
0
0
0
0
3
4
3
0
1
6
8
5
2
5
0
5
7
23
46
8
2
2
2
1
2
14
27
32
70
91
115
131
150
172
188
193
212
224
238
247
252
253
254
254
254
253
250
248
247
248
249
250
250
252
254
255
254
251
249
251
235
11
3
12
51
62
54
47
52
62
58
41
48
10
21
67
100
117
121
111
116
138
147
141
152
160
134
96
71
84
78
16
37
74
76
89
88
73
83
86
92
108
144
153
144
152
115
25
57
85
124
118
133
147
113
26
65
75
2
2
16
96
210
251
252
253
254
255
255
255
254
254
255
255
255
255
255
255
255
255
255
255
255
255
255
255
255
255
255
255
255
255
255
255
255
255
255
255
255
255
255
255
255
255
255
255
255
255
255
255
255
255
255
255
255
255
255
255
255
255
255
255
255
255
255
255
255
255
255
255
255
255
255
255
255
255
255
255
255
255
255
255
255
255
255
255
255
255
255
255
255
255
255
255
255
255
255
255
255
255
255
255
255
255
255
255
255
255
255
255
255
255
255
255
255
255
255
255
255
255
255
255
255
255
255
255
255
254
254
253
253
253
250
250
244
255
218
88
1
7
66
79
74
54
46
55
64
67
80
78
83
72
56
74
99
91
90
95
107
122
126
112
94
82
87
52
88
87
88
77
76
85
90
100
108
79
52
84
120
139
136
125
113
113
122
94
64
110
125
118
109
2
1
154
251
252
255
255
255
255
255
255
255
255
255
255
255
255
255
255
255
255
255
255
255
255
255
255
255
255
255
255
255
255
255
255
255
255
255
255
255
255
255
255
255
255
255
255
255
255
255
255
255
255
255
255
255
255
255
255
255
255
255
255
255
255
255
255
255
255
255
255
255
255
255
255
255
255
255
255
255
255
255
255
255
255
252
250
248
247
247
249
250
255
255
245
249
255
252
211
148
71
26
18
27
35
39
54
62
73
81
81
73
62
54
10
6
3
2
4
3
0
0
2
2
1
1
2
5
7
9
1
4
4
0
0
4
4
1
0
1
2
2
4
6
0
0
5
4
1
0
1
1
6
1
8
30
60
87
118
155
186
204
194
212
232
244
250
254
254
251
254
254
254
252
251
253
253
250
254
254
254
254
254
254
254
253
247
247
250
251
248
247
252
254
247
9
4
14
60
57
61
48
39
64
70
59
68
26
37
92
114
119
109
90
87
101
109
105
124
137
130
109
82
81
73
17
45
74
72
85
94
85
86
88
85
81
98
115
133
151
116
30
47
48
121
144
151
153
152
75
38
23
10
1
97
210
242
249
252
253
254
255
255
255
254
254
255
255
255
255
255
255
255
255
255
255
255
255
255
255
255
255
255
255
255
255
255
255
255
255
255
255
255
255
255
255
255
255
255
255
255
255
255
255
255
255
255
255
255
255
255
255
255
255
255
255
255
255
255
255
255
255
255
255
255
255
255
255
255
255
255
255
255
255
255
255
255
255
255
255
255
255
255
255
255
255
255
255
255
255
255
255
255
255
255
255
255
255
255
255
255
255
255
255
255
255
255
255
255
255
255
255
255
255
255
255
255
255
255
255
255
254
254
253
253
253
250
254
245
252
255
193
90
4
4
64
107
76
46
49
56
53
63
63
70
63
45
57
81
79
75
79
83
88
94
95
85
73
83
54
61
65
68
58
57
65
87
97
92
75
70
136
158
145
137
126
110
112
125
106
58
103
122
117
103
4
4
149
252
254
255
255
255
255
255
255
255
255
255
255
255
255
255
255
255
255
255
255
255
255
255
255
255
255
255
255
255
255
255
255
255
255
255
255
255
255
255
255
255
255
255
255
255
255
255
255
255
255
255
255
255
255
255
255
255
255
255
255
255
255
255
255
255
255
255
255
255
255
255
255
255
255
255
255
255
255
255
254
253
253
255
255
255
255
255
255
251
254
255
255
255
255
248
255
239
215
208
212
217
221
223
215
219
226
231
231
226
219
215
221
212
197
174
142
102
60
33
3
1
0
0
0
0
0
0
1
2
1
0
1
7
9
6
0
0
1
0
0
1
2
1
2
2
29
56
84
113
139
177
207
217
226
230
236
246
255
254
254
254
254
254
252
250
248
247
253
254
253
248
249
254
254
254
251
252
254
254
254
254
254
254
255
254
252
253
249
245
246
252
254
37
12
25
59
56
64
53
35
61
67
59
71
22
25
83
90
92
89
84
90
104
114
113
100
118
123
110
83
79
70
20
40
70
70
78
94
85
84
96
102
81
72
84
105
124
91
23
66
48
94
153
168
166
162
137
51
2
12
53
199
253
248
247
252
253
254
255
255
255
254
254
255
255
255
255
255
255
255
255
255
255
255
255
255
255
255
255
255
255
255
255
255
255
255
255
255
255
255
255
255
255
255
255
255
255
255
255
255
255
255
255
255
255
255
255
255
255
255
255
255
255
255
255
255
255
255
255
255
255
255
255
255
255
255
255
255
255
255
255
255
255
255
255
255
255
255
255
255
255
255
255
255
255
255
255
255
255
255
255
255
255
255
255
255
255
255
255
255
255
255
255
255
255
255
255
255
255
255
255
255
255
255
255
255
255
255
254
254
253
253
253
254
253
254
254
241
248
215
88
12
47
89
108
100
81
68
64
57
60
66
59
42
40
53
59
51
60
64
61
65
76
74
63
54
46
30
52
67
72
80
95
105
137
143
123
76
113
144
132
130
125
116
121
133
115
50
96
120
117
100
9
7
147
252
254
255
255
255
255
255
255
255
255
255
255
255
255
255
255
255
255
255
255
255
255
255
255
255
255
255
255
255
255
255
255
255
255
255
255
255
255
255
255
255
255
255
255
255
255
255
255
255
255
255
255
255
255
255
255
255
255
255
255
255
255
255
255
255
255
255
255
255
255
255
255
255
255
255
255
255
255
255
255
254
254
255
255
254
255
255
255
249
255
255
253
249
255
255
254
255
255
255
255
252
251
254
255
255
252
249
249
252
255
255
252
252
254
255
255
247
231
218
169
155
129
97
64
35
14
3
1
0
0
0
0
2
0
0
25
36
48
57
75
103
131
148
162
172
213
224
241
254
239
255
254
255
254
248
248
253
254
252
249
253
255
254
253
254
254
254
250
255
255
255
255
255
255
252
254
254
254
254
254
254
254
254
253
253
251
255
255
254
250
251
251
43
1
10
36
48
57
53
39
58
58
52
72
29
30
89
74
80
90
104
121
136
142
142
131
127
106
90
79
89
78
20
46
66
61
72
106
101
80
80
91
90
95
95
87
80
55
20
87
56
48
127
161
167
147
157
115
20
1
90
250
245
252
252
252
253
254
255
255
255
254
254
255
255
255
255
255
255
255
255
255
255
255
255
255
255
255
255
255
255
255
255
255
255
255
255
255
255
255
255
255
255
255
255
255
255
255
255
255
255
255
255
255
255
255
255
255
255
255
255
255
255
255
255
255
255
255
255
255
255
255
255
255
255
255
255
255
255
255
255
255
255
255
255
255
255
255
255
255
255
255
255
255
255
255
255
255
255
255
255
255
255
255
255
255
255
255
255
255
255
255
255
255
255
255
255
255
255
255
255
255
255
255
255
255
255
255
254
254
253
253
253
249
254
247
253
253
254
255
205
83
7
4
77
123
93
66
75
74
77
79
73
55
41
45
54
62
81
89
82
85
98
98
86
85
86
41
65
76
78
84
97
119
129
127
126
81
108
142
142
128
123
112
112
125
112
52
106
119
117
99
13
11
144
253
253
255
255
255
255
255
255
255
255
255
255
255
255
255
255
255
255
255
255
255
255
255
255
255
255
255
255
255
255
255
255
255
255
255
255
255
255
255
255
255
255
255
255
255
255
255
255
255
255
255
255
255
255
255
255
255
255
255
255
255
255
255
255
255
255
255
255
255
255
255
255
255
255
255
255
255
255
255
255
255
255
255
255
255
255
255
255
255
255
255
255
255
255
255
253
253
253
253
253
253
253
253
254
254
254
254
254
254
254
254
255
255
255
254
254
253
253
253
254
251
244
229
207
182
160
147
130
112
90
81
91
113
135
147
172
178
189
203
218
233
244
250
250
250
251
252
253
255
255
255
254
254
254
254
254
254
254
254
255
255
255
255
255
255
255
255
255
255
255
255
255
255
255
255
255
255
255
255
255
255
255
255
255
255
255
255
249
255
253
250
251
8
5
39
55
33
46
38
39
52
47
46
49
26
12
33
52
100
132
122
114
131
148
150
150
154
127
102
75
77
71
10
71
70
63
53
59
77
91
92
93
86
100
95
82
48
16
58
119
64
5
89
146
158
171
156
132
62
5
74
254
248
242
254
252
253
254
255
255
255
254
254
255
255
255
255
255
255
255
255
255
255
255
255
255
255
255
255
255
255
255
255
255
255
255
255
255
255
255
255
255
255
255
255
255
255
255
255
255
255
255
255
255
255
255
255
255
255
255
255
255
255
255
255
255
255
255
255
255
255
255
255
255
255
255
255
255
255
255
255
255
255
255
255
255
255
255
255
255
255
255
255
255
255
255
255
255
255
255
255
255
255
255
255
255
255
255
255
255
255
255
255
255
255
255
255
255
255
255
255
255
255
255
255
255
255
255
255
255
255
255
255
254
254
253
253
253
252
252
252
224
116
16
10
71
110
100
77
86
72
71
90
90
57
49
76
98
81
97
83
78
105
99
90
95
88
76
60
89
84
91
99
118
125
131
121
98
92
147
138
119
120
123
118
120
112
89
83
127
111
80
16
9
139
254
251
255
255
255
255
255
255
255
255
255
255
255
255
255
255
255
255
255
255
255
255
255
255
255
255
255
255
255
255
255
255
255
255
255
255
255
255
255
255
255
255
255
255
255
255
255
255
255
255
255
255
255
255
255
255
255
255
255
255
255
255
255
255
255
255
255
255
255
255
255
255
255
255
255
255
255
255
255
255
255
255
255
255
255
255
255
255
255
255
255
255
255
255
255
253
253
253
253
253
253
253
253
254
254
254
254
254
254
254
254
255
255
255
254
254
253
253
253
251
253
255
255
255
252
248
245
241
229
216
212
219
232
243
249
244
245
248
251
255
255
255
255
251
251
252
253
253
254
255
255
254
254
254
254
254
254
254
254
255
255
255
255
255
255
255
255
255
255
255
255
255
255
255
255
255
255
255
255
255
255
255
255
255
255
246
247
255
250
252
255
202
0
4
37
58
50
54
45
15
34
30
33
48
26
3
18
87
111
125
121
126
144
149
136
130
143
128
112
80
77
37
21
82
93
95
77
60
61
68
73
89
92
94
73
45
15
16
64
111
66
17
72
110
133
154
166
139
95
27
60
252
250
250
255
252
253
254
255
255
255
254
254
255
255
255
255
255
255
255
255
255
255
255
255
255
255
255
255
255
255
255
255
255
255
255
255
255
255
255
255
255
255
255
255
255
255
255
255
255
255
255
255
255
255
255
255
255
255
255
255
255
255
255
255
255
255
255
255
255
255
255
255
255
255
255
255
255
255
255
255
255
255
255
255
255
255
255
255
255
255
255
255
255
255
255
255
255
255
255
255
255
255
255
255
255
255
255
255
255
255
255
255
255
255
255
255
255
255
255
255
255
255
255
255
255
255
255
255
255
255
255
255
254
254
254
253
253
252
252
252
250
219
125
18
5
69
105
91
78
78
74
74
81
75
59
49
90
84
92
87
84
93
91
90
94
90
79
60
85
84
92
96
120
125
130
124
101
87
140
134
131
119
115
117
124
122
97
75
125
106
73
6
4
137
253
252
255
255
255
255
255
255
255
255
255
255
255
255
255
255
255
255
255
255
255
255
255
255
255
255
255
255
255
255
255
255
255
255
255
255
255
255
255
255
255
255
255
255
255
255
255
255
255
255
255
255
255
255
255
255
255
255
255
255
255
255
255
255
255
255
255
255
255
255
255
255
255
255
255
255
255
255
255
255
255
255
255
255
255
255
255
255
255
255
255
255
255
255
255
253
253
253
253
253
253
253
253
254
254
254
254
254
254
254
254
255
255
255
254
254
253
253
253
255
255
254
253
252
251
251
250
255
255
252
253
255
255
255
255
254
254
254
254
253
253
253
253
253
253
253
253
253
253
254
254
254
254
254
254
254
254
254
254
255
255
255
255
255
255
255
255
255
255
255
255
255
255
255
255
255
255
255
255
255
255
255
255
255
255
237
251
255
247
255
254
114
0
5
45
58
64
56
52
22
42
42
51
70
46
15
22
99
115
123
116
113
125
137
140
139
140
128
115
70
59
14
58
82
91
97
93
87
80
69
57
74
77
59
43
21
4
30
70
94
63
39
67
87
104
115
135
114
114
51
60
245
247
254
255
252
253
254
255
255
255
254
254
255
255
255
255
255
255
255
255
255
255
255
255
255
255
255
255
255
255
255
255
255
255
255
255
255
255
255
255
255
255
255
255
255
255
255
255
255
255
255
255
255
255
255
255
255
255
255
255
255
255
255
255
255
255
255
255
255
255
255
255
255
255
255
255
255
255
255
255
255
255
255
255
255
255
255
255
255
255
255
255
255
255
255
255
255
255
255
255
255
255
255
255
255
255
255
255
255
255
255
255
255
255
255
255
255
255
255
255
255
255
255
255
255
255
255
255
255
255
255
255
254
254
254
254
253
253
252
252
252
254
222
122
24
4
54
111
98
75
60
68
82
78
60
46
74
87
86
90
90
82
86
89
90
92
82
62
78
85
93
93
117
122
126
127
107
83
132
132
131
118
119
123
118
114
99
68
107
94
68
6
4
137
253
250
255
255
255
255
255
255
255
255
255
255
255
255
255
255
255
255
255
255
255
255
255
255
255
255
255
255
255
255
255
255
255
255
255
255
255
255
255
255
255
255
255
255
255
255
255
255
255
255
255
255
255
255
255
255
255
255
255
255
255
255
255
255
255
255
255
255
255
255
255
255
255
255
255
255
255
255
255
255
255
255
255
255
255
255
255
255
255
255
255
255
255
255
255
254
254
254
254
254
254
254
254
254
254
254
254
254
254
254
254
255
255
255
254
254
253
253
253
251
251
249
249
249
251
253
254
251
251
252
255
255
255
249
244
246
247
248
250
252
254
255
255
255
255
254
254
254
253
253
253
254
254
254
254
254
254
254
254
255
255
255
255
255
255
255
255
255
255
255
255
255
255
255
255
255
255
255
254
254
254
254
254
255
255
242
255
255
246
255
207
34
2
22
58
53
66
50
57
26
51
52
58
73
46
11
16
96
108
114
108
101
112
135
153
145
126
122
114
54
21
10
71
93
90
84
80
84
91
91
86
74
55
18
33
40
27
54
72
76
60
62
76
89
95
82
84
102
105
31
56
241
250
254
253
252
253
254
255
255
255
254
254
255
255
255
255
255
255
255
255
255
255
255
255
255
255
255
255
255
255
255
255
255
255
255
255
255
255
255
255
255
255
255
255
255
255
255
255
255
255
255
255
255
255
255
255
255
255
255
255
255
255
255
255
255
255
255
255
255
255
255
255
255
255
255
255
255
255
255
255
255
255
255
255
255
255
255
255
255
255
255
255
255
255
255
255
255
255
255
255
255
255
255
255
255
255
255
255
255
255
255
255
255
255
255
255
255
255
255
255
255
255
255
255
255
255
255
255
255
255
255
255
255
255
254
254
254
253
253
253
253
243
252
241
146
27
4
54
109
88
74
73
76
79
69
53
55
91
84
88
92
78
87
87
87
92
84
65
70
84
94
91
110
116
121
128
113
82
126
134
128
114
117
128
121
118
108
62
82
83
73
18
9
136
252
248
255
255
255
255
255
255
255
255
255
255
255
255
255
255
255
255
255
255
255
255
255
255
255
255
255
255
255
255
255
255
255
255
255
255
255
255
255
255
255
255
255
255
255
255
255
255
255
255
255
255
255
255
255
255
255
255
255
255
255
255
255
255
255
255
255
255
255
255
255
255
255
255
255
255
255
255
255
255
255
255
255
255
255
255
255
255
255
255
255
255
255
255
255
254
254
254
254
254
254
254
254
254
254
254
254
254
254
254
254
255
255
255
254
254
253
253
253
254
255
255
255
255
255
255
255
255
255
255
255
255
255
255
255
255
255
255
255
255
255
255
255
255
255
255
255
254
253
253
252
254
254
254
254
254
254
254
254
255
255
255
255
255
255
255
255
255
255
255
255
255
255
255
255
255
255
255
254
253
253
253
252
254
251
247
255
238
249
255
151
2
11
25
52
47
67
51
58
28
56
60
59
67
38
8
17
55
62
70
75
83
96
111
121
123
96
111
108
47
4
42
62
68
82
94
96
90
88
90
92
86
45
7
45
69
58
76
83
71
67
78
77
87
90
80
74
102
76
3
71
242
254
251
243
252
253
254
255
255
255
254
254
255
255
255
255
255
255
255
255
255
255
255
255
255
255
255
255
255
255
255
255
255
255
255
255
255
255
255
255
255
255
255
255
255
255
255
255
255
255
255
255
255
255
255
255
255
255
255
255
255
255
255
255
255
255
255
255
255
255
255
255
255
255
255
255
255
255
255
255
255
255
255
255
255
255
255
255
255
255
255
255
255
255
255
255
255
255
255
255
255
255
255
255
255
255
255
255
255
255
255
255
255
255
255
255
255
255
255
255
255
255
255
255
255
255
255
255
255
255
255
255
255
255
255
254
254
254
253
253
251
249
255
254
239
162
60
0
51
96
119
86
65
82
87
57
40
88
84
84
90
84
92
84
86
92
86
72
65
83
92
89
106
114
119
127
117
81
120
132
131
117
110
126
124
121
112
53
73
86
85
27
6
128
248
251
255
255
255
255
255
255
255
255
255
255
255
255
255
255
255
255
255
255
255
255
255
255
255
255
255
255
255
255
255
255
255
255
255
255
255
255
255
255
255
255
255
255
255
255
255
255
255
255
255
255
255
255
255
255
255
255
255
255
255
255
255
255
255
255
255
255
255
255
255
255
255
255
255
255
255
255
255
255
255
255
255
255
255
255
255
255
255
255
255
255
255
255
255
255
255
255
255
255
255
255
255
254
254
254
254
254
254
254
254
255
255
255
254
254
253
253
253
255
255
255
254
253
250
248
247
252
251
249
248
248
250
252
253
254
253
253
252
252
251
251
250
255
255
255
255
254
254
253
253
254
254
254
254
254
254
254
254
255
255
255
255
255
255
255
255
255
255
255
255
255
255
255
255
255
255
254
254
253
252
252
251
255
246
252
255
230
255
249
106
13
20
16
37
41
66
56
55
30
63
67
62
64
38
18
32
54
78
103
112
114
122
134
144
118
88
101
83
32
1
86
74
47
59
78
93
99
97
91
87
72
28
7
47
68
71
90
101
79
85
86
68
76
82
96
90
47
32
1
156
253
252
251
252
252
253
254
255
255
255
254
254
255
255
255
255
255
255
255
255
255
255
255
255
255
255
255
255
255
255
255
255
255
255
255
255
255
255
255
255
255
255
255
255
255
255
255
255
255
255
255
255
255
255
255
255
255
255
255
255
255
255
255
255
255
255
255
255
255
255
255
255
255
255
255
255
255
255
255
255
255
255
255
255
255
255
255
255
255
255
255
255
255
255
255
255
255
255
255
255
255
255
255
255
255
255
255
255
255
255
255
255
255
255
255
255
255
255
255
255
255
255
255
255
255
255
255
255
255
255
255
255
255
255
255
255
254
254
254
254
247
254
254
245
254
251
172
70
4
43
98
105
76
72
84
79
39
73
82
82
86
88
92
84
86
89
85
78
60
79
89
90
106
119
122
127
118
80
114
126
126
132
118
119
100
86
90
53
83
97
96
29
4
115
245
254
255
255
255
255
255
255
255
255
255
255
255
255
255
255
255
255
255
255
255
255
255
255
255
255
255
255
255
255
255
255
255
255
255
255
255
255
255
255
255
255
255
255
255
255
255
255
255
255
255
255
255
255
255
255
255
255
255
255
255
255
255
255
255
255
255
255
255
255
255
255
255
255
255
255
255
255
255
255
255
255
255
255
255
255
255
255
255
255
255
255
255
255
255
255
255
255
255
255
255
255
255
254
254
254
254
254
254
254
254
255
255
255
254
254
253
253
253
250
251
252
254
255
255
255
255
255
255
255
255
255
255
255
255
253
253
254
255
255
255
255
255
255
255
255
255
255
255
254
254
254
254
254
254
254
254
254
254
255
255
255
255
255
255
255
255
255
255
255
255
255
255
255
255
255
255
254
253
252
252
251
251
255
254
255
253
245
252
185
51
22
28
26
40
41
51
54
49
27
61
63
57
60
38
20
36
63
99
130
130
121
126
144
156
133
109
105
55
16
27
96
92
82
68
54
55
66
79
88
92
48
14
21
40
59
82
94
100
84
98
86
70
84
83
95
64
5
3
11
240
255
246
254
254
252
253
254
255
255
255
254
254
255
255
255
255
255
255
255
255
255
255
255
255
255
255
255
255
255
255
255
255
255
255
255
255
255
255
255
255
255
255
255
255
255
255
255
255
255
255
255
255
255
255
255
255
255
255
255
255
255
255
255
255
255
255
255
255
255
255
255
255
255
255
255
255
255
255
255
255
255
255
255
255
255
255
255
255
255
255
255
255
255
255
255
255
255
255
255
255
255
255
255
255
255
255
255
255
255
255
255
255
255
255
255
255
255
255
255
255
255
255
255
255
255
255
255
255
255
255
255
255
255
255
255
255
255
254
254
254
247
255
254
248
250
254
237
211
76
13
31
98
99
70
73
87
50
51
75
84
83
86
83
86
87
87
84
86
59
75
86
91
102
123
124
123
117
81
113
124
123
135
103
93
81
71
87
65
87
102
100
31
4
114
245
254
255
255
255
255
255
255
255
255
255
255
255
255
255
255
255
255
255
255
255
255
255
255
255
255
255
255
255
255
255
255
255
255
255
255
255
255
255
255
255
255
255
255
255
255
255
255
255
255
255
255
255
255
255
255
255
255
255
255
255
255
255
255
255
255
255
255
255
255
255
255
255
255
255
255
255
255
255
255
255
255
255
255
255
255
255
255
255
255
255
255
255
255
255
255
255
255
255
255
255
255
255
254
254
254
254
254
254
254
254
255
255
255
254
254
253
253
253
255
255
255
253
251
251
252
253
252
254
255
255
253
251
250
250
255
255
255
255
254
253
252
252
255
255
255
255
255
255
255
255
254
254
254
254
254
254
254
254
255
255
255
255
255
255
255
255
255
255
255
255
255
255
255
255
255
255
254
253
252
251
250
250
250
255
255
247
255
237
112
0
19
33
48
57
43
34
43
42
38
69
70
63
68
48
31
45
91
110
122
120
121
135
145
145
133
126
117
48
15
58
78
83
94
89
81
70
56
45
42
45
46
21
41
40
58
94
90
82
84
101
84
83
108
90
77
3
33
4
1
253
244
251
254
248
252
253
254
255
255
255
254
254
255
255
255
255
255
255
255
255
255
255
255
255
255
255
255
255
255
255
255
255
255
255
255
255
255
255
255
255
255
255
255
255
255
255
255
255
255
255
255
255
255
255
255
255
255
255
255
255
255
255
255
255
255
255
255
255
255
255
255
255
255
255
255
255
255
255
255
255
255
255
255
255
255
255
255
255
255
255
255
255
255
255
255
255
255
255
255
255
255
255
255
255
255
255
255
255
255
255
255
255
255
255
255
255
255
255
255
255
255
255
255
255
255
255
255
255
255
255
255
255
255
255
255
255
255
255
254
254
254
248
246
253
252
248
248
254
199
56
3
65
104
95
77
60
65
37
68
87
83
83
74
87
88
84
82
90
58
72
84
93
97
123
124
120
118
86
116
127
132
119
61
61
94
109
119
80
81
99
101
36
4
122
248
254
255
255
255
255
255
255
255
255
255
255
255
255
255
255
255
255
255
255
255
255
255
255
255
255
255
255
255
255
255
255
255
255
255
255
255
255
255
255
255
255
255
255
255
255
255
255
255
255
255
255
255
255
255
255
255
255
255
255
255
255
255
255
255
255
255
255
255
255
255
255
255
255
255
255
255
255
255
255
255
255
255
255
255
255
255
255
255
255
255
255
255
255
255
255
255
255
255
255
255
255
255
255
255
255
255
255
255
255
255
255
255
255
255
255
255
255
255
255
255
255
255
255
255
255
255
255
255
255
255
255
255
255
255
255
255
255
255
255
255
255
255
255
255
255
255
255
255
255
255
255
255
255
255
255
255
255
255
255
255
255
255
255
255
255
255
255
255
255
254
254
253
253
253
252
253
254
254
254
254
253
254
254
254
239
251
250
167
9
4
18
46
49
48
53
51
42
26
31
50
42
67
38
30
44
44
92
112
115
119
126
137
154
149
133
121
99
27
40
56
62
97
88
91
94
99
104
99
77
55
34
28
52
74
68
66
74
73
77
100
94
98
100
49
18
73
83
14
33
243
248
254
251
253
252
253
254
255
255
255
254
254
255
255
255
255
255
255
255
255
255
255
255
255
255
255
255
255
255
255
255
255
255
255
255
255
255
255
255
255
255
255
255
255
255
255
255
255
255
255
255
255
255
255
255
255
255
255
255
255
255
255
255
255
255
255
255
255
255
255
255
255
255
255
255
255
255
255
255
255
255
255
255
255
255
255
255
255
255
255
255
255
255
255
255
255
255
255
255
255
255
255
255
255
255
255
255
255
255
255
255
255
255
255
255
255
255
255
255
255
255
255
255
255
255
255
255
255
255
255
255
255
255
255
255
255
255
255
255
255
253
253
253
253
253
253
253
253
255
163
72
0
2
59
59
48
65
53
42
74
85
80
93
82
89
86
90
85
75
56
97
92
97
111
125
121
120
109
101
131
68
71
89
108
118
123
113
91
66
91
86
29
4
116
252
252
253
253
253
254
254
255
255
255
255
255
255
255
255
255
255
255
255
255
255
255
255
255
255
255
255
255
255
255
255
255
255
255
255
255
255
255
255
255
255
255
255
255
255
255
255
255
255
255
255
255
255
255
255
255
255
255
255
255
255
255
255
255
255
255
255
255
255
255
255
255
255
255
255
255
255
255
255
255
255
255
255
255
255
255
255
255
255
255
255
255
255
255
255
255
255
255
255
255
255
255
255
255
255
255
255
255
255
255
255
255
255
255
255
255
255
255
255
255
255
255
255
255
255
255
255
255
255
255
255
255
255
255
255
255
255
255
255
255
255
255
255
255
255
255
255
255
255
255
255
255
255
255
255
255
255
255
255
255
255
255
255
255
255
255
255
255
255
255
254
254
253
253
253
247
255
255
251
247
252
255
255
241
254
254
248
155
19
3
21
19
50
61
62
64
59
45
30
24
42
32
49
29
20
48
51
96
111
101
98
100
114
142
142
133
112
75
26
58
65
55
64
82
103
106
87
79
86
79
57
35
32
60
88
87
80
77
67
71
77
92
101
76
36
54
115
105
8
12
252
240
255
240
253
252
253
254
255
255
255
254
254
255
255
255
255
255
255
255
255
255
255
255
255
255
255
255
255
255
255
255
255
255
255
255
255
255
255
255
255
255
255
255
255
255
255
255
255
255
255
255
255
255
255
255
255
255
255
255
255
255
255
255
255
255
255
255
255
255
255
255
255
255
255
255
255
255
255
255
255
255
255
255
255
255
255
255
255
255
255
255
255
255
255
255
255
255
255
255
255
255
255
255
255
255
255
255
255
255
255
255
255
255
255
255
255
255
255
255
255
255
255
255
255
255
255
255
255
255
255
255
255
255
255
255
255
255
255
255
255
253
253
253
253
253
253
253
253
255
246
172
48
1
43
95
67
61
38
30
60
72
67
77
79
90
86
88
84
72
51
87
83
95
111
127
117
105
76
47
65
100
99
108
116
120
122
112
91
69
94
91
33
4
117
253
254
253
253
253
254
254
255
255
255
255
255
255
255
255
255
255
255
255
255
255
255
255
255
255
255
255
255
255
255
255
255
255
255
255
255
255
255
255
255
255
255
255
255
255
255
255
255
255
255
255
255
255
255
255
255
255
255
255
255
255
255
255
255
255
255
255
255
255
255
255
255
255
255
255
255
255
255
255
255
255
255
255
255
255
255
255
255
255
255
255
255
255
255
255
255
255
255
255
255
255
255
255
255
255
255
255
255
255
255
255
255
255
255
255
255
255
255
255
255
255
255
255
255
255
255
255
255
255
255
255
255
255
255
255
255
255
255
255
255
255
255
255
255
255
255
255
255
255
255
255
255
255
255
255
255
255
255
255
255
255
255
255
255
255
255
255
255
255
255
254
254
253
253
253
252
246
237
252
254
254
246
248
248
253
193
66
2
4
76
34
23
51
67
68
70
64
46
36
51
61
55
58
44
26
59
57
53
74
76
77
76
78
94
86
105
82
29
19
71
74
65
57
55
72
84
82
89
95
70
34
28
41
77
101
94
83
82
80
72
65
79
68
28
39
99
140
96
28
3
254
239
254
248
249
252
253
254
255
255
255
254
254
255
255
255
255
255
255
255
255
255
255
255
255
255
255
255
255
255
255
255
255
255
255
255
255
255
255
255
255
255
255
255
255
255
255
255
255
255
255
255
255
255
255
255
255
255
255
255
255
255
255
255
255
255
255
255
255
255
255
255
255
255
255
255
255
255
255
255
255
255
255
255
255
255
255
255
255
255
255
255
255
255
255
255
255
255
255
255
255
255
255
255
255
255
255
255
255
255
255
255
255
255
255
255
255
255
255
255
255
255
255
255
255
255
255
255
255
255
255
255
255
255
255
255
255
255
255
255
255
253
253
253
253
253
253
253
253
248
255
221
151
39
4
58
95
80
38
24
32
41
40
34
43
49
48
55
58
56
45
77
83
61
65
67
55
54
55
62
104
125
117
118
118
115
116
108
89
65
92
90
33
3
110
250
255
253
253
253
254
254
255
255
255
255
255
255
255
255
255
255
255
255
255
255
255
255
255
255
255
255
255
255
255
255
255
255
255
255
255
255
255
255
255
255
255
255
255
255
255
255
255
255
255
255
255
255
255
255
255
255
255
255
255
255
255
255
255
255
255
255
255
255
255
255
255
255
255
255
255
255
255
255
255
255
255
255
255
255
255
255
255
255
255
255
255
255
255
255
255
255
255
255
255
255
255
255
255
255
255
255
255
255
255
255
255
255
255
255
255
255
255
255
255
255
255
255
255
255
255
255
255
255
255
255
255
255
255
255
255
255
255
255
255
255
255
255
255
255
255
255
255
255
255
255
255
255
255
255
255
255
255
255
255
255
255
255
255
255
255
255
255
255
255
254
254
253
253
253
244
248
254
254
254
249
248
250
181
65
2
16
26
12
49
62
33
48
62
62
67
64
44
41
61
71
69
63
52
24
56
48
53
87
105
123
133
140
153
141
108
87
19
33
85
88
92
84
78
65
59
66
77
76
61
50
48
54
71
86
88
87
88
90
92
92
83
45
27
79
132
131
75
57
1
244
253
244
252
237
252
253
254
255
255
255
254
254
255
255
255
255
255
255
255
255
255
255
255
255
255
255
255
255
255
255
255
255
255
255
255
255
255
255
255
255
255
255
255
255
255
255
255
255
255
255
255
255
255
255
255
255
255
255
255
255
255
255
255
255
255
255
255
255
255
255
255
255
255
255
255
255
255
255
255
255
255
255
255
255
255
255
255
255
255
255
255
255
255
255
255
255
255
255
255
255
255
255
255
255
255
255
255
255
255
255
255
255
255
255
255
255
255
255
255
255
255
255
255
255
255
255
255
255
255
255
255
255
255
255
255
255
255
255
255
255
254
254
254
254
254
254
254
254
255
244
236
254
169
12
8
104
117
78
64
51
67
85
72
84
80
72
68
60
42
22
27
34
49
77
112
126
132
116
94
111
129
120
118
116
113
115
110
95
60
88
89
33
3
105
246
255
253
253
253
254
254
255
255
255
255
255
255
255
255
255
255
255
255
255
255
255
255
255
255
255
255
255
255
255
255
255
255
255
255
255
255
255
255
255
255
255
255
255
255
255
255
255
255
255
255
255
255
255
255
255
255
255
255
255
255
255
255
255
255
255
255
255
255
255
255
255
255
255
255
255
255
255
255
255
255
255
255
255
255
255
255
255
255
255
255
255
255
255
255
255
255
255
255
255
255
255
255
255
255
255
255
255
255
255
255
255
255
255
255
255
255
255
255
255
255
255
255
255
255
255
255
255
255
255
255
255
255
255
255
255
255
255
255
255
255
255
255
255
255
255
255
255
255
255
255
255
255
255
255
255
255
255
255
255
255
255
255
255
255
255
255
255
255
255
254
254
253
253
253
236
254
253
246
253
254
216
150
3
4
19
39
48
60
35
49
41
43
58
58
66
67
41
42
57
70
66
59
51
29
65
57
80
105
113
124
132
142
160
151
133
105
17
40
89
92
92
83
98
87
78
75
66
58
60
70
87
74
59
62
78
89
90
91
94
104
77
42
58
100
114
101
87
63
5
145
248
248
250
247
252
253
254
255
255
255
254
254
255
255
255
255
255
255
255
255
255
255
255
255
255
255
255
255
255
255
255
255
255
255
255
255
255
255
255
255
255
255
255
255
255
255
255
255
255
255
255
255
255
255
255
255
255
255
255
255
255
255
255
255
255
255
255
255
255
255
255
255
255
255
255
255
255
255
255
255
255
255
255
255
255
255
255
255
255
255
255
255
255
255
255
255
255
255
255
255
255
255
255
255
255
255
255
255
255
255
255
255
255
255
255
255
255
255
255
255
255
255
255
255
255
255
255
255
255
255
255
255
255
255
255
255
255
255
255
255
254
254
254
254
254
254
254
254
252
250
253
254
255
125
6
41
102
92
75
45
57
90
79
83
76
74
74
78
71
61
58
77
97
109
122
121
121
106
85
105
124
118
119
119
117
121
120
106
60
86
89
37
2
108
248
255
253
253
253
254
254
255
255
255
255
255
255
255
255
255
255
255
255
255
255
255
255
255
255
255
255
255
255
255
255
255
255
255
255
255
255
255
255
255
255
255
255
255
255
255
255
255
255
255
255
255
255
255
255
255
255
255
255
255
255
255
255
255
255
255
255
255
255
255
255
255
255
255
255
255
255
255
255
255
255
255
255
255
255
255
255
255
255
255
255
255
255
255
255
255
255
255
255
255
255
255
255
255
255
255
255
255
255
255
255
255
255
255
255
255
255
255
255
255
255
255
255
255
255
255
255
255
255
255
255
255
255
255
255
255
255
255
255
255
255
255
255
255
255
255
255
255
255
255
255
255
255
255
255
255
255
255
255
255
255
255
255
255
255
255
255
255
255
255
254
254
253
253
253
254
253
253
253
245
180
84
10
12
45
64
65
59
67
31
68
43
38
56
52
61
64
36
45
67
78
65
59
45
38
78
76
112
128
124
125
128
134
146
133
132
100
11
36
87
94
84
71
68
71
70
64
64
71
74
71
92
92
79
67
68
70
79
95
89
85
48
34
69
84
88
103
114
90
53
15
155
253
255
253
252
253
254
255
255
255
254
254
255
255
255
255
255
255
255
255
255
255
255
255
255
255
255
255
255
255
255
255
255
255
255
255
255
255
255
255
255
255
255
255
255
255
255
255
255
255
255
255
255
255
255
255
255
255
255
255
255
255
255
255
255
255
255
255
255
255
255
255
255
255
255
255
255
255
255
255
255
255
255
255
255
255
255
255
255
255
255
255
255
255
255
255
255
255
255
255
255
255
255
255
255
255
255
255
255
255
255
255
255
255
255
255
255
255
255
255
255
255
255
255
255
255
255
255
255
255
255
255
255
255
255
255
255
255
255
255
255
255
255
255
255
255
255
255
248
255
253
235
255
216
55
2
78
106
90
42
46
75
72
71
91
87
86
92
83
77
58
83
85
98
114
120
130
117
91
105
122
117
119
118
117
121
121
110
54
78
80
33
1
107
246
254
253
253
253
254
254
255
255
255
255
255
255
255
255
255
255
255
255
255
255
255
255
255
255
255
255
255
255
255
255
255
255
255
255
255
255
255
255
255
255
255
255
255
255
255
255
255
255
255
255
255
255
255
255
255
255
255
255
255
255
255
255
255
255
255
255
255
255
255
255
255
255
255
255
255
255
255
255
255
255
255
255
255
255
255
255
255
255
255
255
255
255
255
255
255
255
255
255
255
255
255
255
255
255
255
255
255
255
255
255
255
255
255
255
255
255
255
255
255
255
255
255
255
255
255
255
255
255
255
255
255
255
255
255
255
255
255
255
255
255
255
255
255
255
255
255
255
255
255
255
255
255
255
255
255
255
255
255
255
255
255
255
255
255
255
255
255
255
255
254
254
253
253
253
249
250
248
212
123
30
5
14
49
64
60
60
72
67
40
40
44
32
47
34
39
47
28
55
63
77
56
56
34
36
72
74
103
118
116
125
136
148
159
142
125
99
19
36
69
77
62
59
43
33
19
15
28
51
68
73
70
91
95
85
79
68
66
82
78
59
32
45
87
101
105
130
126
130
110
9
51
180
245
248
252
253
254
255
255
255
254
254
255
255
255
255
255
255
255
255
255
255
255
255
255
255
255
255
255
255
255
255
255
255
255
255
255
255
255
255
255
255
255
255
255
255
255
255
255
255
255
255
255
255
255
255
255
255
255
255
255
255
255
255
255
255
255
255
255
255
255
255
255
255
255
255
255
255
255
255
255
255
255
255
255
255
255
255
255
255
255
255
255
255
255
255
255
255
255
255
255
255
255
255
255
255
255
255
255
255
255
255
255
255
255
255
255
255
255
255
255
255
255
255
255
255
255
255
255
255
255
255
255
255
255
255
255
255
255
255
255
255
255
255
255
255
255
255
254
255
254
249
254
254
152
30
15
86
86
50
44
57
75
84
83
79
78
85
77
74
48
76
81
89
104
114
129
117
87
94
123
118
118
117
113
118
118
108
47
69
72
28
1
106
244
254
253
253
253
254
254
255
255
255
255
255
255
255
255
255
255
255
255
255
255
255
255
255
255
255
255
255
255
255
255
255
255
255
255
255
255
255
255
255
255
255
255
255
255
255
255
255
255
255
255
255
255
255
255
255
255
255
255
255
255
255
255
255
255
255
255
255
255
255
255
255
255
255
255
255
255
255
255
255
255
255
255
255
255
255
255
255
255
255
255
255
255
255
255
255
255
255
255
255
255
255
255
255
255
255
255
255
255
255
255
255
255
255
255
255
255
255
255
255
255
255
255
255
255
255
255
255
255
255
255
255
255
255
255
255
255
255
255
255
255
255
255
255
255
255
255
255
255
255
255
255
255
255
255
255
255
255
255
255
255
255
255
255
255
255
255
255
255
255
254
254
253
253
253
248
234
159
47
2
12
51
63
57
67
61
60
79
62
76
47
45
26
36
10
9
25
20
64
56
77
56
67
40
50
78
79
115
123
111
112
123
136
146
128
118
100
25
18
22
20
2
12
13
6
13
24
15
6
15
39
62
75
78
88
107
96
63
48
40
23
25
56
105
129
126
120
130
140
118
44
12
43
205
249
252
253
254
255
255
255
254
254
255
255
255
255
255
255
255
255
255
255
255
255
255
255
255
255
255
255
255
255
255
255
255
255
255
255
255
255
255
255
255
255
255
255
255
255
255
255
255
255
255
255
255
255
255
255
255
255
255
255
255
255
255
255
255
255
255
255
255
255
255
255
255
255
255
255
255
255
255
255
255
255
255
255
255
255
255
255
255
255
255
255
255
255
255
255
255
255
255
255
255
255
255
255
255
255
255
255
255
255
255
255
255
255
255
255
255
255
255
255
255
255
255
255
255
255
255
255
255
255
255
255
255
255
255
255
255
255
255
255
255
255
255
255
255
255
254
250
254
254
238
254
231
73
6
94
101
74
53
40
66
84
77
74
75
84
79
79
49
81
92
97
110
119
136
121
87
92
128
121
120
117
112
117
119
109
48
68
71
29
2
111
248
254
253
253
253
254
254
255
255
255
255
255
255
255
255
255
255
255
255
255
255
255
255
255
255
255
255
255
255
255
255
255
255
255
255
255
255
255
255
255
255
255
255
255
255
255
255
255
255
255
255
255
255
255
255
255
255
255
255
255
255
255
255
255
255
255
255
255
255
255
255
255
255
255
255
255
255
255
255
255
255
255
255
255
255
255
255
255
255
255
255
255
255
255
255
255
255
255
255
255
255
255
255
255
255
255
255
255
255
255
255
255
255
255
255
255
255
255
255
255
255
255
255
255
255
255
255
255
255
255
255
255
255
255
255
255
255
255
255
255
255
255
255
255
255
255
255
255
255
255
255
255
255
255
255
255
255
255
255
255
255
255
255
255
255
255
255
248
255
250
254
254
243
252
250
193
81
3
19
59
62
50
48
53
64
71
69
65
64
63
60
30
22
27
44
47
34
28
32
35
43
63
52
13
55
64
75
83
103
98
97
103
120
137
124
106
93
35
5
33
44
39
45
47
68
61
46
45
22
1
5
11
46
66
50
40
48
35
3
24
55
57
94
119
110
117
115
102
92
111
109
94
15
9
212
254
245
255
250
252
255
247
254
255
255
255
255
255
255
255
255
255
255
255
255
255
255
255
255
255
255
255
255
255
255
255
255
255
255
255
255
255
255
255
255
255
255
255
255
255
255
255
255
255
255
255
255
255
255
255
255
255
255
255
255
255
255
255
255
255
255
255
255
255
255
255
255
255
255
255
255
255
255
255
255
255
255
255
255
255
255
255
255
255
255
255
255
255
255
255
255
255
255
255
255
255
255
255
255
255
255
255
255
255
255
255
255
255
255
255
255
255
255
255
255
255
255
255
255
255
255
255
255
255
255
255
255
255
255
255
255
255
255
255
255
255
255
255
255
255
238
255
255
242
255
246
152
5
60
105
93
52
44
63
71
80
80
78
77
79
79
69
59
97
85
112
125
128
126
97
88
121
124
117
115
120
114
96
86
44
64
100
35
6
94
253
253
254
254
255
255
255
255
255
255
255
255
255
255
255
255
255
255
255
255
255
255
255
255
255
255
255
255
255
255
255
255
255
255
255
255
255
255
255
255
255
255
255
255
255
255
255
255
255
255
255
255
255
255
255
255
255
255
255
255
255
255
255
255
255
255
255
255
255
255
255
255
255
255
255
255
255
255
255
255
255
255
255
255
255
255
255
255
255
255
255
255
255
255
255
255
255
255
255
255
255
255
255
255
255
255
255
255
255
255
255
255
255
255
255
255
255
255
255
255
255
255
255
255
255
255
255
255
255
255
255
255
255
255
255
255
255
255
255
255
255
255
255
255
255
255
255
255
255
255
255
255
255
255
255
255
255
255
255
255
255
255
255
255
255
255
255
255
254
247
242
254
255
237
135
9
14
27
46
65
71
57
40
62
64
67
69
71
68
54
39
43
39
44
56
59
50
45
48
32
33
38
28
8
44
71
86
90
116
120
127
137
148
153
129
113
95
31
6
42
56
50
52
54
56
60
46
11
3
13
46
5
4
29
45
8
3
2
0
2
24
68
92
89
113
112
94
97
97
118
132
138
75
14
81
218
254
250
253
255
243
250
247
255
255
255
255
255
255
255
255
255
255
255
255
255
255
255
255
255
255
255
255
255
255
255
255
255
255
255
255
255
255
255
255
255
255
255
255
255
255
255
255
255
255
255
255
255
255
255
255
255
255
255
255
255
255
255
255
255
255
255
255
255
255
255
255
255
255
255
255
255
255
255
255
255
255
255
255
255
255
255
255
255
255
255
255
255
255
255
255
255
255
255
255
255
255
255
255
255
255
255
255
255
255
255
255
255
255
255
255
255
255
255
255
255
255
255
255
255
255
255
255
255
255
255
255
255
255
255
255
255
255
255
255
255
255
255
255
254
244
255
255
243
255
250
185
39
27
85
64
62
25
50
79
77
77
77
79
83
82
70
56
89
82
110
121
123
125
97
84
102
120
126
118
109
94
84
85
54
70
103
36
5
104
255
253
254
254
255
255
255
255
255
255
255
255
255
255
255
255
255
255
255
255
255
255
255
255
255
255
255
255
255
255
255
255
255
255
255
255
255
255
255
255
255
255
255
255
255
255
255
255
255
255
255
255
255
255
255
255
255
255
255
255
255
255
255
255
255
255
255
255
255
255
255
255
255
255
255
255
255
255
255
255
255
255
255
255
255
255
255
255
255
255
255
255
255
255
255
255
255
255
255
255
255
255
255
255
255
255
255
255
255
255
255
255
255
255
255
255
255
255
255
255
255
255
255
255
255
255
255
255
255
255
255
255
255
255
255
255
255
255
255
255
255
255
255
255
255
255
255
255
255
255
255
255
255
255
255
255
255
255
255
255
255
255
255
255
255
255
255
255
250
253
254
254
210
130
12
16
52
78
71
66
68
60
42
66
74
77
68
53
43
38
36
56
59
61
63
63
62
62
63
40
34
28
26
27
34
76
88
116
129
121
121
134
153
169
154
134
112
41
19
53
63
57
54
66
51
49
24
2
23
119
173
100
4
2
3
2
19
68
70
36
5
56
82
58
96
96
90
101
108
123
146
164
132
52
1
118
229
252
252
255
245
254
250
255
255
255
255
255
255
255
255
255
255
255
255
255
255
255
255
255
255
255
255
255
255
255
255
255
255
255
255
255
255
255
255
255
255
255
255
255
255
255
255
255
255
255
255
255
255
255
255
255
255
255
255
255
255
255
255
255
255
255
255
255
255
255
255
255
255
255
255
255
255
255
255
255
255
255
255
255
255
255
255
255
255
255
255
255
255
255
255
255
255
255
255
255
255
255
255
255
255
255
255
255
255
255
255
255
255
255
255
255
255
255
255
255
255
255
255
255
255
255
255
255
255
255
255
255
255
255
255
255
255
255
255
255
255
255
255
251
252
255
255
247
255
253
228
87
4
60
57
57
26
31
71
78
79
80
82
87
84
68
52
81
82
106
114
117
123
101
79
115
127
119
98
84
78
85
101
66
72
104
32
4
118
255
253
254
254
255
255
255
255
255
255
255
255
255
255
255
255
255
255
255
255
255
255
255
255
255
255
255
255
255
255
255
255
255
255
255
255
255
255
255
255
255
255
255
255
255
255
255
255
255
255
255
255
255
255
255
255
255
255
255
255
255
255
255
255
255
255
255
255
255
255
255
255
255
255
255
255
255
255
255
255
255
255
255
255
255
255
255
255
255
255
255
255
255
255
255
255
255
255
255
255
255
255
255
255
255
255
255
255
255
255
255
255
255
255
255
255
255
255
255
255
255
255
255
255
255
255
255
255
255
255
255
255
255
255
255
255
255
255
255
255
255
255
255
255
255
255
255
255
255
255
255
255
255
255
255
255
255
255
255
255
255
255
255
255
255
255
255
253
255
254
255
216
102
16
8
66
66
66
66
67
66
58
50
54
59
57
46
36
37
49
62
65
70
68
60
58
64
69
69
65
49
30
25
34
18
70
88
108
123
123
130
144
156
160
140
135
117
39
17
44
42
42
39
45
32
12
1
13
117
220
253
233
135
69
65
96
164
211
199
148
43
21
65
49
62
73
112
108
113
118
146
157
161
125
27
15
122
243
252
246
255
246
253
255
255
255
255
255
255
255
255
255
255
255
255
255
255
255
255
255
255
255
255
255
255
255
255
255
255
255
255
255
255
255
255
255
255
255
255
255
255
255
255
255
255
255
255
255
255
255
255
255
255
255
255
255
255
255
255
255
255
255
255
255
255
255
255
255
255
255
255
255
255
255
255
255
255
255
255
255
255
255
255
255
255
255
255
255
255
255
255
255
255
255
255
255
255
255
255
255
255
255
255
255
255
255
255
255
255
255
255
255
255
255
255
255
255
255
255
255
255
255
255
255
255
255
255
255
255
255
255
255
255
255
255
255
255
255
255
251
255
255
253
254
253
252
255
143
4
42
87
43
44
16
41
68
69
71
76
84
84
69
52
87
95
112
115
120
128
114
85
114
113
94
77
79
89
103
119
73
68
100
23
2
136
253
252
254
254
255
255
255
255
255
255
255
255
255
255
255
255
255
255
255
255
255
255
255
255
255
255
255
255
255
255
255
255
255
255
255
255
255
255
255
255
255
255
255
255
255
255
255
255
255
255
255
255
255
255
255
255
255
255
255
255
255
255
255
255
255
255
255
255
255
255
255
255
255
255
255
255
255
255
255
255
255
255
255
255
255
255
255
255
255
255
255
255
255
255
255
255
255
255
255
255
255
255
255
255
255
255
255
255
255
255
255
255
255
255
255
255
255
255
255
255
255
255
255
255
255
255
255
255
255
255
255
255
255
255
255
255
255
255
255
255
255
255
255
255
255
255
255
255
255
255
255
255
255
255
255
255
255
255
255
255
255
255
255
255
255
255
255
252
255
253
232
93
33
21
64
62
57
60
73
77
62
44
34
40
26
16
22
43
63
76
80
68
74
71
59
56
64
69
68
80
58
30
23
27
10
56
89
114
127
124
133
145
155
161
141
129
119
43
26
50
40
48
48
31
18
2
18
121
218
251
253
255
245
212
198
226
253
255
253
239
123
6
43
62
45
58
113
113
108
107
144
152
159
165
94
2
21
163
251
254
253
238
253
255
255
255
255
255
255
255
255
255
255
255
255
255
255
255
255
255
255
255
255
255
255
255
255
255
255
255
255
255
255
255
255
255
255
255
255
255
255
255
255
255
255
255
255
255
255
255
255
255
255
255
255
255
255
255
255
255
255
255
255
255
255
255
255
255
255
255
255
255
255
255
255
255
255
255
255
255
255
255
255
255
255
255
255
255
255
255
255
255
255
255
255
255
255
255
255
255
255
255
255
255
255
255
255
255
255
255
255
255
255
255
255
255
255
255
255
255
255
255
255
255
255
255
255
255
255
255
255
255
255
255
255
255
255
255
255
253
255
253
252
255
254
249
255
212
17
24
108
53
39
13
23
50
52
56
63
72
75
64
51
81
92
100
103
107
117
111
81
68
79
82
85
101
112
116
123
77
63
95
15
1
157
254
253
254
254
255
255
255
255
255
255
255
255
255
255
255
255
255
255
255
255
255
255
255
255
255
255
255
255
255
255
255
255
255
255
255
255
255
255
255
255
255
255
255
255
255
255
255
255
255
255
255
255
255
255
255
255
255
255
255
255
255
255
255
255
255
255
255
255
255
255
255
255
255
255
255
255
255
255
255
255
255
255
255
255
255
255
255
255
255
255
255
255
255
255
255
255
255
255
255
255
255
255
255
255
255
255
255
255
255
255
255
255
255
255
255
255
255
255
255
255
255
255
255
255
255
255
255
255
255
255
255
255
255
255
255
255
255
255
255
255
255
255
255
255
255
255
255
255
255
255
255
255
255
255
255
255
255
255
255
255
255
255
255
255
255
255
255
249
251
253
169
3
46
84
63
65
78
83
70
54
44
40
38
49
37
32
39
51
58
62
63
66
72
71
64
63
67
68
66
60
50
39
46
48
18
38
72
78
84
73
75
83
96
111
101
120
112
37
34
64
55
66
63
37
11
0
86
217
253
248
254
240
254
250
244
253
250
235
254
253
201
53
21
69
53
57
79
108
105
103
134
144
137
136
94
33
5
44
210
253
240
253
249
255
255
255
255
255
255
255
255
255
255
255
255
255
255
255
255
255
255
255
255
255
255
255
255
255
255
255
255
255
255
255
255
255
255
255
255
255
255
255
255
255
255
255
255
255
255
255
255
255
255
255
255
255
255
255
255
255
255
255
255
255
255
255
255
255
255
255
255
255
255
255
255
255
255
255
255
255
255
255
255
255
255
255
255
255
255
255
255
255
255
255
255
255
255
255
255
255
255
255
255
255
255
255
255
255
255
255
255
255
255
255
255
255
255
255
255
255
255
255
255
255
255
255
255
255
255
255
255
255
255
255
255
255
255
255
255
255
255
252
253
255
255
248
254
253
53
6
91
85
18
16
24
52
55
57
59
63
60
47
35
49
60
62
70
75
82
83
51
54
81
101
107
113
113
116
127
85
62
94
12
0
182
255
254
254
254
255
255
255
255
255
255
255
255
255
255
255
255
255
255
255
255
255
255
255
255
255
255
255
255
255
255
255
255
255
255
255
255
255
255
255
255
255
255
255
255
255
255
255
255
255
255
255
255
255
255
255
255
255
255
255
255
255
255
255
255
255
255
255
255
255
255
255
255
255
255
255
255
255
255
255
255
255
255
255
255
255
255
255
255
255
255
255
255
255
255
255
255
255
255
255
255
255
255
255
255
255
255
255
255
255
255
255
255
255
255
255
255
255
255
255
255
255
255
255
255
255
255
255
255
255
255
255
255
255
255
255
255
255
255
255
255
255
255
255
255
255
255
255
255
255
255
255
255
255
255
255
255
255
255
255
255
255
255
255
255
255
255
255
250
247
220
92
23
83
99
48
56
64
60
42
34
44
60
68
64
66
70
69
60
47
41
45
56
61
67
71
73
71
65
59
45
42
50
71
69
46
20
52
67
87
94
111
122
121
123
103
115
100
13
21
65
54
57
38
15
1
42
156
243
251
242
255
255
255
244
244
254
252
250
255
246
244
130
4
46
66
66
53
88
106
104
108
119
121
117
108
104
44
5
117
238
253
254
252
255
255
255
255
255
255
255
255
255
255
255
255
255
255
255
255
255
255
255
255
255
255
255
255
255
255
255
255
255
255
255
255
255
255
255
255
255
255
255
255
255
255
255
255
255
255
255
255
255
255
255
255
255
255
255
255
255
255
255
255
255
255
255
255
255
255
255
255
255
255
255
255
255
255
255
255
255
255
255
255
255
255
255
255
255
255
255
255
255
255
255
255
255
255
255
255
255
255
255
255
255
255
255
255
255
255
255
255
255
255
255
255
255
255
255
255
255
255
255
255
255
255
255
255
255
255
255
255
255
255
255
255
255
255
255
255
255
255
255
255
255
255
252
249
253
136
4
63
105
21
15
18
62
67
72
72
70
63
49
35
41
54
55
73
79
80
83
53
79
106
120
117
112
107
112
126
92
62
94
11
0
199
255
253
254
254
255
255
255
255
255
255
255
255
255
255
255
255
255
255
255
255
255
255
255
255
255
255
255
255
255
255
255
255
255
255
255
255
255
255
255
255
255
255
255
255
255
255
255
255
255
255
255
255
255
255
255
255
255
255
255
255
255
255
255
255
255
255
255
255
255
255
255
255
255
255
255
255
255
255
255
255
255
255
255
255
255
255
255
255
255
255
255
255
255
255
255
255
255
255
255
255
255
255
255
255
255
255
255
255
255
255
255
255
255
255
255
255
255
255
255
255
255
255
255
255
255
255
255
255
255
255
255
255
255
255
255
255
255
255
255
255
255
255
255
255
255
255
255
255
255
255
255
255
255
255
255
255
255
255
255
255
255
255
255
255
255
255
255
254
244
165
21
81
97
76
70
55
45
40
47
61
69
69
68
70
67
70
77
77
65
53
46
45
49
60
74
79
72
61
53
58
47
47
66
60
52
10
49
98
115
121
137
148
154
166
156
138
110
13
25
74
60
51
19
1
11
117
234
255
253
254
254
245
249
254
254
248
254
254
238
247
255
186
3
18
67
72
48
63
104
105
84
98
127
142
159
166
110
37
34
180
253
240
248
255
255
255
255
255
255
255
255
255
255
255
255
255
255
255
255
255
255
255
255
255
255
255
255
255
255
255
255
255
255
255
255
255
255
255
255
255
255
255
255
255
255
255
255
255
255
255
255
255
255
255
255
255
255
255
255
255
255
255
255
255
255
255
255
255
255
255
255
255
255
255
255
255
255
255
255
255
255
255
255
255
255
255
255
255
255
255
255
255
255
255
255
255
255
255
255
255
255
255
255
255
255
255
255
255
255
255
255
255
255
255
255
255
255
255
255
255
255
255
255
255
255
255
255
255
255
255
255
255
255
255
255
255
255
255
255
255
254
255
255
249
253
255
249
238
219
4
49
101
48
11
4
59
70
81
86
87
81
70
60
75
87
90
114
122
119
123
93
86
109
121
120
118
112
110
117
95
61
94
9
1
206
255
250
254
254
255
255
255
255
255
255
255
255
255
255
255
255
255
255
255
255
255
255
255
255
255
255
255
255
255
255
255
255
255
255
255
255
255
255
255
255
255
255
255
255
255
255
255
255
255
255
255
255
255
255
255
255
255
255
255
255
255
255
255
255
255
255
255
255
255
255
255
255
255
255
255
255
255
255
255
255
255
255
255
255
255
255
255
255
255
255
255
255
255
255
255
255
255
255
255
255
255
255
255
255
255
255
255
255
255
255
255
255
255
255
255
255
255
255
255
255
255
255
255
255
255
255
255
255
255
255
255
255
255
255
255
255
255
255
255
255
255
255
255
255
255
255
255
255
255
255
255
255
255
255
255
255
255
255
255
255
255
255
255
255
255
254
253
245
250
133
20
80
92
52
36
46
56
66
68
64
63
69
75
79
69
64
69
77
77
71
66
61
46
46
63
66
48
38
45
68
65
60
50
63
64
40
46
107
124
131
132
144
157
155
154
151
140
37
33
49
27
6
9
0
120
230
255
255
255
254
253
255
255
255
255
255
255
254
254
255
246
248
132
1
3
43
77
43
70
65
99
153
155
157
154
164
148
66
12
90
241
252
244
255
255
255
255
255
255
255
255
255
255
255
255
255
255
255
255
255
255
255
255
255
255
255
255
255
255
255
255
255
255
255
255
255
255
255
255
255
255
255
255
255
255
255
255
255
255
255
255
255
255
255
255
255
255
255
255
255
255
255
255
255
255
255
255
255
255
255
255
255
255
255
255
255
255
255
255
255
255
255
255
255
255
255
255
255
255
255
255
255
255
255
255
255
255
255
255
255
255
255
255
255
255
255
255
255
255
255
255
255
255
255
255
255
255
255
255
255
255
255
255
255
255
255
255
255
255
255
255
255
255
255
255
255
255
255
255
255
255
255
255
255
255
254
253
247
238
55
2
97
96
10
18
38
67
93
88
76
84
83
65
49
70
91
101
110
120
119
111
76
115
131
111
118
101
115
123
101
65
73
4
9
201
253
254
253
253
253
254
254
255
255
255
255
255
255
255
255
255
255
255
255
255
255
255
255
255
255
255
255
255
255
255
255
255
255
255
255
255
255
255
255
255
255
255
255
255
255
255
255
255
255
255
255
255
255
255
255
255
255
255
255
255
255
255
255
255
255
255
255
255
255
255
255
255
255
255
255
255
255
255
255
255
255
255
255
255
255
255
255
255
255
255
255
255
255
255
255
255
255
255
255
255
255
255
255
255
255
255
255
255
255
255
255
255
255
255
255
255
255
255
255
255
255
255
255
255
255
255
255
255
255
255
255
255
255
255
255
255
255
255
255
255
255
255
255
255
255
255
255
255
255
255
255
255
255
255
255
255
255
255
255
255
255
255
255
255
255
254
253
254
234
122
25
69
79
55
44
46
50
59
68
76
77
68
62
69
71
75
72
64
60
66
78
64
63
55
42
34
37
46
55
63
55
55
47
54
59
42
48
94
115
126
130
146
160
158
154
139
130
31
24
45
25
3
0
121
200
255
255
252
250
249
251
255
255
255
255
255
255
254
254
253
254
251
184
81
11
4
30
32
69
82
97
121
140
163
172
165
154
96
1
40
178
249
246
255
255
255
255
255
255
255
255
255
255
255
255
255
255
255
255
255
255
255
255
255
255
255
255
255
255
255
255
255
255
255
255
255
255
255
255
255
255
255
255
255
255
255
255
255
255
255
255
255
255
255
255
255
255
255
255
255
255
255
255
255
255
255
255
255
255
255
255
255
255
255
255
255
255
255
255
255
255
255
255
255
255
255
255
255
255
255
255
255
255
255
255
255
255
255
255
255
255
255
255
255
255
255
255
255
255
255
255
255
255
255
255
255
255
255
255
255
255
255
255
255
255
255
255
255
255
255
255
255
255
255
255
255
255
255
255
255
255
255
255
255
255
254
253
254
254
114
1
79
102
23
6
19
54
88
91
80
82
78
59
51
71
92
103
111
120
120
114
68
101
120
112
126
113
115
113
109
59
58
3
16
212
253
250
253
253
253
254
254
255
255
255
255
255
255
255
255
255
255
255
255
255
255
255
255
255
255
255
255
255
255
255
255
255
255
255
255
255
255
255
255
255
255
255
255
255
255
255
255
255
255
255
255
255
255
255
255
255
255
255
255
255
255
255
255
255
255
255
255
255
255
255
255
255
255
255
255
255
255
255
255
255
255
255
255
255
255
255
255
255
255
255
255
255
255
255
255
255
255
255
255
255
255
255
255
255
255
255
255
255
255
255
255
255
255
255
255
255
255
255
255
255
255
255
255
255
255
255
255
255
255
255
255
255
255
255
255
255
255
255
255
255
255
255
255
255
255
255
255
255
255
255
255
255
255
255
255
255
255
255
255
255
255
255
255
255
255
254
253
255
202
88
9
62
84
86
88
72
62
55
55
64
71
72
70
69
69
70
74
73
69
68
70
71
65
52
34
25
35
52
65
56
44
50
42
37
42
34
34
90
113
122
125
142
159
160
158
159
122
20
15
23
3
13
84
221
251
255
251
249
251
251
255
255
255
255
255
255
255
254
254
249
255
251
234
189
89
14
3
15
46
88
97
104
128
133
129
106
108
100
5
6
130
253
252
255
255
255
255
255
255
255
255
255
255
255
255
255
255
255
255
255
255
255
255
255
255
255
255
255
255
255
255
255
255
255
255
255
255
255
255
255
255
255
255
255
255
255
255
255
255
255
255
255
255
255
255
255
255
255
255
255
255
255
255
255
255
255
255
255
255
255
255
255
255
255
255
255
255
255
255
255
255
255
255
255
255
255
255
255
255
255
255
255
255
255
255
255
255
255
255
255
255
255
255
255
255
255
255
255
255
255
255
255
255
255
255
255
255
255
255
255
255
255
255
255
255
255
255
255
255
255
255
255
255
255
255
255
255
255
255
255
255
255
255
255
255
254
253
251
251
181
14
45
101
61
1
6
45
85
95
84
82
79
64
50
69
88
100
108
116
118
113
74
99
122
111
120
111
119
126
98
49
51
4
31
219
253
249
253
253
253
254
254
255
255
255
255
255
255
255
255
255
255
255
255
255
255
255
255
255
255
255
255
255
255
255
255
255
255
255
255
255
255
255
255
255
255
255
255
255
255
255
255
255
255
255
255
255
255
255
255
255
255
255
255
255
255
255
255
255
255
255
255
255
255
255
255
255
255
255
255
255
255
255
255
255
255
255
255
255
255
255
255
255
255
255
255
255
255
255
255
255
255
255
255
255
255
255
255
255
255
255
255
255
255
255
255
255
255
255
255
255
255
255
255
255
255
255
255
255
255
255
255
255
255
255
255
255
255
255
255
255
255
255
255
255
255
255
255
255
255
255
255
255
255
255
255
255
255
255
255
255
255
255
255
255
255
255
255
255
255
254
253
254
204
82
6
85
117
113
120
117
105
89
74
66
72
84
95
80
70
63
66
71
69
62
57
79
58
49
59
66
61
64
77
72
57
68
61
42
43
35
28
84
105
111
108
122
142
147
147
155
117
18
4
3
1
91
219
248
254
248
245
255
255
254
255
255
255
255
255
255
255
254
254
245
254
247
252
254
205
120
16
1
10
78
96
90
106
102
98
129
125
133
66
4
100
231
246
255
255
255
255
255
255
255
255
255
255
255
255
255
255
255
255
255
255
255
255
255
255
255
255
255
255
255
255
255
255
255
255
255
255
255
255
255
255
255
255
255
255
255
255
255
255
255
255
255
255
255
255
255
255
255
255
255
255
255
255
255
255
255
255
255
255
255
255
255
255
255
255
255
255
255
255
255
255
255
255
255
255
255
255
255
255
255
255
255
255
255
255
255
255
255
255
255
255
255
255
255
255
255
255
255
255
255
255
255
255
255
255
255
255
255
255
255
255
255
255
255
255
255
255
255
255
255
255
255
255
255
255
255
255
255
255
255
255
255
255
255
255
254
253
244
251
224
54
12
93
87
2
6
39
82
98
89
83
83
74
52
68
87
98
107
114
117
115
89
97
122
112
120
110
108
109
77
41
61
7
49
216
254
252
253
253
253
254
254
255
255
255
255
255
255
255
255
255
255
255
255
255
255
255
255
255
255
255
255
255
255
255
255
255
255
255
255
255
255
255
255
255
255
255
255
255
255
255
255
255
255
255
255
255
255
255
255
255
255
255
255
255
255
255
255
255
255
255
255
255
255
255
255
255
255
255
255
255
255
255
255
255
255
255
255
255
255
255
255
255
255
255
255
255
255
255
255
255
255
255
255
255
255
255
255
255
255
255
255
255
255
255
255
255
255
255
255
255
255
255
255
255
255
255
255
255
255
255
255
255
255
255
255
255
255
255
255
255
255
255
255
255
255
255
255
255
255
255
255
255
255
255
255
255
255
255
255
255
255
255
255
255
255
255
255
255
255
254
253
254
239
109
15
107
141
120
125
125
125
118
108
95
85
79
78
99
95
91
88
82
75
75
79
58
48
52
69
78
69
64
65
80
67
81
74
51
45
33
22
50
76
88
85
96
112
115
112
110
104
22
6
42
117
200
252
255
255
249
252
255
255
248
253
255
255
255
255
255
255
254
254
251
254
244
254
254
254
231
113
11
2
56
82
71
85
112
149
175
163
159
128
3
56
185
250
255
255
255
255
255
255
255
255
255
255
255
255
255
255
255
255
255
255
255
255
255
255
255
255
255
255
255
255
255
255
255
255
255
255
255
255
255
255
255
255
255
255
255
255
255
255
255
255
255
255
255
255
255
255
255
255
255
255
255
255
255
255
255
255
255
255
255
255
255
255
255
255
255
255
255
255
255
255
255
255
255
255
255
255
255
255
255
255
255
255
255
255
255
255
255
255
255
255
255
255
255
255
255
255
255
255
255
255
255
255
255
255
255
255
255
255
255
255
255
255
255
255
255
255
255
255
255
255
255
255
255
255
255
255
255
255
255
255
255
255
255
255
254
253
248
254
244
118
1
68
81
12
3
32
78
101
93
83
81
79
56
70
86
99
107
114
118
118
93
86
118
117
128
111
84
67
78
43
66
12
65
217
253
252
253
253
253
254
254
255
255
255
255
255
255
255
255
255
255
255
255
255
255
255
255
255
255
255
255
255
255
255
255
255
255
255
255
255
255
255
255
255
255
255
255
255
255
255
255
255
255
255
255
255
255
255
255
255
255
255
255
255
255
255
255
255
255
255
255
255
255
255
255
255
255
255
255
255
255
255
255
255
255
255
255
255
255
255
255
255
255
255
255
255
255
255
255
255
255
255
255
255
255
255
255
255
255
255
255
255
255
255
255
255
255
255
255
255
255
255
255
255
255
255
255
255
255
255
255
255
255
255
255
255
255
255
255
255
255
255
255
255
255
255
255
255
255
255
255
255
255
255
255
255
255
255
255
255
255
255
255
255
255
255
255
255
255
254
253
252
250
124
2
71
117
123
143
129
125
123
124
122
112
92
78
89
89
97
114
120
109
88
74
60
78
89
85
82
84
81
74
72
67
81
74
58
50
30
23
67
102
121
123
140
157
154
145
131
89
4
7
132
224
251
251
255
255
253
252
255
253
247
253
255
255
255
255
255
255
254
254
254
241
248
255
246
254
254
212
85
12
19
62
76
92
126
163
159
163
161
163
3
20
140
255
255
255
255
255
255
255
255
255
255
255
255
255
255
255
255
255
255
255
255
255
255
255
255
255
255
255
255
255
255
255
255
255
255
255
255
255
255
255
255
255
255
255
255
255
255
255
255
255
255
255
255
255
255
255
255
255
255
255
255
255
255
255
255
255
255
255
255
255
255
255
255
255
255
255
255
255
255
255
255
255
255
255
255
255
255
255
255
255
255
255
255
255
255
255
255
255
255
255
255
255
255
255
255
255
255
255
255
255
255
255
255
255
255
255
255
255
255
255
255
255
255
255
255
255
255
255
255
255
255
255
255
255
255
255
255
255
255
255
255
255
255
255
254
253
253
253
246
175
16
26
57
17
1
25
72
103
98
86
82
82
55
66
81
94
103
109
114
118
95
88
128
116
103
88
78
85
103
52
60
4
78
227
253
251
253
253
253
254
254
255
255
255
255
255
255
255
255
255
255
255
255
255
255
255
255
255
255
255
255
255
255
255
255
255
255
255
255
255
255
255
255
255
255
255
255
255
255
255
255
255
255
255
255
255
255
255
255
255
255
255
255
255
255
255
255
255
255
255
255
255
255
255
255
255
255
255
255
255
255
255
255
255
255
255
255
255
255
255
255
255
255
255
255
255
255
255
255
255
255
255
255
255
255
255
255
255
255
255
255
255
255
255
255
255
255
255
255
255
255
255
255
255
255
255
255
255
255
255
255
255
255
255
255
255
255
255
255
255
255
255
255
255
255
255
255
255
255
255
255
255
255
255
255
255
255
255
255
255
255
255
255
255
255
255
255
255
255
254
253
248
244
156
24
19
51
93
112
120
119
122
128
133
133
128
121
87
78
78
93
104
93
66
44
52
69
76
67
61
63
61
53
66
67
75
67
65
57
32
34
65
102
124
126
142
163
162
154
170
77
2
35
195
253
251
252
248
255
253
250
255
253
250
255
255
255
255
255
255
255
254
254
254
243
254
254
243
248
254
254
188
66
3
43
89
104
121
124
157
167
162
166
24
5
115
247
255
255
255
255
255
255
255
255
255
255
255
255
255
255
255
255
255
255
255
255
255
255
255
255
255
255
255
255
255
255
255
255
255
255
255
255
255
255
255
255
255
255
255
255
255
255
255
255
255
255
255
255
255
255
255
255
255
255
255
255
255
255
255
255
255
255
255
255
255
255
255
255
255
255
255
255
255
255
255
255
255
255
255
255
255
255
255
255
255
255
255
255
255
255
255
255
255
255
255
255
255
255
255
255
255
255
255
255
255
255
255
255
255
255
255
255
255
255
255
255
255
255
255
255
255
255
255
255
255
255
255
255
255
255
255
255
255
255
255
255
255
255
254
253
255
247
249
213
58
7
55
35
3
14
54
87
85
76
80
87
56
65
79
93
102
107
114
119
105
84
120
95
78
78
94
126
116
55
58
3
90
234
253
249
253
253
253
254
254
255
255
255
255
255
255
255
255
255
255
255
255
255
255
255
255
255
255
255
255
255
255
255
255
255
255
255
255
255
255
255
255
255
255
255
255
255
255
255
255
255
255
255
255
255
255
255
255
255
255
255
255
255
255
255
255
255
255
255
255
255
255
255
255
255
255
255
255
255
255
255
255
255
255
255
255
255
255
255
255
255
255
255
255
255
255
255
255
255
255
255
255
255
255
255
255
255
255
255
255
255
255
255
255
255
255
255
255
255
255
255
255
255
255
255
255
255
255
255
255
255
255
255
255
255
255
255
255
255
255
255
255
255
255
255
255
255
255
255
255
255
255
255
255
255
255
255
255
255
255
255
255
255
255
255
255
255
255
254
253
254
254
218
91
4
4
33
27
63
80
101
111
113
114
122
130
143
125
101
77
58
49
52
62
89
81
82
94
96
82
69
67
43
48
50
41
47
38
9
18
73
106
123
121
136
161
168
162
141
68
9
49
205
251
252
253
250
255
255
254
255
255
252
255
255
255
255
255
255
255
254
254
253
254
254
247
253
254
236
255
254
121
2
33
82
97
121
117
144
141
123
116
19
2
118
253
255
255
255
255
255
255
255
255
255
255
255
255
255
255
255
255
255
255
255
255
255
255
255
255
255
255
255
255
255
255
255
255
255
255
255
255
255
255
255
255
255
255
255
255
255
255
255
255
255
255
255
255
255
255
255
255
255
255
255
255
255
255
255
255
255
255
255
255
255
255
255
255
255
255
255
255
255
255
255
255
255
255
255
255
255
255
255
255
255
255
255
255
255
255
255
255
255
255
255
255
255
255
255
255
255
255
255
255
255
255
255
255
255
255
255
255
255
255
255
255
255
255
255
255
255
255
255
255
255
255
255
255
255
255
255
255
255
255
255
255
255
255
254
253
253
245
251
239
104
9
74
64
5
3
30
60
61
59
74
88
64
72
85
99
108
114
120
126
117
66
85
73
83
101
108
122
107
53
63
3
100
236
253
252
253
253
253
254
254
255
255
255
255
255
255
255
255
255
255
255
255
255
255
255
255
255
255
255
255
255
255
255
255
255
255
255
255
255
255
255
255
255
255
255
255
255
255
255
255
255
255
255
255
255
255
255
255
255
255
255
255
255
255
255
255
255
255
255
255
255
255
255
255
255
255
255
255
255
255
255
255
255
255
255
255
255
255
255
255
255
255
255
255
255
255
255
255
255
255
255
255
255
255
255
255
255
255
255
255
255
255
255
255
255
255
255
255
255
255
255
255
255
255
255
255
255
255
255
255
255
255
255
255
255
255
255
255
255
255
255
255
255
255
255
255
255
255
255
255
255
255
255
255
255
255
255
255
255
255
255
255
255
255
255
255
255
255
255
255
239
255
255
222
150
74
21
0
1
0
2
15
30
39
39
35
50
56
58
41
25
41
67
73
53
57
57
50
43
37
27
18
3
15
1
1
4
3
2
25
62
108
116
112
150
170
158
164
98
12
4
93
235
251
246
255
255
255
255
255
255
255
255
255
255
255
255
255
255
255
255
255
255
255
255
254
253
252
250
249
253
232
61
5
47
88
87
94
102
119
116
85
27
0
92
238
255
255
255
255
255
255
255
255
255
255
255
255
255
255
255
255
255
255
255
255
255
255
255
255
255
255
255
255
255
255
255
255
255
255
255
255
255
255
255
255
255
255
255
255
255
255
255
255
255
255
255
255
255
255
255
255
255
255
255
255
255
255
255
255
255
255
255
255
255
255
255
255
255
255
255
255
255
255
255
255
255
255
255
255
255
255
255
255
255
255
255
255
255
255
255
255
255
255
255
255
255
255
255
255
255
255
255
255
255
255
255
255
255
255
255
255
255
255
255
255
255
255
255
255
255
255
255
255
255
255
255
255
255
255
255
255
255
255
255
255
255
255
255
255
242
252
255
253
176
3
60
91
9
1
39
81
95
82
57
55
37
28
65
74
67
77
69
66
73
51
55
99
120
120
129
111
111
58
41
1
111
240
255
254
253
253
253
254
254
255
255
255
255
255
255
255
255
255
255
255
255
255
255
255
255
255
255
255
255
255
255
255
255
255
255
255
255
255
255
255
255
255
255
255
255
255
255
255
255
255
255
255
255
255
255
255
255
255
255
255
255
255
255
255
255
255
255
255
255
255
255
255
255
255
255
255
255
255
255
255
255
255
255
255
255
255
255
255
255
255
255
255
255
255
255
255
255
255
255
255
255
255
255
255
255
255
255
255
255
255
255
255
255
255
255
255
255
255
255
255
255
255
255
255
255
255
255
255
255
255
255
255
255
255
255
255
255
255
255
255
255
255
255
255
255
255
255
255
255
255
255
255
255
255
255
255
255
255
255
255
255
255
255
255
255
255
255
255
255
255
255
250
248
241
215
172
137
103
77
41
14
2
2
3
3
2
4
6
2
2
2
17
14
8
8
5
2
2
2
2
11
3
11
3
9
44
57
34
16
76
104
112
118
136
159
171
159
81
12
5
165
248
242
255
251
255
255
255
255
255
255
255
255
255
255
255
255
255
255
255
255
254
255
255
254
253
252
250
250
253
247
146
3
40
79
92
110
153
163
162
138
55
6
91
253
255
255
255
255
255
255
255
255
255
255
255
255
255
255
255
255
255
255
255
255
255
255
255
255
255
255
255
255
255
255
255
255
255
255
255
255
255
255
255
255
255
255
255
255
255
255
255
255
255
255
255
255
255
255
255
255
255
255
255
255
255
255
255
255
255
255
255
255
255
255
255
255
255
255
255
255
255
255
255
255
255
255
255
255
255
255
255
255
255
255
255
255
255
255
255
255
255
255
255
255
255
255
255
255
255
255
255
255
255
255
255
255
255
255
255
255
255
255
255
255
255
255
255
255
255
255
255
255
255
255
255
255
255
255
255
255
255
255
255
255
255
255
255
255
255
252
250
254
223
6
34
93
25
4
38
83
102
91
69
70
58
34
47
53
59
79
84
89
93
79
83
115
117
110
122
116
118
62
39
1
108
237
254
254
253
253
253
254
254
255
255
255
255
255
255
255
255
255
255
255
255
255
255
255
255
255
255
255
255
255
255
255
255
255
255
255
255
255
255
255
255
255
255
255
255
255
255
255
255
255
255
255
255
255
255
255
255
255
255
255
255
255
255
255
255
255
255
255
255
255
255
255
255
255
255
255
255
255
255
255
255
255
255
255
255
255
255
255
255
255
255
255
255
255
255
255
255
255
255
255
255
255
255
255
255
255
255
255
255
255
255
255
255
255
255
255
255
255
255
255
255
255
255
255
255
255
255
255
255
255
255
255
255
255
255
255
255
255
255
255
255
255
255
255
255
255
255
255
255
255
255
255
255
255
255
255
255
255
255
255
255
255
255
255
255
255
255
255
255
254
248
244
250
255
255
249
237
212
205
195
183
166
142
114
95
87
80
74
61
46
47
44
27
1
14
38
57
61
61
74
93
102
116
136
164
196
192
106
1
60
80
88
102
103
123
156
121
43
2
55
232
251
250
254
251
255
255
255
255
255
255
255
255
255
255
255
255
255
255
255
255
254
255
255
255
254
253
251
250
252
253
224
4
23
69
96
115
139
163
169
152
50
6
92
253
255
255
255
255
255
255
255
255
255
255
255
255
255
255
255
255
255
255
255
255
255
255
255
255
255
255
255
255
255
255
255
255
255
255
255
255
255
255
255
255
255
255
255
255
255
255
255
255
255
255
255
255
255
255
255
255
255
255
255
255
255
255
255
255
255
255
255
255
255
255
255
255
255
255
255
255
255
255
255
255
255
255
255
255
255
255
255
255
255
255
255
255
255
255
255
255
255
255
255
255
255
255
255
255
255
255
255
255
255
255
255
255
255
255
255
255
255
255
255
255
255
255
255
255
255
255
255
255
255
255
255
255
255
255
255
255
255
255
255
255
255
255
255
255
255
251
242
254
254
48
9
83
42
5
30
80
107
99
79
82
87
58
62
78
95
113
112
114
117
95
85
113
125
123
129
117
119
64
31
0
104
236
254
251
253
253
253
254
254
255
255
255
255
255
255
255
255
255
255
255
255
255
255
255
255
255
255
255
255
255
255
255
255
255
255
255
255
255
255
255
255
255
255
255
255
255
255
255
255
255
255
255
255
255
255
255
255
255
255
255
255
255
255
255
255
255
255
255
255
255
255
255
255
255
255
255
255
255
255
255
255
255
255
255
255
255
255
255
255
255
255
255
255
255
255
255
255
255
255
255
255
255
255
255
255
255
255
255
255
255
255
255
255
255
255
255
255
255
255
255
255
255
255
255
255
255
255
255
255
255
255
255
255
255
255
255
255
255
255
255
255
255
255
255
255
255
255
255
255
255
255
255
255
255
255
255
255
255
255
255
255
255
255
255
255
255
255
255
255
249
255
255
253
244
243
252
255
254
254
254
255
255
254
240
229
228
218
210
197
179
172
163
143
123
140
174
208
216
208
213
229
240
234
242
250
253
254
146
0
50
100
118
139
140
133
129
69
1
0
149
250
244
255
241
253
255
255
255
255
255
255
255
255
255
255
255
255
255
255
255
255
254
255
255
255
254
253
252
251
253
252
249
65
3
60
104
106
135
167
173
146
33
4
88
235
255
255
255
255
255
255
255
255
255
255
255
255
255
255
255
255
255
255
255
255
255
255
255
255
255
255
255
255
255
255
255
255
255
255
255
255
255
255
255
255
255
255
255
255
255
255
255
255
255
255
255
255
255
255
255
255
255
255
255
255
255
255
255
255
255
255
255
255
255
255
255
255
255
255
255
255
255
255
255
255
255
255
255
255
255
255
255
255
255
255
255
255
255
255
255
255
255
255
255
255
255
255
255
255
255
255
255
255
255
255
255
255
255
255
255
255
255
255
255
255
255
255
255
255
255
255
255
255
255
255
255
255
255
255
255
255
255
255
255
255
255
255
255
255
249
254
252
248
254
138
4
66
52
2
17
71
106
102
80
84
91
67
67
90
113
119
112
108
124
100
81
104
126
128
130
120
114
64
21
0
102
238
254
250
253
253
253
254
254
255
255
255
255
255
255
255
255
255
255
255
255
255
255
255
255
255
255
255
255
255
255
255
255
255
255
255
255
255
255
255
255
255
255
255
255
255
255
255
255
255
255
255
255
255
255
255
255
255
255
255
255
255
255
255
255
255
255
255
255
255
255
255
255
255
255
255
255
255
255
255
255
255
255
255
255
255
255
255
255
255
255
255
255
255
255
255
255
255
255
255
255
255
255
255
255
255
255
255
255
255
255
255
255
255
255
255
255
255
255
255
255
255
255
255
255
255
255
255
255
255
255
255
255
255
255
255
255
255
255
255
255
255
255
255
255
255
255
255
255
255
255
255
255
255
255
255
255
255
255
255
255
255
255
255
255
255
255
255
255
255
255
253
252
255
255
255
254
252
248
244
244
248
253
253
253
255
255
255
255
250
252
255
246
251
246
253
255
255
253
255
255
255
250
254
253
252
249
152
1
32
120
155
174
184
138
70
8
2
70
231
246
250
255
242
254
255
255
255
255
255
255
255
255
255
255
255
255
255
255
255
255
254
254
255
255
255
254
253
253
254
255
249
166
1
39
100
98
138
153
160
137
40
18
115
251
255
255
255
255
255
255
255
255
255
255
255
255
255
255
255
255
255
255
255
255
255
255
255
255
255
255
255
255
255
255
255
255
255
255
255
255
255
255
255
255
255
255
255
255
255
255
255
255
255
255
255
255
255
255
255
255
255
255
255
255
255
255
255
255
255
255
255
255
255
255
255
255
255
255
255
255
255
255
255
255
255
255
255
255
255
255
255
255
255
255
255
255
255
255
255
255
255
255
255
255
255
255
255
255
255
255
255
255
255
255
255
255
255
255
255
255
255
255
255
255
255
255
255
255
255
255
255
255
255
255
255
255
255
255
255
255
255
255
255
255
255
255
255
255
251
255
254
249
252
217
3
46
63
3
10
64
105
106
83
82
94
72
54
72
98
106
108
109
120
112
94
104
113
109
118
123
115
70
18
2
104
239
253
250
253
253
253
254
254
255
255
255
255
255
255
255
255
255
255
255
255
255
255
255
255
255
255
255
255
255
255
255
255
255
255
255
255
255
255
255
255
255
255
255
255
255
255
255
255
255
255
255
255
255
255
255
255
255
255
255
255
255
255
255
255
255
255
255
255
255
255
255
255
255
255
255
255
255
255
255
255
255
255
255
255
255
255
255
255
255
255
255
255
255
255
255
255
255
255
255
255
255
255
255
255
255
255
255
255
255
255
255
255
255
255
255
255
255
255
255
255
255
255
255
255
255
255
255
255
255
255
255
255
255
255
255
255
255
255
255
255
255
255
255
255
255
255
255
255
255
255
255
255
255
255
255
255
255
255
255
255
255
255
255
255
255
255
255
255
253
249
247
251
255
255
254
249
254
254
254
255
255
254
254
250
252
249
254
254
251
254
254
254
254
254
249
251
249
244
244
251
246
246
254
254
254
254
191
76
4
60
88
101
114
68
4
2
58
186
254
250
255
245
254
251
255
255
255
255
255
255
255
255
255
255
255
255
255
255
255
255
254
254
255
255
255
255
254
254
250
254
249
240
19
5
76
92
100
88
92
70
2
3
102
242
255
255
255
255
255
255
255
255
255
255
255
255
255
255
255
255
255
255
255
255
255
255
255
255
255
255
255
255
255
255
255
255
255
255
255
255
255
255
255
255
255
255
255
255
255
255
255
255
255
255
255
255
255
255
255
255
255
255
255
255
255
255
255
255
255
255
255
255
255
255
255
255
255
255
255
255
255
255
255
255
255
255
255
255
255
255
255
255
255
255
255
255
255
255
255
255
255
255
255
255
255
255
255
255
255
255
255
255
255
255
255
255
255
255
255
255
255
255
255
255
255
255
255
255
255
255
255
255
255
255
255
255
255
255
255
255
255
255
255
255
255
255
255
255
255
248
254
255
241
244
23
21
73
11
11
57
103
111
90
85
93
83
57
69
100
111
118
117
123
115
88
98
116
114
119
120
120
79
17
9
100
235
253
249
253
253
253
254
254
255
255
255
255
255
255
255
255
255
255
255
255
255
255
255
255
255
255
255
255
255
255
255
255
255
255
255
255
255
255
255
255
255
255
255
255
255
255
255
255
255
255
255
255
255
255
255
255
255
255
255
255
255
255
255
255
255
255
255
255
255
255
255
255
255
255
255
255
255
255
255
255
255
255
255
255
255
255
255
255
255
255
255
255
255
255
255
255
255
255
255
255
255
255
255
255
255
255
255
255
255
255
255
255
255
255
255
255
255
255
255
255
255
255
255
255
255
255
255
255
255
255
255
255
255
255
255
255
255
255
255
255
255
255
255
255
255
255
255
255
255
255
255
255
255
255
255
255
255
255
255
255
255
255
255
255
255
255
255
255
251
255
255
255
255
252
255
255
254
254
251
248
250
255
255
255
254
253
254
254
248
248
253
249
251
252
254
254
254
254
254
254
255
255
255
246
241
255
242
190
44
5
15
20
21
3
0
70
162
252
255
255
255
244
255
251
255
255
255
255
255
255
255
255
255
255
255
255
255
255
255
255
254
254
255
255
255
255
255
254
250
254
252
251
76
2
51
91
153
137
136
67
11
11
145
248
255
255
255
255
255
255
255
255
255
255
255
255
255
255
255
255
255
255
255
255
255
255
255
255
255
255
255
255
255
255
255
255
255
255
255
255
255
255
255
255
255
255
255
255
255
255
255
255
255
255
255
255
255
255
255
255
255
255
255
255
255
255
255
255
255
255
255
255
255
255
255
255
255
255
255
255
255
255
255
255
255
255
255
255
255
255
255
255
255
255
255
255
255
255
255
255
255
255
255
255
255
255
255
255
255
255
255
255
255
255
255
255
255
255
255
255
255
255
255
255
255
255
255
255
255
255
255
255
255
255
255
255
255
255
255
255
255
255
255
255
255
255
255
255
254
245
252
255
242
245
93
4
77
14
10
45
93
112
95
87
86
85
54
65
102
116
117
104
124
111
80
92
126
129
126
121
118
81
10
5
88
225
253
251
253
253
253
254
254
255
255
255
255
255
255
255
255
255
255
255
255
255
255
255
255
255
255
255
255
255
255
255
255
255
255
255
255
255
255
255
255
255
255
255
255
255
255
255
255
255
255
255
255
255
255
255
255
255
255
255
255
255
255
255
255
255
255
255
255
255
255
255
255
255
255
255
255
255
255
255
255
255
255
255
255
255
255
255
255
255
255
255
255
255
255
255
255
255
255
255
255
255
255
255
255
255
255
255
255
255
255
255
255
255
255
255
255
255
255
255
255
255
255
255
255
255
255
255
255
255
255
255
255
255
255
255
255
255
255
255
255
255
255
255
255
255
255
255
255
255
255
255
255
255
255
255
255
255
255
255
255
255
255
255
255
255
255
255
255
255
255
254
253
253
253
253
254
252
254
254
254
254
254
254
252
254
248
253
254
254
254
254
254
251
254
254
251
250
254
254
253
249
252
254
254
254
254
255
228
114
1
4
8
2
1
22
140
243
255
251
254
245
254
250
255
255
255
255
255
255
255
255
255
255
255
255
255
255
255
255
255
254
254
255
255
255
255
255
255
252
254
251
234
136
7
43
95
155
163
164
46
2
42
193
252
255
255
255
255
255
255
255
255
255
255
255
255
255
255
255
255
255
255
255
255
255
255
255
255
255
255
255
255
255
255
255
255
255
255
255
255
255
255
255
255
255
255
255
255
255
255
255
255
255
255
255
255
255
255
255
255
255
255
255
255
255
255
255
255
255
255
255
255
255
255
255
255
255
255
255
255
255
255
255
255
255
255
255
255
255
255
255
255
255
255
255
255
255
255
255
255
255
255
255
255
255
255
255
255
255
255
255
255
255
255
255
255
255
255
255
255
255
255
255
255
255
255
255
255
255
255
255
255
255
255
255
255
255
255
255
255
255
255
255
255
255
255
255
255
254
254
254
255
252
253
172
2
73
12
5
33
83
108
95
87
94
95
52
58
99
117
122
106
116
118
93
99
122
118
122
128
112
76
6
2
75
217
252
253
253
253
253
254
254
255
255
255
255
255
255
255
255
255
255
255
255
255
255
255
255
255
255
255
255
255
255
255
255
255
255
255
255
255
255
255
255
255
255
255
255
255
255
255
255
255
255
255
255
255
255
255
255
255
255
255
255
255
255
255
255
255
255
255
255
255
255
255
255
255
255
255
255
255
255
255
255
255
255
255
255
255
255
255
255
255
255
255
255
255
255
255
255
255
255
255
255
255
255
255
255
255
255
255
255
255
255
255
255
255
255
255
255
255
255
255
255
255
255
255
255
255
255
255
255
255
255
255
255
255
255
255
255
255
255
255
255
255
255
255
255
255
255
255
255
255
255
255
255
255
255
255
255
255
255
255
255
255
255
255
255
255
255
255
255
255
255
255
255
255
255
255
255
255
255
255
255
255
255
255
255
255
255
255
255
255
255
255
255
255
255
255
255
255
255
255
255
255
255
255
255
255
254
253
252
216
145
65
24
33
90
182
255
254
254
255
255
255
255
255
255
255
255
255
255
255
255
255
255
255
255
255
255
255
255
255
255
255
255
255
255
255
255
255
255
249
254
254
243
193
13
5
70
147
157
111
26
4
92
207
253
255
255
255
255
255
255
255
255
255
255
255
255
255
255
255
255
255
255
255
255
255
255
255
255
255
255
255
255
255
255
255
255
255
255
255
255
255
255
255
255
255
255
255
255
255
255
255
255
255
255
255
255
255
255
255
255
255
255
255
255
255
255
255
255
255
255
255
255
255
255
255
255
255
255
255
255
255
255
255
255
255
255
255
255
255
255
255
255
255
255
255
255
255
255
255
255
255
255
255
255
255
255
255
255
255
255
255
255
255
255
255
255
255
255
255
255
255
255
255
255
255
255
255
255
255
255
255
255
255
255
255
255
255
255
255
255
255
255
255
255
255
255
255
255
253
255
246
255
252
253
196
8
24
20
7
24
52
79
92
99
86
98
65
52
95
119
112
121
126
129
94
92
113
118
110
75
65
73
23
1
63
214
253
252
249
251
252
252
255
255
255
255
255
255
255
255
255
255
255
255
255
255
255
255
255
255
255
255
255
255
255
255
255
255
255
255
255
255
255
255
255
255
255
255
255
255
255
255
255
255
255
255
255
255
255
255
255
255
255
255
255
255
255
255
255
255
255
255
255
255
255
255
255
255
255
255
255
255
255
255
255
255
255
255
255
255
255
255
255
255
255
255
255
255
255
255
255
255
255
255
255
255
255
255
255
255
255
255
255
255
255
255
255
255
255
255
255
255
255
255
255
255
255
255
255
255
255
255
255
255
255
255
255
255
255
255
255
255
255
255
255
255
255
255
255
255
255
255
255
255
255
255
255
255
255
255
255
255
255
255
255
255
255
255
255
255
255
255
255
255
255
255
255
255
255
255
255
255
255
255
255
255
255
255
255
255
255
255
255
255
255
255
255
255
255
255
255
255
255
255
255
255
255
255
255
255
254
253
253
255
245
238
242
242
240
247
255
254
254
255
255
255
255
255
255
255
255
255
255
255
255
255
255
255
255
255
255
255
255
255
255
255
255
255
255
255
255
255
255
253
244
254
248
205
34
3
36
74
89
51
3
23
150
238
246
255
255
255
255
255
255
255
255
255
255
255
255
255
255
255
255
255
255
255
255
255
255
255
255
255
255
255
255
255
255
255
255
255
255
255
255
255
255
255
255
255
255
255
255
255
255
255
255
255
255
255
255
255
255
255
255
255
255
255
255
255
255
255
255
255
255
255
255
255
255
255
255
255
255
255
255
255
255
255
255
255
255
255
255
255
255
255
255
255
255
255
255
255
255
255
255
255
255
255
255
255
255
255
255
255
255
255
255
255
255
255
255
255
255
255
255
255
255
255
255
255
255
255
255
255
255
255
255
255
255
255
255
255
255
255
255
255
255
255
255
255
255
255
255
255
255
250
255
246
255
223
67
8
15
10
32
44
66
66
52
72
95
82
73
98
116
115
127
117
111
81
91
118
113
94
62
102
88
39
4
30
173
255
251
252
253
255
255
255
255
254
255
255
255
255
255
255
255
255
255
255
255
255
255
255
255
255
255
255
255
255
255
255
255
255
255
255
255
255
255
255
255
255
255
255
255
255
255
255
255
255
255
255
255
255
255
255
255
255
255
255
255
255
255
255
255
255
255
255
255
255
255
255
255
255
255
255
255
255
255
255
255
255
255
255
255
255
255
255
255
255
255
255
255
255
255
255
255
255
255
255
255
255
255
255
255
255
255
255
255
255
255
255
255
255
255
255
255
255
255
255
255
255
255
255
255
255
255
255
255
255
255
255
255
255
255
255
255
255
255
255
255
255
255
255
255
255
255
255
255
255
255
255
255
255
255
255
255
255
255
255
255
255
255
255
255
255
255
255
255
255
255
255
255
255
255
255
255
255
255
255
255
255
255
255
255
255
255
255
255
255
255
255
255
255
255
255
255
255
255
255
255
255
255
255
255
254
253
253
254
254
253
253
252
251
250
250
254
254
255
255
255
255
255
255
255
255
255
255
255
255
255
255
255
255
255
255
255
255
255
255
255
255
255
255
255
255
255
255
253
244
255
254
242
112
36
2
4
8
1
3
98
227
254
246
255
255
255
255
255
255
255
255
255
255
255
255
255
255
255
255
255
255
255
255
255
255
255
255
255
255
255
255
255
255
255
255
255
255
255
255
255
255
255
255
255
255
255
255
255
255
255
255
255
255
255
255
255
255
255
255
255
255
255
255
255
255
255
255
255
255
255
255
255
255
255
255
255
255
255
255
255
255
255
255
255
255
255
255
255
255
255
255
255
255
255
255
255
255
255
255
255
255
255
255
255
255
255
255
255
255
255
255
255
255
255
255
255
255
255
255
255
255
255
255
255
255
255
255
255
255
255
255
255
255
255
255
255
255
255
255
255
255
255
255
255
255
255
255
252
255
255
255
244
255
246
130
4
21
28
59
58
89
84
64
41
57
46
46
84
115
117
116
127
120
90
86
90
84
87
88
133
102
55
27
2
132
254
248
252
250
255
255
255
251
251
255
255
255
255
255
255
255
255
255
255
255
255
255
255
255
255
255
255
255
255
255
255
255
255
255
255
255
255
255
255
255
255
255
255
255
255
255
255
255
255
255
255
255
255
255
255
255
255
255
255
255
255
255
255
255
255
255
255
255
255
255
255
255
255
255
255
255
255
255
255
255
255
255
255
255
255
255
255
255
255
255
255
255
255
255
255
255
255
255
255
255
255
255
255
255
255
255
255
255
255
255
255
255
255
255
255
255
255
255
255
255
255
255
255
255
255
255
255
255
255
255
255
255
255
255
255
255
255
255
255
255
255
255
255
255
255
255
255
255
255
255
255
255
255
255
255
255
255
255
255
255
255
255
255
255
255
255
255
255
255
255
255
255
255
255
255
255
255
255
255
255
255
255
255
255
255
255
255
255
255
255
255
255
255
255
255
255
255
255
255
255
255
255
255
255
254
254
254
251
255
255
249
250
255
255
255
254
254
255
255
255
255
255
255
255
255
255
255
255
255
255
255
255
255
255
255
255
255
255
255
255
255
255
255
255
255
255
255
253
254
255
254
254
218
139
7
8
2
3
73
177
246
252
235
255
255
255
255
255
255
255
255
255
255
255
255
255
255
255
255
255
255
255
255
255
255
255
255
255
255
255
255
255
255
255
255
255
255
255
255
255
255
255
255
255
255
255
255
255
255
255
255
255
255
255
255
255
255
255
255
255
255
255
255
255
255
255
255
255
255
255
255
255
255
255
255
255
255
255
255
255
255
255
255
255
255
255
255
255
255
255
255
255
255
255
255
255
255
255
255
255
255
255
255
255
255
255
255
255
255
255
255
255
255
255
255
255
255
255
255
255
255
255
255
255
255
255
255
255
255
255
255
255
255
255
255
255
255
255
255
255
255
255
255
255
255
255
255
248
255
255
255
248
255
250
166
1
7
22
63
56
99
106
88
83
78
56
42
64
93
95
83
91
89
68
54
62
81
108
130
131
110
61
38
4
93
248
253
253
245
247
255
255
250
252
255
255
255
255
255
255
255
255
255
255
255
255
255
255
255
255
255
255
255
255
255
255
255
255
255
255
255
255
255
255
255
255
255
255
255
255
255
255
255
255
255
255
255
255
255
255
255
255
255
255
255
255
255
255
255
255
255
255
255
255
255
255
255
255
255
255
255
255
255
255
255
255
255
255
255
255
255
255
255
255
255
255
255
255
255
255
255
255
255
255
255
255
255
255
255
255
255
255
255
255
255
255
255
255
255
255
255
255
255
255
255
255
255
255
255
255
255
255
255
255
255
255
255
255
255
255
255
255
255
255
255
255
255
255
255
255
255
255
255
255
255
255
255
255
255
255
255
255
255
255
255
255
255
255
255
255
255
255
255
255
255
255
255
255
255
255
255
255
255
255
255
255
255
255
255
255
255
255
255
255
255
255
255
255
255
255
255
255
255
255
255
255
255
255
255
255
255
254
242
254
255
255
255
255
251
238
254
254
255
255
255
255
255
255
255
255
255
255
255
255
255
255
255
255
255
255
255
255
255
255
255
255
255
255
255
255
255
255
254
254
253
238
254
254
246
142
83
58
85
172
246
254
254
254
255
255
255
255
255
255
255
255
255
255
255
255
255
255
255
255
255
255
255
255
255
255
255
255
255
255
255
255
255
255
255
255
255
255
255
255
255
255
255
255
255
255
255
255
255
255
255
255
255
255
255
255
255
255
255
255
255
255
255
255
255
255
255
255
255
255
255
255
255
255
255
255
255
255
255
255
255
255
255
255
255
255
255
255
255
255
255
255
255
255
255
255
255
255
255
255
255
255
255
255
255
255
255
255
255
255
255
255
255
255
255
255
255
255
255
255
255
255
255
255
255
255
255
255
255
255
255
255
255
255
255
255
255
255
255
255
255
255
255
255
255
255
255
255
253
253
255
255
250
255
250
195
28
5
25
67
54
85
106
88
86
88
74
46
34
57
74
66
92
90
73
59
84
119
123
120
122
112
61
54
8
30
171
251
255
248
245
252
255
254
253
255
255
255
255
255
255
255
255
255
255
255
255
255
255
255
255
255
255
255
255
255
255
255
255
255
255
255
255
255
255
255
255
255
255
255
255
255
255
255
255
255
255
255
255
255
255
255
255
255
255
255
255
255
255
255
255
255
255
255
255
255
255
255
255
255
255
255
255
255
255
255
255
255
255
255
255
255
255
255
255
255
255
255
255
255
255
255
255
255
255
255
255
255
255
255
255
255
255
255
255
255
255
255
255
255
255
255
255
255
255
255
255
255
255
255
255
255
255
255
255
255
255
255
255
255
255
255
255
255
255
255
255
255
255
255
255
255
255
255
255
255
255
255
255
255
255
255
255
255
255
255
255
255
255
255
255
255
255
255
255
255
255
255
255
255
255
255
255
255
255
255
255
255
255
255
255
255
255
255
255
255
255
255
255
255
255
255
255
255
255
255
255
255
255
255
255
255
255
255
255
255
247
248
255
255
255
254
254
255
255
255
255
255
255
255
255
255
255
255
255
255
255
255
255
255
255
255
255
255
255
255
255
255
255
255
255
255
255
252
252
253
255
248
251
254
241
244
233
236
253
255
251
242
243
255
255
255
255
255
255
255
255
255
255
255
255
255
255
255
255
255
255
255
255
255
255
255
255
255
255
255
255
255
255
255
255
255
255
255
255
255
255
255
255
255
255
255
255
255
255
255
255
255
255
255
255
255
255
255
255
255
255
255
255
255
255
255
255
255
255
255
255
255
255
255
255
255
255
255
255
255
255
255
255
255
255
255
255
255
255
255
255
255
255
255
255
255
255
255
255
255
255
255
255
255
255
255
255
255
255
255
255
255
255
255
255
255
255
255
255
255
255
255
255
255
255
255
255
255
255
255
255
255
255
255
255
255
255
255
255
255
255
255
255
255
255
255
255
255
250
254
255
249
255
255
230
77
15
42
87
72
77
107
89
89
90
91
74
66
98
122
110
126
130
119
88
100
131
122
113
124
114
66
75
36
3
71
241
255
254
253
254
255
255
255
253
255
255
255
255
255
255
255
255
255
255
255
255
255
255
255
255
255
255
255
255
255
255
255
255
255
255
255
255
255
255
255
255
255
255
255
255
255
255
255
255
255
255
255
255
255
255
255
255
255
255
255
255
255
255
255
255
255
255
255
255
255
255
255
255
255
255
255
255
255
255
255
255
255
255
255
255
255
255
255
255
255
255
255
255
255
255
255
255
255
255
255
255
255
255
255
255
255
255
255
255
255
255
255
255
255
255
255
255
255
255
255
255
255
255
255
255
255
255
255
255
255
255
255
255
255
255
255
255
255
255
255
255
255
255
255
255
255
255
255
255
255
255
255
255
255
255
255
255
255
255
255
255
255
255
255
255
255
255
255
255
255
255
255
255
255
255
255
255
255
255
255
255
255
255
255
255
255
255
255
255
255
255
255
255
255
255
255
255
255
255
255
255
255
255
255
255
255
246
249
251
252
254
255
255
255
254
254
255
255
255
255
255
255
255
255
255
255
255
255
255
255
255
255
255
255
255
255
255
255
255
255
255
255
255
255
255
255
252
253
255
254
254
236
253
254
249
251
252
253
254
254
255
255
255
255
255
255
255
255
255
255
255
255
255
255
255
255
255
255
255
255
255
255
255
255
255
255
255
255
255
255
255
255
255
255
255
255
255
255
255
255
255
255
255
255
255
255
255
255
255
255
255
255
255
255
255
255
255
255
255
255
255
255
255
255
255
255
255
255
255
255
255
255
255
255
255
255
255
255
255
255
255
255
255
255
255
255
255
255
255
255
255
255
255
255
255
255
255
255
255
255
255
255
255
255
255
255
255
255
255
255
255
255
255
255
255
255
255
255
255
255
255
255
255
255
255
255
255
255
255
255
255
255
255
255
255
255
255
255
255
255
255
255
255
255
255
255
255
247
253
255
251
255
255
253
104
4
44
92
83
64
104
91
90
84
88
74
66
103
128
103
117
121
118
87
92
119
120
131
126
115
73
84
72
13
12
139
232
249
255
255
254
255
255
250
255
255
255
255
255
255
255
255
255
255
255
255
255
255
255
255
255
255
255
255
255
255
255
255
255
255
255
255
255
255
255
255
255
255
255
255
255
255
255
255
255
255
255
255
255
255
255
255
255
255
255
255
255
255
255
255
255
255
255
255
255
255
255
255
255
255
255
255
255
255
255
255
255
255
255
255
255
255
255
255
255
255
255
255
255
255
255
255
255
255
255
255
255
255
255
255
255
255
255
255
255
255
255
255
255
255
255
255
255
255
255
255
255
255
255
255
255
255
255
255
255
255
255
255
255
255
255
255
255
255
255
255
255
255
255
255
255
255
255
255
255
255
255
255
255
255
255
255
255
255
255
255
255
255
255
255
255
255
255
255
255
255
255
255
255
255
255
255
255
255
255
255
255
255
255
255
255
255
255
255
255
255
255
255
255
255
255
255
255
254
255
255
255
255
255
255
255
255
255
255
255
255
254
252
252
254
254
255
255
255
255
255
255
255
255
255
255
255
255
255
255
255
255
255
255
255
255
255
255
255
255
255
255
255
255
255
255
254
255
242
252
250
245
253
251
253
252
249
250
251
248
247
248
255
255
255
255
255
255
255
255
255
255
255
255
255
255
255
255
255
255
255
255
255
255
255
255
255
255
255
255
255
255
255
255
255
255
255
255
255
255
255
255
255
255
255
255
255
255
255
255
255
255
255
255
255
255
255
255
255
255
255
255
255
255
255
255
255
255
255
255
255
255
255
255
255
255
255
255
255
255
255
255
255
255
255
255
255
255
255
255
255
255
255
255
255
255
255
255
255
255
255
255
255
255
255
255
255
255
255
255
255
255
255
255
255
255
255
255
255
255
255
255
255
255
255
255
255
255
255
255
255
255
255
255
255
255
255
255
255
255
255
255
255
255
255
255
255
243
255
255
255
254
252
255
129
2
45
93
91
55
105
97
81
86
100
79
52
89
132
119
127
114
107
89
104
126
112
119
118
113
79
82
100
73
6
33
204
237
255
255
250
255
255
251
255
255
255
255
255
255
255
255
255
255
255
255
255
255
255
255
255
255
255
255
255
255
255
255
255
255
255
255
255
255
255
255
255
255
255
255
255
255
255
255
255
255
255
255
255
255
255
255
255
255
255
255
255
255
255
255
255
255
255
255
255
255
255
255
255
255
255
255
255
255
255
255
255
255
255
255
255
255
255
255
255
255
255
255
255
255
255
255
255
255
255
255
255
255
255
255
255
255
255
255
255
255
255
255
255
255
255
255
255
255
255
255
255
255
255
255
255
255
255
255
255
255
255
255
255
255
255
255
255
255
255
255
255
255
255
255
255
255
255
255
255
255
255
255
255
255
255
255
255
255
255
255
255
255
255
255
255
255
255
255
255
255
255
255
255
255
255
255
255
255
255
255
255
255
255
255
255
255
255
255
255
255
255
255
255
255
255
255
255
255
255
255
255
255
255
255
255
255
255
255
255
255
255
255
255
255
255
255
255
255
255
255
255
255
255
255
255
255
255
255
255
255
255
255
255
255
255
255
255
255
255
255
255
255
255
255
255
255
255
255
255
255
255
255
255
250
251
252
252
252
252
251
250
255
255
255
255
255
255
255
255
255
255
255
255
255
255
255
255
255
255
255
255
255
255
255
255
255
255
255
255
255
255
255
255
255
255
255
255
255
255
255
255
255
255
255
255
255
255
255
255
255
255
255
255
255
255
255
255
255
255
255
255
255
255
255
255
255
255
255
255
255
255
255
255
255
255
255
255
255
255
255
255
255
255
255
255
255
255
255
255
255
255
255
255
255
255
255
255
255
255
255
255
255
255
255
255
255
255
255
255
255
255
255
255
255
255
255
255
255
255
255
255
255
255
255
255
255
255
255
255
255
255
255
255
255
255
255
255
255
255
255
255
255
255
255
255
255
255
255
254
254
253
253
253
176
9
31
85
86
58
90
112
84
80
83
83
61
78
124
119
122
106
116
98
94
114
115
122
122
128
86
63
117
76
35
1
98
234
254
254
245
255
253
255
255
255
255
255
255
255
255
255
255
255
255
255
255
255
255
255
255
255
255
255
255
255
255
255
255
255
255
255
255
255
255
255
255
255
255
255
255
255
255
255
255
255
255
255
255
255
255
255
255
255
255
255
255
255
255
255
255
255
255
255
255
255
255
255
255
255
255
255
255
255
255
255
255
255
255
255
255
255
255
255
255
255
255
255
255
255
255
255
255
255
255
255
255
255
255
255
255
255
255
255
255
255
255
255
255
255
255
255
255
255
255
255
255
255
255
255
255
255
255
255
255
255
255
255
255
255
255
255
255
255
255
255
255
255
255
255
255
255
255
255
255
255
255
255
255
255
255
255
255
255
255
255
255
255
255
255
255
255
255
255
255
255
255
255
255
255
255
255
255
255
255
255
255
255
255
255
255
255
255
255
255
255
255
255
255
255
255
255
255
255
255
255
255
255
255
255
255
255
255
255
255
255
255
255
255
255
255
255
255
255
255
255
255
255
255
255
255
255
255
255
255
255
255
255
255
255
255
255
255
255
255
255
255
255
255
255
255
255
255
255
255
255
255
255
255
251
252
253
253
253
253
252
251
255
255
255
255
255
255
255
255
255
255
255
255
255
255
255
255
255
255
255
255
255
255
255
255
255
255
255
255
255
255
255
255
255
255
255
255
255
255
255
255
255
255
255
255
255
255
255
255
255
255
255
255
255
255
255
255
255
255
255
255
255
255
255
255
255
255
255
255
255
255
255
255
255
255
255
255
255
255
255
255
255
255
255
255
255
255
255
255
255
255
255
255
255
255
255
255
255
255
255
255
255
255
255
255
255
255
255
255
255
255
255
255
255
255
255
255
255
255
255
255
255
255
255
255
255
255
255
255
255
255
255
255
255
255
255
255
255
255
255
255
255
255
255
255
255
255
255
254
254
253
253
253
235
21
13
71
91
74
85
97
85
82
90
90
65
76
117
112
117
112
122
110
96
121
119
125
110
122
100
64
89
71
60
12
33
163
241
253
251
255
255
255
255
255
255
255
255
255
255
255
255
255
255
255
255
255
255
255
255
255
255
255
255
255
255
255
255
255
255
255
255
255
255
255
255
255
255
255
255
255
255
255
255
255
255
255
255
255
255
255
255
255
255
255
255
255
255
255
255
255
255
255
255
255
255
255
255
255
255
255
255
255
255
255
255
255
255
255
255
255
255
255
255
255
255
255
255
255
255
255
255
255
255
255
255
255
255
255
255
255
255
255
255
255
255
255
255
255
255
255
255
255
255
255
255
255
255
255
255
255
255
255
255
255
255
255
255
255
255
255
255
255
255
255
255
255
255
255
255
255
255
255
255
255
255
255
255
255
255
255
255
255
255
255
255
255
255
255
255
255
255
255
255
255
255
255
255
255
255
255
255
255
255
255
255
255
255
255
255
255
255
255
255
255
255
255
255
255
255
255
255
255
255
255
255
255
255
255
255
255
255
255
255
255
255
255
255
255
255
255
255
255
255
255
255
255
255
255
255
255
255
255
255
255
255
255
255
255
255
255
255
255
255
255
255
255
255
255
255
255
255
255
255
255
255
255
255
253
253
254
255
255
254
253
253
255
255
255
255
255
255
255
255
255
255
255
255
255
255
255
255
255
255
255
255
255
255
255
255
255
255
255
255
255
255
255
255
255
255
255
255
255
255
255
255
255
255
255
255
255
255
255
255
255
255
255
255
255
255
255
255
255
255
255
255
255
255
255
255
255
255
255
255
255
255
255
255
255
255
255
255
255
255
255
255
255
255
255
255
255
255
255
255
255
255
255
255
255
255
255
255
255
255
255
255
255
255
255
255
255
255
255
255
255
255
255
255
255
255
255
255
255
255
255
255
255
255
255
255
255
255
255
255
255
255
255
255
255
255
255
255
255
255
255
255
255
255
255
255
255
255
255
254
254
253
253
253
255
35
10
67
75
58
63
98
97
92
94
89
57
67
113
113
117
123
123
115
88
118
116
121
119
125
109
57
72
84
100
46
0
100
242
254
255
255
254
251
255
255
255
255
255
255
255
255
255
255
255
255
255
255
255
255
255
255
255
255
255
255
255
255
255
255
255
255
255
255
255
255
255
255
255
255
255
255
255
255
255
255
255
255
255
255
255
255
255
255
255
255
255
255
255
255
255
255
255
255
255
255
255
255
255
255
255
255
255
255
255
255
255
255
255
255
255
255
255
255
255
255
255
255
255
255
255
255
255
255
255
255
255
255
255
255
255
255
255
255
255
255
255
255
255
255
255
255
255
255
255
255
255
255
255
255
255
255
255
255
255
255
255
255
255
255
255
255
255
255
255
255
255
255
255
255
255
255
255
255
255
255
255
255
255
255
255
255
255
255
255
255
255
255
255
255
255
255
255
255
255
255
255
255
255
255
255
255
255
255
255
255
255
255
255
255
255
255
255
255
255
255
255
255
255
255
255
255
255
255
255
255
255
255
255
255
255
255
255
255
255
255
255
255
255
255
255
255
255
255
255
255
255
255
255
255
255
255
255
255
255
255
255
255
255
255
255
255
255
255
255
255
255
255
255
255
255
255
255
255
255
255
255
255
255
254
255
255
255
255
255
255
254
255
255
255
255
255
255
255
255
255
255
255
255
255
255
255
255
255
255
255
255
255
255
255
255
255
255
255
255
255
255
255
255
255
255
255
255
255
255
255
255
255
255
255
255
255
255
255
255
255
255
255
255
255
255
255
255
255
255
255
255
255
255
255
255
255
255
255
255
255
255
255
255
255
255
255
255
255
255
255
255
255
255
255
255
255
255
255
255
255
255
255
255
255
255
255
255
255
255
255
255
255
255
255
255
255
255
255
255
255
255
255
255
255
255
255
255
255
255
255
255
255
255
255
255
255
255
255
255
255
255
255
255
255
255
255
255
255
255
255
255
255
255
255
255
255
255
255
254
254
253
253
253
250
54
14
73
69
48
45
99
96
93
98
95
63
68
114
115
118
131
117
114
81
118
118
125
130
125
92
35
71
106
122
77
0
64
246
254
252
254
255
253
255
255
255
255
255
255
255
255
255
255
255
255
255
255
255
255
255
255
255
255
255
255
255
255
255
255
255
255
255
255
255
255
255
255
255
255
255
255
255
255
255
255
255
255
255
255
255
255
255
255
255
255
255
255
255
255
255
255
255
255
255
255
255
255
255
255
255
255
255
255
255
255
255
255
255
255
255
255
255
255
255
255
255
255
255
255
255
255
255
255
255
255
255
255
255
255
255
255
255
255
255
255
255
255
255
255
255
255
255
255
255
255
255
255
255
255
255
255
255
255
255
255
255
255
255
255
255
255
255
255
255
255
255
255
255
255
255
255
255
255
255
255
255
255
255
255
255
255
255
255
255
255
255
255
255
255
255
255
255
255
255
255
255
255
255
255
255
255
255
255
255
255
255
255
255
255
255
255
255
255
255
255
255
255
255
255
255
255
255
255
255
255
255
255
255
255
255
255
255
255
255
255
255
255
255
255
255
255
255
255
255
255
255
255
255
255
255
255
255
255
255
255
255
255
255
255
255
255
255
255
255
255
255
255
255
255
255
255
255
255
255
255
255
255
255
255
255
255
255
255
255
255
255
255
255
255
255
255
255
255
255
255
255
255
255
255
255
255
255
255
255
255
255
255
255
255
255
255
255
255
255
255
255
255
255
255
255
255
255
255
255
255
255
255
255
255
255
255
255
255
255
255
255
255
255
255
255
255
255
255
255
255
255
255
255
255
255
255
255
255
255
255
255
255
255
255
255
255
255
255
255
255
255
255
255
255
255
255
255
255
255
255
255
255
255
255
255
255
255
255
255
255
255
255
255
255
255
255
255
255
255
255
255
255
255
255
255
255
255
255
255
255
255
255
255
255
255
255
255
255
255
255
255
255
255
255
255
255
255
255
255
255
255
255
255
255
255
255
255
255
254
254
253
253
253
253
96
5
72
91
78
45
78
71
73
90
100
73
76
116
116
114
130
113
117
84
116
119
122
107
108
73
20
81
111
111
93
0
34
235
251
250
250
255
255
255
255
255
255
255
255
255
255
255
255
255
255
255
255
255
255
255
255
255
255
255
255
255
255
255
255
255
255
255
255
255
255
255
255
255
255
255
255
255
255
255
255
255
255
255
255
255
255
255
255
255
255
255
255
255
255
255
255
255
255
255
255
255
255
255
255
255
255
255
255
255
255
255
255
255
255
255
255
255
255
255
255
255
255
255
255
255
255
255
255
255
255
255
255
255
255
255
255
255
255
255
255
255
255
255
255
255
255
255
255
255
255
255
255
255
255
255
255
255
255
255
255
255
255
255
255
255
255
255
255
255
255
255
255
255
255
255
255
255
255
255
255
255
255
255
255
255
255
255
255
255
255
255
255
255
255
255
255
255
255
255
255
255
255
255
255
255
255
255
255
255
255
255
255
255
255
255
255
255
255
255
255
255
255
255
255
255
255
255
255
255
255
255
255
255
255
255
255
255
255
255
255
255
255
255
255
255
255
255
255
255
255
255
255
255
255
255
255
255
255
255
255
255
255
255
255
255
255
255
255
255
255
255
255
255
255
255
255
255
255
255
255
255
255
255
254
255
255
255
255
255
255
254
255
255
255
255
255
255
255
255
255
255
255
255
255
255
255
255
255
255
255
255
255
255
255
255
255
255
255
255
255
255
255
255
255
255
255
255
255
255
255
255
255
255
255
255
255
255
255
255
255
255
255
255
255
255
255
255
255
255
255
255
255
255
255
255
255
255
255
255
255
255
255
255
255
255
255
255
255
255
255
255
255
255
255
255
255
255
255
255
255
255
255
255
255
255
255
255
255
255
255
255
255
255
255
255
255
255
255
255
255
255
255
255
255
255
255
255
255
255
255
255
255
255
255
255
255
255
255
255
255
255
255
255
255
255
255
255
255
255
255
255
255
255
255
255
255
255
255
254
254
253
253
253
252
155
6
61
98
93
48
66
60
54
65
73
50
61
111
117
106
123
109
114
79
89
98
99
82
99
80
31
91
107
98
98
0
25
220
254
255
250
255
254
255
255
255
255
255
255
255
255
255
255
255
255
255
255
255
255
255
255
255
255
255
255
255
255
255
255
255
255
255
255
255
255
255
255
255
255
255
255
255
255
255
255
255
255
255
255
255
255
255
255
255
255
255
255
255
255
255
255
255
255
255
255
255
255
255
255
255
255
255
255
255
255
255
255
255
255
255
255
255
255
255
255
255
255
255
255
255
255
255
255
255
255
255
255
255
255
255
255
255
255
255
255
255
255
255
255
255
255
255
255
255
255
255
255
255
255
255
255
255
255
255
255
255
255
255
255
255
255
255
255
255
255
255
255
255
255
255
255
255
255
255
255
255
255
255
255
255
255
255
255
255
255
255
255
255
255
255
255
255
255
255
255
255
255
255
255
255
255
255
255
255
255
255
255
255
255
255
255
255
255
255
255
255
255
255
255
255
255
255
255
255
255
255
255
255
255
255
255
255
255
255
255
255
255
255
255
255
255
255
255
255
255
255
255
255
255
255
255
255
255
255
255
255
255
255
255
255
255
255
255
255
255
255
255
255
255
255
255
255
255
255
255
255
255
255
254
254
255
255
255
255
254
254
255
255
255
255
255
255
255
255
255
255
255
255
255
255
255
255
255
255
255
255
255
255
255
255
255
255
255
255
255
255
255
255
255
255
255
255
255
255
255
255
255
255
255
255
255
255
255
255
255
255
255
255
255
255
255
255
255
255
255
255
255
255
255
255
255
255
255
255
255
255
255
255
255
255
255
255
255
255
255
255
255
255
255
255
255
255
255
255
255
255
255
255
255
255
255
255
255
255
255
255
255
255
255
255
255
255
255
255
255
255
255
255
255
255
255
255
255
255
255
255
255
255
255
255
255
255
255
255
255
255
255
255
255
255
255
255
255
255
255
255
255
255
255
255
255
255
255
254
254
253
253
253
251
212
11
41
83
87
56
73
79
64
61
60
32
42
91
100
91
105
97
96
63
55
82
93
100
108
106
54
92
111
103
92
2
26
200
254
255
250
253
251
255
255
255
255
255
255
255
255
255
255
255
255
255
255
255
255
255
255
255
255
255
255
255
255
255
255
255
255
255
255
255
255
255
255
255
255
255
255
255
255
255
255
255
255
255
255
255
255
255
255
255
255
255
255
255
255
255
255
255
255
255
255
255
255
255
255
255
255
255
255
255
255
255
255
255
255
255
255
255
255
255
255
255
255
255
255
255
255
255
255
255
255
255
255
255
255
255
255
255
255
255
255
255
255
255
255
255
255
255
255
255
255
255
255
255
255
255
255
255
255
255
255
255
255
255
255
255
255
255
255
255
255
255
255
255
255
255
255
255
255
255
255
255
255
255
255
255
255
255
255
255
255
255
255
255
255
255
255
255
255
255
255
255
255
255
255
255
255
255
255
255
255
255
255
255
255
255
255
255
255
255
255
255
255
255
255
255
255
255
255
255
255
255
255
255
255
255
255
255
255
255
255
255
255
255
255
255
255
255
255
255
255
255
255
255
255
255
255
255
255
255
255
255
255
255
255
255
255
255
255
255
255
255
255
255
255
255
255
255
255
255
255
255
255
255
253
254
254
255
255
254
254
253
255
255
255
255
255
255
255
255
255
255
255
255
255
255
255
255
255
255
255
255
255
255
255
255
255
255
255
255
255
255
255
255
255
255
255
255
255
255
255
255
255
255
255
255
255
255
255
255
255
255
255
255
255
255
255
255
255
255
255
255
255
255
255
255
255
255
255
255
255
255
255
255
255
255
255
255
255
255
255
255
255
255
255
255
255
255
255
255
255
255
255
255
255
255
255
255
255
255
255
255
255
255
255
255
255
255
255
255
255
255
255
255
255
255
255
255
255
255
255
255
255
255
255
255
255
255
255
255
255
255
255
255
255
255
255
255
255
255
255
255
255
255
255
255
255
255
255
254
254
253
253
253
252
247
3
25
74
91
68
81
99
86
84
84
51
41
71
67
71
83
81
77
52
42
93
117
136
124
123
61
86
116
115
80
0
17
172
250
255
250
255
255
255
255
255
255
255
255
255
255
255
255
255
255
255
255
255
255
255
255
255
255
255
255
255
255
255
255
255
255
255
255
255
255
255
255
255
255
255
255
255
255
255
255
255
255
255
255
255
255
255
255
255
255
255
255
255
255
255
255
255
255
255
255
255
255
255
255
255
255
255
255
255
255
255
255
255
255
255
255
255
255
255
255
255
255
255
255
255
255
255
255
255
255
255
255
255
255
255
255
255
255
255
255
255
255
255
255
255
255
255
255
255
255
255
255
255
255
255
255
255
255
255
255
255
255
255
255
255
255
255
255
255
255
255
255
255
255
255
255
255
255
255
255
255
255
255
255
255
255
255
255
255
255
255
255
255
255
255
255
255
255
255
255
255
255
255
255
255
255
255
255
255
255
255
255
255
255
255
255
255
255
255
255
255
255
255
255
255
255
255
255
255
255
255
255
255
255
255
255
255
255
255
255
255
255
255
255
255
255
255
255
255
255
255
255
255
255
255
255
255
255
255
255
255
255
255
255
255
255
255
255
255
255
255
255
255
255
255
255
255
255
255
255
255
255
255
255
255
255
255
255
255
255
255
255
255
255
255
255
255
255
255
255
255
255
255
255
255
255
255
255
255
255
255
255
255
255
255
255
255
255
255
255
255
255
255
255
255
255
255
255
255
255
255
255
255
255
255
255
255
255
255
255
255
255
255
255
255
255
255
255
255
255
255
255
255
255
255
255
255
255
255
255
255
255
255
255
255
255
255
255
255
255
255
255
255
255
255
255
255
255
255
255
255
255
255
255
255
255
255
255
255
255
255
255
255
255
255
255
255
255
255
255
255
255
255
255
255
255
255
255
255
255
255
255
255
255
255
255
255
255
255
255
255
255
255
255
255
255
255
255
255
255
255
255
255
255
255
255
255
255
254
254
253
253
253
250
255
65
5
40
75
70
77
89
79
87
93
80
51
92
119
110
110
122
114
93
74
115
121
127
135
109
57
87
122
129
88
6
3
140
246
255
254
255
251
253
254
255
255
255
255
255
255
255
255
255
255
255
255
255
255
255
255
255
255
255
255
255
255
255
255
255
255
255
255
255
255
255
255
255
255
255
255
255
255
255
255
255
255
255
255
255
255
255
255
255
255
255
255
255
255
255
255
255
255
255
255
255
255
255
255
255
255
255
255
255
255
255
255
255
255
255
255
255
255
255
255
255
255
255
255
255
255
255
255
255
255
255
255
255
255
255
255
255
255
255
255
255
255
255
255
255
255
255
255
255
255
255
255
255
255
255
255
255
255
255
255
255
255
255
255
255
255
255
255
255
255
255
255
255
255
255
255
255
255
255
255
255
255
255
255
255
255
255
255
255
255
255
255
255
255
255
255
255
255
255
255
255
255
255
255
255
255
255
255
255
255
255
255
255
255
255
255
255
255
255
255
255
255
255
255
255
255
255
255
255
255
255
255
255
255
255
255
255
255
255
255
255
255
255
255
255
255
255
255
255
255
255
255
255
255
255
255
255
255
255
255
255
255
255
255
255
255
255
255
255
255
255
255
255
255
255
255
255
255
255
255
255
255
255
255
255
255
255
255
255
255
255
255
255
255
255
255
255
255
255
255
255
255
255
255
255
255
255
255
255
255
255
255
255
255
255
255
255
255
255
255
255
255
255
255
255
255
255
255
255
255
255
255
255
255
255
255
255
255
255
255
255
255
255
255
255
255
255
255
255
255
255
255
255
255
255
255
255
255
255
255
255
255
255
255
255
255
255
255
255
255
255
255
255
255
255
255
255
255
255
255
255
255
255
255
255
255
255
255
255
255
255
255
255
255
255
255
255
255
255
255
255
255
255
255
255
255
255
255
255
255
255
255
255
255
255
255
255
255
255
255
255
255
255
255
255
255
255
255
255
255
255
255
255
255
255
255
255
255
254
254
253
253
253
246
255
98
2
25
57
64
72
93
81
85
90
80
50
89
114
114
114
124
114
95
75
114
123
119
132
125
77
78
112
116
88
15
8
143
253
254
251
255
248
253
254
255
255
255
255
255
255
255
255
255
255
255
255
255
255
255
255
255
255
255
255
255
255
255
255
255
255
255
255
255
255
255
255
255
255
255
255
255
255
255
255
255
255
255
255
255
255
255
255
255
255
255
255
255
255
255
255
255
255
255
255
255
255
255
255
255
255
255
255
255
255
255
255
255
255
255
255
255
255
255
255
255
255
255
255
255
255
255
255
255
255
255
255
255
255
255
255
255
255
255
255
255
255
255
255
255
255
255
255
255
255
255
255
255
255
255
255
255
255
255
255
255
255
255
255
255
255
255
255
255
255
255
255
255
255
255
255
255
255
255
255
255
255
255
255
255
255
255
255
255
255
255
255
255
255
255
255
255
255
255
255
255
255
255
255
255
255
255
255
255
255
255
255
255
255
255
255
255
255
255
255
255
255
255
255
255
255
255
255
255
255
255
255
255
255
255
255
255
255
255
255
255
255
255
255
255
255
255
255
255
255
255
255
255
255
255
255
255
255
255
255
255
255
255
255
255
255
255
255
255
255
255
255
255
255
255
255
255
255
255
255
255
255
255
255
255
255
255
255
255
255
255
255
255
255
255
255
255
255
255
255
255
255
255
255
255
255
255
255
255
255
255
255
255
255
255
255
255
255
255
255
255
255
255
255
255
255
255
255
255
255
255
255
255
255
255
255
255
255
255
255
255
255
255
255
255
255
255
255
255
255
255
255
255
255
255
255
255
255
255
255
255
255
255
255
255
255
255
255
255
255
255
255
255
255
255
255
255
255
255
255
255
255
255
255
255
255
255
255
255
255
255
255
255
255
255
255
255
255
255
255
255
255
255
255
255
255
255
255
255
255
255
255
255
255
255
255
255
255
255
255
255
255
255
255
255
255
255
255
255
255
255
255
255
255
255
255
255
255
254
254
253
253
253
244
254
133
2
13
34
54
61
95
86
87
89
83
53
88
111
114
116
124
115
100
79
115
127
121
125
132
97
73
112
108
95
18
5
138
255
252
248
254
248
253
254
255
255
255
255
255
255
255
255
255
255
255
255
255
255
255
255
255
255
255
255
255
255
255
255
255
255
255
255
255
255
255
255
255
255
255
255
255
255
255
255
255
255
255
255
255
255
255
255
255
255
255
255
255
255
255
255
255
255
255
255
255
255
255
255
255
255
255
255
255
255
255
255
255
255
255
255
255
255
255
255
255
255
255
255
255
255
255
255
255
255
255
255
255
255
255
255
255
255
255
255
255
255
255
255
255
255
255
255
255
255
255
255
255
255
255
255
255
255
255
255
255
255
255
255
255
255
255
255
255
255
255
255
255
255
255
255
255
255
255
255
255
255
255
255
255
255
255
255
255
255
255
255
255
255
255
255
255
255
255
255
255
255
255
255
255
255
255
255
255
255
255
255
255
255
255
255
255
255
255
255
255
255
255
255
255
255
255
255
255
255
255
255
255
255
255
255
255
255
255
255
255
255
255
255
255
255
255
255
255
255
255
255
255
255
255
255
255
255
255
255
255
255
255
255
255
255
255
255
255
255
255
255
255
255
255
255
255
255
255
255
255
255
255
255
255
255
255
255
255
255
255
255
255
255
255
255
255
255
255
255
255
255
255
255
255
255
255
255
255
255
255
255
255
255
255
255
255
255
255
255
255
255
255
255
255
255
255
255
255
255
255
255
255
255
255
255
255
255
255
255
255
255
255
255
255
255
255
255
255
255
255
255
255
255
255
255
255
255
255
255
255
255
255
255
255
255
255
255
255
255
255
255
255
255
255
255
255
255
255
255
255
255
255
255
255
255
255
255
255
255
255
255
255
255
255
255
255
255
255
255
255
255
255
255
255
255
255
255
255
255
255
255
255
255
255
255
255
255
255
255
255
255
255
255
255
255
255
255
255
255
255
255
255
255
255
255
255
255
254
254
253
253
253
251
252
137
2
20
21
40
48
87
85
86
89
90
60
89
112
113
116
122
115
104
80
114
129
130
117
125
106
72
112
102
94
18
1
120
253
252
248
254
251
253
254
255
255
255
255
255
255
255
255
255
255
255
255
255
255
255
255
255
255
255
255
255
255
255
255
255
255
255
255
255
255
255
255
255
255
255
255
255
255
255
255
255
255
255
255
255
255
255
255
255
255
255
255
255
255
255
255
255
255
255
255
255
255
255
255
255
255
255
255
255
255
255
255
255
255
255
255
255
255
255
255
255
255
255
255
255
255
255
255
255
255
255
255
255
255
255
255
255
255
255
255
255
255
255
255
255
255
255
255
255
255
255
255
255
255
255
255
255
255
255
255
255
255
255
255
255
255
255
255
255
255
255
255
255
255
255
255
255
255
255
255
255
255
255
255
255
255
255
255
255
255
255
255
255
255
255
255
255
255
255
255
255
255
255
255
255
255
255
255
255
255
255
255
255
255
255
255
255
255
255
255
255
255
255
255
255
255
255
255
255
255
255
255
255
255
255
255
255
255
255
255
255
255
255
255
255
255
255
255
255
255
255
255
255
255
255
255
255
255
255
255
255
255
255
255
255
255
255
255
255
255
255
255
255
255
255
255
255
255
255
255
255
255
255
255
255
255
255
255
255
255
255
255
255
255
255
255
255
255
255
255
255
255
255
255
255
255
255
255
255
255
255
255
255
255
255
255
255
255
255
255
255
255
255
255
255
255
255
255
255
255
255
255
255
255
255
255
255
255
255
255
255
255
255
255
255
255
255
255
255
255
255
255
255
255
255
255
255
255
255
255
255
255
255
255
255
255
255
255
255
255
255
255
255
255
255
255
255
255
255
255
255
255
255
255
255
255
255
255
255
255
255
255
255
255
255
255
255
255
255
255
255
255
255
255
255
255
255
255
255
255
255
255
255
255
255
255
255
255
255
255
255
255
255
255
255
255
255
255
255
255
255
255
255
255
255
255
255
255
254
254
253
253
253
254
237
102
7
46
28
27
36
63
71
77
84
95
66
91
117
114
118
121
114
108
80
106
125
128
116
124
116
73
92
83
83
27
3
92
252
252
251
254
251
253
254
255
255
255
255
255
255
255
255
255
255
255
255
255
255
255
255
255
255
255
255
255
255
255
255
255
255
255
255
255
255
255
255
255
255
255
255
255
255
255
255
255
255
255
255
255
255
255
255
255
255
255
255
255
255
255
255
255
255
255
255
255
255
255
255
255
255
255
255
255
255
255
255
255
255
255
255
255
255
255
255
255
255
255
255
255
255
255
255
255
255
255
255
255
255
255
255
255
255
255
255
255
255
255
255
255
255
255
255
255
255
255
255
255
255
255
255
255
255
255
255
255
255
255
255
255
255
255
255
255
255
255
255
255
255
255
255
255
255
255
255
255
255
255
255
255
255
255
255
255
255
255
255
255
255
255
255
255
255
255
255
255
255
255
255
255
255
255
255
255
255
255
255
255
255
255
255
255
255
255
255
255
255
255
255
255
255
255
255
255
255
255
255
255
255
255
255
255
255
255
255
255
255
255
255
255
255
255
255
255
255
255
255
255
255
255
255
255
255
255
255
255
255
255
255
255
255
255
255
255
255
255
255
255
255
255
255
255
255
255
255
255
255
255
255
255
255
255
255
255
255
255
255
255
255
255
255
255
255
255
255
255
255
255
255
255
255
255
255
255
255
255
255
255
255
255
255
255
255
255
255
255
255
255
255
255
255
255
255
255
255
255
255
255
255
255
255
255
255
255
255
255
255
255
255
255
255
255
255
255
255
255
255
255
255
255
255
255
255
255
255
255
255
255
255
255
255
255
255
255
255
255
255
255
255
255
255
255
255
255
255
255
255
255
255
255
255
255
255
255
255
255
255
255
255
255
255
255
255
255
255
255
255
255
255
255
255
255
255
255
255
255
255
255
255
255
255
255
255
255
255
255
255
255
255
255
255
255
255
255
255
255
255
255
255
255
255
255
255
254
254
253
253
253
254
234
50
17
71
47
19
29
40
58
64
73
89
63
87
117
115
121
122
115
112
77
97
119
123
125
130
126
78
61
72
83
51
9
62
230
250
251
251
249
253
254
255
255
255
255
255
255
255
255
255
255
255
255
255
255
255
255
255
255
255
255
255
255
255
255
255
255
255
255
255
255
255
255
255
255
255
255
255
255
255
255
255
255
255
255
255
255
255
255
255
255
255
255
255
255
255
255
255
255
255
255
255
255
255
255
255
255
255
255
255
255
255
255
255
255
255
255
255
255
255
255
255
255
255
255
255
255
255
255
255
255
255
255
255
255
255
255
255
255
255
255
255
255
255
255
255
255
255
255
255
255
255
255
255
255
255
255
255
255
255
255
255
255
255
255
255
255
255
255
255
255
255
255
255
255
255
255
255
255
255
255
255
255
255
255
255
255
255
255
255
255
255
255
255
255
255
255
255
255
255
255
255
255
255
255
255
255
255
255
255
255
255
255
255
255
255
255
255
255
255
255
255
255
255
255
255
255
255
255
255
255
255
255
255
255
255
255
255
255
255
255
255
255
255
255
255
255
255
255
255
255
255
255
255
255
255
255
255
255
255
255
255
255
255
255
255
255
255
255
255
255
255
255
255
255
255
255
255
255
255
255
255
255
255
255
255
255
255
255
255
255
255
255
255
255
255
255
255
255
255
255
255
255
255
255
255
255
255
255
255
255
255
255
255
255
255
255
255
255
255
255
255
255
255
255
255
255
255
255
255
255
255
255
255
255
255
255
255
255
255
255
255
255
255
255
255
255
255
255
255
255
255
255
255
255
255
255
255
255
255
255
255
255
255
255
255
255
255
255
255
255
255
255
255
255
255
255
255
255
255
255
255
255
255
255
255
255
255
255
255
255
255
255
255
255
255
255
255
255
255
255
255
255
255
255
255
255
255
255
255
255
255
255
255
255
255
255
255
255
255
255
255
255
255
255
255
255
255
255
255
255
255
255
255
255
255
255
255
255
254
254
253
253
253
254
245
6
24
83
67
19
28
36
58
61
64
79
52
75
109
111
121
120
116
118
80
96
118
121
125
110
106
78
41
80
102
77
24
32
202
248
252
246
253
253
254
255
255
255
255
255
255
255
255
255
255
255
255
255
255
255
255
255
255
255
255
255
255
255
255
255
255
255
255
255
255
255
255
255
255
255
255
255
255
255
255
255
255
255
255
255
255
255
255
255
255
255
255
255
255
255
255
255
255
255
255
255
255
255
255
255
255
255
255
255
255
255
255
255
255
255
255
255
255
255
255
255
255
255
255
255
255
255
255
255
255
255
255
255
255
255
255
255
255
255
255
255
255
255
255
255
255
255
255
255
255
255
255
255
255
255
255
255
255
255
255
255
255
255
255
255
255
255
255
255
255
255
255
255
255
255
255
255
255
255
255
255
255
255
255
255
255
255
255
255
255
255
255
255
255
255
255
255
255
255
255
255
255
255
255
255
255
255
255
255
255
255
255
255
255
255
255
255
255
255
255
255
255
255
255
255
255
255
255
255
255
255
255
255
255
255
255
255
255
255
255
255
255
255
255
255
255
255
255
255
255
255
255
255
255
255
255
255
255
255
255
255
255
255
255
255
255
255
255
255
255
255
255
255
255
255
255
255
255
255
255
255
255
255
255
255
255
255
255
255
255
255
255
255
255
255
255
255
255
255
255
255
255
255
255
255
255
255
255
255
255
255
255
255
255
255
255
255
255
255
255
255
255
255
255
255
255
255
255
255
255
255
255
255
255
255
255
255
255
255
255
255
255
255
255
255
255
255
255
255
255
255
255
255
255
255
255
255
255
255
255
255
255
255
255
255
255
255
255
255
255
255
255
255
255
255
255
255
255
255
255
255
255
255
255
255
255
255
255
255
255
255
255
255
255
255
255
255
255
255
255
255
255
255
255
255
255
255
255
255
255
255
255
255
255
255
255
255
255
255
255
255
255
255
255
255
255
255
255
255
255
255
255
255
255
255
255
255
255
254
254
253
253
253
246
254
2
27
84
78
21
28
44
68
65
61
71
41
64
99
106
117
119
116
122
84
99
123
117
111
73
70
71
33
93
118
94
33
12
183
246
252
247
253
253
254
255
255
255
255
255
255
255
255
255
255
255
255
255
255
255
255
255
255
255
255
255
255
255
255
255
255
255
255
255
255
255
255
255
255
255
255
255
255
255
255
255
255
255
255
255
255
255
255
255
255
255
255
255
255
255
255
255
255
255
255
255
255
255
255
255
255
255
255
255
255
255
255
255
255
255
255
255
255
255
255
255
255
255
255
255
255
255
255
255
255
255
255
255
255
255
255
255
255
255
255
255
255
255
255
255
255
255
255
255
255
255
255
255
255
255
255
255
255
255
255
255
255
255
255
255
255
255
255
255
255
255
255
255
255
255
255
255
255
255
255
255
255
255
255
255
255
255
255
255
255
255
255
255
255
255
255
255
255
255
255
255
255
255
255
255
255
255
255
255
255
255
255
255
255
255
255
255
255
255
255
255
255
255
255
255
255
255
255
255
255
255
255
255
255
255
255
255
255
255
255
255
255
255
255
255
255
255
255
255
255
255
255
255
255
255
255
255
255
255
255
255
255
255
255
255
255
255
255
255
255
255
255
255
255
255
255
255
255
255
255
255
255
255
255
255
255
255
255
255
255
255
255
255
255
255
255
255
255
255
255
255
255
255
255
255
255
255
255
255
255
255
255
255
255
255
255
255
255
255
255
255
255
255
255
255
255
255
255
255
255
255
255
255
255
255
255
255
255
255
255
255
255
255
255
255
255
255
255
255
255
255
255
255
255
255
255
255
255
255
255
255
255
255
255
255
255
255
255
255
255
255
255
255
255
255
255
255
255
255
255
255
255
255
255
255
255
255
255
255
255
255
255
255
255
255
255
255
255
255
255
255
255
255
255
255
255
255
255
255
255
255
255
255
255
255
255
255
255
255
255
255
255
255
255
255
255
255
255
255
255
255
255
255
255
255
255
255
255
254
254
253
253
253
254
225
0
22
43
54
48
52
29
60
107
82
79
70
23
68
70
75
81
81
93
71
56
91
71
72
98
117
99
40
115
102
101
40
3
137
245
248
254
250
253
254
255
255
255
255
255
255
255
255
255
255
255
255
255
255
255
255
255
255
255
255
255
255
255
255
255
255
255
255
255
255
255
255
255
255
255
255
255
255
255
255
255
255
255
255
255
255
255
255
255
255
255
255
255
255
255
255
255
255
255
255
255
255
255
255
255
255
255
255
255
255
255
255
255
255
255
255
255
255
255
255
255
255
255
255
255
255
255
255
255
255
255
255
255
255
255
255
255
255
255
255
255
255
255
255
255
255
255
255
255
255
255
255
255
255
255
255
255
255
255
255
255
255
255
255
255
255
255
255
255
255
255
255
255
255
255
255
255
255
255
255
255
255
255
255
255
255
255
255
255
255
255
255
255
255
255
255
255
255
255
255
255
255
255
255
255
255
255
255
255
255
255
255
255
255
255
255
255
255
255
255
255
255
255
255
255
255
255
255
255
255
255
255
255
255
255
255
255
255
255
255
255
255
255
255
255
255
255
255
255
255
255
255
255
255
255
255
255
255
255
255
255
255
255
255
255
255
255
255
255
255
255
255
255
255
255
255
255
255
255
255
255
255
255
255
255
255
255
255
255
255
255
255
255
255
255
255
255
255
255
255
255
255
255
255
255
255
255
255
255
255
255
255
255
255
255
255
255
255
255
255
255
255
255
255
255
255
255
255
255
255
255
255
255
255
255
255
255
255
255
255
255
255
255
255
255
255
255
255
255
255
255
255
255
255
255
255
255
255
255
255
255
255
255
255
255
255
255
255
255
255
255
255
255
255
255
255
255
255
255
255
255
255
255
255
255
255
255
255
255
255
255
255
255
255
255
255
255
255
255
255
255
255
255
255
255
255
255
255
255
255
255
255
255
255
255
255
255
255
255
255
255
255
255
255
255
255
255
255
255
255
255
255
255
255
255
255
255
255
254
254
253
253
253
254
187
4
43
32
51
69
54
34
54
98
81
79
76
42
88
89
88
89
84
81
64
28
61
98
104
110
123
116
75
79
119
105
71
6
81
222
254
254
255
253
254
255
255
255
255
255
255
255
255
255
255
255
255
255
255
255
255
255
255
255
255
255
255
255
255
255
255
255
255
255
255
255
255
255
255
255
255
255
255
255
255
255
255
255
255
255
255
255
255
255
255
255
255
255
255
255
255
255
255
255
255
255
255
255
255
255
255
255
255
255
255
255
255
255
255
255
255
255
255
255
255
255
255
255
255
255
255
255
255
255
255
255
255
255
255
255
255
255
255
255
255
255
255
255
255
255
255
255
255
255
255
255
255
255
255
255
255
255
255
255
255
255
255
255
255
255
255
255
255
255
255
255
255
255
255
255
255
255
255
255
255
255
255
255
255
255
255
255
255
255
255
255
255
255
255
255
255
255
255
255
255
255
255
255
255
255
255
255
255
255
255
255
255
255
255
255
255
255
255
255
255
255
255
255
255
255
255
255
255
255
255
255
255
255
255
255
255
255
255
255
255
255
255
255
255
255
255
255
255
255
255
255
255
255
255
255
255
255
255
255
255
255
255
255
255
255
255
255
255
255
255
255
255
255
255
255
255
255
255
255
255
255
255
255
255
255
255
255
255
255
255
255
255
255
255
255
255
255
255
255
255
255
255
255
255
255
255
255
255
255
255
255
255
255
255
255
255
255
255
255
255
255
255
255
255
255
255
255
255
255
255
255
255
255
255
255
255
255
255
255
255
255
255
255
255
255
255
255
255
255
255
255
255
255
255
255
255
255
255
255
255
255
255
255
255
255
255
255
255
255
255
255
255
255
255
255
255
255
255
255
255
255
255
255
255
255
255
255
255
255
255
255
255
255
255
255
255
255
255
255
255
255
255
255
255
255
255
255
255
255
255
255
255
255
255
255
255
255
255
255
255
255
255
255
255
255
255
255
255
255
255
255
255
255
255
255
255
255
255
254
254
253
253
253
254
156
1
47
39
47
64
55
31
38
83
81
81
80
57
96
114
113
119
121
113
121
77
108
118
127
117
122
127
112
45
122
108
101
22
21
174
253
247
254
253
254
255
255
255
255
255
255
255
255
255
255
255
255
255
255
255
255
255
255
255
255
255
255
255
255
255
255
255
255
255
255
255
255
255
255
255
255
255
255
255
255
255
255
255
255
255
255
255
255
255
255
255
255
255
255
255
255
255
255
255
255
255
255
255
255
255
255
255
255
255
255
255
255
255
255
255
255
255
255
255
255
255
255
255
255
255
255
255
255
255
255
255
255
255
255
255
255
255
255
255
255
255
255
255
255
255
255
255
255
255
255
255
255
255
255
255
255
255
255
255
255
255
255
255
255
255
255
255
255
255
255
255
255
255
255
255
255
255
255
255
255
255
255
255
255
255
255
255
255
255
255
255
255
255
255
255
255
255
255
255
255
255
255
255
255
255
255
255
255
255
255
255
255
255
255
255
255
255
255
255
255
255
255
255
255
255
255
255
255
255
255
255
255
255
255
255
255
255
255
255
255
255
255
255
255
255
255
255
255
255
255
255
255
255
255
255
255
255
255
255
255
255
255
255
255
255
255
255
255
255
255
255
255
255
255
255
255
255
255
255
255
255
255
255
255
255
255
255
255
255
255
255
255
255
255
255
255
255
255
255
255
255
255
255
255
255
255
255
255
255
255
255
255
255
255
255
255
255
255
255
255
255
255
255
255
255
255
255
255
255
255
255
255
255
255
255
255
255
255
255
255
255
255
255
255
255
255
255
255
255
255
255
255
255
255
255
255
255
255
255
255
255
255
255
255
255
255
255
255
255
255
255
255
255
255
255
255
255
255
255
255
255
255
255
255
255
255
255
255
255
255
255
255
255
255
255
255
255
255
255
255
255
255
255
255
255
255
255
255
255
255
255
255
255
255
255
255
255
255
255
255
255
255
255
255
255
255
255
255
255
255
255
255
255
255
255
255
255
255
254
254
253
253
253
248
147
2
42
75
55
41
53
27
26
72
85
86
82
62
88
121
117
122
125
110
132
77
100
124
129
118
122
124
125
53
98
114
106
49
4
103
231
254
247
253
254
255
255
255
255
255
255
255
255
255
255
255
255
255
255
255
255
255
255
255
255
255
255
255
255
255
255
255
255
255
255
255
255
255
255
255
255
255
255
255
255
255
255
255
255
255
255
255
255
255
255
255
255
255
255
255
255
255
255
255
255
255
255
255
255
255
255
255
255
255
255
255
255
255
255
255
255
255
255
255
255
255
255
255
255
255
255
255
255
255
255
255
255
255
255
255
255
255
255
255
255
255
255
255
255
255
255
255
255
255
255
255
255
255
255
255
255
255
255
255
255
255
255
255
255
255
255
255
255
255
255
255
255
255
255
255
255
255
255
255
255
255
255
255
255
255
255
255
255
255
255
255
255
255
255
255
255
255
255
255
255
255
255
255
255
255
255
255
255
255
255
255
255
255
255
255
255
255
255
255
255
255
255
255
255
255
255
255
255
255
255
255
255
255
255
255
255
255
255
255
255
255
255
255
255
255
255
255
255
255
255
255
255
255
255
255
255
255
255
255
255
255
255
255
255
255
255
255
255
255
255
255
255
255
255
255
255
255
255
255
255
255
255
255
255
255
255
255
255
255
255
255
255
255
255
255
255
255
255
255
255
255
255
255
255
255
255
255
255
255
255
255
255
255
255
255
255
255
255
255
255
255
255
255
255
255
255
255
255
255
255
255
255
255
255
255
255
255
255
255
255
255
255
255
255
255
255
255
255
255
255
255
255
255
255
255
255
255
255
255
255
255
255
255
255
255
255
255
255
255
255
255
255
255
255
255
255
255
255
255
255
255
255
255
255
255
255
255
255
255
255
255
255
255
255
255
255
255
255
255
255
255
255
255
255
255
255
255
255
255
255
255
255
255
255
255
255
255
255
255
255
255
255
255
255
255
255
255
255
255
255
255
255
255
255
255
255
255
255
254
254
253
253
253
253
120
4
59
105
69
43
44
36
33
68
85
89
83
65
82
114
111
111
117
98
125
70
78
126
120
126
127
118
121
94
65
123
99
78
26
32
174
254
246
253
254
255
255
255
255
255
255
255
255
255
255
255
255
255
255
255
255
255
255
255
255
255
255
255
255
255
255
255
255
255
255
255
255
255
255
255
255
255
255
255
255
255
255
255
255
255
255
255
255
255
255
255
255
255
255
255
255
255
255
255
255
255
255
255
255
255
255
255
255
255
255
255
255
255
255
255
255
255
255
255
255
255
255
255
255
255
255
255
255
255
255
255
255
255
255
255
255
255
255
255
255
255
255
255
255
255
255
255
255
255
255
255
255
255
255
255
255
255
255
255
255
255
255
255
255
255
255
255
255
255
255
255
255
255
255
255
255
255
255
255
255
255
255
255
255
255
255
255
255
255
255
255
255
255
255
255
255
255
255
255
255
255
255
255
255
255
255
255
255
255
255
255
255
255
255
255
255
255
255
255
255
255
255
255
255
255
255
255
255
255
255
255
255
255
255
255
255
255
255
255
255
255
255
255
255
255
255
255
255
255
255
255
255
255
255
255
255
255
255
255
255
255
255
255
255
255
255
255
255
255
255
255
255
255
255
255
255
255
255
255
255
255
255
255
255
255
255
255
255
255
255
255
255
255
255
255
255
255
255
255
255
255
255
255
255
255
255
255
255
255
255
255
255
255
255
255
255
255
255
255
255
255
255
255
255
255
255
255
255
255
255
255
255
255
255
255
255
255
255
255
255
255
255
255
255
255
255
255
255
255
255
255
255
255
255
255
255
255
255
255
255
255
255
255
255
255
255
255
255
255
255
255
255
255
255
255
255
255
255
255
255
255
255
255
255
255
255
255
255
255
255
255
255
255
255
255
255
255
255
255
255
255
255
255
255
255
255
255
255
255
255
255
255
255
255
255
255
255
255
255
255
255
255
255
255
255
255
255
255
255
255
255
255
255
255
255
255
255
255
254
254
253
253
253
254
66
8
78
99
75
62
29
44
43
59
68
83
80
63
78
115
115
110
121
117
140
107
92
123
115
130
128
113
111
124
49
125
99
93
51
3
99
240
255
253
254
255
255
255
255
255
255
255
255
255
255
255
255
255
255
255
255
255
255
255
255
255
255
255
255
255
255
255
255
255
255
255
255
255
255
255
255
255
255
255
255
255
255
255
255
255
255
255
255
255
255
255
255
255
255
255
255
255
255
255
255
255
255
255
255
255
255
255
255
255
255
255
255
255
255
255
255
255
255
255
255
255
255
255
255
255
255
255
255
255
255
255
255
255
255
255
255
255
255
255
255
255
255
255
255
255
255
255
255
255
255
255
255
255
255
255
255
255
255
255
255
255
255
255
255
255
255
255
255
255
255
255
255
255
255
255
255
255
255
255
255
255
255
255
255
255
255
255
255
255
255
255
255
255
255
255
255
255
255
255
255
255
255
255
255
255
255
255
255
255
255
255
255
255
255
255
255
255
255
255
255
255
255
255
255
255
255
255
255
255
255
255
255
255
255
255
255
255
255
255
255
255
255
255
255
255
255
255
255
255
255
255
255
255
255
255
255
255
255
255
255
255
255
255
255
255
255
255
255
255
255
255
255
255
255
255
255
255
255
255
255
255
255
255
255
255
255
255
255
255
255
255
255
255
255
255
255
255
255
255
255
255
255
255
255
255
255
255
255
255
255
255
255
255
255
255
255
255
255
255
255
255
255
255
255
255
255
255
255
255
255
255
255
255
255
255
255
255
255
255
255
255
255
255
255
255
255
255
255
255
255
255
255
255
255
255
255
255
255
255
255
255
255
255
255
255
255
255
255
255
255
255
255
255
255
255
255
255
255
255
255
255
255
255
255
255
255
255
255
255
255
255
255
255
255
255
255
255
255
255
255
255
255
255
255
255
255
255
255
255
255
255
255
255
255
255
255
255
255
255
255
255
255
255
255
255
255
255
255
255
255
255
255
255
255
255
255
255
255
254
254
253
253
253
252
42
5
67
93
72
63
28
39
50
51
57
83
83
61
74
113
117
101
109
113
121
109
71
117
118
128
122
114
116
124
67
100
110
91
65
15
31
166
254
253
254
255
255
255
255
255
255
255
255
255
255
255
255
255
255
255
255
255
255
255
255
255
255
255
255
255
255
255
255
255
255
255
255
255
255
255
255
255
255
255
255
255
255
255
255
255
255
255
255
255
255
255
255
255
255
255
255
255
255
255
255
255
255
255
255
255
255
255
255
255
255
255
255
255
255
255
255
255
255
255
255
255
255
255
255
255
255
255
255
255
255
255
255
255
255
255
255
255
255
255
255
255
255
255
255
255
255
255
255
255
255
255
255
255
255
255
255
255
255
255
255
255
255
255
255
255
255
255
255
255
255
255
255
255
255
255
255
255
255
255
255
255
255
255
255
255
255
255
255
255
255
255
255
255
255
255
255
255
255
255
255
255
255
255
255
255
255
255
255
255
255
255
255
255
255
255
255
255
255
255
255
255
255
255
255
255
255
255
255
255
255
255
255
255
255
255
255
255
255
255
255
255
255
255
255
255
255
255
255
255
255
255
255
255
255
255
255
255
255
255
255
255
255
255
255
255
255
255
255
255
255
255
255
255
255
255
255
255
255
255
255
255
255
255
255
255
255
255
255
255
255
255
255
255
255
255
255
255
255
255
255
255
255
255
255
255
255
255
255
255
255
255
255
255
255
255
255
255
255
255
255
255
255
255
255
255
255
255
255
255
255
255
255
255
255
255
255
255
255
255
255
255
255
255
255
255
255
255
255
255
255
255
255
255
255
255
255
255
255
255
255
255
255
255
255
255
255
255
255
255
255
255
255
255
255
255
255
255
255
255
255
255
255
255
255
255
255
255
255
255
255
255
255
255
255
255
255
255
255
255
255
255
255
255
255
255
255
255
255
255
255
255
255
255
255
255
255
255
255
255
255
255
255
255
255
255
255
255
255
255
255
255
255
255
255
255
255
255
255
254
254
253
253
253
243
58
6
46
104
72
47
42
32
58
51
58
95
93
64
74
110
117
97
108
121
123
128
76
116
127
127
121
122
129
116
97
69
120
85
70
44
1
95
250
253
254
255
255
255
255
255
255
255
255
255
255
255
255
255
255
255
255
255
255
255
255
255
255
255
255
255
255
255
255
255
255
255
255
255
255
255
255
255
255
255
255
255
255
255
255
255
255
255
255
255
255
255
255
255
255
255
255
255
255
255
255
255
255
255
255
255
255
255
255
255
255
255
255
255
255
255
255
255
255
255
255
255
255
255
255
255
255
255
255
255
255
255
255
255
255
255
255
255
255
255
255
255
255
255
255
255
255
255
255
255
255
255
255
255
255
255
255
255
255
255
255
255
255
255
255
255
255
255
255
255
255
255
255
255
255
255
255
255
255
255
255
255
255
255
255
255
255
255
255
255
255
255
255
255
255
255
255
255
255
255
255
255
255
255
255
255
255
255
255
255
255
255
255
255
255
255
255
255
255
255
255
255
255
255
255
255
255
255
255
255
255
255
255
255
255
255
255
255
255
255
255
255
255
255
255
255
255
255
255
255
255
255
255
255
255
255
255
255
255
255
255
255
255
255
255
255
255
255
255
255
255
255
255
255
255
255
255
255
255
255
255
255
255
255
255
255
255
255
255
255
255
255
255
255
255
255
255
255
255
255
255
255
255
255
255
255
255
255
255
255
255
255
255
255
255
255
255
255
255
255
255
255
255
255
255
255
255
255
255
255
255
255
255
255
255
255
255
255
255
255
255
255
255
255
255
255
255
255
255
255
255
255
255
255
255
255
255
255
255
255
255
255
255
255
255
255
255
255
255
255
255
255
255
255
255
255
255
255
255
255
255
255
255
255
255
255
255
255
255
255
255
255
255
255
255
255
255
255
255
255
255
255
255
255
255
255
255
255
255
255
255
255
255
255
255
255
255
255
255
255
255
255
255
255
255
255
255
255
255
255
255
255
255
255
255
255
255
255
255
254
254
253
253
253
253
32
29
72
65
83
58
70
40
56
46
49
84
92
74
67
107
105
119
126
118
122
116
90
93
123
117
126
131
121
123
113
73
78
58
74
72
18
8
194
254
245
254
254
254
254
255
247
255
255
255
255
255
255
255
255
255
255
255
255
255
255
255
255
255
255
255
255
255
255
255
255
255
255
255
255
255
255
255
255
255
255
255
255
255
255
255
255
255
255
255
255
255
255
255
255
255
255
255
255
255
255
255
255
255
255
255
255
255
255
255
255
255
255
255
255
255
255
255
255
255
255
255
255
255
255
255
255
255
255
255
255
255
255
255
255
255
255
255
255
255
255
255
255
255
255
255
255
255
255
255
255
255
255
255
255
255
255
255
255
255
255
255
255
255
255
255
255
255
255
255
255
255
255
255
255
255
255
255
255
255
255
255
255
255
255
255
255
255
255
255
255
255
255
255
255
255
255
255
255
255
255
255
255
255
255
255
255
255
255
255
255
255
255
255
255
255
255
255
255
255
255
255
255
255
255
255
255
255
255
255
255
255
255
255
255
255
255
255
255
255
255
255
255
255
255
255
255
255
255
255
255
255
255
255
255
255
255
255
255
255
255
255
255
255
255
255
255
255
255
255
255
255
255
255
255
255
255
255
255
255
255
255
255
255
255
255
255
255
255
255
255
255
255
255
255
255
255
255
255
255
255
255
255
255
255
255
255
255
255
255
255
255
255
255
255
255
255
255
255
255
255
255
255
255
255
255
255
255
255
255
255
255
255
255
255
255
255
255
255
255
255
255
255
255
255
255
255
255
255
255
255
255
255
255
255
255
255
255
255
255
255
255
255
255
255
255
255
255
255
255
255
255
255
255
255
255
255
255
255
255
255
255
255
255
255
255
255
255
255
255
255
255
255
255
255
255
255
255
255
255
255
255
255
255
255
255
255
255
255
255
255
255
255
255
255
255
255
255
255
255
255
255
255
255
255
255
255
255
255
255
255
255
255
255
255
255
255
255
255
254
254
253
253
253
246
26
37
86
75
72
62
63
19
43
41
41
74
86
68
59
105
104
115
120
116
125
126
109
85
116
117
120
118
104
102
84
44
47
76
88
83
52
1
109
233
253
254
254
252
247
255
255
255
255
255
255
255
255
255
255
255
255
255
255
255
255
255
255
255
255
255
255
255
255
255
255
255
255
255
255
255
255
255
255
255
255
255
255
255
255
255
255
255
255
255
255
255
255
255
255
255
255
255
255
255
255
255
255
255
255
255
255
255
255
255
255
255
255
255
255
255
255
255
255
255
255
255
255
255
255
255
255
255
255
255
255
255
255
255
255
255
255
255
255
255
255
255
255
255
255
255
255
255
255
255
255
255
255
255
255
255
255
255
255
255
255
255
255
255
255
255
255
255
255
255
255
255
255
255
255
255
255
255
255
255
255
255
255
255
255
255
255
255
255
255
255
255
255
255
255
255
255
255
255
255
255
255
255
255
255
255
255
255
255
255
255
255
255
255
255
255
255
255
255
255
255
255
255
255
255
255
255
255
255
255
255
255
255
255
255
255
255
255
255
255
255
255
255
255
255
255
255
255
255
255
255
255
255
255
255
255
255
255
255
255
255
255
255
255
255
255
255
255
255
255
255
255
255
255
255
255
255
255
255
255
255
255
255
255
255
255
255
255
255
255
255
255
255
255
255
255
255
255
255
255
255
255
255
255
255
255
255
255
255
255
255
255
255
255
255
255
255
255
255
255
255
255
255
255
255
255
255
255
255
255
255
255
255
255
255
255
255
255
255
255
255
255
255
255
255
255
255
255
255
255
255
255
255
255
255
255
255
255
255
255
255
255
255
255
255
255
255
255
255
255
255
255
255
255
255
255
255
255
255
255
255
255
255
255
255
255
255
255
255
255
255
255
255
255
255
255
255
255
255
255
255
255
255
255
255
255
255
255
255
255
255
255
255
255
255
255
255
255
255
255
255
255
255
255
255
255
255
255
255
255
255
255
255
255
255
255
255
255
255
254
254
253
253
253
220
15
47
107
91
60
68
58
39
63
54
39
60
81
76
71
104
105
112
110
104
112
118
108
80
103
99
84
68
59
63
53
70
44
90
93
86
88
15
40
194
254
253
251
255
243
254
254
255
255
255
255
255
255
255
255
255
255
255
255
255
255
255
255
255
255
255
255
255
255
255
255
255
255
255
255
255
255
255
255
255
255
255
255
255
255
255
255
255
255
255
255
255
255
255
255
255
255
255
255
255
255
255
255
255
255
255
255
255
255
255
255
255
255
255
255
255
255
255
255
255
255
255
255
255
255
255
255
255
255
255
255
255
255
255
255
255
255
255
255
255
255
255
255
255
255
255
255
255
255
255
255
255
255
255
255
255
255
255
255
255
255
255
255
255
255
255
255
255
255
255
255
255
255
255
255
255
255
255
255
255
255
255
255
255
255
255
255
255
255
255
255
255
255
255
255
255
255
255
255
255
255
255
255
255
255
255
255
255
255
255
255
255
255
255
255
255
255
255
255
255
255
255
255
255
255
255
255
255
255
255
255
255
255
255
255
255
255
255
255
255
255
255
255
255
255
255
255
255
255
255
255
255
255
255
255
255
255
255
255
255
255
255
255
255
255
255
255
255
255
255
255
255
255
255
255
255
255
255
255
255
255
255
255
255
255
255
255
255
255
255
255
255
255
255
255
255
255
255
255
255
255
255
255
255
255
255
255
255
255
255
255
255
255
255
255
255
255
255
255
255
255
255
255
255
255
255
255
255
255
255
255
255
255
255
255
255
255
255
255
255
255
255
255
255
255
255
255
255
255
255
255
255
255
255
255
255
255
255
255
255
255
255
255
255
255
255
255
255
255
255
255
255
255
255
255
255
255
255
255
255
255
255
255
255
255
255
255
255
255
255
255
255
255
255
255
255
255
255
255
255
255
255
255
255
255
255
255
255
255
255
255
255
255
255
255
255
255
255
255
255
255
255
255
255
255
255
255
255
255
255
255
255
255
255
255
255
255
255
255
254
254
253
253
253
204
9
51
121
106
54
75
56
53
78
67
36
41
61
59
49
70
78
85
79
73
78
82
79
26
53
74
80
85
106
131
132
114
74
86
96
88
99
56
12
139
245
251
246
254
253
254
249
255
255
255
255
255
255
255
255
255
255
255
255
255
255
255
255
255
255
255
255
255
255
255
255
255
255
255
255
255
255
255
255
255
255
255
255
255
255
255
255
255
255
255
255
255
255
255
255
255
255
255
255
255
255
255
255
255
255
255
255
255
255
255
255
255
255
255
255
255
255
255
255
255
255
255
255
255
255
255
255
255
255
255
255
255
255
255
255
255
255
255
255
255
255
255
255
255
255
255
255
255
255
255
255
255
255
255
255
255
255
255
255
255
255
255
255
255
255
255
255
255
255
255
255
255
255
255
255
255
255
255
255
255
255
255
255
255
255
255
255
255
255
255
255
255
255
255
255
255
255
255
255
255
255
255
255
255
255
255
255
255
255
255
255
255
255
255
255
255
255
255
255
255
255
255
255
255
255
255
255
255
255
255
255
255
255
255
255
255
255
255
255
255
255
255
255
255
255
255
255
255
255
255
255
255
255
255
255
255
255
255
255
255
255
255
255
255
255
255
255
255
255
255
255
255
255
255
255
255
255
255
255
255
255
255
255
255
255
255
255
255
255
255
255
255
255
255
255
255
255
255
255
255
255
255
255
255
255
255
255
255
255
255
255
255
255
255
255
255
255
255
255
255
255
255
255
255
255
255
255
255
255
255
255
255
255
255
255
255
255
255
255
255
255
255
255
255
255
255
255
255
255
255
255
255
255
255
255
255
255
255
255
255
255
255
255
255
255
255
255
255
255
255
255
255
255
255
255
255
255
255
255
255
255
255
255
255
255
255
255
255
255
255
255
255
255
255
255
255
255
255
255
255
255
255
255
255
255
255
255
255
255
255
255
255
255
255
255
255
255
255
255
255
255
255
255
255
255
255
255
255
255
255
255
255
255
255
255
255
255
255
255
254
254
253
253
253
212
13
47
121
115
55
68
52
44
76
79
52
47
60
53
31
46
66
79
79
81
85
87
89
63
83
119
127
120
128
133
126
129
96
70
100
99
89
89
2
73
206
254
252
254
255
254
245
255
255
255
255
255
255
255
255
255
255
255
255
255
255
255
255
255
255
255
255
255
255
255
255
255
255
255
255
255
255
255
255
255
255
255
255
255
255
255
255
255
255
255
255
255
255
255
255
255
255
255
255
255
255
255
255
255
255
255
255
255
255
255
255
255
255
255
255
255
255
255
255
255
255
255
255
255
255
255
255
255
255
255
255
255
255
255
255
255
255
255
255
255
255
255
255
255
255
255
255
255
255
255
255
255
255
255
255
255
255
255
255
255
255
255
255
255
255
255
255
255
255
255
255
255
255
255
255
255
255
255
255
255
255
255
255
255
255
255
255
255
255
255
255
255
255
255
255
255
255
255
255
255
255
255
255
255
255
255
255
255
255
255
255
255
255
255
255
255
255
255
255
255
255
255
255
255
255
255
255
255
255
255
255
255
255
255
255
255
255
255
255
255
255
255
255
255
255
255
255
255
255
255
255
255
255
255
255
255
255
255
255
255
255
255
255
255
255
255
255
255
255
255
255
255
255
255
255
255
255
255
255
255
255
255
255
255
255
255
255
255
255
255
255
255
255
255
255
255
255
255
255
255
255
255
255
255
255
255
255
255
255
255
255
255
255
255
255
255
255
255
255
255
255
255
255
255
255
255
255
255
255
255
255
255
255
255
255
255
255
255
255
255
255
255
255
255
255
255
255
255
255
255
255
255
255
255
255
255
255
255
255
255
255
255
255
255
255
255
255
255
255
255
255
255
255
255
255
255
255
255
255
255
255
255
255
255
255
255
255
255
255
255
255
255
255
255
255
255
255
255
255
255
255
255
255
255
255
255
255
255
255
255
255
255
255
255
255
255
255
255
255
255
255
255
255
255
255
255
255
255
255
255
255
255
255
255
255
255
255
255
255
254
254
253
253
253
236
23
37
110
117
65
49
44
48
76
83
62
56
74
77
60
63
90
105
109
117
119
116
120
90
91
123
133
121
126
124
118
132
113
68
87
98
79
103
37
24
142
247
254
248
249
253
253
255
255
255
255
255
255
255
255
255
255
255
255
255
255
255
255
255
255
255
255
255
255
255
255
255
255
255
255
255
255
255
255
255
255
255
255
255
255
255
255
255
255
255
255
255
255
255
255
255
255
255
255
255
255
255
255
255
255
255
255
255
255
255
255
255
255
255
255
255
255
255
255
255
255
255
255
255
255
255
255
255
255
255
255
255
255
255
255
255
255
255
255
255
255
255
255
255
255
255
255
255
255
255
255
255
255
255
255
255
255
255
255
255
255
255
255
255
255
255
255
255
255
255
255
255
255
255
255
255
255
255
255
255
255
255
255
255
255
255
255
255
255
255
255
255
255
255
255
255
255
255
255
255
255
255
255
255
255
255
255
255
255
255
255
255
255
255
255
255
255
255
255
255
255
255
255
255
255
255
255
255
255
255
255
255
255
255
255
255
255
255
255
255
255
255
255
255
255
255
255
255
255
255
255
255
255
255
255
255
255
255
255
255
255
255
255
255
255
255
255
255
255
255
255
255
255
255
255
255
255
255
255
255
255
255
255
255
255
255
255
255
255
255
255
255
255
255
255
255
255
255
255
255
255
255
255
255
255
255
255
255
255
255
255
255
255
255
255
255
255
255
255
255
255
255
255
255
255
255
255
255
255
255
255
255
255
255
255
255
255
255
255
255
255
255
255
255
255
255
255
255
255
255
255
255
255
255
255
255
255
255
255
255
255
255
255
255
255
255
255
255
255
255
255
255
255
255
255
255
255
255
255
255
255
255
255
255
255
255
255
255
255
255
255
255
255
255
255
255
255
255
255
255
255
255
255
255
255
255
255
255
255
255
255
255
255
255
255
255
255
255
255
255
255
255
255
255
255
255
255
255
255
255
255
255
255
255
255
255
255
255
255
254
254
253
253
253
252
26
19
93
119
85
32
40
56
73
76
53
45
72
89
81
71
99
110
112
122
122
117
121
117
93
118
127
115
123
124
126
133
123
97
67
88
88
93
85
22
67
205
255
246
254
250
254
255
255
255
255
255
255
255
255
255
255
255
255
255
255
255
255
255
255
255
255
255
255
255
255
255
255
255
255
255
255
255
255
255
255
255
255
255
255
255
255
255
255
255
255
255
255
255
255
255
255
255
255
255
255
255
255
255
255
255
255
255
255
255
255
255
255
255
255
255
255
255
255
255
255
255
255
255
255
255
255
255
255
255
255
255
255
255
255
255
255
255
255
255
255
255
255
255
255
255
255
255
255
255
255
255
255
255
255
255
255
255
255
255
255
255
255
255
255
255
255
255
255
255
255
255
255
255
255
255
255
255
255
255
255
255
255
255
255
255
255
255
255
255
255
255
255
255
255
255
255
255
255
255
255
255
255
255
255
255
255
255
255
255
255
255
255
255
255
255
255
255
255
255
255
255
255
255
255
255
255
255
255
255
255
255
255
255
255
255
255
255
255
255
255
255
255
255
255
255
255
255
255
255
255
255
255
255
255
255
255
255
255
255
255
255
255
255
255
255
255
255
255
255
255
255
255
255
255
255
255
255
255
255
255
255
255
255
255
255
255
255
255
255
255
255
255
255
255
255
255
255
255
255
255
255
255
255
255
255
255
255
255
255
255
255
255
255
255
255
255
255
255
255
255
255
255
255
255
255
255
255
255
255
255
255
255
255
255
255
255
255
255
255
255
255
255
255
255
255
255
255
255
255
255
255
255
255
255
255
255
255
255
255
255
255
255
255
255
255
255
255
255
255
255
255
255
255
255
255
255
255
255
255
255
255
255
255
255
255
255
255
255
255
255
255
255
255
255
255
255
255
255
255
255
255
255
255
255
255
255
255
255
255
255
255
255
255
255
255
255
255
255
255
255
255
255
255
255
255
255
255
255
255
255
255
255
255
255
255
255
255
255
254
254
253
253
253
253
22
4
81
120
101
24
40
66
78
84
66
55
75
90
82
67
95
103
104
118
120
115
123
111
75
107
127
122
128
124
128
123
121
131
61
87
101
68
103
41
17
159
251
251
254
248
249
255
255
255
255
255
255
255
255
255
255
255
255
255
255
255
255
255
255
255
255
255
255
255
255
255
255
255
255
255
255
255
255
255
255
255
255
255
255
255
255
255
255
255
255
255
255
255
255
255
255
255
255
255
255
255
255
255
255
255
255
255
255
255
255
255
255
255
255
255
255
255
255
255
255
255
255
255
255
255
255
255
255
255
255
255
255
255
255
255
255
255
255
255
255
255
255
255
255
255
255
255
255
255
255
255
255
255
255
255
255
255
255
255
255
255
255
255
255
255
255
255
255
255
255
255
255
255
255
255
255
255
255
255
255
255
255
255
255
255
255
255
255
255
255
255
255
255
255
255
255
255
255
255
255
255
255
255
255
255
255
255
255
255
255
255
255
255
255
255
255
255
255
255
255
255
255
255
255
255
255
255
255
255
255
255
255
255
255
255
255
255
255
255
255
255
255
255
255
255
255
255
255
255
255
255
255
255
255
255
255
255
255
255
255
255
255
255
255
255
255
255
255
255
255
255
255
255
255
255
255
255
255
255
255
255
255
255
255
255
255
255
255
255
255
255
255
255
255
255
255
255
255
255
255
255
255
255
255
255
255
255
255
255
255
255
255
255
255
255
255
255
255
255
255
255
255
255
255
255
255
255
255
255
255
255
255
255
255
255
255
255
255
255
255
255
255
255
255
255
255
255
255
255
255
255
255
255
255
255
255
255
255
255
255
255
255
255
255
255
255
255
255
255
255
255
255
255
255
255
255
255
255
255
255
255
255
255
255
255
255
255
255
255
255
255
255
255
255
255
255
255
255
255
255
255
255
255
255
255
255
255
255
255
255
255
255
255
255
255
255
255
255
255
255
255
255
255
255
255
255
255
255
255
255
255
255
255
255
255
255
255
255
254
254
253
253
253
254
74
5
53
104
117
32
35
74
76
80
67
51
62
87
98
72
88
120
101
119
116
107
120
119
103
94
133
139
116
124
119
129
118
128
86
71
94
82
96
75
6
60
230
254
246
247
253
254
254
254
254
254
254
254
254
255
255
255
255
255
255
255
255
255
255
255
255
255
255
255
255
255
255
255
255
255
255
255
255
255
255
255
255
255
255
255
255
255
255
255
255
255
255
255
255
255
255
255
255
255
255
255
255
255
255
255
255
255
255
255
255
255
255
255
255
255
255
255
255
255
255
255
255
255
255
255
255
255
255
255
255
255
255
255
255
255
255
255
255
255
255
255
255
255
255
255
255
255
255
255
255
255
255
255
255
255
255
255
255
255
255
255
255
255
255
255
255
255
255
255
255
255
255
255
255
255
255
255
255
255
255
255
255
255
255
255
255
255
255
255
255
255
255
255
255
255
255
255
255
255
255
255
255
255
255
255
255
255
255
255
255
255
255
255
255
255
255
255
255
255
255
255
255
255
255
255
255
255
255
255
255
255
255
255
255
255
255
255
255
255
255
255
255
255
255
255
255
255
255
255
255
255
255
255
255
255
255
255
255
255
255
255
255
255
255
255
255
255
255
255
255
255
255
255
255
255
255
255
255
255
255
255
255
255
255
255
255
255
255
255
255
255
255
255
255
255
255
255
255
255
255
255
255
255
255
255
255
255
255
255
255
255
255
255
255
255
255
255
255
255
255
255
255
255
255
255
255
255
255
255
255
255
255
255
255
255
255
255
255
255
255
255
255
255
255
255
255
255
255
255
255
255
255
255
255
255
255
255
255
255
255
255
255
255
255
255
255
255
255
255
255
255
255
255
255
255
255
255
255
255
255
255
255
255
255
255
255
255
255
255
255
255
255
255
255
255
255
255
255
255
255
255
255
255
255
255
255
255
255
255
255
255
255
255
255
255
255
255
255
255
255
255
255
255
255
255
255
255
255
255
255
255
255
255
255
255
255
255
255
254
254
253
253
253
254
135
3
38
89
130
56
25
65
78
87
72
52
65
90
100
74
84
117
104
115
110
109
123
125
103
75
125
132
123
118
129
122
117
120
114
79
81
101
79
82
23
18
144
252
253
241
253
254
254
254
254
254
254
254
254
255
255
255
255
255
255
255
255
255
255
255
255
255
255
255
255
255
255
255
255
255
255
255
255
255
255
255
255
255
255
255
255
255
255
255
255
255
255
255
255
255
255
255
255
255
255
255
255
255
255
255
255
255
255
255
255
255
255
255
255
255
255
255
255
255
255
255
255
255
255
255
255
255
255
255
255
255
255
255
255
255
255
255
255
255
255
255
255
255
255
255
255
255
255
255
255
255
255
255
255
255
255
255
255
255
255
255
255
255
255
255
255
255
255
255
255
255
255
255
255
255
255
255
255
255
255
255
255
255
255
255
255
255
255
255
255
255
255
255
255
255
255
255
255
255
255
255
255
255
255
255
255
255
255
255
255
255
255
255
255
255
255
255
255
255
255
255
255
255
255
255
255
255
255
255
255
255
255
255
255
255
255
255
255
255
255
255
255
255
255
255
255
255
255
255
255
255
255
255
255
255
255
255
255
255
255
255
255
255
255
255
255
255
255
255
255
255
255
255
255
255
255
255
255
255
255
255
255
255
255
255
255
255
255
255
255
255
255
255
255
255
255
255
255
255
255
255
255
255
255
255
255
255
255
255
255
255
255
255
255
255
255
255
255
255
255
255
255
255
255
255
255
255
255
255
255
255
255
255
255
255
255
255
255
255
255
255
255
255
255
255
255
255
255
255
255
255
255
255
255
255
255
255
255
255
255
255
255
255
255
255
255
255
255
255
255
255
255
255
255
255
255
255
255
255
255
255
255
255
255
255
255
255
255
255
255
255
255
255
255
255
255
255
255
255
255
255
255
255
255
255
255
255
255
255
255
255
255
255
255
255
255
255
255
255
255
255
255
255
255
255
255
255
255
255
255
255
255
255
255
255
255
255
255
254
254
253
253
253
254
206
15
21
57
104
60
23
48
69
85
72
50
59
87
99
80
76
108
110
112
106
113
125
129
108
66
114
127
131
111
133
130
125
116
135
93
76
126
85
60
46
11
62
215
255
243
255
254
254
254
254
254
254
254
254
255
255
255
255
255
255
255
255
255
255
255
255
255
255
255
255
255
255
255
255
255
255
255
255
255
255
255
255
255
255
255
255
255
255
255
255
255
255
255
255
255
255
255
255
255
255
255
255
255
255
255
255
255
255
255
255
255
255
255
255
255
255
255
255
255
255
255
255
255
255
255
255
255
255
255
255
255
255
255
255
255
255
255
255
255
255
255
255
255
255
255
255
255
255
255
255
255
255
255
255
255
255
255
255
255
255
255
255
255
255
255
255
255
255
255
255
255
255
255
255
255
255
255
255
255
255
255
255
255
255
255
255
255
255
255
255
255
255
255
255
255
255
255
255
255
255
255
255
255
255
255
255
255
255
255
255
255
255
255
255
255
255
255
255
255
255
255
255
255
255
255
255
255
255
255
255
255
255
255
255
255
255
255
255
255
255
255
255
255
255
255
255
255
255
255
255
255
255
255
255
255
255
255
255
255
255
255
255
255
255
255
255
255
255
255
255
255
255
255
255
255
255
255
255
255
255
255
255
255
255
255
255
255
255
255
255
255
255
255
255
255
255
255
255
255
255
255
255
255
255
255
255
255
255
255
255
255
255
255
255
255
255
255
255
255
255
255
255
255
255
255
255
255
255
255
255
255
255
255
255
255
255
255
255
255
255
255
255
255
255
255
255
255
255
255
255
255
255
255
255
255
255
255
255
255
255
255
255
255
255
255
255
255
255
255
255
255
255
255
255
255
255
255
255
255
255
255
255
255
255
255
255
255
255
255
255
255
255
255
255
255
255
255
255
255
255
255
255
255
255
255
255
255
255
255
255
255
255
255
255
255
255
255
255
255
255
255
255
255
255
255
255
255
255
255
255
255
255
255
255
255
255
255
255
254
254
253
253
253
254
238
54
11
29
62
59
58
44
55
73
71
53
57
81
100
88
73
93
112
110
108
118
123
126
116
80
100
128
134
114
128
123
126
116
127
105
80
95
83
62
67
41
24
141
227
254
250
254
254
254
254
254
254
254
254
255
255
255
255
255
255
255
255
255
255
255
255
255
255
255
255
255
255
255
255
255
255
255
255
255
255
255
255
255
255
255
255
255
255
255
255
255
255
255
255
255
255
255
255
255
255
255
255
255
255
255
255
255
255
255
255
255
255
255
255
255
255
255
255
255
255
255
255
255
255
255
255
255
255
255
255
255
255
255
255
255
255
255
255
255
255
255
255
255
255
255
255
255
255
255
255
255
255
255
255
255
255
255
255
255
255
255
255
255
255
255
255
255
255
255
255
255
255
255
255
255
255
255
255
255
255
255
255
255
255
255
255
255
255
255
255
255
255
255
255
255
255
255
255
255
255
255
255
255
255
255
255
255
255
255
255
255
255
255
255
255
255
255
255
255
255
255
255
255
255
255
255
255
255
255
255
255
255
255
255
255
255
255
255
255
255
255
255
255
255
255
255
255
255
255
255
255
255
255
255
255
255
255
255
255
255
255
255
255
255
255
255
255
255
255
255
255
255
255
255
255
255
255
255
255
255
255
255
255
255
255
255
255
255
255
255
255
255
255
255
255
255
255
255
255
255
255
255
255
255
255
255
255
255
255
255
255
255
255
255
255
255
255
255
255
255
255
255
255
255
255
255
255
255
255
255
255
255
255
255
255
255
255
255
255
255
255
255
255
255
255
255
255
255
255
255
255
255
255
255
255
255
255
255
255
255
255
255
255
255
255
255
255
255
255
255
255
255
255
255
255
255
255
255
255
255
255
255
255
255
255
255
255
255
255
255
255
255
255
255
255
255
255
255
255
255
255
255
255
255
255
255
255
255
255
255
255
255
255
255
255
255
255
255
255
255
255
255
255
255
255
255
255
255
255
255
255
255
255
255
255
255
255
255
254
254
253
253
253
254
241
117
9
20
59
84
104
58
48
59
72
63
60
80
102
97
75
78
109
111
114
122
119
121
124
107
81
121
131
129
128
123
135
134
114
124
95
42
75
104
90
73
19
56
177
255
238
254
254
254
254
254
254
254
254
255
255
255
255
255
255
255
255
255
255
255
255
255
255
255
255
255
255
255
255
255
255
255
255
255
255
255
255
255
255
255
255
255
255
255
255
255
255
255
255
255
255
255
255
255
255
255
255
255
255
255
255
255
255
255
255
255
255
255
255
255
255
255
255
255
255
255
255
255
255
255
255
255
255
255
255
255
255
255
255
255
255
255
255
255
255
255
255
255
255
255
255
255
255
255
255
255
255
255
255
255
255
255
255
255
255
255
255
255
255
255
255
255
255
255
255
255
255
255
255
255
255
255
255
255
255
255
255
255
255
255
255
255
255
255
255
255
255
255
255
255
255
255
255
255
255
255
255
255
255
255
255
255
255
255
255
255
255
255
255
255
255
255
255
255
255
255
255
255
255
255
255
255
255
255
255
255
255
255
255
255
255
255
255
255
255
255
255
255
255
255
255
255
255
255
255
255
255
255
255
255
255
255
255
255
255
255
255
255
255
255
255
255
255
255
255
255
255
255
255
255
255
255
255
255
255
255
255
255
255
255
255
255
255
255
255
255
255
255
255
255
255
255
255
255
255
255
255
255
255
255
255
255
255
255
255
255
255
255
255
255
255
255
255
255
255
255
255
255
255
255
255
255
255
255
255
255
255
255
255
255
255
255
255
255
255
255
255
255
255
255
255
255
255
255
255
255
255
255
255
255
255
255
255
255
255
255
255
255
255
255
255
255
255
255
255
255
255
255
255
255
255
255
255
255
255
255
255
255
255
255
255
255
255
255
255
255
255
255
255
255
255
255
255
255
255
255
255
255
255
255
255
255
255
255
255
255
255
255
255
255
255
255
255
255
255
255
255
255
255
255
255
255
255
255
255
255
255
255
255
255
255
255
255
254
254
253
253
253
254
248
184
34
16
68
99
102
76
52
50
62
61
61
79
96
102
84
68
103
114
120
123
118
120
125
127
71
107
124
137
128
128
131
125
84
107
92
26
71
125
105
102
46
6
102
245
255
254
254
254
254
254
254
254
254
255
255
255
255
255
255
255
255
255
255
255
255
255
255
255
255
255
255
255
255
255
255
255
255
255
255
255
255
255
255
255
255
255
255
255
255
255
255
255
255
255
255
255
255
255
255
255
255
255
255
255
255
255
255
255
255
255
255
255
255
255
255
255
255
255
255
255
255
255
255
255
255
255
255
255
255
255
255
255
255
255
255
255
255
255
255
255
255
255
255
255
255
255
255
255
255
255
255
255
255
255
255
255
255
255
255
255
255
255
255
255
255
255
255
255
255
255
255
255
255
255
255
255
255
255
255
255
255
255
255
255
255
255
255
255
255
255
255
255
255
255
255
255
255
255
255
255
255
255
255
255
255
255
255
255
255
255
255
255
255
255
255
255
255
255
255
255
255
255
255
255
255
255
255
255
255
255
255
255
255
255
255
255
255
255
255
255
255
255
255
255
255
255
255
255
255
255
255
255
255
255
255
255
255
255
255
255
255
255
255
255
255
255
255
255
255
255
255
255
255
255
255
255
255
255
255
255
255
255
255
255
255
255
255
255
255
255
255
255
255
255
255
255
255
255
255
255
255
255
255
255
255
255
255
255
255
255
255
255
255
255
255
255
255
255
255
255
255
255
255
255
255
255
255
255
255
255
255
255
255
255
255
255
255
255
255
255
255
255
255
255
255
255
255
255
255
255
255
255
255
255
255
255
255
255
255
255
255
255
255
255
255
255
255
255
255
255
255
255
255
255
255
255
255
255
255
255
255
255
255
255
255
255
255
255
255
255
255
255
255
255
255
255
255
255
255
255
255
255
255
255
255
255
255
255
255
255
255
255
255
255
255
255
255
255
255
255
255
255
255
255
255
255
255
255
255
255
255
255
255
255
255
255
255
254
254
253
253
253
253
254
232
105
20
48
86
84
92
67
54
50
52
63
80
85
100
95
66
97
114
124
122
120
119
123
133
83
96
120
125
113
104
100
88
75
84
81
61
70
114
117
113
85
22
34
140
248
254
254
254
254
254
254
254
254
255
255
255
255
255
255
255
255
255
255
255
255
255
255
255
255
255
255
255
255
255
255
255
255
255
255
255
255
255
255
255
255
255
255
255
255
255
255
255
255
255
255
255
255
255
255
255
255
255
255
255
255
255
255
255
255
255
255
255
255
255
255
255
255
255
255
255
255
255
255
255
255
255
255
255
255
255
255
255
255
255
255
255
255
255
255
255
255
255
255
255
255
255
255
255
255
255
255
255
255
255
255
255
255
255
255
255
255
255
255
255
255
255
255
255
255
255
255
255
255
255
255
255
255
255
255
255
255
255
255
255
255
255
255
255
255
255
255
255
255
255
255
255
255
255
255
255
255
255
255
255
255
255
255
255
255
255
255
255
255
255
255
255
255
255
255
255
255
255
255
255
255
255
255
255
255
255
255
255
255
255
255
255
255
255
255
255
255
255
255
255
255
255
255
255
255
255
255
255
255
255
255
255
255
255
255
255
255
255
255
255
255
255
255
255
255
255
255
255
255
255
255
255
255
255
255
255
255
255
255
255
255
255
255
255
255
255
255
255
255
255
255
255
255
255
255
255
255
255
255
255
255
255
255
255
255
255
255
255
255
255
255
255
255
255
255
255
255
255
255
255
255
255
255
255
255
255
255
255
255
255
255
255
255
255
255
255
255
255
255
255
255
255
255
255
255
255
255
255
255
255
255
255
255
255
255
255
255
255
255
255
255
255
255
255
255
255
255
255
255
255
255
255
255
255
255
255
255
255
255
255
255
255
255
255
255
255
255
255
255
255
255
255
255
255
255
255
255
255
255
255
255
255
255
255
255
255
255
255
255
255
255
255
255
255
255
255
255
255
255
255
255
255
255
255
255
255
255
255
255
255
255
255
255
254
254
253
253
253
244
254
253
179
33
22
75
94
106
89
67
48
46
70
87
81
98
103
66
94
114
123
121
123
118
121
134
104
94
119
107
90
84
85
84
122
115
110
134
83
117
128
108
110
71
7
28
177
254
254
254
254
254
254
254
254
255
255
255
255
255
255
255
255
255
255
255
255
255
255
255
255
255
255
255
255
255
255
255
255
255
255
255
255
255
255
255
255
255
255
255
255
255
255
255
255
255
255
255
255
255
255
255
255
255
255
255
255
255
255
255
255
255
255
255
255
255
255
255
255
255
255
255
255
255
255
255
255
255
255
255
255
255
255
255
255
255
255
255
255
255
255
255
255
255
255
255
255
255
255
255
255
255
255
255
255
255
255
255
255
255
255
255
255
255
255
255
255
255
255
255
255
255
255
255
255
255
255
255
255
255
255
255
255
255
255
255
255
255
255
255
255
255
255
255
255
255
255
255
255
255
255
255
255
255
255
255
255
255
255
255
255
255
255
255
255
255
255
255
255
255
255
255
255
255
255
255
255
255
255
255
255
255
255
255
255
255
255
255
255
255
255
255
255
255
255
255
255
255
255
255
255
255
255
255
255
255
255
255
255
255
255
255
255
255
255
255
255
255
255
255
255
255
255
255
255
255
255
255
255
255
255
255
255
255
255
255
255
255
255
255
255
255
255
255
255
255
255
255
255
255
255
255
255
255
255
255
255
255
255
255
255
255
255
255
255
255
255
255
255
255
255
255
255
255
255
255
255
255
255
255
255
255
255
255
255
255
255
255
255
255
255
255
255
255
255
255
255
255
255
255
255
255
255
255
255
255
255
255
255
255
255
255
255
255
255
255
255
255
255
255
255
255
255
255
255
255
255
255
255
255
255
255
255
255
255
255
255
255
255
255
255
255
255
255
255
255
255
255
255
255
255
255
255
255
255
255
255
255
255
255
255
255
255
255
255
255
255
255
255
255
255
255
255
255
255
255
255
255
255
255
255
255
255
255
255
255
255
255
255
255
255
255
255
255
248
254
249
241
117
5
57
78
120
85
65
74
37
48
66
60
80
89
55
78
79
111
87
98
90
100
106
87
58
77
72
110
121
129
128
121
121
127
120
106
89
125
118
114
113
49
15
78
228
245
254
250
244
254
254
245
255
255
255
255
255
255
255
255
255
255
255
255
255
255
255
255
255
255
255
255
255
255
255
255
255
255
255
255
255
255
255
255
255
255
255
255
255
255
255
255
255
255
255
255
255
255
255
255
255
255
255
255
255
255
255
255
255
255
255
255
255
255
255
255
255
255
255
255
255
255
255
255
255
255
255
255
255
255
255
255
255
255
255
255
255
255
255
255
255
255
255
255
255
255
255
255
255
255
255
255
255
255
255
255
255
255
255
255
255
255
255
255
255
255
255
255
255
255
255
255
255
255
255
255
255
255
255
255
255
255
255
255
255
255
255
255
255
255
255
255
255
255
255
255
255
255
255
255
255
255
255
255
255
255
255
255
255
255
255
255
255
255
255
255
255
255
255
255
255
255
255
255
255
255
255
255
255
255
255
255
255
255
255
255
255
255
255
255
255
255
255
255
255
255
255
255
255
255
255
255
255
255
255
255
255
255
255
255
255
255
255
255
255
255
255
255
255
255
255
255
255
255
255
255
255
255
255
255
255
255
255
255
255
255
255
255
255
255
255
255
255
255
255
255
255
255
255
255
255
255
255
255
255
255
255
255
255
255
255
255
255
255
255
255
255
255
255
255
255
255
255
255
255
255
255
255
255
255
255
255
255
255
255
255
255
255
255
255
255
255
255
255
255
255
255
255
255
255
255
255
255
255
255
255
255
255
255
255
255
255
255
255
255
255
255
255
255
255
255
255
255
255
255
255
255
255
255
255
255
255
255
255
255
255
255
255
255
255
255
255
255
255
255
255
255
255
255
255
255
255
255
255
255
255
255
255
255
255
255
255
255
255
255
255
255
255
255
255
255
255
255
255
255
255
255
255
255
255
255
255
255
255
255
255
255
255
255
255
255
254
252
254
254
173
47
11
48
113
115
75
54
40
63
60
49
66
69
51
48
69
87
85
88
86
88
98
91
70
66
104
124
123
131
132
128
125
126
122
116
83
110
124
115
122
94
27
9
143
230
254
242
255
250
238
253
254
254
254
254
254
254
254
254
255
255
255
255
255
255
255
255
255
255
255
255
255
255
255
255
255
255
255
255
255
255
255
255
255
255
255
255
255
255
255
255
255
255
255
255
255
255
255
255
255
255
255
255
255
255
255
255
255
255
255
255
255
255
255
255
255
255
255
255
255
255
255
255
255
255
255
255
255
255
255
255
255
255
255
255
255
255
255
255
255
255
255
255
255
255
255
255
255
255
255
255
255
255
255
255
255
255
255
255
255
255
255
255
255
255
255
255
255
255
255
255
255
255
255
255
255
255
255
255
255
255
255
255
255
255
255
255
255
255
255
255
255
255
255
255
255
255
255
255
255
255
255
255
255
255
255
255
255
255
255
255
255
255
255
255
255
255
255
255
255
255
255
255
255
255
255
255
255
255
255
255
255
255
255
255
255
255
255
255
255
255
255
255
255
255
255
255
255
255
255
255
255
255
255
255
255
255
255
255
255
255
255
255
255
255
255
255
255
255
255
255
255
255
255
255
255
255
255
255
255
255
255
255
255
255
255
255
255
255
255
255
255
255
255
255
255
255
255
255
255
255
255
255
255
255
255
255
255
255
255
255
255
255
255
255
255
255
255
255
255
255
255
255
255
255
255
255
255
255
255
255
255
255
255
255
255
255
255
255
255
255
255
255
255
255
255
255
255
255
255
255
255
255
255
255
255
255
255
255
255
255
255
255
255
255
255
255
255
255
255
255
255
255
255
255
255
255
255
255
255
255
255
255
255
255
255
255
255
255
255
255
255
255
255
255
255
255
255
255
255
255
255
255
255
255
255
255
255
255
255
255
255
255
255
255
255
255
255
255
255
255
255
255
255
255
255
255
255
255
255
255
255
255
255
255
255
255
255
255
255
253
244
255
254
236
142
7
7
83
145
117
70
66
101
81
68
86
87
90
60
93
98
118
113
119
112
117
119
103
71
132
141
125
129
133
132
128
124
123
125
88
92
120
120
121
126
77
30
39
180
254
249
254
254
246
252
254
254
254
254
254
254
254
254
255
255
255
255
255
255
255
255
255
255
255
255
255
255
255
255
255
255
255
255
255
255
255
255
255
255
255
255
255
255
255
255
255
255
255
255
255
255
255
255
255
255
255
255
255
255
255
255
255
255
255
255
255
255
255
255
255
255
255
255
255
255
255
255
255
255
255
255
255
255
255
255
255
255
255
255
255
255
255
255
255
255
255
255
255
255
255
255
255
255
255
255
255
255
255
255
255
255
255
255
255
255
255
255
255
255
255
255
255
255
255
255
255
255
255
255
255
255
255
255
255
255
255
255
255
255
255
255
255
255
255
255
255
255
255
255
255
255
255
255
255
255
255
255
255
255
255
255
255
255
255
255
255
255
255
255
255
255
255
255
255
255
255
255
255
255
255
255
255
255
255
255
255
255
255
255
255
255
255
255
255
255
255
255
255
255
255
255
255
255
255
255
255
255
255
255
255
255
255
255
255
255
255
255
255
255
255
255
255
255
255
255
255
255
255
255
255
255
255
255
255
255
255
255
255
255
255
255
255
255
255
255
255
255
255
255
255
255
255
255
255
255
255
255
255
255
255
255
255
255
255
255
255
255
255
255
255
255
255
255
255
255
255
255
255
255
255
255
255
255
255
255
255
255
255
255
255
255
255
255
255
255
255
255
255
255
255
255
255
255
255
255
255
255
255
255
255
255
255
255
255
255
255
255
255
255
255
255
255
255
255
255
255
255
255
255
255
255
255
255
255
255
255
255
255
255
255
255
255
255
255
255
255
255
255
255
255
255
255
255
255
255
255
255
255
255
255
255
255
255
255
255
255
255
255
255
255
255
255
255
255
255
255
255
255
255
255
255
255
255
255
255
255
255
255
255
255
255
255
255
255
252
246
254
242
255
240
92
10
20
111
138
99
75
111
91
75
96
103
113
76
100
104
132
124
130
126
126
129
116
78
104
131
126
125
127
130
127
123
123
127
98
81
104
135
120
117
120
86
6
79
195
254
254
252
254
250
255
255
255
255
255
255
255
255
255
255
255
255
255
255
255
255
255
255
255
255
255
255
255
255
255
255
255
255
255
255
255
255
255
255
255
255
255
255
255
255
255
255
255
255
255
255
255
255
255
255
255
255
255
255
255
255
255
255
255
255
255
255
255
255
255
255
255
255
255
255
255
255
255
255
255
255
255
255
255
255
255
255
255
255
255
255
255
255
255
255
255
255
255
255
255
255
255
255
255
255
255
255
255
255
255
255
255
255
255
255
255
255
255
255
255
255
255
255
255
255
255
255
255
255
255
255
255
255
255
255
255
255
255
255
255
255
255
255
255
255
255
255
255
255
255
255
255
255
255
255
255
255
255
255
255
255
255
255
255
255
255
255
255
255
255
255
255
255
255
255
255
255
255
255
255
255
255
255
255
255
255
255
255
255
255
255
255
255
255
255
255
255
255
255
255
255
255
255
255
255
255
255
255
255
255
255
255
255
255
255
255
255
255
255
255
255
255
255
255
255
255
255
255
255
255
255
255
255
255
255
255
255
255
255
255
255
255
255
255
255
255
255
255
255
255
255
255
255
255
255
255
255
255
255
255
255
255
255
255
255
255
255
255
255
255
255
255
255
255
255
255
255
255
255
255
255
255
255
255
255
255
255
255
255
255
255
255
255
255
255
255
255
255
255
255
255
255
255
255
255
255
255
255
255
255
255
255
255
255
255
255
255
255
255
255
255
255
255
255
255
255
255
255
255
255
255
255
255
255
255
255
255
255
255
255
255
255
255
255
255
255
255
255
255
255
255
255
255
255
255
255
255
255
255
255
255
255
255
255
255
255
255
255
255
255
255
255
255
255
255
255
255
255
255
255
255
255
255
255
255
255
255
255
255
255
255
255
255
255
250
251
254
241
255
255
200
84
6
48
113
114
71
107
99
72
83
99
104
87
86
102
123
118
117
125
123
127
124
103
77
124
128
123
122
126
128
126
124
125
108
87
83
136
130
111
129
81
48
10
78
210
253
251
253
255
255
255
255
255
255
255
255
255
255
255
255
255
255
255
255
255
255
255
255
255
255
255
255
255
255
255
255
255
255
255
255
255
255
255
255
255
255
255
255
255
255
255
255
255
255
255
255
255
255
255
255
255
255
255
255
255
255
255
255
255
255
255
255
255
255
255
255
255
255
255
255
255
255
255
255
255
255
255
255
255
255
255
255
255
255
255
255
255
255
255
255
255
255
255
255
255
255
255
255
255
255
255
255
255
255
255
255
255
255
255
255
255
255
255
255
255
255
255
255
255
255
255
255
255
255
255
255
255
255
255
255
255
255
255
255
255
255
255
255
255
255
255
255
255
255
255
255
255
255
255
255
255
255
255
255
255
255
255
255
255
255
255
255
255
255
255
255
255
255
255
255
255
255
255
255
255
255
255
255
255
255
255
255
255
255
255
255
255
255
255
255
255
255
255
255
255
255
255
255
255
255
255
255
255
255
255
255
255
255
255
255
255
255
255
255
255
255
255
255
255
255
255
255
255
255
255
255
255
255
255
255
255
255
255
255
255
255
255
255
255
255
255
255
255
255
255
255
255
255
255
255
255
255
255
255
255
255
255
255
255
255
255
255
255
255
255
255
255
255
255
255
255
255
255
255
255
255
255
255
255
255
255
255
255
255
255
255
255
255
255
255
255
255
255
255
255
255
255
255
255
255
255
255
255
255
255
255
255
255
255
255
255
255
255
255
255
255
255
255
255
255
255
255
255
255
255
255
255
255
255
255
255
255
255
255
255
255
255
255
255
255
255
255
255
255
255
255
255
255
255
255
255
255
255
255
255
255
255
255
255
255
255
255
255
255
255
255
255
255
255
255
255
255
255
255
255
255
255
255
255
255
255
255
255
255
255
255
255
255
254
254
252
255
246
254
255
187
57
2
55
98
67
117
114
80
79
96
102
101
83
109
124
126
120
130
128
131
132
129
78
112
131
127
123
124
128
130
127
125
126
108
69
101
127
127
126
67
92
54
32
95
206
253
253
254
255
255
255
255
255
255
255
255
255
255
255
255
255
255
255
255
255
255
255
255
255
255
255
255
255
255
255
255
255
255
255
255
255
255
255
255
255
255
255
255
255
255
255
255
255
255
255
255
255
255
255
255
255
255
255
255
255
255
255
255
255
255
255
255
255
255
255
255
255
255
255
255
255
255
255
255
255
255
255
255
255
255
255
255
255
255
255
255
255
255
255
255
255
255
255
255
255
255
255
255
255
255
255
255
255
255
255
255
255
255
255
255
255
255
255
255
255
255
255
255
255
255
255
255
255
255
255
255
255
255
255
255
255
255
255
255
255
255
255
255
255
255
255
255
255
255
255
255
255
255
255
255
255
255
255
255
255
255
255
255
255
255
255
255
255
255
255
255
255
255
255
255
255
255
255
255
255
255
255
255
255
255
255
255
255
255
255
255
255
255
255
255
255
255
255
255
255
255
255
255
255
255
255
255
255
255
255
255
255
255
255
255
255
255
255
255
255
255
255
255
255
255
255
255
255
255
255
255
255
255
255
255
255
255
255
255
255
255
255
255
255
255
255
255
255
255
255
255
255
255
255
255
255
255
255
255
255
255
255
255
255
255
255
255
255
255
255
255
255
255
255
255
255
255
255
255
255
255
255
255
255
255
255
255
255
255
255
255
255
255
255
255
255
255
255
255
255
255
255
255
255
255
255
255
255
255
255
255
255
255
255
255
255
255
255
255
255
255
255
255
255
255
255
255
255
255
255
255
255
255
255
255
255
255
255
255
255
255
255
255
255
255
255
255
255
255
255
255
255
255
255
255
255
255
255
255
255
255
255
255
255
255
255
255
255
255
255
255
255
255
255
255
255
255
255
255
255
255
255
255
255
255
255
255
255
255
255
255
255
254
255
252
255
252
241
255
250
136
7
19
70
64
120
109
81
77
87
98
101
80
100
119
125
130
126
127
127
124
121
96
78
127
130
128
123
123
130
130
126
134
127
89
72
111
126
97
85
118
119
76
36
93
203
254
250
253
253
253
253
253
253
253
253
255
255
255
255
255
255
255
255
255
255
255
255
255
255
255
255
255
255
255
255
255
255
255
255
255
255
255
255
255
255
255
255
255
255
255
255
255
255
255
255
255
255
255
255
255
255
255
255
255
255
255
255
255
255
255
255
255
255
255
255
255
255
255
255
255
255
255
255
255
255
255
255
255
255
255
255
255
255
255
255
255
255
255
255
255
255
255
255
255
255
255
255
255
255
255
255
255
255
255
255
255
255
255
255
255
255
255
255
255
255
255
255
255
255
255
255
255
255
255
255
255
255
255
255
255
255
255
255
255
255
255
255
255
255
255
255
255
255
255
255
255
255
255
255
255
255
255
255
255
255
255
255
255
255
255
255
255
255
255
255
255
255
255
255
255
255
255
255
255
255
255
255
255
255
255
255
255
255
255
255
255
255
255
255
255
255
255
255
255
255
255
255
255
255
255
255
255
255
255
255
255
255
255
255
255
255
255
255
255
255
255
255
255
255
255
255
255
255
255
255
255
255
255
255
255
255
255
255
255
255
255
255
255
255
255
255
255
255
255
255
255
255
255
255
255
255
255
255
255
255
255
255
255
255
255
255
255
255
255
255
255
255
255
255
255
255
255
255
255
255
255
255
255
255
255
255
255
255
255
255
255
255
255
255
255
255
255
255
255
255
255
255
255
255
255
255
255
255
255
255
255
255
255
255
255
255
255
255
255
255
255
255
255
255
255
255
255
255
255
255
255
255
255
255
255
255
255
255
255
255
255
255
255
255
255
255
255
255
255
255
255
255
255
255
255
255
255
255
255
255
255
255
255
255
255
255
255
255
255
255
255
255
255
255
255
255
255
255
255
255
255
255
255
255
255
255
255
255
255
255
255
253
254
252
247
254
254
243
255
225
69
44
83
82
127
103
89
84
86
101
99
82
93
118
123
145
127
130
131
125
117
134
64
122
132
132
121
118
127
129
126
125
134
131
77
101
103
50
101
137
131
118
58
10
99
224
251
250
250
250
250
250
250
250
250
255
255
255
255
255
255
255
255
255
255
255
255
255
255
255
255
255
255
255
255
255
255
255
255
255
255
255
255
255
255
255
255
255
255
255
255
255
255
255
255
255
255
255
255
255
255
255
255
255
255
255
255
255
255
255
255
255
255
255
255
255
255
255
255
255
255
255
255
255
255
255
255
255
255
255
255
255
255
255
255
255
255
255
255
255
255
255
255
255
255
255
255
255
255
255
255
255
255
255
255
255
255
255
255
255
255
255
255
255
255
255
255
255
255
255
255
255
255
255
255
255
255
255
255
255
255
255
255
255
255
255
255
255
255
255
255
255
255
255
255
255
255
255
255
255
255
255
255
255
255
255
255
255
255
255
255
255
255
255
255
255
255
255
255
255
255
255
255
255
255
255
255
255
255
255
255
255
255
255
255
255
255
255
255
255
255
255
255
255
255
255
255
255
255
255
255
255
255
255
255
255
255
255
255
255
255
255
255
255
255
255
255
255
255
255
255
255
255
255
255
255
255
255
255
255
255
255
255
255
255
255
255
255
255
255
255
255
255
255
255
255
255
255
255
255
255
255
255
255
255
255
255
255
255
255
255
255
255
255
255
255
255
255
255
255
255
255
255
255
255
255
255
255
255
255
255
255
255
255
255
255
255
255
255
255
255
255
255
255
255
255
255
255
255
255
255
255
255
255
255
255
255
255
255
255
255
255
255
255
255
255
255
255
255
255
255
255
255
255
255
255
255
255
255
255
255
255
255
255
255
255
255
255
255
255
255
255
255
255
255
255
255
255
255
255
255
255
255
255
255
255
255
255
255
255
255
255
255
255
255
255
255
255
255
255
255
255
255
255
255
255
255
255
255
255
255
255
255
255
255
255
255
255
255
254
254
253
253
253
235
132
0
47
84
109
81
78
92
90
103
99
81
69
132
136
143
143
124
123
128
128
128
106
101
126
126
117
127
131
126
129
127
121
116
99
53
27
66
130
137
123
133
122
46
12
119
250
245
253
253
246
253
253
252
249
255
255
255
255
255
255
255
255
255
255
255
255
255
255
255
255
255
255
255
255
255
255
255
255
255
255
255
255
255
255
255
255
255
255
255
255
255
255
255
255
255
255
255
255
255
255
255
255
255
255
255
255
255
255
255
255
255
255
255
255
255
255
255
255
255
255
255
255
255
255
255
255
255
255
255
255
255
255
255
255
255
255
255
255
255
255
255
255
255
255
255
255
255
255
255
255
255
255
255
255
255
255
255
255
255
255
255
255
255
255
255
255
255
255
255
255
255
255
255
255
255
255
255
255
255
255
255
255
255
255
255
255
255
255
255
255
255
255
255
255
255
255
255
255
255
255
255
255
255
255
255
255
255
255
255
255
255
255
255
255
255
255
255
255
255
255
255
255
255
255
255
255
255
255
255
255
255
255
255
255
255
255
255
255
255
255
255
255
255
255
255
255
255
255
255
255
255
255
255
255
255
255
255
255
255
255
255
255
255
255
255
255
255
255
255
255
255
255
255
255
255
255
255
255
255
255
255
255
255
255
255
255
255
255
255
255
255
255
255
255
255
255
255
255
255
255
255
255
255
255
255
255
255
255
255
255
255
255
255
255
255
255
255
255
255
255
255
255
255
255
255
255
255
255
255
255
255
255
255
255
255
255
255
255
255
255
255
255
255
255
255
255
255
255
255
255
255
255
255
255
255
255
255
255
255
255
255
255
255
255
255
255
255
255
255
255
255
255
255
255
255
255
255
255
255
255
255
255
255
255
255
255
255
255
255
255
255
255
255
255
255
255
255
255
255
255
255
255
255
255
255
255
255
255
255
255
255
255
255
255
255
255
255
255
255
255
255
255
255
255
255
255
255
255
255
255
255
255
255
255
255
255
255
255
254
254
253
253
253
255
168
6
13
57
103
71
56
73
80
97
104
95
71
110
115
143
146
129
126
130
129
131
113
70
104
129
134
139
137
126
114
105
93
85
81
73
66
76
94
116
143
122
116
112
22
14
175
254
245
255
255
247
254
243
252
255
255
255
255
255
255
255
255
255
255
255
255
255
255
255
255
255
255
255
255
255
255
255
255
255
255
255
255
255
255
255
255
255
255
255
255
255
255
255
255
255
255
255
255
255
255
255
255
255
255
255
255
255
255
255
255
255
255
255
255
255
255
255
255
255
255
255
255
255
255
255
255
255
255
255
255
255
255
255
255
255
255
255
255
255
255
255
255
255
255
255
255
255
255
255
255
255
255
255
255
255
255
255
255
255
255
255
255
255
255
255
255
255
255
255
255
255
255
255
255
255
255
255
255
255
255
255
255
255
255
255
255
255
255
255
255
255
255
255
255
255
255
255
255
255
255
255
255
255
255
255
255
255
255
255
255
255
255
255
255
255
255
255
255
255
255
255
255
255
255
255
255
255
255
255
255
255
255
255
255
255
255
255
255
255
255
255
255
255
255
255
255
255
255
255
255
255
255
255
255
255
255
255
255
255
255
255
255
255
255
255
255
255
255
255
255
255
255
255
255
255
255
255
255
255
255
255
255
255
255
255
255
255
255
255
255
255
255
255
255
255
255
255
255
255
255
255
255
255
255
255
255
255
255
255
255
255
255
255
255
255
255
255
255
255
255
255
255
255
255
255
255
255
255
255
255
255
255
255
255
255
255
255
255
255
255
255
255
255
255
255
255
255
255
255
255
255
255
255
255
255
255
255
255
255
255
255
255
255
255
255
255
255
255
255
255
255
255
255
255
255
255
255
255
255
255
255
255
255
255
255
255
255
255
255
255
255
255
255
255
255
255
255
255
255
255
255
255
255
255
255
255
255
255
255
255
255
255
255
255
255
255
255
255
255
255
255
255
255
255
255
255
255
255
255
255
255
255
255
255
255
255
255
255
254
254
253
253
253
255
210
42
2
64
133
96
64
49
58
66
76
88
75
107
133
142
147
137
133
134
133
138
125
97
109
125
120
103
94
86
72
88
93
101
114
126
122
89
55
93
124
128
134
133
76
21
44
207
249
248
253
254
254
246
255
255
255
255
255
255
255
255
255
255
255
255
255
255
255
255
255
255
255
255
255
255
255
255
255
255
255
255
255
255
255
255
255
255
255
255
255
255
255
255
255
255
255
255
255
255
255
255
255
255
255
255
255
255
255
255
255
255
255
255
255
255
255
255
255
255
255
255
255
255
255
255
255
255
255
255
255
255
255
255
255
255
255
255
255
255
255
255
255
255
255
255
255
255
255
255
255
255
255
255
255
255
255
255
255
255
255
255
255
255
255
255
255
255
255
255
255
255
255
255
255
255
255
255
255
255
255
255
255
255
255
255
255
255
255
255
255
255
255
255
255
255
255
255
255
255
255
255
255
255
255
255
255
255
255
255
255
255
255
255
255
255
255
255
255
255
255
255
255
255
255
255
255
255
255
255
255
255
255
255
255
255
255
255
255
255
255
255
255
255
255
255
255
255
255
255
255
255
255
255
255
255
255
255
255
255
255
255
255
255
255
255
255
255
255
255
255
255
255
255
255
255
255
255
255
255
255
255
255
255
255
255
255
255
255
255
255
255
255
255
255
255
255
255
255
255
255
255
255
255
255
255
255
255
255
255
255
255
255
255
255
255
255
255
255
255
255
255
255
255
255
255
255
255
255
255
255
255
255
255
255
255
255
255
255
255
255
255
255
255
255
255
255
255
255
255
255
255
255
255
255
255
255
255
255
255
255
255
255
255
255
255
255
255
255
255
255
255
255
255
255
255
255
255
255
255
255
255
255
255
255
255
255
255
255
255
255
255
255
255
255
255
255
255
255
255
255
255
255
255
255
255
255
255
255
255
255
255
255
255
255
255
255
255
255
255
255
255
255
255
255
255
255
255
255
255
255
255
255
255
255
255
255
255
255
254
254
253
253
253
253
233
83
4
91
166
121
82
74
78
66
62
70
54
69
110
113
126
115
109
104
101
112
105
85
68
72
81
74
81
101
106
121
127
127
125
129
131
118
101
85
82
117
139
129
126
87
10
79
235
247
235
253
249
255
252
255
255
255
255
255
255
255
255
255
255
255
255
255
255
255
255
255
255
255
255
255
255
255
255
255
255
255
255
255
255
255
255
255
255
255
255
255
255
255
255
255
255
255
255
255
255
255
255
255
255
255
255
255
255
255
255
255
255
255
255
255
255
255
255
255
255
255
255
255
255
255
255
255
255
255
255
255
255
255
255
255
255
255
255
255
255
255
255
255
255
255
255
255
255
255
255
255
255
255
255
255
255
255
255
255
255
255
255
255
255
255
255
255
255
255
255
255
255
255
255
255
255
255
255
255
255
255
255
255
255
255
255
255
255
255
255
255
255
255
255
255
255
255
255
255
255
255
255
255
255
255
255
255
255
255
255
255
255
255
255
255
255
255
255
255
255
255
255
255
255
255
255
255
255
255
255
255
255
255
255
255
255
255
255
255
255
255
255
255
255
255
255
255
255
255
255
255
255
255
255
255
255
255
255
255
255
255
255
255
255
255
255
255
255
255
255
255
255
255
255
255
255
255
255
255
255
255
255
255
255
255
255
255
255
255
255
255
255
255
255
255
255
255
255
255
255
255
255
255
255
255
255
255
255
255
255
255
255
255
255
255
255
255
255
255
255
255
255
255
255
255
255
255
255
255
255
255
255
255
255
255
255
255
255
255
255
255
255
255
255
255
255
255
255
255
255
255
255
255
255
255
255
255
255
255
255
255
255
255
255
255
255
255
255
255
255
255
255
255
255
255
255
255
255
255
255
255
255
255
255
255
255
255
255
255
255
255
255
255
255
255
255
255
255
255
255
255
255
255
255
255
255
255
255
255
255
255
255
255
255
255
255
255
255
255
255
255
255
255
255
255
255
255
255
255
255
255
255
255
255
255
255
255
255
254
254
253
253
253
246
241
113
8
97
157
112
80
86
97
88
80
78
54
41
76
83
98
90
84
76
74
85
80
66
35
46
86
102
112
133
145
130
131
130
127
121
122
132
142
100
88
79
100
135
137
102
73
1
136
252
244
252
243
255
245
255
255
255
255
255
255
255
255
255
255
255
255
255
255
255
255
255
255
255
255
255
255
255
255
255
255
255
255
255
255
255
255
255
255
255
255
255
255
255
255
255
255
255
255
255
255
255
255
255
255
255
255
255
255
255
255
255
255
255
255
255
255
255
255
255
255
255
255
255
255
255
255
255
255
255
255
255
255
255
255
255
255
255
255
255
255
255
255
255
255
255
255
255
255
255
255
255
255
255
255
255
255
255
255
255
255
255
255
255
255
255
255
255
255
255
255
255
255
255
255
255
255
255
255
255
255
255
255
255
255
255
255
255
255
255
255
255
255
255
255
255
255
255
255
255
255
255
255
255
255
255
255
255
255
255
255
255
255
255
255
255
255
255
255
255
255
255
255
255
255
255
255
255
255
255
255
255
255
255
255
255
255
255
255
255
255
255
255
255
255
255
255
255
255
255
255
255
255
255
255
255
255
255
255
255
255
255
255
255
255
255
255
255
255
255
255
255
255
255
255
255
255
255
255
255
255
255
255
255
255
255
255
255
255
255
255
255
255
255
255
255
255
255
255
255
255
255
255
255
255
255
255
255
255
255
255
255
255
255
255
255
255
255
255
255
255
255
255
255
255
255
255
255
255
255
255
255
255
255
255
255
255
255
255
255
255
255
255
255
255
255
255
255
255
255
255
255
255
255
255
255
255
255
255
255
255
255
255
255
255
255
255
255
255
255
255
255
255
255
255
255
255
255
255
255
255
255
255
255
255
255
255
255
255
255
255
255
255
255
255
255
255
255
255
255
255
255
255
255
255
255
255
255
255
255
255
255
255
255
255
255
255
255
255
255
255
255
255
255
255
255
255
255
255
255
255
255
255
255
255
255
255
255
255
254
254
253
253
253
254
247
137
8
93
145
113
86
79
92
90
90
90
83
58
89
132
148
143
138
130
125
137
130
118
89
86
113
129
128
129
135
128
127
131
136
133
125
128
136
127
124
87
75
109
124
115
123
32
18
218
253
243
247
255
246
255
255
255
255
255
255
255
255
255
255
255
255
255
255
255
255
255
255
255
255
255
255
255
255
255
255
255
255
255
255
255
255
255
255
255
255
255
255
255
255
255
255
255
255
255
255
255
255
255
255
255
255
255
255
255
255
255
255
255
255
255
255
255
255
255
255
255
255
255
255
255
255
255
255
255
255
255
255
255
255
255
255
255
255
255
255
255
255
255
255
255
255
255
255
255
255
255
255
255
255
255
255
255
255
255
255
255
255
255
255
255
255
255
255
255
255
255
255
255
255
255
255
255
255
255
255
255
255
255
255
255
255
255
255
255
255
255
255
255
255
255
255
255
255
255
255
255
255
255
255
255
255
255
255
255
255
255
255
255
255
255
255
255
255
255
255
255
255
255
255
255
255
255
255
255
255
255
255
255
255
255
255
255
255
255
255
255
255
255
255
255
255
255
255
255
255
255
255
255
255
255
255
255
255
255
255
255
255
255
255
255
255
255
255
255
255
255
255
255
255
255
255
255
255
255
255
255
255
255
255
255
255
255
255
255
255
255
255
255
255
255
255
255
255
255
255
255
255
255
255
255
255
255
255
255
255
255
255
255
255
255
255
255
255
255
255
255
255
255
255
255
255
255
255
255
255
255
255
255
255
255
255
255
255
255
255
255
255
255
255
255
255
255
255
255
255
255
255
255
255
255
255
255
255
255
255
255
255
255
255
255
255
255
255
255
255
255
255
255
255
255
255
255
255
255
255
255
255
255
255
255
255
255
255
255
255
255
255
255
255
255
255
255
255
255
255
255
255
255
255
255
255
255
255
255
255
255
255
255
255
255
255
255
255
255
255
255
255
255
255
255
255
255
255
255
255
255
255
255
255
255
255
255
255
254
254
253
253
253
254
253
158
9
91
149
128
93
92
96
91
89
90
103
73
90
132
150
146
143
132
126
137
129
141
131
112
109
123
130
125
124
148
136
126
123
123
126
130
137
137
133
123
99
81
98
120
118
94
14
114
248
245
249
251
252
255
255
255
255
255
255
255
255
255
255
255
255
255
255
255
255
255
255
255
255
255
255
255
255
255
255
255
255
255
255
255
255
255
255
255
255
255
255
255
255
255
255
255
255
255
255
255
255
255
255
255
255
255
255
255
255
255
255
255
255
255
255
255
255
255
255
255
255
255
255
255
255
255
255
255
255
255
255
255
255
255
255
255
255
255
255
255
255
255
255
255
255
255
255
255
255
255
255
255
255
255
255
255
255
255
255
255
255
255
255
255
255
255
255
255
255
255
255
255
255
255
255
255
255
255
255
255
255
255
255
255
255
255
255
255
255
255
255
255
255
255
255
255
255
255
255
255
255
255
255
255
255
255
255
255
255
255
255
255
255
255
255
255
255
255
255
255
255
255
255
255
255
255
255
255
255
255
255
255
255
255
255
255
255
255
255
255
255
255
255
255
255
255
255
255
255
255
255
255
255
255
255
255
255
255
255
255
255
255
255
255
255
255
255
255
255
255
255
255
255
255
255
255
255
255
255
255
255
255
255
255
255
255
255
255
255
255
255
255
255
255
255
255
255
255
255
255
255
255
255
255
255
255
255
255
255
255
255
255
255
255
255
255
255
255
255
255
255
255
255
255
255
255
255
255
255
255
255
255
255
255
255
255
255
255
255
255
255
255
255
255
255
255
255
255
255
255
255
255
255
255
255
255
255
255
255
255
255
255
255
255
255
255
255
255
255
255
255
255
255
255
255
255
255
255
255
255
255
255
255
255
255
255
255
255
255
255
255
255
255
255
255
255
255
255
255
255
255
255
255
255
255
255
255
255
255
255
255
255
255
255
255
255
255
255
255
255
255
255
255
255
255
255
255
255
255
255
255
255
255
255
255
255
255
254
254
253
253
253
254
253
168
6
86
148
128
80
83
85
86
91
98
122
87
89
131
149
145
142
134
128
136
128
119
128
107
88
109
131
125
118
121
125
128
129
132
131
124
116
128
117
131
135
95
66
83
113
125
56
9
208
254
246
250
253
255
255
255
255
255
255
255
255
255
255
255
255
255
255
255
255
255
255
255
255
255
255
255
255
255
255
255
255
255
255
255
255
255
255
255
255
255
255
255
255
255
255
255
255
255
255
255
255
255
255
255
255
255
255
255
255
255
255
255
255
255
255
255
255
255
255
255
255
255
255
255
255
255
255
255
255
255
255
255
255
255
255
255
255
255
255
255
255
255
255
255
255
255
255
255
255
255
255
255
255
255
255
255
255
255
255
255
255
255
255
255
255
255
255
255
255
255
255
255
255
255
255
255
255
255
255
255
255
255
255
255
255
255
255
255
255
255
255
255
255
255
255
255
255
255
255
255
255
255
255
255
255
255
255
255
255
255
255
255
255
255
255
255
255
255
255
255
255
255
255
255
255
255
255
255
255
255
255
255
255
255
255
255
255
255
255
255
255
255
255
255
255
255
255
255
255
255
255
255
255
255
255
255
255
255
255
255
255
255
255
255
255
255
255
255
255
255
255
255
255
255
255
255
255
255
255
255
255
255
255
255
255
255
255
255
255
255
255
255
255
255
255
255
255
255
255
255
255
255
255
255
255
255
255
255
255
255
255
255
255
255
255
255
255
255
255
255
255
255
255
255
255
255
255
255
255
255
255
255
255
255
255
255
255
255
255
255
255
255
255
255
255
255
255
255
255
255
255
255
255
255
255
255
255
255
255
255
255
255
255
255
255
255
255
255
255
255
255
255
255
255
255
255
255
255
255
255
255
255
255
255
255
255
255
255
255
255
255
255
255
255
255
255
255
255
255
255
255
255
255
255
255
255
255
255
255
255
255
255
255
255
255
255
255
255
255
255
255
255
255
255
255
255
255
255
255
255
255
255
255
255
255
255
255
255
255
255
255
255
253
253
175
16
91
159
130
81
88
91
77
90
82
89
116
72
119
141
144
157
143
117
133
140
116
137
135
86
92
122
119
142
123
126
130
130
129
127
126
127
128
133
133
128
124
116
91
64
106
87
20
2
221
249
253
253
255
251
250
255
255
255
252
249
255
255
255
255
255
255
255
255
255
255
255
255
255
255
255
255
255
255
255
255
255
255
255
255
255
255
255
255
255
255
255
255
255
255
255
255
255
255
255
255
255
255
255
255
255
255
255
255
255
255
255
255
255
255
255
255
255
255
255
255
255
255
255
255
255
255
255
255
255
255
255
255
255
255
255
255
255
255
255
255
255
255
255
255
255
255
255
255
255
255
255
255
255
255
255
255
255
255
255
255
255
255
255
255
255
255
255
255
255
255
255
255
255
255
255
255
255
255
255
255
255
255
255
255
255
255
255
255
255
255
255
255
255
255
255
255
255
255
255
255
255
255
255
255
255
255
255
255
255
255
255
255
255
255
255
255
255
255
255
255
255
255
255
255
255
255
255
255
255
255
255
255
255
255
255
255
255
255
255
255
255
255
255
255
255
255
255
255
255
255
255
255
255
255
255
255
255
255
255
255
255
255
255
255
255
255
255
255
255
255
255
255
255
255
255
255
255
255
255
255
255
255
255
255
255
255
255
255
255
255
255
255
255
255
255
255
255
255
255
255
255
255
255
255
255
255
255
255
255
255
255
255
255
255
255
255
255
255
255
255
255
255
255
255
255
255
255
255
255
255
255
255
255
255
255
255
255
255
255
255
255
255
255
255
255
255
255
255
255
255
255
255
255
255
255
255
255
255
255
255
255
255
255
255
255
255
255
255
255
255
255
255
255
255
255
255
255
255
255
255
255
255
255
255
255
255
255
255
255
255
255
255
255
255
255
255
255
255
255
255
255
255
255
255
255
255
255
255
255
255
255
255
255
255
255
255
255
255
255
255
255
255
255
255
255
255
255
255
255
255
255
255
255
255
255
255
255
255
255
255
255
253
250
177
14
61
121
118
99
90
93
82
96
92
97
121
77
108
140
146
157
150
125
132
137
124
137
132
110
88
98
127
137
121
128
132
132
128
126
130
135
127
117
119
138
150
139
119
108
37
43
96
36
73
217
253
251
247
250
250
248
251
255
255
255
255
255
255
255
255
255
255
255
255
255
255
255
255
255
255
255
255
255
255
255
255
255
255
255
255
255
255
255
255
255
255
255
255
255
255
255
255
255
255
255
255
255
255
255
255
255
255
255
255
255
255
255
255
255
255
255
255
255
255
255
255
255
255
255
255
255
255
255
255
255
255
255
255
255
255
255
255
255
255
255
255
255
255
255
255
255
255
255
255
255
255
255
255
255
255
255
255
255
255
255
255
255
255
255
255
255
255
255
255
255
255
255
255
255
255
255
255
255
255
255
255
255
255
255
255
255
255
255
255
255
255
255
255
255
255
255
255
255
255
255
255
255
255
255
255
255
255
255
255
255
255
255
255
255
255
255
255
255
255
255
255
255
255
255
255
255
255
255
255
255
255
255
255
255
255
255
255
255
255
255
255
255
255
255
255
255
255
255
255
255
255
255
255
255
255
255
255
255
255
255
255
255
255
255
255
255
255
255
255
255
255
255
255
255
255
255
255
255
255
255
255
255
255
255
255
255
255
255
255
255
255
255
255
255
255
255
255
255
255
255
255
255
255
255
255
255
255
255
255
255
255
255
255
255
255
255
255
255
255
255
255
255
255
255
255
255
255
255
255
255
255
255
255
255
255
255
255
255
255
255
255
255
255
255
255
255
255
255
255
255
255
255
255
255
255
255
255
255
255
255
255
255
255
255
255
255
255
255
255
255
255
255
255
255
255
255
255
255
255
255
255
255
255
255
255
255
255
255
255
255
255
255
255
255
255
255
255
255
255
255
255
255
255
255
255
255
255
255
255
255
255
255
255
255
255
255
255
255
255
255
255
255
255
255
255
255
255
255
255
255
255
255
255
255
255
255
255
255
255
255
255
254
252
191
35
47
82
71
56
67
86
91
107
96
96
120
93
92
134
147
155
156
134
128
131
129
129
125
132
90
72
125
132
134
128
123
124
129
130
126
122
136
144
135
110
108
122
115
93
48
47
84
73
3
114
239
248
249
255
255
254
253
255
255
253
255
255
255
255
255
255
255
255
255
255
255
255
255
255
255
255
255
255
255
255
255
255
255
255
255
255
255
255
255
255
255
255
255
255
255
255
255
255
255
255
255
255
255
255
255
255
255
255
255
255
255
255
255
255
255
255
255
255
255
255
255
255
255
255
255
255
255
255
255
255
255
255
255
255
255
255
255
255
255
255
255
255
255
255
255
255
255
255
255
255
255
255
255
255
255
255
255
255
255
255
255
255
255
255
255
255
255
255
255
255
255
255
255
255
255
255
255
255
255
255
255
255
255
255
255
255
255
255
255
255
255
255
255
255
255
255
255
255
255
255
255
255
255
255
255
255
255
255
255
255
255
255
255
255
255
255
255
255
255
255
255
255
255
255
255
255
255
255
255
255
255
255
255
255
255
255
255
255
255
255
255
255
255
255
255
255
255
255
255
255
255
255
255
255
255
255
255
255
255
255
255
255
255
255
255
255
255
255
255
255
255
255
255
255
255
255
255
255
255
255
255
255
255
255
255
255
255
255
255
255
255
255
255
255
255
255
255
255
255
255
255
255
255
255
255
255
255
255
255
255
255
255
255
255
255
255
255
255
255
255
255
255
255
255
255
255
255
255
255
255
255
255
255
255
255
255
255
255
255
255
255
255
255
255
255
255
255
255
255
255
255
255
255
255
255
255
255
255
255
255
255
255
255
255
255
255
255
255
255
255
255
255
255
255
255
255
255
255
255
255
255
255
255
255
255
255
255
255
255
255
255
255
255
255
255
255
255
255
255
255
255
255
255
255
255
255
255
255
255
255
255
255
255
255
255
255
255
255
255
255
255
255
255
255
255
255
255
255
255
255
255
255
255
255
255
255
255
255
255
255
255
254
245
192
58
74
129
109
69
50
65
74
92
93
98
119
106
82
126
146
150
157
139
124
125
132
123
126
140
105
73
106
129
132
128
125
127
130
132
127
123
128
123
134
140
122
78
54
64
122
102
60
73
5
14
126
250
252
255
255
255
255
255
253
250
255
255
255
255
255
255
255
255
255
255
255
255
255
255
255
255
255
255
255
255
255
255
255
255
255
255
255
255
255
255
255
255
255
255
255
255
255
255
255
255
255
255
255
255
255
255
255
255
255
255
255
255
255
255
255
255
255
255
255
255
255
255
255
255
255
255
255
255
255
255
255
255
255
255
255
255
255
255
255
255
255
255
255
255
255
255
255
255
255
255
255
255
255
255
255
255
255
255
255
255
255
255
255
255
255
255
255
255
255
255
255
255
255
255
255
255
255
255
255
255
255
255
255
255
255
255
255
255
255
255
255
255
255
255
255
255
255
255
255
255
255
255
255
255
255
255
255
255
255
255
255
255
255
255
255
255
255
255
255
255
255
255
255
255
255
255
255
255
255
255
255
255
255
255
255
255
255
255
255
255
255
255
255
255
255
255
255
255
255
255
255
255
255
255
255
255
255
255
255
255
255
255
255
255
255
255
255
255
255
255
255
255
255
255
255
255
255
255
255
255
255
255
255
255
255
255
255
255
255
255
255
255
255
255
255
255
255
255
255
255
255
255
255
255
255
255
255
255
255
255
255
255
255
255
255
255
255
255
255
255
255
255
255
255
255
255
255
255
255
255
255
255
255
255
255
255
255
255
255
255
255
255
255
255
255
255
255
255
255
255
255
255
255
255
255
255
255
255
255
255
255
255
255
255
255
255
255
255
255
255
255
255
255
255
255
255
255
255
255
255
255
255
255
255
255
255
255
255
255
255
255
255
255
255
255
255
255
255
255
255
255
255
255
255
255
255
255
255
255
255
255
255
255
255
255
255
255
255
255
255
255
255
255
255
255
255
255
255
255
255
255
255
255
255
255
255
255
255
255
255
255
255
245
186
50
60
154
155
106
73
63
49
59
76
99
123
123
82
119
146
151
155
146
126
124
135
126
134
134
126
98
80
119
119
128
137
138
134
131
134
138
135
135
109
68
60
95
124
131
141
133
117
62
23
3
11
218
255
245
244
255
255
253
252
255
255
255
255
255
255
255
255
255
255
255
255
255
255
255
255
255
255
255
255
255
255
255
255
255
255
255
255
255
255
255
255
255
255
255
255
255
255
255
255
255
255
255
255
255
255
255
255
255
255
255
255
255
255
255
255
255
255
255
255
255
255
255
255
255
255
255
255
255
255
255
255
255
255
255
255
255
255
255
255
255
255
255
255
255
255
255
255
255
255
255
255
255
255
255
255
255
255
255
255
255
255
255
255
255
255
255
255
255
255
255
255
255
255
255
255
255
255
255
255
255
255
255
255
255
255
255
255
255
255
255
255
255
255
255
255
255
255
255
255
255
255
255
255
255
255
255
255
255
255
255
255
255
255
255
255
255
255
255
255
255
255
255
255
255
255
255
255
255
255
255
255
255
255
255
255
255
255
255
255
255
255
255
255
255
255
255
255
255
255
255
255
255
255
255
255
255
255
255
255
255
255
255
255
255
255
255
255
255
255
255
255
255
255
255
255
255
255
255
255
255
255
255
255
255
255
255
255
255
255
255
255
255
255
255
255
255
255
255
255
255
255
255
255
255
255
255
255
255
255
255
255
255
255
255
255
255
255
255
255
255
255
255
255
255
255
255
255
255
255
255
255
255
255
255
255
255
255
255
255
255
255
255
255
255
255
255
255
255
255
255
255
255
255
255
255
255
255
255
255
255
255
255
255
255
255
255
255
255
255
255
255
255
255
255
255
255
255
255
255
255
255
255
255
255
255
255
255
255
255
255
255
255
255
255
255
255
255
255
255
255
255
255
255
255
255
255
255
255
255
255
255
255
255
255
255
255
255
255
255
255
255
255
255
255
255
255
255
255
255
255
255
255
255
255
255
255
255
255
255
255
255
255
255
208
62
34
128
143
98
93
82
64
51
53
74
112
146
87
105
146
158
156
153
133
128
131
128
136
125
133
117
72
96
133
129
127
131
135
132
121
112
96
79
88
124
141
131
129
141
123
135
141
115
81
3
4
129
255
254
249
253
253
249
253
255
255
255
255
255
255
255
255
255
255
255
255
255
255
255
255
255
255
255
255
255
255
255
255
255
255
255
255
255
255
255
255
255
255
255
255
255
255
255
255
255
255
255
255
255
255
255
255
255
255
255
255
255
255
255
255
255
255
255
255
255
255
255
255
255
255
255
255
255
255
255
255
255
255
255
255
255
255
255
255
255
255
255
255
255
255
255
255
255
255
255
255
255
255
255
255
255
255
255
255
255
255
255
255
255
255
255
255
255
255
255
255
255
255
255
255
255
255
255
255
255
255
255
255
255
255
255
255
255
255
255
255
255
255
255
255
255
255
255
255
255
255
255
255
255
255
255
255
255
255
255
255
255
255
255
255
255
255
255
255
255
255
255
255
255
255
255
255
255
255
255
255
255
255
255
255
255
255
255
255
255
255
255
255
255
255
255
255
255
255
255
255
255
255
255
255
255
255
255
255
255
255
255
255
255
255
255
255
255
255
255
255
255
255
255
255
255
255
255
255
255
255
255
255
255
255
255
255
255
255
255
255
255
255
255
255
255
255
255
255
255
255
255
255
255
255
255
255
255
255
255
255
255
255
255
255
255
255
255
255
255
255
255
255
255
255
255
255
255
255
255
255
255
255
255
255
255
255
255
255
255
255
255
255
255
255
255
255
255
255
255
255
255
255
255
255
255
255
255
255
255
255
255
255
255
255
255
255
255
255
255
255
255
255
255
255
255
255
255
255
255
255
255
255
255
255
255
255
255
255
255
255
255
255
255
255
255
255
255
255
255
255
255
255
255
255
255
255
255
255
255
255
255
255
255
255
255
255
255
255
255
255
255
255
255
255
255
255
255
255
255
255
255
255
255
255
255
255
255
255
255
255
249
255
234
107
52
131
148
110
90
91
89
75
63
65
85
124
85
87
142
163
154
156
139
130
125
131
132
126
131
128
98
77
137
129
123
122
122
115
101
89
102
111
118
123
133
145
141
129
127
137
125
143
129
41
15
45
238
255
255
255
249
254
255
254
255
255
255
255
255
255
255
255
255
255
255
255
255
255
255
255
255
255
255
255
255
255
255
255
255
255
255
255
255
255
255
255
255
255
255
255
255
255
255
255
255
255
255
255
255
255
255
255
255
255
255
255
255
255
255
255
255
255
255
255
255
255
255
255
255
255
255
255
255
255
255
255
255
255
255
255
255
255
255
255
255
255
255
255
255
255
255
255
255
255
255
255
255
255
255
255
255
255
255
255
255
255
255
255
255
255
255
255
255
255
255
255
255
255
255
255
255
255
255
255
255
255
255
255
255
255
255
255
255
255
255
255
255
255
255
255
255
255
255
255
255
255
255
255
255
255
255
255
255
255
255
255
255
255
255
255
255
255
255
255
255
255
255
255
255
255
255
255
255
255
255
255
255
255
255
255
255
255
255
255
255
255
255
255
255
255
255
255
255
255
255
255
255
255
255
255
255
255
255
255
255
255
255
255
255
255
255
255
255
255
255
255
255
255
255
255
255
255
255
255
255
255
255
255
255
255
255
255
255
255
255
255
255
255
255
255
255
255
255
255
255
255
255
255
255
255
255
255
255
255
255
255
255
255
255
255
255
255
255
255
255
255
255
255
255
255
255
255
255
255
255
255
255
255
255
255
255
255
255
255
255
255
255
255
255
255
255
255
255
255
255
255
255
255
255
255
255
255
255
255
255
255
255
255
255
255
255
255
255
255
255
255
255
255
255
255
255
255
255
255
255
255
255
255
255
255
255
255
255
255
255
255
255
255
255
255
255
255
255
255
255
255
255
255
255
255
255
255
255
255
255
255
255
255
255
255
255
255
255
255
255
255
255
255
255
255
255
255
255
255
255
255
255
255
255
255
255
255
255
255
255
255
255
236
121
55
122
137
107
84
80
85
93
104
91
63
62
81
72
136
165
152
154
142
128
124
136
133
138
131
138
139
75
108
128
143
130
102
86
97
115
135
135
142
147
138
124
128
144
135
137
135
123
114
98
14
12
180
232
255
253
248
255
255
248
255
255
255
255
255
255
255
255
255
255
255
255
255
255
255
255
255
255
255
255
255
255
255
255
255
255
255
255
255
255
255
255
255
255
255
255
255
255
255
255
255
255
255
255
255
255
255
255
255
255
255
255
255
255
255
255
255
255
255
255
255
255
255
255
255
255
255
255
255
255
255
255
255
255
255
255
255
255
255
255
255
255
255
255
255
255
255
255
255
255
255
255
255
255
255
255
255
255
255
255
255
255
255
255
255
255
255
255
255
255
255
255
255
255
255
255
255
255
255
255
255
255
255
255
255
255
255
255
255
255
255
255
255
255
255
255
255
255
255
255
255
255
255
255
255
255
255
255
255
255
255
255
255
255
255
255
255
255
255
255
255
255
255
255
255
255
255
255
255
255
255
255
255
255
255
255
255
255
255
255
255
255
255
255
255
255
255
255
255
255
255
255
255
255
255
255
255
255
255
255
255
255
255
255
255
255
255
255
255
255
255
255
255
255
255
255
255
255
255
255
255
255
255
255
255
255
255
255
255
255
255
255
255
255
255
255
255
255
255
255
255
255
255
255
255
255
255
255
255
255
255
255
255
255
255
255
255
255
255
255
255
255
255
255
255
255
255
255
255
255
255
255
255
255
255
255
255
255
255
255
255
255
255
255
255
255
255
255
255
255
255
255
255
255
255
255
255
255
255
255
255
255
255
255
255
255
255
255
255
255
255
255
255
255
255
255
255
255
255
255
255
255
255
255
255
255
255
255
255
255
255
255
255
255
255
255
255
255
255
255
255
255
255
255
255
255
255
255
255
255
255
255
255
255
255
255
255
255
255
255
255
255
255
255
255
255
255
255
255
255
255
255
255
255
255
255
255
255
255
255
255
254
255
231
136
3
122
170
114
78
91
101
101
100
108
118
125
83
31
102
109
79
63
62
52
54
58
60
65
77
93
99
96
63
104
108
85
89
108
127
143
139
137
135
135
137
138
138
138
136
142
133
131
133
96
43
15
66
207
255
255
255
254
253
255
255
255
255
255
255
255
255
255
255
255
255
255
255
255
255
255
255
255
255
255
255
255
255
255
255
255
255
255
255
255
255
255
255
255
255
255
255
255
255
255
255
255
255
255
255
255
255
255
255
255
255
255
255
255
255
255
255
255
255
255
255
255
255
255
255
255
255
255
255
255
255
255
255
255
255
255
255
255
255
255
255
255
255
255
255
255
255
255
255
255
255
255
255
255
255
255
255
255
255
255
255
255
255
255
255
255
255
255
255
255
255
255
255
255
255
255
255
255
255
255
255
255
255
255
255
255
255
255
255
255
255
255
255
255
255
255
255
255
255
255
255
255
255
255
255
255
255
255
255
255
255
255
255
255
255
255
255
255
255
255
255
255
255
255
255
255
255
255
255
255
255
255
255
255
255
255
255
255
255
255
255
255
255
255
255
255
255
255
255
255
255
255
255
255
255
255
255
255
255
255
255
255
255
255
255
255
255
255
255
255
255
255
255
255
255
255
255
255
255
255
255
255
255
255
255
255
255
255
255
255
255
255
255
255
255
255
255
255
255
255
255
255
255
255
255
255
255
255
255
255
255
255
255
255
255
255
255
255
255
255
255
255
255
255
255
255
255
255
255
255
255
255
255
255
255
255
255
255
255
255
255
255
255
255
255
255
255
255
255
255
255
255
255
255
255
255
255
255
255
255
255
255
255
255
255
255
255
255
255
255
255
255
255
255
255
255
255
255
255
255
255
255
255
255
255
255
255
255
255
255
255
255
255
255
255
255
255
255
255
255
255
255
255
255
255
255
255
255
255
255
255
255
255
255
255
255
255
255
255
255
255
255
255
255
255
255
255
255
255
255
255
255
255
255
255
255
255
255
255
255
255
254
252
254
204
65
100
149
116
92
88
84
85
90
104
122
135
136
58
62
107
122
138
137
108
125
126
118
105
95
91
84
79
67
66
88
106
112
138
152
132
138
136
135
135
136
137
135
134
146
138
125
127
137
112
55
7
42
190
255
252
255
253
254
255
255
255
255
255
255
255
255
255
255
255
255
255
255
255
255
255
255
255
255
255
255
255
255
255
255
255
255
255
255
255
255
255
255
255
255
255
255
255
255
255
255
255
255
255
255
255
255
255
255
255
255
255
255
255
255
255
255
255
255
255
255
255
255
255
255
255
255
255
255
255
255
255
255
255
255
255
255
255
255
255
255
255
255
255
255
255
255
255
255
255
255
255
255
255
255
255
255
255
255
255
255
255
255
255
255
255
255
255
255
255
255
255
255
255
255
255
255
255
255
255
255
255
255
255
255
255
255
255
255
255
255
255
255
255
255
255
255
255
255
255
255
255
255
255
255
255
255
255
255
255
255
255
255
255
255
255
255
255
255
255
255
255
255
255
255
255
255
255
255
255
255
255
255
255
255
255
255
255
255
255
255
255
255
255
255
255
255
255
255
255
255
255
255
255
255
255
255
255
255
255
255
255
255
255
255
255
255
255
255
255
255
255
255
255
255
255
255
255
255
255
255
255
255
255
255
255
255
255
255
255
255
255
255
255
255
255
255
255
255
255
255
255
255
255
255
255
255
255
255
255
255
255
255
255
255
255
255
255
255
255
255
255
255
255
255
255
255
255
255
255
255
255
255
255
255
255
255
255
255
255
255
255
255
255
255
255
255
255
255
255
255
255
255
255
255
255
255
255
255
255
255
255
255
255
255
255
255
255
255
255
255
255
255
255
255
255
255
255
255
255
255
255
255
255
255
255
255
255
255
255
255
255
255
255
255
255
255
255
255
255
255
255
255
255
255
255
255
255
255
255
255
255
255
255
255
255
255
255
255
255
255
255
255
255
255
255
255
255
255
255
255
255
255
255
255
255
255
255
255
255
255
254
248
255
227
90
62
148
150
85
86
91
101
105
105
111
123
151
99
57
141
157
167
161
140
135
140
141
135
128
125
125
124
102
60
87
134
134
149
146
123
139
138
135
136
136
136
133
132
142
140
140
135
123
102
56
7
19
176
251
253
255
252
253
255
255
255
255
255
255
255
255
255
255
255
255
255
255
255
255
255
255
255
255
255
255
255
255
255
255
255
255
255
255
255
255
255
255
255
255
255
255
255
255
255
255
255
255
255
255
255
255
255
255
255
255
255
255
255
255
255
255
255
255
255
255
255
255
255
255
255
255
255
255
255
255
255
255
255
255
255
255
255
255
255
255
255
255
255
255
255
255
255
255
255
255
255
255
255
255
255
255
255
255
255
255
255
255
255
255
255
255
255
255
255
255
255
255
255
255
255
255
255
255
255
255
255
255
255
255
255
255
255
255
255
255
255
255
255
255
255
255
255
255
255
255
255
255
255
255
255
255
255
255
255
255
255
255
255
255
255
255
255
255
255
255
255
255
255
255
255
255
255
255
255
255
255
255
255
255
255
255
255
255
255
255
255
255
255
255
255
255
255
255
255
255
255
255
255
255
255
255
255
255
255
255
255
255
255
255
255
255
255
255
255
255
255
255
255
255
255
255
255
255
255
255
255
255
255
255
255
255
255
255
255
255
255
255
255
255
255
255
255
255
255
255
255
255
255
255
255
255
255
255
255
255
255
255
255
255
255
255
255
255
255
255
255
255
255
255
255
255
255
255
255
255
255
255
255
255
255
255
255
255
255
255
255
255
255
255
255
255
255
255
255
255
255
255
255
255
255
255
255
255
255
255
255
255
255
255
255
255
255
255
255
255
255
255
255
255
255
255
255
255
255
255
255
255
255
255
255
255
255
255
255
255
255
255
255
255
255
255
255
255
255
255
255
255
255
255
255
255
255
255
255
255
255
255
255
255
255
255
255
255
255
255
255
255
255
255
255
255
255
255
255
255
255
255
255
255
255
255
255
255
255
255
254
252
254
214
88
21
130
159
106
97
95
98
97
99
116
142
137
127
63
159
164
153
155
142
135
139
143
143
143
142
144
144
136
91
95
132
140
141
141
131
140
138
137
137
138
138
136
134
135
137
146
138
114
96
59
5
14
174
253
255
255
252
252
255
255
255
255
255
255
255
255
255
255
255
255
255
255
255
255
255
255
255
255
255
255
255
255
255
255
255
255
255
255
255
255
255
255
255
255
255
255
255
255
255
255
255
255
255
255
255
255
255
255
255
255
255
255
255
255
255
255
255
255
255
255
255
255
255
255
255
255
255
255
255
255
255
255
255
255
255
255
255
255
255
255
255
255
255
255
255
255
255
255
255
255
255
255
255
255
255
255
255
255
255
255
255
255
255
255
255
255
255
255
255
255
255
255
255
255
255
255
255
255
255
255
255
255
255
255
255
255
255
255
255
255
255
255
255
255
255
255
255
255
255
255
255
255
255
255
255
255
255
255
255
255
255
255
255
255
255
255
255
255
255
255
255
255
255
255
255
255
255
255
255
255
255
255
255
255
255
255
255
255
255
255
255
255
255
255
255
255
255
255
255
255
255
255
255
255
255
255
255
255
255
255
255
255
255
255
255
255
255
255
255
255
255
255
255
255
255
255
255
255
255
255
255
255
255
255
255
255
255
255
255
255
255
255
255
255
255
255
255
255
255
255
255
255
255
255
255
255
255
255
255
255
255
255
255
255
255
255
255
255
255
255
255
255
255
255
255
255
255
255
255
255
255
255
255
255
255
255
255
255
255
255
255
255
255
255
255
255
255
255
255
255
255
255
255
255
255
255
255
255
255
255
255
255
255
255
255
255
255
255
255
255
255
255
255
255
255
255
255
255
255
255
255
255
255
255
255
255
255
255
255
255
255
255
255
255
255
255
255
255
255
255
255
255
255
255
255
255
255
255
255
255
255
255
255
255
255
255
255
255
255
255
255
255
255
255
255
255
255
255
255
255
255
255
255
255
255
255
255
255
255
255
253
254
254
233
128
2
69
111
106
88
79
89
99
109
126
145
145
141
58
125
160
159
163
153
143
140
137
138
139
138
134
133
141
118
87
102
142
139
125
146
139
138
136
137
137
138
138
136
140
129
128
124
114
105
62
2
25
180
254
255
255
252
252
255
255
255
255
255
255
255
255
255
255
255
255
255
255
255
255
255
255
255
255
255
255
255
255
255
255
255
255
255
255
255
255
255
255
255
255
255
255
255
255
255
255
255
255
255
255
255
255
255
255
255
255
255
255
255
255
255
255
255
255
255
255
255
255
255
255
255
255
255
255
255
255
255
255
255
255
255
255
255
255
255
255
255
255
255
255
255
255
255
255
255
255
255
255
255
255
255
255
255
255
255
255
255
255
255
255
255
255
255
255
255
255
255
255
255
255
255
255
255
255
255
255
255
255
255
255
255
255
255
255
255
255
255
255
255
255
255
255
255
255
255
255
255
255
255
255
255
255
255
255
255
255
255
255
255
255
255
255
255
255
255
255
255
255
255
255
255
255
255
255
255
255
255
255
255
255
255
255
255
255
255
255
255
255
255
255
255
255
255
255
255
255
255
255
255
255
255
255
255
255
255
255
255
255
255
255
255
255
255
255
255
255
255
255
255
255
255
255
255
255
255
255
255
255
255
255
255
255
255
255
255
255
255
255
255
255
255
255
255
255
255
255
255
255
255
255
255
255
255
255
255
255
255
255
255
255
255
255
255
255
255
255
255
255
255
255
255
255
255
255
255
255
255
255
255
255
255
255
255
255
255
255
255
255
255
255
255
255
255
255
255
255
255
255
255
255
255
255
255
255
255
255
255
255
255
255
255
255
255
255
255
255
255
255
255
255
255
255
255
255
255
255
255
255
255
255
255
255
255
255
255
255
255
255
255
255
255
255
255
255
255
255
255
255
255
255
255
255
255
255
255
255
255
255
255
255
255
255
255
255
255
255
255
255
255
255
255
255
255
255
255
255
255
255
255
255
255
255
255
255
255
255
255
250
253
254
192
25
20
81
92
72
64
79
102
118
126
131
143
147
78
96
161
164
162
162
143
134
129
132
137
138
138
139
146
142
92
83
139
147
127
151
142
139
136
135
135
137
138
137
144
135
125
113
99
81
42
0
49
193
254
249
255
254
254
255
255
255
255
255
255
255
255
255
255
255
255
255
255
255
255
255
255
255
255
255
255
255
255
255
255
255
255
255
255
255
255
255
255
255
255
255
255
255
255
255
255
255
255
255
255
255
255
255
255
255
255
255
255
255
255
255
255
255
255
255
255
255
255
255
255
255
255
255
255
255
255
255
255
255
255
255
255
255
255
255
255
255
255
255
255
255
255
255
255
255
255
255
255
255
255
255
255
255
255
255
255
255
255
255
255
255
255
255
255
255
255
255
255
255
255
255
255
255
255
255
255
255
255
255
255
255
255
255
255
255
255
255
255
255
255
255
255
255
255
255
255
255
255
255
255
255
255
255
255
255
255
255
255
255
255
255
255
255
255
255
255
255
255
255
255
255
255
255
255
255
255
255
255
255
255
255
255
255
255
255
255
255
255
255
255
255
255
255
255
255
255
255
255
255
255
255
255
255
255
255
255
255
255
255
255
255
255
255
255
255
255
255
255
255
255
255
255
255
255
255
255
255
255
255
255
255
255
255
255
255
255
255
255
255
255
255
255
255
255
255
255
255
255
255
255
255
255
255
255
255
255
255
255
255
255
255
255
255
255
255
255
255
255
255
255
255
255
255
255
255
255
255
255
255
255
255
255
255
255
255
255
255
255
255
255
255
255
255
255
255
255
255
255
255
255
255
255
255
255
255
255
255
255
255
255
255
255
255
255
255
255
255
255
255
255
255
255
255
255
255
255
255
255
255
255
255
255
255
255
255
255
255
255
255
255
255
255
255
255
255
255
255
255
255
255
255
255
255
255
255
255
255
255
255
255
255
255
255
255
255
255
255
255
255
255
255
255
255
255
255
255
255
255
255
255
255
255
255
255
255
255
255
255
245
254
233
78
7
72
123
101
73
59
65
88
117
138
129
147
120
74
160
160
148
161
159
149
141
138
137
135
137
145
154
159
121
90
115
144
150
156
152
148
141
137
137
138
139
138
141
138
119
94
76
48
15
6
87
217
255
246
255
255
255
255
255
255
255
255
255
255
255
255
255
255
255
255
255
255
255
255
255
255
255
255
255
255
255
255
255
255
255
255
255
255
255
255
255
255
255
255
255
255
255
255
255
255
255
255
255
255
255
255
255
255
255
255
255
255
255
255
255
255
255
255
255
255
255
255
255
255
255
255
255
255
255
255
255
255
255
255
255
255
255
255
255
255
255
255
255
255
255
255
255
255
255
255
255
255
255
255
255
255
255
255
255
255
255
255
255
255
255
255
255
255
255
255
255
255
255
255
255
255
255
255
255
255
255
255
255
255
255
255
255
255
255
255
255
255
255
255
255
255
255
255
255
255
255
255
255
255
255
255
255
255
255
255
255
255
255
255
255
255
255
255
255
255
255
255
255
255
255
255
255
255
255
255
255
255
255
255
255
255
255
255
255
255
255
255
255
255
255
255
255
255
255
255
255
255
255
255
255
255
255
255
255
255
255
255
255
255
255
255
255
255
255
255
255
255
255
255
255
255
255
255
255
255
255
255
255
255
255
255
255
255
255
255
255
255
255
255
255
255
255
255
255
255
255
255
255
255
255
255
255
255
255
255
255
255
255
255
255
255
255
255
255
255
255
255
255
255
255
255
255
255
255
255
255
255
255
255
255
255
255
255
255
255
255
255
255
255
255
255
255
255
255
255
255
255
255
255
255
255
255
255
255
255
255
255
255
255
255
255
255
255
255
255
255
255
255
255
255
255
255
255
255
255
255
255
255
255
255
255
255
255
255
255
255
255
255
255
255
255
255
255
255
255
255
255
255
255
255
255
255
255
255
255
255
255
255
255
255
255
255
255
255
255
255
255
255
255
255
255
255
255
255
255
255
255
255
255
255
255
255
255
255
244
254
252
247
251
126
8
48
130
133
117
80
54
59
90
120
133
143
131
47
157
169
152
163
157
152
147
144
141
140
150
164
149
161
144
100
80
129
164
164
163
157
148
142
140
141
141
142
140
123
86
67
67
46
9
7
119
238
255
248
255
255
254
252
255
255
255
255
255
255
255
255
255
255
255
255
255
255
255
255
255
255
255
255
255
255
255
255
255
255
255
255
255
255
255
255
255
255
255
255
255
255
255
255
255
255
255
255
255
255
255
255
255
255
255
255
255
255
255
255
255
255
255
255
255
255
255
255
255
255
255
255
255
255
255
255
255
255
255
255
255
255
255
255
255
255
255
255
255
255
255
255
255
255
255
255
255
255
255
255
255
255
255
255
255
255
255
255
255
255
255
255
255
255
255
255
255
255
255
255
255
255
255
255
255
255
255
255
255
255
255
255
255
255
255
255
255
255
255
255
255
255
255
255
255
255
255
255
255
255
255
255
255
255
255
255
255
255
255
255
255
255
255
255
255
255
255
255
255
255
255
255
255
255
255
255
255
255
255
255
255
255
255
255
255
255
255
255
255
255
255
255
255
255
255
255
255
255
255
255
255
255
255
255
255
255
255
255
255
255
255
255
255
255
255
255
255
255
255
255
255
255
255
255
255
255
255
255
255
255
255
255
255
255
255
255
255
255
255
255
255
255
255
255
255
255
255
255
255
255
255
255
255
255
255
255
255
255
255
255
255
255
255
255
255
255
255
255
255
255
255
255
255
255
255
255
255
255
255
255
255
255
255
255
255
255
255
255
255
255
255
255
255
255
255
255
255
255
255
255
255
255
255
255
255
255
255
255
255
255
255
255
255
255
255
255
255
255
255
255
255
255
255
255
255
255
255
255
255
255
255
255
255
255
255
255
255
255
255
255
255
255
255
255
255
255
255
255
255
255
255
255
255
255
255
255
255
255
255
255
255
255
255
255
255
255
255
255
255
255
255
255
255
255
255
255
255
255
255
255
255
255
255
255
255
255
237
252
255
255
198
44
0
46
145
144
96
100
86
58
72
119
144
136
69
129
165
169
152
162
161
154
142
139
147
160
167
151
153
166
130
75
104
165
162
169
168
152
132
139
147
137
122
89
59
57
84
85
32
2
4
161
237
255
246
253
255
250
255
255
255
255
255
255
255
255
255
255
255
255
255
255
255
255
255
255
255
255
255
255
255
255
255
255
255
255
255
255
255
255
255
255
255
255
255
255
255
255
255
255
255
255
255
255
255
255
255
255
255
255
255
255
255
255
255
255
255
255
255
255
255
255
255
255
255
255
255
255
255
255
255
255
255
255
255
255
255
255
255
255
255
255
255
255
255
255
255
255
255
255
255
255
255
255
255
255
255
255
255
255
255
255
255
255
255
255
255
255
255
255
255
255
255
255
255
255
255
255
255
255
255
255
255
255
255
255
255
255
255
255
255
255
255
255
255
255
255
255
255
255
255
255
255
255
255
255
255
255
255
255
255
255
255
255
255
255
255
255
255
255
255
255
255
255
255
255
255
255
255
255
255
255
255
255
255
255
255
255
255
255
255
255
255
255
255
255
255
255
255
255
255
255
255
255
255
255
255
255
255
255
255
255
255
255
255
255
255
255
255
255
255
255
255
255
255
255
255
255
255
255
255
255
255
255
255
255
255
255
255
255
255
255
255
255
255
255
255
255
255
255
255
255
255
255
255
255
255
255
255
255
255
255
255
255
255
255
255
255
255
255
255
255
255
255
255
255
255
255
255
255
255
255
255
255
255
255
255
255
255
255
255
255
255
255
255
255
255
255
255
255
255
255
255
255
255
255
255
255
255
255
255
255
255
255
255
255
255
255
255
255
255
255
255
255
255
255
255
255
255
255
255
255
255
255
255
255
255
255
255
255
255
255
255
255
255
255
255
255
255
255
255
255
255
255
255
255
255
255
255
255
255
255
255
255
255
255
255
255
255
255
255
255
255
255
255
255
255
255
255
255
255
255
255
255
255
255
255
255
255
255
252
248
255
242
251
241
132
65
19
56
114
127
96
84
82
65
80
99
106
67
140
165
166
158
160
162
157
145
137
143
153
160
166
156
150
135
108
96
124
163
150
147
137
140
151
139
105
80
66
87
99
74
23
4
14
84
201
253
255
248
255
255
248
255
255
255
255
255
255
255
255
255
255
255
255
255
255
255
255
255
255
255
255
255
255
255
255
255
255
255
255
255
255
255
255
255
255
255
255
255
255
255
255
255
255
255
255
255
255
255
255
255
255
255
255
255
255
255
255
255
255
255
255
255
255
255
255
255
255
255
255
255
255
255
255
255
255
255
255
255
255
255
255
255
255
255
255
255
255
255
255
255
255
255
255
255
255
255
255
255
255
255
255
255
255
255
255
255
255
255
255
255
255
255
255
255
255
255
255
255
255
255
255
255
255
255
255
255
255
255
255
255
255
255
255
255
255
255
255
255
255
255
255
255
255
255
255
255
255
255
255
255
255
255
255
255
255
255
255
255
255
255
255
255
255
255
255
255
255
255
255
255
255
255
255
255
255
255
255
255
255
255
255
255
255
255
255
255
255
255
255
255
255
255
255
255
255
255
255
255
255
255
255
255
255
255
255
255
255
255
255
255
255
255
255
255
255
255
255
255
255
255
255
255
255
255
255
255
255
255
255
255
255
255
255
255
255
255
255
255
255
255
255
255
255
255
255
255
255
255
255
255
255
255
255
255
255
255
255
255
255
255
255
255
255
255
255
255
255
255
255
255
255
255
255
255
255
255
255
255
255
255
255
255
255
255
255
255
255
255
255
255
255
255
255
255
255
255
255
255
255
255
255
255
255
255
255
255
255
255
255
255
255
255
255
255
255
255
255
255
255
255
255
255
255
255
255
255
255
255
255
255
255
255
255
255
255
255
255
255
255
255
255
255
255
255
255
255
255
255
255
255
255
255
255
255
255
255
255
255
255
255
255
255
255
255
255
255
255
255
255
255
255
255
255
255
255
255
255
255
255
255
255
255
255
251
250
255
241
244
255
220
170
54
5
56
130
113
89
100
101
66
68
73
49
110
125
127
136
131
137
137
126
116
116
123
128
151
156
142
146
150
101
82
125
151
145
134
125
115
89
70
71
88
96
70
15
1
29
107
175
242
255
255
248
255
255
248
254
255
255
255
255
255
255
255
255
255
255
255
255
255
255
255
255
255
255
255
255
255
255
255
255
255
255
255
255
255
255
255
255
255
255
255
255
255
255
255
255
255
255
255
255
255
255
255
255
255
255
255
255
255
255
255
255
255
255
255
255
255
255
255
255
255
255
255
255
255
255
255
255
255
255
255
255
255
255
255
255
255
255
255
255
255
255
255
255
255
255
255
255
255
255
255
255
255
255
255
255
255
255
255
255
255
255
255
255
255
255
255
255
255
255
255
255
255
255
255
255
255
255
255
255
255
255
255
255
255
255
255
255
255
255
255
255
255
255
255
255
255
255
255
255
255
255
255
255
255
255
255
255
255
255
255
255
255
255
255
255
255
255
255
255
255
255
255
255
255
255
255
255
255
255
255
255
255
255
255
255
255
255
255
255
255
255
255
255
255
255
255
255
255
255
255
255
255
255
255
255
255
255
255
255
255
255
255
255
255
255
255
255
255
255
255
255
255
255
255
255
255
255
255
255
255
255
255
255
255
255
255
255
255
255
255
255
255
255
255
255
255
255
255
255
255
255
255
255
255
255
255
255
255
255
255
255
255
255
255
255
255
255
255
255
255
255
255
255
255
255
255
255
255
255
255
255
255
255
255
255
255
255
255
255
255
255
255
255
255
255
255
255
255
255
255
255
255
255
255
255
255
255
255
255
255
255
255
255
255
255
255
255
255
255
255
255
255
255
255
255
255
255
255
255
255
255
255
255
255
255
255
255
255
255
255
255
255
255
255
255
255
255
255
255
255
255
255
255
255
255
255
255
255
255
255
255
255
255
255
255
255
255
255
255
255
255
255
255
255
255
255
255
255
255
255
255
255
255
255
255
255
255
239
255
255
248
255
251
240
196
96
4
25
91
99
82
90
88
78
67
36
66
81
93
115
108
115
114
101
87
82
85
88
89
110
106
112
134
111
80
89
139
126
99
78
71
70
80
103
82
71
25
2
18
112
205
253
255
255
248
246
255
255
249
255
255
255
255
255
255
255
255
255
255
255
255
255
255
255
255
255
255
255
255
255
255
255
255
255
255
255
255
255
255
255
255
255
255
255
255
255
255
255
255
255
255
255
255
255
255
255
255
255
255
255
255
255
255
255
255
255
255
255
255
255
255
255
255
255
255
255
255
255
255
255
255
255
255
255
255
255
255
255
255
255
255
255
255
255
255
255
255
255
255
255
255
255
255
255
255
255
255
255
255
255
255
255
255
255
255
255
255
255
255
255
255
255
255
255
255
255
255
255
255
255
255
255
255
255
255
255
255
255
255
255
255
255
255
255
255
255
255
255
255
255
255
255
255
255
255
255
255
255
255
255
255
255
255
255
255
255
255
255
255
255
255
255
255
255
255
255
255
255
255
255
255
255
255
255
255
255
255
255
255
255
255
255
255
255
255
255
255
255
255
255
255
255
255
255
255
255
255
255
255
255
255
255
255
255
255
255
255
255
255
255
255
255
255
255
255
255
255
255
255
255
255
255
255
255
255
255
255
255
255
255
255
255
255
255
255
255
255
255
255
255
255
255
255
255
255
255
255
255
255
255
255
255
255
255
255
255
255
255
255
255
255
255
255
255
255
255
255
255
255
255
255
255
255
255
255
255
255
255
255
255
255
255
255
255
255
255
255
255
255
255
255
255
255
255
255
255
255
255
255
255
255
255
255
255
255
255
255
255
255
255
255
255
255
255
255
255
255
255
255
255
255
255
255
255
255
255
255
255
255
255
255
255
255
255
255
255
255
255
255
255
255
255
255
255
255
255
255
255
255
255
255
255
255
255
255
255
255
255
255
255
255
255
255
255
255
255
255
255
255
255
255
255
255
255
255
255
255
255
255
255
255
255
238
253
255
252
247
249
255
249
228
104
4
27
56
61
89
98
98
87
50
62
84
100
121
149
154
149
133
116
110
111
113
85
84
78
70
75
78
65
47
82
75
61
60
81
96
89
82
38
18
4
11
108
206
252
255
255
250
245
250
255
253
250
255
255
255
255
255
255
255
255
255
255
255
255
255
255
255
255
255
255
255
255
255
255
255
255
255
255
255
255
255
255
255
255
255
255
255
255
255
255
255
255
255
255
255
255
255
255
255
255
255
255
255
255
255
255
255
255
255
255
255
255
255
255
255
255
255
255
255
255
255
255
255
255
255
255
255
255
255
255
255
255
255
255
255
255
255
255
255
255
255
255
255
255
255
255
255
255
255
255
255
255
255
255
255
255
255
255
255
255
255
255
255
255
255
255
255
255
255
255
255
255
255
255
255
255
255
255
255
255
255
255
255
255
255
255
255
255
255
255
255
255
255
255
255
255
255
255
255
255
255
255
255
255
255
255
255
255
255
255
255
255
255
255
255
255
255
255
255
255
255
255
255
255
255
255
255
255
255
255
255
255
255
255
255
255
255
255
255
255
255
255
255
255
255
255
255
255
255
255
255
255
255
255
255
255
255
255
255
255
255
255
255
255
255
255
255
255
255
255
255
255
255
255
255
255
255
255
255
255
255
255
255
255
255
255
255
255
255
255
255
255
255
255
255
255
255
255
255
255
255
255
255
255
255
255
255
255
255
255
255
255
255
255
255
255
255
255
255
255
255
255
255
255
255
255
255
255
255
255
255
255
255
255
255
255
255
255
255
255
255
255
255
255
255
255
255
255
255
255
255
255
255
255
255
255
255
255
255
255
255
255
255
255
255
255
255
255
255
255
255
255
255
255
255
255
255
255
255
255
255
255
255
255
255
255
255
255
255
255
255
255
255
255
255
255
255
255
255
255
255
255
255
255
255
255
255
255
255
255
255
255
255
255
255
255
255
255
255
255
255
255
255
255
255
255
255
255
255
255
255
255
255
255
253
250
255
255
252
251
252
247
236
252
234
143
51
4
13
48
75
88
96
67
73
98
105
113
111
116
114
107
101
101
104
106
111
88
84
83
69
64
54
26
37
61
77
86
91
70
31
4
4
3
24
101
209
251
254
235
255
250
251
255
255
251
252
255
255
255
255
255
255
255
255
255
255
255
255
255
255
255
255
255
255
255
255
255
255
255
255
255
255
255
255
255
255
255
255
255
255
255
255
255
255
255
255
255
255
255
255
255
255
255
255
255
255
255
255
255
255
255
255
255
255
255
255
255
255
255
255
255
255
255
255
255
255
255
255
255
255
255
255
255
255
255
255
255
255
255
255
255
255
255
255
255
255
255
255
255
255
255
255
255
255
255
255
255
255
255
255
255
255
255
255
255
255
255
255
255
255
255
255
255
255
255
255
255
255
255
255
255
255
255
255
255
255
255
255
255
255
255
255
255
255
255
255
255
255
255
255
255
255
255
255
255
255
255
255
255
255
255
255
255
255
255
255
255
255
255
255
255
255
255
255
255
255
255
255
255
255
255
255
255
255
255
255
255
255
255
255
255
255
255
255
255
255
255
255
255
255
255
255
255
255
255
255
255
255
255
255
255
255
255
255
255
255
255
255
255
255
255
255
255
255
255
255
255
255
255
255
255
255
255
255
255
255
255
255
255
255
255
255
255
255
255
255
255
255
255
255
255
255
255
255
255
255
255
255
255
255
255
255
255
255
255
255
255
255
255
255
255
255
255
255
255
255
255
255
255
255
255
255
255
255
255
255
255
255
255
255
255
255
255
255
255
255
255
255
255
255
255
255
255
255
255
255
255
255
255
255
255
255
255
255
255
255
255
255
255
255
255
255
255
255
255
255
255
255
255
255
255
255
255
255
255
255
255
255
255
255
255
255
255
255
255
255
255
255
255
255
255
255
255
255
255
255
255
255
255
255
255
255
255
255
255
255
255
255
255
255
255
255
255
255
255
255
255
255
255
255
255
255
255
255
255
255
255
255
247
255
255
251
255
255
255
248
252
247
246
235
172
87
21
2
35
46
61
51
58
83
85
89
85
89
92
92
93
98
101
100
95
86
92
101
96
90
76
54
34
62
78
68
43
12
2
18
53
103
162
211
245
253
251
255
255
251
255
255
255
254
255
254
255
255
255
255
255
255
255
255
255
255
255
255
255
255
255
255
255
255
255
255
255
255
255
255
255
255
255
255
255
255
255
255
255
255
255
255
255
255
255
255
255
255
255
255
255
255
255
255
255
255
255
255
255
255
255
255
255
255
255
255
255
255
255
255
255
255
255
255
255
255
255
255
255
255
255
255
255
255
255
255
255
255
255
255
255
255
255
255
255
255
255
255
255
255
255
255
255
255
255
255
255
255
255
255
255
255
255
255
255
255
255
255
255
255
255
255
255
255
255
255
255
255
255
255
255
255
255
255
255
255
255
255
255
255
255
255
255
255
255
255
255
255
255
255
255
255
255
255
255
255
255
255
255
255
255
255
255
255
255
255
255
255
255
255
255
255
255
255
255
255
255
255
255
255
255
255
255
255
255
255
255
255
255
255
255
255
255
255
255
255
255
255
255
255
255
255
255
255
255
255
255
255
255
255
255
255
255
255
255
255
255
255
255
255
255
255
255
255
255
255
255
255
255
255
255
255
255
255
255
255
255
255
255
255
255
255
255
255
255
255
255
255
255
255
255
255
255
255
255
255
255
255
255
255
255
255
255
255
255
255
255
255
255
255
255
255
255
255
255
255
255
255
255
255
255
255
255
255
255
255
255
255
255
255
255
255
255
255
255
255
255
255
255
255
255
255
255
255
255
255
255
255
255
255
255
255
255
255
255
255
255
255
255
255
255
255
255
255
255
255
255
255
255
255
255
255
255
255
255
255
255
255
255
255
255
255
255
255
255
255
255
255
255
255
255
255
255
255
255
255
255
255
255
255
255
255
255
255
255
255
255
255
255
255
255
255
255
255
255
255
255
255
255
255
255
255
255
255
255
255
255
253
255
244
249
255
255
251
255
242
255
255
251
255
237
168
108
4
4
15
17
32
61
68
80
96
98
99
98
98
101
98
94
96
106
100
87
89
91
73
54
47
36
17
6
7
6
49
115
201
225
241
251
252
253
249
245
255
250
253
255
253
255
255
252
255
255
255
255
255
255
255
255
255
255
255
255
255
255
255
255
255
255
255
255
255
255
255
255
255
255
255
255
255
255
255
255
255
255
255
255
255
255
255
255
255
255
255
255
255
255
255
255
255
255
255
255
255
255
255
255
255
255
255
255
255
255
255
255
255
255
255
255
255
255
255
255
255
255
255
255
255
255
255
255
255
255
255
255
255
255
255
255
255
255
255
255
255
255
255
255
255
255
255
255
255
255
255
255
255
255
255
255
255
255
255
255
255
255
255
255
255
255
255
255
255
255
255
255
255
255
255
255
255
255
255
255
255
255
255
255
255
255
255
255
255
255
255
255
255
255
255
255
255
255
255
255
255
255
255
255
255
255
255
255
255
255
255
255
255
255
255
255
255
255
255
255
255
255
255
255
255
255
255
255
255
255
255
255
255
255
255
255
255
255
255
255
255
255
255
255
255
255
255
255
255
255
255
255
255
255
255
255
255
255
255
255
255
255
255
255
255
255
255
255
255
255
255
255
255
255
255
255
255
255
255
255
255
255
255
255
255
255
255
255
255
255
255
255
255
255
255
255
255
255
255
255
255
255
255
255
255
255
255
255
255
255
255
255
255
255
255
255
255
255
255
255
255
255
255
255
255
255
255
255
255
255
255
255
255
255
255
255
255
255
255
255
255
255
255
255
255
255
255
255
255
255
255
255
255
255
255
255
255
255
255
255
255
255
255
255
255
255
255
255
255
255
255
255
255
255
255
255
255
255
255
255
255
255
255
255
255
255
255
255
255
255
255
255
255
255
255
255
255
255
255
255
255
255
255
255
255
255
255
255
255
255
255
255
255
255
255
255
255
255
255
255
255
255
255
255
255
255
255
255
255
255
255
255
255
255
255
255
255
254
254
255
255
255
254
253
252
185
77
0
1
14
0
0
20
36
41
49
57
62
64
64
63
58
46
40
44
39
19
4
2
5
0
0
13
76
160
222
246
250
250
251
252
253
254
255
255
255
255
255
255
255
255
255
255
255
255
255
255
255
255
255
255
255
255
255
255
255
255
255
255
255
255
255
255
255
255
255
255
255
255
255
255
255
255
255
255
255
255
255
255
255
255
255
255
255
255
255
255
255
255
255
255
255
255
255
255
255
255
255
255
255
255
255
255
255
255
255
255
255
255
255
255
255
255
255
255
255
255
255
255
255
255
255
255
255
255
255
255
255
255
255
255
255
255
255
255
255
255
255
255
255
255
255
255
255
255
255
255
255
255
255
255
255
255
255
255
255
255
255
255
255
255
255
255
255
255
255
255
255
255
255
255
255
255
255
255
255
255
255
255
255
255
255
255
255
255
255
255
255
255
255
255
255
255
255
255
255
255
255
255
255
255
255
255
255
255
255
255
255
255
255
255
255
255
255
255
255
255
255
255
255
255
255
255
255
255
255
255
255
255
255
255
255
255
255
255
255
255
255
255
255
255
255
255
255
255
255
255
255
255
255
255
255
255
255
255
255
255
255
255
255
255
255
255
255
255
255
255
255
255
255
255
255
255
255
255
255
255
255
255
255
255
255
255
255
255
255
255
255
255
255
255
255
255
255
255
255
255
255
255
255
255
255
255
255
255
255
255
255
255
255
255
255
255
255
255
255
255
255
255
255
255
255
255
255
255
255
255
255
255
255
255
255
255
255
255
255
255
255
255
255
255
255
255
255
255
255
255
255
255
255
255
255
255
255
255
255
255
255
255
255
255
255
255
255
255
255
255
255
255
255
255
255
255
255
255
255
255
255
255
255
255
255
255
255
255
255
255
255
255
255
255
255
255
255
255
255
255
255
255
255
255
255
255
255
255
255
255
255
255
255
255
255
255
255
255
255
255
255
255
255
255
255
255
255
255
255
255
255
255
255
255
255
254
254
255
255
255
254
253
252
248
243
195
115
58
39
24
1
6
4
2
1
1
1
6
11
10
7
5
4
3
2
10
25
18
59
116
173
224
255
255
242
251
251
252
252
253
254
255
255
255
255
255
255
255
255
255
255
255
255
255
255
255
255
255
255
255
255
255
255
255
255
255
255
255
255
255
255
255
255
255
255
255
255
255
255
255
255
255
255
255
255
255
255
255
255
255
255
255
255
255
255
255
255
255
255
255
255
255
255
255
255
255
255
255
255
255
255
255
255
255
255
255
255
255
255
255
255
255
255
255
255
255
255
255
255
255
255
255
255
255
255
255
255
255
255
255
255
255
255
255
255
255
255
255
255
255
255
255
255
255
255
255
255
255
255
255
255
255
255
255
255
255
255
255
255
255
255
255
255
255
255
255
255
255
255
255
255
255
255
255
255
255
255
255
255
255
255
255
255
255
255
255
255
255
255
255
255
255
255
255
255
255
255
255
255
255
255
255
255
255
255
255
255
255
255
255
255
255
255
255
255
255
255
255
255
255
255
255
255
255
255
255
255
255
255
255
255
255
255
255
255
255
255
255
255
255
255
255
255
255
255
255
255
255
255
255
255
255
255
255
255
255
255
255
255
255
255
255
255
255
255
255
255
255
255
255
255
255
255
255
255
255
255
255
255
255
255
255
255
255
255
255
255
255
255
255
255
255
255
255
255
255
255
255
255
255
255
255
255
255
255
255
255
255
255
255
255
255
255
255
255
255
255
255
255
255
255
255
255
255
255
255
255
255
255
255
255
255
255
255
255
255
255
255
255
255
255
255
255
255
255
255
255
255
255
255
255
255
255
255
255
255
255
255
255
255
255
255
255
255
255
255
255
255
255
255
255
255
255
255
255
255
255
255
255
255
255
255
255
255
255
255
255
255
255
255
255
255
255
255
255
255
255
255
255
255
255
255
255
255
255
255
255
255
255
255
255
255
255
255
255
255
255
255
255
255
255
255
255
255
255
255
255
255
255
255
254
254
255
255
255
254
253
252
255
255
255
224
188
173
156
135
88
74
51
28
10
1
0
0
2
4
16
34
53
76
112
144
185
208
231
245
255
255
255
250
251
252
252
253
254
254
255
255
255
255
255
255
255
255
255
255
255
255
255
255
255
255
255
255
255
255
255
255
255
255
255
255
255
255
255
255
255
255
255
255
255
255
255
255
255
255
255
255
255
255
255
255
255
255
255
255
255
255
255
255
255
255
255
255
255
255
255
255
255
255
255
255
255
255
255
255
255
255
255
255
255
255
255
255
255
255
255
255
255
255
255
255
255
255
255
255
255
255
255
255
255
255
255
255
255
255
255
255
255
255
255
255
255
255
255
255
255
255
255
255
255
255
255
255
255
255
255
255
255
255
255
255
255
255
255
255
255
255
255
255
255
255
255
255
255
255
255
255
255
255
255
255
255
255
255
255
255
255
255
255
255
255
255
255
255
255
255
255
255
255
255
255
255
255
255
255
255
255
255
255
255
255
255
255
255
255
255
255
255
255
255
255
255
255
255
255
255
255
255
255
255
255
255
255
255
255
255
255
255
255
255
255
255
255
255
255
255
255
255
255
255
255
255
255
255
255
255
255
255
255
255
255
255
255
255
255
255
255
255
255
255
255
255
255
255
255
255
255
255
255
255
255
255
255
255
255
255
255
255
255
255
255
255
255
255
255
255
255
255
255
255
255
255
255
255
255
255
255
255
255
255
255
255
255
255
255
255
255
255
255
255
255
255
255
255
255
255
255
255
255
255
255
255
255
255
255
255
255
255
255
255
255
255
255
255
255
255
255
255
255
255
255
255
255
255
255
255
255
255
255
255
255
255
255
255
255
255
255
255
255
255
255
255
255
255
255
255
255
255
255
255
255
255
255
255
255
255
255
255
255
255
255
255
255
255
255
255
255
255
255
255
255
255
255
255
255
255
255
255
255
255
255
255
255
255
255
255
255
255
255
255
255
255
255
255
255
255
255
255
255
255
255
255
255
255
254
254
255
255
255
254
253
252
254
240
241
255
255
255
248
248
220
213
201
188
175
167
161
159
177
181
191
201
208
218
239
255
255
255
255
253
248
251
254
253
252
253
253
253
254
255
255
255
255
255
255
255
255
255
255
255
255
255
255
255
255
255
255
255
255
255
255
255
255
255
255
255
255
255
255
255
255
255
255
255
255
255
255
255
255
255
255
255
255
255
255
255
255
255
255
255
255
255
255
255
255
255
255
255
255
255
255
255
255
255
255
255
255
255
255
255
255
255
255
255
255
255
255
255
255
255
255
255
255
255
255
255
255
255
255
255
255
255
255
255
255
255
255
255
255
255
255
255
255
255
255
255
255
255
255
255
255
255
255
255
255
255
255
255
255
255
255
255
255
255
255
255
255
255
255
255
255
255
255
255
255
255
255
255
255
255
255
255
255
255
255
255
255
255
255
255
255
255
255
255
255
255
255
255
255
255
255
255
255
255
255
255
255
255
255
255
255
255
255
255
255
255
255
255
255
255
255
255
255
255
255
255
255
255
255
255
255
255
255
255
255
255
255
255
255
255
255
255
255
255
255
255
255
255
255
255
255
255
255
255
255
255
255
255
255
255
255
255
255
255
255
255
255
255
255
255
255
255
255
255
255
255
255
255
255
255
255
255
255
255
255
255
255
255
255
255
255
255
255
255
255
255
255
255
255
255
255
255
255
255
255
255
255
255
255
255
255
255
255
255
255
255
255
255
255
255
255
255
255
255
255
255
255
255
255
255
255
255
255
255
255
255
255
255
255
255
255
255
255
255
255
255
255
255
255
255
255
255
255
255
255
255
255
255
255
255
255
255
255
255
255
255
255
255
255
255
255
255
255
255
255
255
255
255
255
255
255
255
255
255
255
255
255
255
255
255
255
255
255
255
255
255
255
255
255
255
255
255
255
255
255
255
255
255
255
255
255
255
255
255
255
255
255
255
255
255
255
255
255
255
255
255
255
255
255
255
255
255
255
255
255
255
255
255
255
254
254
255
255
255
254
253
252
247
255
255
249
248
254
255
250
248
249
251
252
252
249
246
244
254
254
255
255
250
245
245
249
239
246
253
255
255
255
255
250
254
254
254
254
254
255
255
255
255
255
255
255
255
255
255
255
255
255
255
255
255
255
255
255
255
255
255
255
255
255
255
255
255
255
255
255
255
255
255
255
255
255
255
255
255
255
255
255
255
255
255
255
255
255
255
255
255
255
255
255
255
255
255
255
255
255
255
255
255
255
255
255
255
255
255
255
255
255
255
255
255
255
255
255
255
255
255
255
255
255
255
255
255
255
255
255
255
255
255
255
255
255
255
255
255
255
255
255
255
255
255
255
255
255
255
255
255
255
255
255
255
255
255
255
255
255
255
255
255
255
255
255
255
255
255
255
255
255
255
255
255
255
255
255
255
255
255
255
255
255
255
255
255
255
255
255
255
255
255
255
255
255
255
255
255
255
255
255
255
255
255
255
255
255
255
255
255
255
255
255
255
255
255
255
255
255
255
255
255
255
255
255
255
255
255
255
255
255
255
255
255
255
255
255
255
255
255
255
255
255
255
255
255
255
255
255
255
255
255
255
255
255
255
255
255
255
255
255
255
255
255
255
255
255
255
255
255
255
255
255
255
255
255
255
255
255
255
255
255
255
255
255
255
255
255
255
255
255
255
255
255
255
255
255
255
255
255
255
255
255
255
255
255
255
255
255
255
255
255
255
255
255
255
255
255
255
255
255
255
255
255
255
255
255
255
255
255
255
255
255
255
255
255
255
255
255
255
255
255
255
255
255
255
255
255
255
255
255
255
255
255
255
255
255
255
255
255
255
255
255
255
255
255
255
255
255
255
255
255
255
255
255
255
255
255
255
255
255
255
255
255
255
255
255
255
255
255
255
255
255
255
255
255
255
255
255
255
255
255
255
255
255
255
255
255
255
255
255
255
255
255
255
255
255
255
255
255
255
255
255
255
255
255
255
255
255
255
255
255
255
255
255
255
255
255
254
254
255
255
255
254
253
252
248
255
255
248
246
254
255
249
252
252
252
252
252
251
251
251
253
251
250
250
252
252
252
251
255
255
249
246
247
251
253
252
255
255
255
255
255
255
255
255
255
255
255
255
255
255
255
255
255
255
255
255
255
255
255
255
255
255
255
255
255
255
255
255
255
255
255
255
255
255
255
255
255
255
255
255
255
255
255
255
255
255
255
255
255
255
255
255
255
255
255
255
255
255
255
255
255
255
255
255
255
255
255
255
255
255
255
255
255
255
255
255
255
255
255
255
255
255
255
255
255
255
255
255
255
255
255
255
255
255
255
255
255
255
255
255
255
255
255
255
255
255
255
255
255
255
255
255
255
255
255
255
255
255
255
255
255
255
255
255
255
255
255
255
255
255
255
255
255
255
255
255
255
255
255
255
255
255
255
255
255
255
255
255
255
255
255
255
255
255
255
255
255
255
255
255
255
255
255
255
255
255
255
255
255
255
255
255
255
255
255
255
255
255
255
255
255
255
255
255
255
255
255
255
255
255
255
255
255
255
255
255
255
255
255
255
255
255
255
255
255
255
255
255
255
255
255
255
255
255
255
255
255
255
255
255
255
255
255
255
255
255
255
255
255
255
255
255
255
255
255
255
255
255
255
255
255
255
255
255
255
255
255
255
255
255
255
255
255
255
255
255
255
255
255
255
255
255
255
255
255
255
255
255
255
255
255
255
255
255
255
255
255
255
255
255
255
255
255
255
255
255
255
255
255
255
255
255
255
255
255
255
255
255
255
255
255
255
255
255
255
255
255
255
255
255
255
255
255
255
255
255
255
255
255
255
255
255
255
255
255
255
255
255
255
255
255
255
255
255
255
255
255
255
255
255
255
255
255
255
255
255
255
255
255
255
255
255
255
255
255
255
255
255
255
255
255
255
255
255
255
255
255
255
255
255
255
255
255
255
255
255
255
255
255
255
255
255
255
255
255
255
255
255
255
255
255
255
255
255
255
255
255
255
255
255
255
254
254
255
255
255
254
253
252
255
254
250
255
255
255
252
251
246
246
246
247
250
253
253
253
255
255
255
252
251
253
253
252
253
251
251
254
255
255
255
255
255
255
255
255
255
255
255
255
255
255
255
255
255
255
255
255
255
255
255
255
255
255
255
255
255
255
255
255
255
255
255
255
255
255
255
255
255
255
255
255
255
255
255
255
255
255
255
255
255
255
255
255
255
255
255
255
255
255
255
255
255
255
255
255
255
255
255
255
255
255
255
255
255
255
255
255
255
255
255
255
255
255
255
255
255
255
255
255
255
255
255
255
255
255
255
255
255
255
255
255
255
255
255
255
255
255
255
255
255
255
255
255
255
255
255
255
255
255
255
255
255
255
255
255
255
255
255
255
255
255
255
255
255
255
255
255
255
255
255
255
255
255
255
255
255
255
255
255
255
255
255
255
255
255
255
255
255
255
255
255
255
255
255
255
255
255
255
255
255
255
255
255
255
255
255
255
255
255
255
255
255
255
255
255
255
255
255
255
255
255
255
255
255
255
255
255
255
255
255
255
255
255
255
255
255
255
255
255
255
255
255
255
255
255
255
255
255
255
255
255
255
255
255
255
255
255
255
255
255
255
255
255
255
255
255
255
255
255
255
255
255
255
255
255
255
255
255
255
255
255
255
255
255
255
255
255
255
255
255
255
255
255
255
255
255
255
255
255
255
255
255
255
255
255
255
255
255
255
255
255
255
255
255
255
255
255
255
255
255
255
255
255
255
255
255
255
255
255
255
255
255
255
255
255
255
255
255
255
255
255
255
255
255
255
255
255
255
255
255
255
255
255
255
255
255
255
255
255
255
255
255
255
255
255
255
255
255
255
255
255
255
255
255
255
255
255
255
255
255
255
255
255
255
255
255
255
255
255
255
255
255
255
255
255
255
255
255
255
255
255
255
255
255
255
255
255
255
255
255
255
255
255
255
255
255
255
255
255
255
255
255
255
255
255
255
255
255
255
255
255
255
255
255
255
255
254
254
255
255
255
254
253
252
246
255
255
252
251
255
255
255
254
254
254
254
254
253
252
251
252
254
254
254
254
254
254
254
255
255
255
255
254
251
253
255
255
255
255
255
255
255
255
255
255
255
255
255
255
255
255
255
255
255
255
255
255
255
255
255
255
255
255
255
255
255
255
255
255
255
255
255
255
255
255
255
255
255
255
255
255
255
255
255
255
255
255
255
255
255
255
255
255
255
255
255
255
255
255
255
255
255
255
255
255
255
255
255
255
255
255
255
255
255
255
255
255
255
255
255
255
255
255
255
255
255
255
255
255
255
255
255
255
255
255
255
255
255
255
255
255
255
255
255
255
255
255
255
255
255
255
255
255
255
255
255
255
255
255
255
255
255
255
255
255
255
255
255
255
255
255
255
255
255
255
255
255
255
255
255
255
255
255
255
255
255
255
255
255
255
255
255
255
255
255
255
255
255
255
255
255
255
255
255
255
255
255
255
255
255
255
255
255
255
255
255
255
255
255
255
255
255
255
255
255
255
255
255
255
255
255
255
255
255
255
255
255
255
255
255
255
255
255
255
255
255
255
255
255
255
255
255
255
255
255
255
255
255
255
255
255
255
255
255
255
255
255
255
255
255
255
255
255
255
255
255
255
255
255
255
255
255
255
255
255
255
255
255
255
255
255
255
255
255
255
255
255
255
255
255
255
255
255
255
255
255
255
255
255
255
255
255
255
255
255
255
255
255
255
255
255
255
255
255
255
255
255
255
255
255
255
255
255
255
255
255
255
255
255
255
255
255
255
255
255
255
255
255
255
255
255
255
255
255
255
255
255
255
255
255
255
255
255
255
255
255
255
255
255
255
255
255
255
255
255
255
255
255
255
255
255
255
255
255
255
255
255
255
255
255
255
255
255
255
255
255
255
255
255
255
255
255
255
255
255
255
255
255
255
255
255
255
255
255
255
255
255
255
255
255
255
255
255
255
255
255
255
255
255
255
255
255
255
255
255
255
255
255
255
255
255
255
255
255
255
255
255
255
255
255
255
255
255
255
255
255
255
255
255
255
255
255
255
255
255
255
255
255
255
255
255
255
255
255
255
255
255
255
255
255
255
255
255
255
255
255
255
255
255
255
255
255
255
255
255
255
255
255
255
255
255
255
255
255
255
255
255
255
255
255
255
255
255
255
255
255
255
255
